%
(Header)
(Generated by gcodetools from Inkscape.)
(Using default header. To add your own header create file "header" in the output dir.)
M3
(Header end.)
G21 (All units in mm)

(Start cutting path id: path136)
(Change tool to Default tool)

G00 Z3.000000
G00 X97.193824 Y148.672674

G00 Z4.875000 (Fast pre-penetrate)
G01 Z-0.125000 F400.0(Penetrate)
G02 X94.786409 Y145.142449 Z-0.125000 I-15.227813 J7.798541 F800.000000
G02 X91.628864 Y142.352574 Z-0.125000 I-12.822719 J11.330817
G02 X87.878439 Y140.432160 Z-0.125000 I-9.396210 J13.727738
G02 X83.823594 Y139.521164 Z-0.125000 I-5.644779 J15.645363
G02 X79.669881 Y139.656598 Z-0.125000 I-1.552056 J16.163141
G02 X75.724774 Y140.825324 Z-0.125000 I2.600647 J16.021487
G02 X72.204024 Y142.954679 Z-0.125000 I6.457100 J14.651736
G02 X69.350944 Y145.899364 Z-0.125000 I9.976374 J12.520529
G02 X67.339202 Y149.472067 Z-0.125000 I12.835133 J9.580038
G02 X66.298264 Y153.454674 Z-0.125000 I14.850701 J6.008883
G02 X66.298952 Y157.571064 Z-0.125000 I16.121322 J2.055500
G02 X67.349684 Y161.595114 Z-0.125000 I16.126542 J-2.061645
G02 X69.375656 Y165.227237 Z-0.125000 I15.448414 J-6.235918
G02 X72.283234 Y168.281324 Z-0.125000 I13.425147 J-9.870029
G02 X75.856467 Y170.520353 Z-0.125000 I10.817121 J-13.292131
G02 X79.926424 Y171.830004 Z-0.125000 I7.242265 J-15.527681
G02 X84.193035 Y172.104415 Z-0.125000 I3.252362 J-17.262161
G02 X88.443254 Y171.326034 Z-0.125000 I-1.013790 J-17.528623
G02 X92.378152 Y169.540953 Z-0.125000 I-5.348946 J-17.020246
G02 X95.783764 Y166.846564 Z-0.125000 I-9.280575 J-15.229801
G02 X98.438736 Y163.410121 Z-0.125000 I-12.731077 J-12.579769
G02 X100.185944 Y159.442074 Z-0.125000 I-15.386946 J-9.143859
G02 X100.922704 Y155.169445 Z-0.125000 I-16.969396 J-5.125992
G02 X100.607084 Y150.879244 Z-0.125000 I-17.712286 J-0.853659
G02 X99.257216 Y146.794706 Z-0.125000 I-17.039976 J3.366088
G02 X96.979134 Y143.208344 Z-0.125000 I-15.695518 J7.453196
G02 X93.888871 Y140.292502 Z-0.125000 I-13.058778 J10.744451
G02 X90.225324 Y138.261304 Z-0.125000 I-9.968857 J13.660761
G02 X86.171248 Y137.206729 Z-0.125000 I-6.137343 J15.273852
G02 X82.034114 Y137.203154 Z-0.125000 I-2.082673 J16.323774
G02 X78.029480 Y138.241868 Z-0.125000 I2.013505 J16.001864
G02 X74.445844 Y140.246824 Z-0.125000 I6.016362 J14.958733
G02 X71.487828 Y143.095079 Z-0.125000 I9.523812 J12.850953
G02 X69.353144 Y146.601004 Z-0.125000 I12.482193 J10.002991
G02 X68.177739 Y150.533786 Z-0.125000 I14.709908 J6.538444
G02 X68.037594 Y154.663834 Z-0.125000 I15.891277 J2.606640
G02 X68.943370 Y158.695774 Z-0.125000 I16.337318 J-1.552470
G02 X70.855904 Y162.415174 Z-0.125000 I15.437129 J-5.586432
G02 X73.635739 Y165.539938 Z-0.125000 I13.886725 J-9.554958
G02 X77.152614 Y167.911154 Z-0.125000 I11.107327 J-12.680221
G02 X81.145172 Y169.343003 Z-0.125000 I7.799937 J-15.466960
G02 X85.420554 Y169.760094 Z-0.125000 I3.806049 J-16.892904
G02 X89.668716 Y169.123284 Z-0.125000 I-0.479252 J-17.685246
G02 X93.669854 Y167.463284 Z-0.125000 I-4.725898 J-17.042969
G02 X97.150904 Y164.885145 Z-0.125000 I-8.823302 J-15.552541
G02 X99.915154 Y161.537024 Z-0.125000 I-12.301653 J-12.971556
G02 X101.789813 Y157.620824 Z-0.125000 I-15.036358 J-9.604598
G02 X102.661653 Y153.386284 Z-0.125000 I-16.914048 J-5.689417
G02 X102.481894 Y149.066653 Z-0.125000 I-17.530317 J-1.434040
G02 X101.271133 Y144.960664 Z-0.125000 I-17.356951 J2.886654
G02 X99.093814 Y141.274935 Z-0.125000 I-15.767155 J6.828358
G02 X96.118184 Y138.277064 Z-0.125000 I-13.593436 J10.516872
G02 X92.493663 Y136.108036 Z-0.125000 I-10.329064 J13.147362
G02 X88.498474 Y134.925934 Z-0.125000 I-6.703826 J15.314750
G02 X84.334547 Y134.781528 Z-0.125000 I-2.642660 J16.095460
G02 X80.311584 Y135.681804 Z-0.125000 I1.520731 J16.234150
G02 X76.646712 Y137.569535 Z-0.125000 I5.459168 J15.099907
G02 X73.595884 Y140.313714 Z-0.125000 I9.122234 J13.209561
G02 X71.341334 Y143.742263 Z-0.125000 I12.148108 J10.443920
G02 X70.029474 Y147.641694 Z-0.125000 I14.405354 J7.016684
G02 X69.747551 Y151.746213 Z-0.125000 I15.904179 J3.154334
G02 X70.519314 Y155.825744 Z-0.125000 I16.192820 J-0.950579
G02 X72.290665 Y159.580806 Z-0.125000 I15.771498 J-5.144460
G02 X74.979214 Y162.816264 Z-0.125000 I14.003612 J-8.901725
G02 X78.386510 Y165.283366 Z-0.125000 I11.627864 J-12.472712
G02 X82.350874 Y166.855894 Z-0.125000 I8.219185 J-14.937299
G02 X86.579733 Y167.408651 Z-0.125000 I4.363942 J-16.933496
G02 X90.863044 Y166.909794 Z-0.125000 I0.135026 J-17.478860
G02 X94.897120 Y165.386068 Z-0.125000 I-4.221319 J-17.277961
G02 X98.465164 Y162.918924 Z-0.125000 I-8.252332 J-15.748393
G02 X101.331816 Y159.663157 Z-0.125000 I-11.887782 J-13.356912
G02 X103.329413 Y155.814634 Z-0.125000 I-14.753939 J-10.100805
G02 X104.338106 Y151.597490 Z-0.125000 I-16.630116 J-6.206940
G02 X104.298243 Y147.290534 Z-0.125000 I-17.643813 J-1.990361
G02 X103.212893 Y143.122349 Z-0.125000 I-17.279256 J2.273930
G02 X101.167743 Y139.387894 Z-0.125000 I-16.199651 J6.444400
G02 X98.268304 Y136.269819 Z-0.125000 I-13.793961 J9.919638
G02 X94.737614 Y133.995824 Z-0.125000 I-10.895664 J13.039080
G02 X90.752503 Y132.670688 Z-0.125000 I-7.169877 J14.907306
G02 X86.615354 Y132.388774 Z-0.125000 I-3.184040 J16.228743
G02 X82.540176 Y133.155930 Z-0.125000 I0.933101 J16.164063
G02 X78.822674 Y134.914534 Z-0.125000 I5.006786 J15.392316
G02 X75.671779 Y137.557347 Z-0.125000 I8.636979 J13.497177
G02 X73.300534 Y140.909044 Z-0.125000 I11.787507 J10.854025
G02 X71.856961 Y144.752589 Z-0.125000 I14.212350 J7.530790
G02 X71.433904 Y148.858984 Z-0.125000 I15.661068 J3.688457
G02 X72.060960 Y152.939205 Z-0.125000 I16.353459 J-0.424937
G02 X73.712704 Y156.772304 Z-0.125000 I15.732149 J-4.506804
G02 X76.269910 Y160.071009 Z-0.125000 I14.436002 J-8.550463
G02 X79.611824 Y162.665944 Z-0.125000 I11.880047 J-11.850416
G02 X83.490894 Y164.355534 Z-0.125000 I8.771113 J-14.839583
G02 X87.719734 Y165.051344 Z-0.125000 I4.890508 J-16.523987
G02 X91.990486 Y164.693960 Z-0.125000 I0.676713 J-17.609747
G02 X96.084024 Y163.298904 Z-0.125000 I-3.592481 J-17.244885
G02 X99.717922 Y160.954198 Z-0.125000 I-7.784486 J-16.052952
G02 X102.689433 Y157.792134 Z-0.125000 I-11.415677 J-13.704997
G02 X104.809609 Y154.006215 Z-0.125000 I-14.391258 J-10.545963
G02 X105.951293 Y149.833754 Z-0.125000 I-16.513663 J-6.760957
G02 X106.048895 Y145.509002 Z-0.125000 I-17.440583 J-2.557081
G02 X105.103483 Y141.326744 Z-0.125000 I-17.546937 J1.768553
G02 X103.166191 Y137.501517 Z-0.125000 I-16.239241 J5.821202
G02 X100.385994 Y134.308424 Z-0.125000 I-14.305736 J9.648982
G02 X96.903839 Y131.900045 Z-0.125000 I-11.221990 J12.503790
G02 X92.986184 Y130.451654 Z-0.125000 I-7.739463 J14.911452
G02 X88.830917 Y130.027621 Z-0.125000 I-3.727534 J15.956026
G02 X84.748074 Y130.655254 Z-0.125000 I0.427607 J16.375212
G02 X80.955589 Y132.292517 Z-0.125000 I4.434725 J15.483411
G02 X77.720854 Y134.823944 Z-0.125000 I8.225404 J13.843108
G02 X75.233663 Y138.092806 Z-0.125000 I11.410108 J11.262298
G02 X73.657194 Y141.891674 Z-0.125000 I13.898920 J7.994369
G02 X73.094117 Y145.965936 Z-0.125000 I15.620068 J4.234786
G02 X73.584094 Y150.082634 Z-0.125000 I16.189646 J0.160588
G02 X75.093359 Y153.943885 Z-0.125000 I16.024500 J-4.037978
G02 X77.551474 Y157.346004 Z-0.125000 I14.519149 J-7.901360
G02 X80.778296 Y160.030050 Z-0.125000 I12.381990 J-11.604212
G02 X84.619924 Y161.858124 Z-0.125000 I9.154385 J-14.287036
G02 X88.792874 Y162.686403 Z-0.125000 I5.449855 J-16.530904
G02 X93.090724 Y162.468934 Z-0.125000 I1.276406 J-17.352397
G02 X97.206629 Y161.212782 Z-0.125000 I-3.078512 J-17.458204
G02 X100.921744 Y158.983574 Z-0.125000 I-7.191406 J-16.195270
G02 X103.987749 Y155.922352 Z-0.125000 I-10.990877 J-14.074058
G02 X106.227433 Y152.210094 Z-0.125000 I-14.055401 J-11.011676
G02 X107.503827 Y148.066674 Z-0.125000 I-16.214588 J-7.263266
G02 X107.740433 Y143.761604 Z-0.125000 I-17.494965 J-3.120556
G02 X106.924684 Y139.527895 Z-0.125000 I-17.441202 J1.165120
G02 X105.121933 Y135.661354 Z-0.125000 I-16.631437 J5.400773
G02 X102.426505 Y132.354546 Z-0.125000 I-14.472013 J9.044407
G02 X99.044584 Y129.847334 Z-0.125000 I-11.778436 J12.353157
G02 X95.146494 Y128.257150 Z-0.125000 I-8.177149 J14.472136
G02 X91.027804 Y127.697804 Z-0.125000 I-4.278319 J16.059539
G02 X86.900489 Y128.189536 Z-0.125000 I-0.156260 J16.255454
G02 X83.065794 Y129.693864 Z-0.125000 I3.970086 J15.759872
G02 X79.736205 Y132.119080 Z-0.125000 I7.712065 J14.086138
G02 X77.139284 Y135.301644 Z-0.125000 I11.040384 J11.659580
G02 X75.434116 Y139.038644 Z-0.125000 I13.655821 J8.488587
G02 X74.730554 Y143.103024 Z-0.125000 I15.365052 J4.752844
G02 X75.076381 Y147.213310 Z-0.125000 I16.299055 J0.698340
G02 X76.460574 Y151.142824 Z-0.125000 I15.959619 J-3.413314
G02 X78.784301 Y154.600729 Z-0.125000 I14.919258 J-7.516075
G02 X81.936914 Y157.407514 Z-0.125000 I12.597328 J-10.975546
G02 X85.685881 Y159.347080 Z-0.125000 I9.697291 J-14.150843
G02 X89.849844 Y160.318204 Z-0.125000 I5.947035 J-16.086921
G02 X94.124824 Y160.241396 Z-0.125000 I1.824569 J-17.455034
G02 X98.293034 Y159.117194 Z-0.125000 I-2.449383 J-17.370934
G02 X102.064153 Y157.015727 Z-0.125000 I-6.713156 J-16.481282
G02 X105.230223 Y154.053494 Z-0.125000 I-10.480916 J-14.375208
G02 X107.586823 Y150.414097 Z-0.125000 I-13.680887 J-11.441391
G02 X108.993843 Y146.321854 Z-0.125000 I-16.038332 J-7.802405
G02 X109.368641 Y142.010735 Z-0.125000 I-17.273009 J-3.673523
G02 X108.693233 Y137.770254 Z-0.125000 I-17.653895 J0.637816
G02 X107.004842 Y133.822166 Z-0.125000 I-16.640470 J4.781195
G02 X104.432743 Y130.447454 Z-0.125000 I-14.956683 J8.731972
G02 X101.108741 Y127.810077 Z-0.125000 I-12.070667 J11.799812
G02 X97.286164 Y126.101364 Z-0.125000 I-8.746780 J14.437380
G02 X93.158336 Y125.399188 Z-0.125000 I-4.802123 J15.745800
G02 X89.033854 Y125.751134 Z-0.125000 I-0.674113 J16.443534
G02 X85.130849 Y127.130233 Z-0.125000 I3.388092 J15.801206
G02 X81.726804 Y129.437594 Z-0.125000 I7.289312 J14.418576
G02 X79.018170 Y132.531913 Z-0.125000 I10.623735 J12.032231
G02 X77.184534 Y136.213294 Z-0.125000 I13.332758 J8.938174
G02 X76.342988 Y140.239042 Z-0.125000 I15.270896 J5.293075
G02 X76.549544 Y144.374434 Z-0.125000 I16.118181 J1.267779
G02 X77.790383 Y148.324658 Z-0.125000 I16.206985 J-2.920917
G02 X80.007684 Y151.878024 Z-0.125000 I14.970654 J-6.873211
G02 X83.040273 Y154.766954 Z-0.125000 I13.077175 J-10.691308
G02 X86.742544 Y156.842114 Z-0.125000 I10.044517 J-13.580146
G02 X90.841714 Y157.941893 Z-0.125000 I6.505454 J-16.058328
G02 X95.135414 Y158.006504 Z-0.125000 I2.405439 J-17.152079
G02 X99.315436 Y157.022992 Z-0.125000 I-1.925867 J-17.559638
G02 X103.161603 Y155.041344 Z-0.125000 I-6.103399 J-16.569365
G02 X106.413741 Y152.187682 Z-0.125000 I-10.044891 J-14.727485
G02 X108.886093 Y148.627844 Z-0.125000 I-13.294953 J-11.871970
G02 X110.424801 Y144.576012 Z-0.125000 I-15.724229 J-8.289457
G02 X110.937353 Y140.291524 Z-0.125000 I-17.266398 J-4.238475
G02 X110.395111 Y136.010657 Z-0.125000 I-17.519263 J0.044328
G02 X108.843133 Y132.028674 Z-0.125000 I-16.990616 J4.328659
G02 X106.363959 Y128.547474 Z-0.125000 I-15.089481 J8.122752
G02 X103.146053 Y125.817644 Z-0.125000 I-12.612409 J11.605887
G02 X99.352623 Y123.969102 Z-0.125000 I-9.154424 J13.969419
G02 X95.270784 Y123.134444 Z-0.125000 I-5.360317 J15.815965
G02 X91.109954 Y123.348166 Z-0.125000 I-1.249815 J16.277311
G02 X87.175244 Y124.591364 Z-0.125000 I2.910170 J16.058924
G02 X83.681939 Y126.787809 Z-0.125000 I6.752168 J14.615052
G02 X80.871194 Y129.787074 Z-0.125000 I10.243847 J12.416637
G02 X78.912139 Y133.400664 Z-0.125000 I13.042062 J9.408393
G02 X77.931704 Y137.404874 Z-0.125000 I15.003752 J5.795821
G02 X77.995007 Y141.526884 Z-0.125000 I16.175700 J1.813077
G02 X79.106054 Y145.535094 Z-0.125000 I16.118245 J-2.309771
G02 X81.186423 Y149.136771 Z-0.125000 I15.334461 J-6.455695
G02 X84.136214 Y152.142594 Z-0.125000 I13.257076 J-10.059636
G02 X87.739054 Y154.323318 Z-0.125000 I10.575200 J-13.405067
G02 X91.820064 Y155.565114 Z-0.125000 I6.971178 J-15.583149
G02 X96.080914 Y155.768805 Z-0.125000 I2.958675 J-17.223688
G02 X100.305704 Y154.920174 Z-0.125000 I-1.301688 J-17.420856
G02 X104.197787 Y153.070725 Z-0.125000 I-5.614021 J-16.834543
G02 X107.544863 Y150.321184 Z-0.125000 I-9.503032 J-14.980251
G02 X110.127751 Y146.843910 Z-0.125000 I-12.907913 J-12.285789
G02 X111.794383 Y142.849684 Z-0.125000 I-15.490845 J-8.808540
G02 X112.444923 Y138.570856 Z-0.125000 I-17.026214 J-4.777483
G02 X112.043013 Y134.290504 Z-0.125000 I-17.681698 J-0.498794
G02 X110.611252 Y130.236707 Z-0.125000 I-16.969009 J3.713546
G02 X108.259003 Y126.694804 Z-0.125000 I-15.542027 J7.769732
G02 X105.108227 Y123.839812 Z-0.125000 I-12.870730 J11.038071
G02 X101.397853 Y121.877894 Z-0.125000 I-9.720382 J13.893675
G02 X97.316129 Y120.900296 Z-0.125000 I-5.861684 J15.464117
G02 X93.168404 Y120.974724 Z-0.125000 I-1.779561 J16.438026
G02 X89.172478 Y122.089097 Z-0.125000 I2.322939 J16.051100
G02 X85.614424 Y124.162084 Z-0.125000 I6.317181 J14.932746
G02 X82.696529 Y127.067742 Z-0.125000 I9.791025 J12.750178
G02 X80.614264 Y130.615254 Z-0.125000 I12.709109 J9.844666
G02 X79.498144 Y134.574423 Z-0.125000 I14.857366 J6.325311
G02 X79.420914 Y138.709984 Z-0.125000 I15.978574 J2.366895
G02 X80.388130 Y142.731580 Z-0.125000 I16.318658 J-1.797621
G02 X82.355294 Y146.420104 Z-0.125000 I15.356708 J-5.821213
G02 X85.180695 Y149.500980 Z-0.125000 I13.710885 J-9.737947
G02 X88.727614 Y151.813654 Z-0.125000 I10.885941 J-12.819360
G02 X92.735425 Y153.179759 Z-0.125000 I7.526186 J-15.517941
G02 X97.006324 Y153.525864 Z-0.125000 I3.517307 J-16.878921
G02 X101.232458 Y152.818875 Z-0.125000 I-0.769167 J-17.582499
G02 X105.193043 Y151.093314 Z-0.125000 I-4.993418 J-16.869147
G02 X108.617291 Y148.459306 Z-0.125000 I-9.054939 J-15.314340
G02 X111.311843 Y145.067394 Z-0.125000 I-12.476639 J-12.677743
G02 X113.106293 Y141.124604 Z-0.125000 I-15.162601 J-9.280573
G02 X113.893043 Y136.879284 Z-0.125000 I-16.959268 J-5.338482
G02 X113.626790 Y132.569868 Z-0.125000 I-17.530560 J-1.079826
G02 X112.333013 Y128.489574 Z-0.125000 I-17.269661 J3.230591
G02 X110.081377 Y124.849111 Z-0.125000 I-15.641778 J7.157930
G02 X107.042003 Y121.908254 Z-0.125000 I-13.393290 J10.800932
G02 X103.370409 Y119.809216 Z-0.125000 I-10.096860 J13.400560
G02 X99.343644 Y118.702554 Z-0.125000 I-6.424930 J15.498785
G02 X95.168084 Y118.636899 Z-0.125000 I-2.343434 J16.226430
G02 X91.150924 Y119.613264 Z-0.125000 I1.831772 J16.288944
G02 X87.509618 Y121.570779 Z-0.125000 I5.761013 J15.081925
G02 X84.497794 Y124.373384 Z-0.125000 I9.400576 J13.121978
G02 X82.293681 Y127.847227 Z-0.125000 I12.372784 J10.286549
G02 X81.041204 Y131.773424 Z-0.125000 I14.578732 J6.813564
G02 X80.821899 Y135.888723 Z-0.125000 I15.983443 J2.915255
G02 X81.655404 Y139.957614 Z-0.125000 I16.208520 J-1.200471
G02 X83.483572 Y143.686998 Z-0.125000 I15.681572 J-5.374426
G02 X86.217944 Y146.878194 Z-0.125000 I13.856461 J-9.105820
G02 X89.659233 Y149.290201 Z-0.125000 I11.401157 J-12.605501
G02 X93.639564 Y150.796814 Z-0.125000 I7.959098 J-15.016055
G02 X97.867978 Y151.279718 Z-0.125000 I4.073847 J-16.917570
G02 X102.130993 Y150.710114 Z-0.125000 I-0.154507 J-17.393718
G02 X106.127257 Y149.120360 Z-0.125000 I-4.493030 J-17.112114
G02 X109.640933 Y146.595454 Z-0.125000 I-8.486269 J-15.516829
G02 X112.438976 Y143.295161 Z-0.125000 I-12.077264 J-13.075564
G02 X114.358343 Y139.416344 Z-0.125000 I-14.874160 J-9.774518
G02 X115.281967 Y135.188319 Z-0.125000 I-16.701463 J-5.863380
G02 X115.155823 Y130.886634 Z-0.125000 I-17.629115 J-1.635729
G02 X113.987260 Y126.744752 Z-0.125000 I-17.222273 J2.623192
G02 X111.865653 Y123.050854 Z-0.125000 I-16.058817 J6.767226
G02 X108.902348 Y119.990573 Z-0.125000 I-13.617846 J10.221475
G02 X105.320833 Y117.783674 Z-0.125000 I-10.655658 J13.283148
G02 X101.303643 Y116.534633 Z-0.125000 I-6.901448 J15.111964
G02 X97.151164 Y116.330914 Z-0.125000 I-2.883762 J16.358192
G02 X93.080312 Y117.175189 Z-0.125000 I1.243344 J16.231432
G02 X89.384214 Y119.004484 Z-0.125000 I5.312866 J15.383303
G02 X86.270164 Y121.708230 Z-0.125000 I8.916054 J13.414286
G02 X83.948864 Y125.106084 Z-0.125000 I12.029452 J10.709960
G02 X82.563270 Y128.980873 Z-0.125000 I14.381978 J7.328016
G02 X82.203094 Y133.098124 Z-0.125000 I15.771330 J3.454050
G02 X82.892668 Y137.173148 Z-0.125000 I16.360156 J-0.672604
G02 X84.601484 Y140.980184 Z-0.125000 I15.676056 J-4.749287
G02 X87.207635 Y144.239216 Z-0.125000 I14.281142 J-8.748656
G02 X90.583904 Y146.778804 Z-0.125000 I11.676322 J-12.009057
G02 X94.483153 Y148.404903 Z-0.125000 I8.507698 J-14.912661
G02 X98.712674 Y149.030654 Z-0.125000 I4.607351 J-16.534823
G02 X102.966737 Y148.602848 Z-0.125000 I0.385751 J-17.529018
G02 X107.024553 Y147.140794 Z-0.125000 I-3.866544 J-17.093395
G02 X110.606134 Y144.737555 Z-0.125000 I-8.026165 J-15.831968
G02 X113.511403 Y141.528344 Z-0.125000 I-11.605031 J-13.425587
G02 X115.553899 Y137.711566 Z-0.125000 I-14.531696 J-10.231332
G02 X116.611853 Y133.523864 Z-0.125000 I-16.575163 J-6.414931
G02 X116.623046 Y129.204597 Z-0.125000 I-17.456158 J-2.204885
G02 X115.593583 Y125.043614 Z-0.125000 I-17.472490 J2.115005
G02 X113.579680 Y121.259689 Z-0.125000 I-16.127142 J6.155396
G02 X110.732613 Y118.120334 Z-0.125000 I-14.117006 J9.941975
G02 X107.199432 Y115.779776 Z-0.125000 I-11.000064 J12.768077
G02 X103.245733 Y114.405614 Z-0.125000 I-7.466827 J15.108522
G02 X99.074272 Y114.060470 Z-0.125000 I-3.432463 J16.104221
G02 X94.992584 Y114.765484 Z-0.125000 I0.738820 J16.445403
G02 X91.219650 Y116.474965 Z-0.125000 I4.742086 J15.484379
G02 X88.020344 Y119.068404 Z-0.125000 I8.513559 J13.772534
G02 X85.581100 Y122.386769 Z-0.125000 I11.651241 J11.120219
G02 X84.062544 Y126.217474 Z-0.125000 I14.091733 J7.802545
G02 X83.561789 Y130.307636 Z-0.125000 I15.724171 J4.000831
G02 X84.114544 Y134.418964 Z-0.125000 I16.230846 J-0.089364
G02 X85.682754 Y138.259429 Z-0.125000 I15.959159 J-4.276326
G02 X88.190034 Y141.621504 Z-0.125000 I14.394421 J-8.118750
G02 X91.455028 Y144.253938 Z-0.125000 I12.172265 J-11.756203
G02 X95.317434 Y146.018354 Z-0.125000 I8.906994 J-14.388191
G02 X99.495231 Y146.777980 Z-0.125000 I5.165091 J-16.538654
G02 X103.777923 Y146.489684 Z-0.125000 I0.986971 J-17.292617
G02 X107.861130 Y145.166183 Z-0.125000 I-3.355328 J-17.312127
G02 X111.526243 Y142.876844 Z-0.125000 I-7.435943 J-15.983054
G02 X114.527368 Y139.767632 Z-0.125000 I-11.192114 J-13.806041
G02 X116.691433 Y136.021114 Z-0.125000 I-14.191752 J-10.695707
G02 X117.884257 Y131.862172 Z-0.125000 I-16.300539 J-6.925677
G02 X118.034913 Y127.557794 Z-0.125000 I-17.496369 J-2.767210
G02 X117.134939 Y123.345840 Z-0.125000 I-17.398711 J1.515481
G02 X115.253733 Y119.515814 Z-0.125000 I-16.503667 J5.729147
G02 X112.491318 Y116.263521 Z-0.125000 I-14.308067 J9.353602
G02 X109.054723 Y113.820944 Z-0.125000 I-11.547379 J12.607780
G02 X105.120215 Y112.305642 Z-0.125000 I-7.916648 J14.690058
G02 X100.981493 Y111.824344 Z-0.125000 I-3.981669 J16.203441
G02 X96.854043 Y112.394366 Z-0.125000 I0.153630 J16.340574
G02 X93.036424 Y113.971734 Z-0.125000 I4.280437 J15.768181
G02 X89.740219 Y116.461174 Z-0.125000 I8.001274 J14.021216
G02 X87.190484 Y119.694264 Z-0.125000 I11.296573 J11.530851
G02 X85.541683 Y123.467252 Z-0.125000 I13.845775 J8.297380
G02 X84.900644 Y127.547784 Z-0.125000 I15.497370 J4.525208
G02 X85.309740 Y131.658063 Z-0.125000 I16.331260 J0.450050
G02 X86.753134 Y135.566454 Z-0.125000 I15.927845 J-3.661535
G02 X89.128901 Y138.989101 Z-0.125000 I14.786360 J-7.727806
G02 X92.319964 Y141.743984 Z-0.125000 I12.412464 J-11.152134
G02 X96.093919 Y143.622633 Z-0.125000 I9.445989 J-14.245724
G02 X100.263654 Y144.524934 Z-0.125000 I5.671152 J-16.121867
G02 X104.527330 Y144.377817 Z-0.125000 I1.534137 J-17.395882
G02 X108.664753 Y143.185454 Z-0.125000 I-2.728499 J-17.242190
G02 X112.388212 Y141.023118 Z-0.125000 I-6.963313 J-16.277553
G02 X115.491743 Y138.010564 Z-0.125000 I-10.683987 J-14.111539
G02 X117.773499 Y134.336203 Z-0.125000 I-13.834481 J-11.136790
G02 X119.098443 Y130.224354 Z-0.125000 I-16.116433 J-7.462520
G02 X119.387223 Y125.913954 Z-0.125000 I-17.302645 J-3.324082
G02 X118.627063 Y121.690264 Z-0.125000 I-17.595834 J0.986565
G02 X116.860056 Y117.779348 Z-0.125000 I-16.542254 J5.119385
G02 X114.218193 Y114.454894 Z-0.125000 I-14.779109 J9.032662
G02 X110.839387 Y111.882890 Z-0.125000 I-11.859370 J12.074143
G02 X106.976413 Y110.246884 Z-0.125000 I-8.481076 J14.647033
G02 X102.827857 Y109.623414 Z-0.125000 I-4.512107 J15.909525
G02 X98.699824 Y110.053704 Z-0.125000 I-0.363474 J16.529479
G02 X94.812234 Y111.507152 Z-0.125000 I3.699386 J15.820741
G02 X91.439834 Y113.879864 Z-0.125000 I7.585455 J14.364412
G02 X88.776395 Y117.027705 Z-0.125000 I10.879789 J11.906275
G02 X86.998894 Y120.745844 Z-0.125000 I13.543320 J8.758493
G02 X86.219053 Y124.792568 Z-0.125000 I15.398382 J5.065912
G02 X86.489174 Y128.927904 Z-0.125000 I16.182415 J1.019452
G02 X87.790758 Y132.862335 Z-0.125000 I16.166517 J-3.165677
G02 X90.060314 Y136.380074 Z-0.125000 I14.868673 J-7.101894
G02 X93.135005 Y139.221125 Z-0.125000 I12.885439 J-10.860801
G02 X96.862734 Y141.235164 Z-0.125000 I9.811196 J-13.702478
G02 X100.971950 Y142.267834 Z-0.125000 I6.227587 J-16.088848
G02 X105.255673 Y142.261814 Z-0.125000 I2.117812 J-17.117001
G02 X109.408221 Y141.209948 Z-0.125000 I-2.206827 J-17.434729
G02 X113.208893 Y139.166074 Z-0.125000 I-6.357090 J-16.376976
G02 X116.400143 Y136.261189 Z-0.125000 I-10.257702 J-14.474277
G02 X118.799773 Y132.663294 Z-0.125000 I-13.446923 J-11.567646
G02 X120.256719 Y128.591393 Z-0.125000 I-15.825345 J-7.958989
G02 X120.683973 Y124.303024 Z-0.125000 I-17.284120 J-3.887499
G02 X120.056753 Y120.039290 Z-0.125000 I-17.496862 J0.395888
G02 X118.424663 Y116.089624 Z-0.125000 I-16.875117 J4.661134
G02 X115.875629 Y112.659435 Z-0.125000 I-14.937702 J8.438260
G02 X112.599413 Y109.991514 Z-0.125000 I-12.391205 J11.870878
G02 X108.765299 Y108.216347 Z-0.125000 I-8.902559 J14.200126
G02 X104.658783 Y107.459264 Z-0.125000 I-5.068032 J15.973990
G02 X100.493322 Y107.752129 Z-0.125000 I-0.941359 J16.380328
G02 X96.571224 Y109.070394 Z-0.125000 I3.223365 J16.083787
G02 X93.107642 Y111.334115 Z-0.125000 I7.050287 J14.568783
G02 X90.341074 Y114.388034 Z-0.125000 I10.512431 J12.303378
G02 X88.436498 Y118.042209 Z-0.125000 I13.251033 J9.229937
G02 X87.517874 Y122.067854 Z-0.125000 I15.157580 J5.576487
G02 X87.644873 Y126.195021 Z-0.125000 I16.232910 J1.566027
G02 X88.816944 Y130.187194 Z-0.125000 I16.111201 J-2.561981
G02 X90.952144 Y133.758184 Z-0.125000 I15.224619 J-6.679405
G02 X93.944294 Y136.715824 Z-0.125000 I13.092051 J-10.252456
G02 X97.576731 Y138.838483 Z-0.125000 I10.337540 J-13.520934
G02 X101.668563 Y140.013004 Z-0.125000 I6.704271 J-15.641652
G02 X105.923469 Y140.146829 Z-0.125000 I2.670134 J-17.187428
G02 X110.122513 Y139.229194 Z-0.125000 I-1.584250 J-17.315552
G02 X113.971742 Y137.316841 Z-0.125000 I-5.872237 J-16.649858
G02 X117.260203 Y134.514034 Z-0.125000 I-9.718486 J-14.732988
G02 X119.771369 Y130.997854 Z-0.125000 I-13.075158 J-11.992740
G02 X121.357903 Y126.979754 Z-0.125000 I-15.585781 J-8.476264
G02 X121.923154 Y122.696920 Z-0.125000 I-17.070696 J-4.431719
G02 X121.436103 Y118.428804 Z-0.125000 I-17.639674 J-0.148916
G02 X119.924014 Y114.407907 Z-0.125000 I-16.884473 J4.054770
G02 X117.499373 Y110.912594 Z-0.125000 I-15.376670 J8.077919
G02 X114.290183 Y108.120244 Z-0.125000 I-12.670599 J11.321755
G02 X110.535203 Y106.229214 Z-0.125000 I-9.462190 J14.115271
G02 X106.428248 Y105.329831 Z-0.125000 I-5.577636 J15.643071
G02 X102.272243 Y105.483214 Z-0.125000 I-1.470420 J16.539513
G02 X98.287458 Y106.673799 Z-0.125000 I2.636927 J16.089233
G02 X94.757084 Y108.815154 Z-0.125000 I6.620383 J14.895657
G02 X91.881405 Y111.778168 Z-0.125000 I10.061108 J12.641521
G02 X89.853174 Y115.367214 Z-0.125000 I12.936290 J9.678136
G02 X88.797835 Y119.352346 Z-0.125000 I15.007479 J6.106569
G02 X88.784564 Y123.493194 Z-0.125000 I16.066605 J2.121937
G02 X89.814020 Y127.504059 Z-0.125000 I16.303649 J-2.047061
G02 X91.836254 Y131.161584 Z-0.125000 I15.278538 J-6.059649
G02 X94.707446 Y134.198511 Z-0.125000 I13.538827 J-9.924252
G02 X98.284354 Y136.452914 Z-0.125000 I10.668672 J-12.962440
G02 X102.307312 Y137.753774 Z-0.125000 I7.256906 J-15.571253
G02 X106.573403 Y138.029764 Z-0.125000 I3.233266 J-16.868557
G02 X110.777365 Y137.253735 Z-0.125000 I-1.053091 J-17.479902
G02 X114.697123 Y135.464144 Z-0.125000 I-5.255267 J-16.698199
G02 X118.064690 Y132.775931 Z-0.125000 I-9.278747 J-15.077042
G02 X120.689663 Y129.342334 Z-0.125000 I-12.643633 J-12.386203
G02 X122.404496 Y125.375046 Z-0.125000 I-15.277685 J-8.957930
G02 X123.106913 Y121.121314 Z-0.125000 I-16.993981 J-4.991071
G02 X122.755385 Y116.824326 Z-0.125000 I-17.517302 J-0.729816
G02 X121.380033 Y112.772064 Z-0.125000 I-17.170178 J3.568087
G02 X119.055881 Y109.178880 Z-0.125000 I-15.503699 J7.479892
G02 X115.954793 Y106.296974 Z-0.125000 I-13.182044 J11.075174
G02 X112.238372 Y104.269492 Z-0.125000 I-9.854246 J13.643177
G02 X108.182343 Y103.239604 Z-0.125000 I-6.137719 J15.670388
G02 X103.997622 Y103.253615 Z-0.125000 I-2.037651 J16.346911
G02 X99.988514 Y104.306774 Z-0.125000 I2.146507 J16.328618
G02 X96.373111 Y106.334345 Z-0.125000 I6.066443 J15.054333
G02 X93.402194 Y109.195514 Z-0.125000 I9.680155 J13.024486
G02 X91.250390 Y112.714388 Z-0.125000 I12.599739 J10.122139
G02 X90.058664 Y116.667194 Z-0.125000 I14.752955 J6.603897
G02 X89.903178 Y120.792823 Z-0.125000 I16.065883 J2.671233
G02 X90.799204 Y124.850854 Z-0.125000 I16.225975 J-1.454808
G02 X92.684712 Y128.554280 Z-0.125000 I15.595118 J-5.608175
G02 X95.465104 Y131.701234 Z-0.125000 I13.712778 J-9.313753
G02 X98.940420 Y134.058321 Z-0.125000 I11.178561 J-12.741234
G02 X102.936523 Y135.499524 Z-0.125000 I7.703026 J-15.097891
G02 X107.164344 Y135.913346 Z-0.125000 I3.788771 J-16.904344
G02 X111.406703 Y135.274224 Z-0.125000 I-0.438918 J-17.312965
G02 X115.365095 Y133.619838 Z-0.125000 I-4.757751 J-16.946455
G02 X118.824273 Y131.038974 Z-0.125000 I-8.713634 J-15.287668
G02 X121.554004 Y127.696045 Z-0.125000 I-12.257135 J-12.794762
G02 X123.395513 Y123.789204 Z-0.125000 I-14.985139 J-9.450744
G02 X124.234924 Y119.552452 Z-0.125000 I-16.760876 J-5.522297
G02 X124.023563 Y115.258444 Z-0.125000 I-17.603026 J-1.285745
G02 X122.773255 Y111.145031 Z-0.125000 I-17.152174 J2.966827
G02 X120.576903 Y107.493884 Z-0.125000 I-15.905942 J7.082055
G02 X117.551780 Y104.493272 Z-0.125000 I-13.429467 J10.513943
G02 X113.921603 Y102.355164 Z-0.125000 I-10.405296 J13.515793
G02 X109.874731 Y101.183513 Z-0.125000 I-6.624099 J15.304827
G02 X105.709253 Y101.059024 Z-0.125000 I-2.576964 J16.474792
G02 X101.645178 Y101.981073 Z-0.125000 I1.558800 J16.288201
G02 X97.972614 Y103.881484 Z-0.125000 I5.621565 J15.362574
G02 X94.897587 Y106.646159 Z-0.125000 I9.197648 J13.322590
G02 X92.627924 Y110.090164 Z-0.125000 I12.272081 J10.557404
G02 X91.301878 Y113.995807 Z-0.125000 I14.553253 J7.119059
G02 X91.005724 Y118.123684 Z-0.125000 I15.882406 J3.214044
G02 X91.758693 Y122.193093 Z-0.125000 I16.370351 J-0.924666
G02 X93.525104 Y125.973914 Z-0.125000 I15.621683 J-4.995450
G02 X96.180475 Y129.193170 Z-0.125000 I14.130181 J-8.950382
G02 X99.591084 Y131.677604 Z-0.125000 I11.475979 J-12.170879
G02 X103.510454 Y133.240635 Z-0.125000 I8.248733 J-14.988552
G02 X107.740333 Y133.797094 Z-0.125000 I4.328580 J-16.548587
G02 X111.977560 Y133.299948 Z-0.125000 I0.100799 J-17.446626
G02 X115.999363 Y131.772304 Z-0.125000 I-4.135274 J-16.944753
G02 X119.528684 Y129.312180 Z-0.125000 I-8.259551 J-15.610907
G02 X122.367773 Y126.057834 Z-0.125000 I-11.786407 J-13.148034
G02 X124.333110 Y122.212243 Z-0.125000 I-14.660872 J-9.917619
G02 X125.307993 Y118.011684 Z-0.125000 I-16.626663 J-6.072193
G02 X125.233887 Y113.700101 Z-0.125000 I-17.457949 J-1.856365
G02 X124.121743 Y109.562744 Z-0.125000 I-17.387777 J2.455773
G02 X122.032968 Y105.822198 Z-0.125000 I-16.002208 J6.482393
G02 X119.120973 Y102.738584 Z-0.125000 I-13.916460 J10.225163
G02 X115.538986 Y100.467488 Z-0.125000 I-10.767356 J13.022030
G02 X111.551533 Y99.168974 Z-0.125000 I-7.185357 J15.293102
G02 X107.366345 Y98.903740 Z-0.125000 I-3.130240 J16.240617
G02 X103.288083 Y99.686904 Z-0.125000 I1.054746 J16.502680
G02 X99.537087 Y101.468942 Z-0.125000 I5.053269 J15.475316
G02 X96.375174 Y104.124614 Z-0.125000 I8.802833 J13.691051
G02 X93.985806 Y107.492277 Z-0.125000 I11.894526 J10.970670
G02 X92.526624 Y111.354674 Z-0.125000 I14.284948 J7.603568
G02 X92.089467 Y115.460290 Z-0.125000 I15.830256 J3.761651
G02 X92.705944 Y119.566024 Z-0.125000 I16.271749 J-0.344056
G02 X94.333686 Y123.385372 Z-0.125000 I15.896971 J-4.518490
G02 X96.890424 Y126.707384 Z-0.125000 I14.272567 J-8.339788
G02 X100.193660 Y129.288301 Z-0.125000 I11.966540 J-11.911293
G02 X104.076683 Y130.989484 Z-0.125000 I8.663342 J-14.492274
G02 X108.259171 Y131.681148 Z-0.125000 I4.885107 J-16.548642
G02 X112.526363 Y131.323104 Z-0.125000 I0.702432 J-17.235731
G02 X116.576795 Y129.933543 Z-0.125000 I-3.625930 J-17.167302
G02 X120.191713 Y127.585804 Z-0.125000 I-7.674018 J-15.772924
G02 X123.128200 Y124.430431 Z-0.125000 I-11.384248 J-13.538609
G02 X125.216953 Y120.651874 Z-0.125000 I-14.319231 J-10.382146
G02 X126.326970 Y116.479560 Z-0.125000 I-16.374731 J-6.590206
G02 X126.392653 Y112.178284 Z-0.125000 I-17.486770 J-2.418171
G02 X125.409829 Y107.990266 Z-0.125000 I-17.342950 J1.860629
G02 X123.451803 Y104.198984 Z-0.125000 I-16.364461 J6.050250
G02 X120.624375 Y101.003127 Z-0.125000 I-14.131747 J9.653925
G02 X117.135253 Y98.626954 Z-0.125000 I-11.305886 J12.851563
G02 X113.166667 Y97.187933 Z-0.125000 I-7.646858 J14.896928
G02 X109.010243 Y96.785814 Z-0.125000 I-3.677987 J16.334680
G02 X104.885133 Y97.434881 Z-0.125000 I0.469543 J16.417133
G02 X101.086763 Y99.085764 Z-0.125000 I4.593305 J15.763441
G02 X97.826152 Y101.639517 Z-0.125000 I8.293502 J13.947512
G02 X95.325394 Y104.923144 Z-0.125000 I11.553013 J11.392674
G02 X93.734615 Y108.731760 Z-0.125000 I14.037565 J8.099722
G02 X93.157304 Y112.828264 Z-0.125000 I15.630533 J4.291707
G02 X93.630650 Y116.938072 Z-0.125000 I16.367804 J0.197007
G02 X95.133844 Y120.825174 Z-0.125000 I15.897342 J-3.913511
G02 X97.561984 Y124.212391 Z-0.125000 I14.657108 J-7.943085
G02 X100.791574 Y126.915524 Z-0.125000 I12.230825 J-11.332023
G02 X104.590461 Y128.733593 Z-0.125000 I9.198880 J-14.343264
G02 X108.765693 Y129.567754 Z-0.125000 I5.399469 J-16.159767
G02 X113.017886 Y129.351293 Z-0.125000 I1.249013 J-17.337772
G02 X117.124223 Y128.092124 Z-0.125000 I-3.002272 J-17.116131
G02 X120.800019 Y125.870489 Z-0.125000 I-7.206117 J-16.074548
G02 X123.841023 Y122.809574 Z-0.125000 I-10.879349 J-13.849651
G02 X126.048379 Y119.102237 Z-0.125000 I-13.977903 J-10.833274
G02 X127.291833 Y114.973124 Z-0.125000 I-16.184727 J-7.125703
G02 X127.495614 Y110.665654 Z-0.125000 I-17.319611 J-2.977922
G02 X126.651983 Y106.461134 Z-0.125000 I-17.526616 J1.329793
G02 X124.808008 Y102.589484 Z-0.125000 I-16.430794 J5.450652
G02 X122.098283 Y99.317374 Z-0.125000 I-14.590029 J9.324353
G02 X118.666819 Y96.812446 Z-0.125000 I-11.637071 J12.338630
G02 X114.765713 Y95.250664 Z-0.125000 I-8.205932 J14.844145
G02 X110.598892 Y94.707007 Z-0.125000 I-4.214485 J16.061633
G02 X106.469593 Y95.216464 Z-0.125000 I-0.047658 J16.603039
G02 X102.599821 Y96.744702 Z-0.125000 I4.014845 J15.829903
G02 X99.261094 Y99.183024 Z-0.125000 I7.883484 J14.299610
G02 X96.644860 Y102.384248 Z-0.125000 I11.138186 J11.772485
G02 X94.925024 Y106.139044 Z-0.125000 I13.754703 J8.571437
G02 X94.208257 Y110.206303 Z-0.125000 I15.527865 J4.833239
G02 X94.542884 Y114.341354 Z-0.125000 I16.248508 J0.766163
G02 X95.905898 Y118.259623 Z-0.125000 I16.129281 J-3.414549
G02 X98.228074 Y121.741684 Z-0.125000 I14.769776 J-7.334561
G02 X101.344998 Y124.534862 Z-0.125000 I12.698038 J-11.034128
G02 X105.098073 Y126.488154 Z-0.125000 I9.581737 J-13.828205
G02 X109.217189 Y127.454315 Z-0.125000 I5.954347 J-16.121907
G02 X113.490603 Y127.378644 Z-0.125000 I1.834855 J-17.084564
G02 X117.615554 Y126.259633 Z-0.125000 I-2.481919 J-17.311262
G02 X121.370523 Y124.155184 Z-0.125000 I-6.604787 J-16.187146
G02 X124.501055 Y121.200847 Z-0.125000 I-10.461872 J-14.221598
G02 X126.828183 Y117.567064 Z-0.125000 I-13.590126 J-11.265372
G02 X128.204062 Y113.477220 Z-0.125000 I-15.914084 J-7.630069
G02 X128.546893 Y109.187374 Z-0.125000 I-17.291206 J-3.540479
G02 X127.836051 Y104.942965 Z-0.125000 I-17.456400 J0.741820
G02 X126.125363 Y101.027904 Z-0.125000 I-16.749309 J4.987346
G02 X123.508346 Y97.650683 Z-0.125000 I-14.773942 J8.745788
G02 X120.175913 Y95.046534 Z-0.125000 I-12.158742 J12.124821
G02 X116.303453 Y93.346209 Z-0.125000 I-8.640933 J14.419685
G02 X112.174563 Y92.667914 Z-0.125000 I-4.768221 J16.119156
G02 X108.006945 Y93.040749 Z-0.125000 I-0.626886 J16.472164
G02 X104.099673 Y94.434664 Z-0.125000 I3.540071 J16.096323
G02 X100.668093 Y96.765804 Z-0.125000 I7.351334 J14.512930
G02 X97.947534 Y99.874474 Z-0.125000 I10.781672 J12.180387
G02 X96.099179 Y103.568903 Z-0.125000 I13.462099 J9.044795
G02 X95.243644 Y107.615794 Z-0.125000 I15.312084 J5.350935
G02 X95.435414 Y111.747665 Z-0.125000 I16.293686 J1.314156
G02 X96.669194 Y115.723614 Z-0.125000 I16.105750 J-2.818386
G02 X98.859652 Y119.263696 Z-0.125000 I15.118353 J-6.906896
G02 X101.894283 Y122.173224 Z-0.125000 I12.930174 J-10.448820
G02 X105.556320 Y124.238094 Z-0.125000 I10.103891 J-13.639463
G02 X109.658693 Y125.345944 Z-0.125000 I6.441532 J-15.703547
G02 X113.907502 Y125.410803 Z-0.125000 I2.386743 J-17.152989
G02 X118.080463 Y124.425414 Z-0.125000 I-1.861327 J-17.211010
G02 X121.886834 Y122.451630 Z-0.125000 I-6.123099 J-16.465287
G02 X125.116603 Y119.597464 Z-0.125000 I-9.926885 J-14.487732
G02 X127.556430 Y116.044333 Z-0.125000 I-13.232061 J-11.700299
G02 X129.063353 Y112.004674 Z-0.125000 I-15.670827 J-8.146617
G02 X129.544265 Y107.719999 Z-0.125000 I-17.102582 J-4.088922
G02 X128.973253 Y103.466544 Z-0.125000 I-17.585784 J0.195778
G02 X127.382401 Y99.480651 Z-0.125000 I-16.786825 J4.389548
G02 X124.887193 Y96.034074 Z-0.125000 I-15.199254 J8.377249
G02 X121.621692 Y93.306144 Z-0.125000 I-12.458887 J11.595591
G02 X117.824333 Y91.487604 Z-0.125000 I-9.194238 J14.324848
G02 X113.694582 Y90.667623 Z-0.125000 I-5.285434 J15.810030
G02 X109.532603 Y90.900904 Z-0.125000 I-1.155530 J16.627813
G02 X105.561402 Y92.168212 Z-0.125000 I2.955487 J16.116908
G02 X102.060783 Y94.378284 Z-0.125000 I6.925385 J14.846807
G02 X99.229394 Y97.398556 Z-0.125000 I10.333076 J12.524157
G02 X97.256814 Y101.029074 Z-0.125000 I13.164157 J9.503662
G02 X96.263712 Y105.039745 Z-0.125000 I15.159728 J5.882065
G02 X96.315434 Y109.185664 Z-0.125000 I16.155740 J1.871732
G02 X97.407878 Y113.185398 Z-0.125000 I16.291291 J-2.300572
G02 X99.485614 Y116.811814 Z-0.125000 I15.202825 J-6.301955
G02 X102.402807 Y119.804767 Z-0.125000 I13.370959 J-10.114351
G02 X106.009633 Y122.001174 Z-0.125000 I10.454657 J-13.108422
G02 X110.047616 Y123.237308 Z-0.125000 I6.992095 J-15.627178
G02 X114.308573 Y123.444064 Z-0.125000 I2.953623 J-16.860518
G02 X118.490226 Y122.600156 Z-0.125000 I-1.331043 J-17.377687
G02 X122.368913 Y120.748084 Z-0.125000 I-5.511181 J-16.529234
G02 X125.679914 Y118.007391 Z-0.125000 I-9.493910 J-14.839825
G02 X128.235473 Y114.534214 Z-0.125000 I-12.802439 J-12.096796
G02 X129.871297 Y110.544499 Z-0.125000 I-15.381293 J-8.636699
G02 X130.490153 Y106.284774 Z-0.125000 I-17.017821 J-4.647176
G02 X130.054565 Y102.002416 Z-0.125000 I-17.491129 J-0.384191
G02 X128.599113 Y97.980494 Z-0.125000 I-17.058711 J3.898892
G02 X126.204281 Y94.436610 Z-0.125000 I-15.352233 J7.793384
G02 X123.043483 Y91.615564 Z-0.125000 I-12.959849 J11.339409
G02 X119.284558 Y89.661206 Z-0.125000 I-9.601416 J13.874885
G02 X115.201553 Y88.709394 Z-0.125000 I-5.842481 J15.829214
G02 X111.010127 Y88.804011 Z-0.125000 I-1.725319 J16.455257
G02 X107.011323 Y89.934594 Z-0.125000 I2.465750 J16.358269
G02 X103.424155 Y92.032442 Z-0.125000 I6.375030 J15.016663
G02 X100.496034 Y94.952324 Z-0.125000 I9.960919 J12.917156
G02 X98.398371 Y98.515948 Z-0.125000 I12.828932 J9.950706
G02 X97.268774 Y102.495204 Z-0.125000 I14.927364 J6.387411
G02 X97.178248 Y106.630702 Z-0.125000 I16.150795 J2.422280
G02 X98.137554 Y110.677684 Z-0.125000 I16.245323 J-1.713640
G02 X100.080899 Y114.354865 Z-0.125000 I15.512497 J-5.846058
G02 X102.907503 Y117.457604 Z-0.125000 I13.572000 J-9.525238
G02 X106.416886 Y119.759960 Z-0.125000 I10.960483 J-12.880815
G02 X110.428543 Y121.136284 Z-0.125000 I7.450712 J-15.182383
G02 X114.655605 Y121.481814 Z-0.125000 I3.508513 J-16.892833
G02 X118.876973 Y120.774344 Z-0.125000 I-0.718381 J-17.234343
G02 X122.797429 Y119.056714 Z-0.125000 I-5.015932 J-16.781759
G02 X126.201993 Y116.421724 Z-0.125000 I-8.934264 J-15.060546
G02 X128.863722 Y113.038044 Z-0.125000 I-12.427312 J-12.514535
G02 X130.627793 Y109.105454 Z-0.125000 I-15.087151 J-9.129711
G02 X131.383855 Y104.862158 Z-0.125000 I-16.807577 J-5.183744
G02 X131.088363 Y100.578234 Z-0.125000 I-17.565435 J-0.940544
G02 X129.757807 Y96.495446 Z-0.125000 I-17.068397 J3.304286
G02 X127.488443 Y92.889234 Z-0.125000 I-15.741072 J7.388590
G02 X124.403550 Y89.950124 Z-0.125000 I-13.228964 J10.796627
G02 X120.726893 Y87.882474 Z-0.125000 I-10.145119 J13.737156
G02 X116.652758 Y86.789514 Z-0.125000 I-6.338229 J15.486598
G02 X112.476583 Y86.745284 Z-0.125000 I-2.263901 J16.578154
G02 X108.421751 Y87.745708 Z-0.125000 I1.879044 J16.333541
G02 X104.774843 Y89.717634 Z-0.125000 I5.933006 J15.330869
G02 X101.740960 Y92.543249 Z-0.125000 I9.482139 J13.222599
G02 X99.524634 Y96.033354 Z-0.125000 I12.515274 J10.396362
G02 X98.259686 Y99.969461 Z-0.125000 I14.727418 J6.904268
G02 X98.028654 Y104.107764 Z-0.125000 I15.994340 J2.968528
G02 X98.845880 Y108.171138 Z-0.125000 I16.383482 J-1.181179
G02 X100.670384 Y111.925594 Z-0.125000 I15.570053 J-5.245832
G02 X103.375249 Y115.104973 Z-0.125000 I13.982906 J-9.155720
G02 X106.820193 Y117.534474 Z-0.125000 I11.279280 J-12.336454
G02 X110.759584 Y119.034877 Z-0.125000 I7.994004 J-15.066956
G02 X114.989513 Y119.522854 Z-0.125000 I4.054156 J-16.565495
G02 X119.209761 Y118.957413 Z-0.125000 I-0.178807 J-17.366471
G02 X123.195253 Y117.365674 Z-0.125000 I-4.398311 J-16.798186
G02 X126.672382 Y114.850284 Z-0.125000 I-8.485366 J-15.390661
G02 X129.445383 Y111.552874 Z-0.125000 I-11.960163 J-12.872761
G02 X131.334089 Y107.680520 Z-0.125000 I-14.779158 J-9.605179
G02 X132.226603 Y103.469464 Z-0.125000 I-16.667570 J-5.732725
G02 X132.068325 Y99.167762 Z-0.125000 I-17.446589 J-1.511828
G02 X130.874893 Y95.056394 Z-0.125000 I-17.291312 J2.790359
G02 X128.712988 Y91.361264 Z-0.125000 I-15.864068 J6.801573
G02 X125.738043 Y88.335394 Z-0.125000 I-13.704550 J10.498531
G02 X122.109493 Y86.135394 Z-0.125000 I-10.523835 J13.265033
G02 X118.090553 Y84.913924 Z-0.125000 I-6.895499 J15.465513
G02 X113.894122 Y84.729598 Z-0.125000 I-2.821099 J16.365260
G02 X109.821553 Y85.591654 Z-0.125000 I1.375165 J16.547573
G02 X106.094840 Y87.446568 Z-0.125000 I5.368057 J15.456106
G02 X102.972283 Y90.164654 Z-0.125000 I9.093617 J13.599469
G02 X100.634709 Y93.581399 Z-0.125000 I12.140649 J10.814054
G02 X99.236344 Y97.475354 Z-0.125000 I14.478565 J7.397485
G02 X98.864037 Y101.595986 Z-0.125000 I15.939597 J3.517310
G02 X99.545044 Y105.695894 Z-0.125000 I16.314822 J-0.603430
G02 X101.232897 Y109.493819 Z-0.125000 I15.838444 J-4.764818
G02 X103.839343 Y112.775744 Z-0.125000 I14.153535 J-8.564525
G02 X107.180912 Y115.305262 Z-0.125000 I11.764804 J-12.069745
G02 X111.084373 Y116.943654 Z-0.125000 I8.423442 J-14.599623
G02 X115.271405 Y117.568066 Z-0.125000 I4.609733 J-16.560447
G02 X119.522743 Y117.141364 Z-0.125000 I0.422614 J-17.181322
G02 X123.540314 Y115.687063 Z-0.125000 I-3.890157 J-17.023240
G02 X127.104873 Y113.282684 Z-0.125000 I-7.905588 J-15.564725
G02 X129.976970 Y110.082985 Z-0.125000 I-11.567427 J-13.271961
G02 X131.990743 Y106.274634 Z-0.125000 I-14.437386 J-10.070770
G02 X133.018729 Y102.091097 Z-0.125000 I-16.436565 J-6.256888
G02 X133.000433 Y97.795324 Z-0.125000 I-17.466120 J-2.073537
G02 X131.936179 Y93.633422 Z-0.125000 I-17.273925 J2.200150
G02 X129.902993 Y89.883124 Z-0.125000 I-16.212531 J6.363174
G02 X127.012545 Y86.745605 Z-0.125000 I-13.942925 J9.944783
G02 X123.473013 Y84.437584 Z-0.125000 I-11.054035 J13.084145
G02 X119.472758 Y83.076213 Z-0.125000 I-7.367925 J15.092055
G02 X115.300923 Y82.754384 Z-0.125000 I-3.367558 J16.452876
G02 X111.180645 Y83.483150 Z-0.125000 I0.790102 J16.478996
G02 X107.403663 Y85.208074 Z-0.125000 I4.909783 J15.748314
G02 X104.180870 Y87.826185 Z-0.125000 I8.588603 J13.864862
G02 X101.730813 Y91.160384 Z-0.125000 I11.810720 J11.246108
G02 X100.199708 Y95.004263 Z-0.125000 I14.232174 J7.895876
G02 X99.687314 Y99.116514 Z-0.125000 I15.764675 J4.052356
G02 X100.225938 Y103.225433 Z-0.125000 I16.413449 J-0.061818
G02 X101.789443 Y107.091084 Z-0.125000 I15.867785 J-4.168888
G02 X104.270293 Y110.442709 Z-0.125000 I14.531625 J-8.162242
G02 X107.538443 Y113.094234 Z-0.125000 I12.052484 J-11.515501
G02 X111.362211 Y114.852085 Z-0.125000 I8.955972 J-14.443733
G02 X115.542633 Y115.618824 Z-0.125000 I5.131926 J-16.200710
G02 X119.783210 Y115.333989 Z-0.125000 I0.969096 J-17.281150
G02 X123.858133 Y114.009414 Z-0.125000 I-3.270730 J-16.992416
G02 X127.486310 Y111.730030 Z-0.125000 I-7.441366 J-15.871927
G02 X130.464783 Y108.622764 Z-0.125000 I-11.067029 J-13.589456
G02 X132.598200 Y104.884459 Z-0.125000 I-14.110494 J-10.530646
G02 X133.760773 Y100.740444 Z-0.125000 I-16.242831 J-6.791889
G02 X133.880617 Y96.438102 Z-0.125000 I-17.323333 J-2.635389
G02 X132.954803 Y92.255114 Z-0.125000 I-17.445029 J1.667130
G02 X131.035539 Y88.424834 Z-0.125000 I-16.305856 J5.774496
G02 X128.259833 Y85.207114 Z-0.125000 I-14.389248 J9.606549
G02 X124.777927 Y82.770961 Z-0.125000 I-11.403518 J12.592281
G02 X120.840933 Y81.284874 Z-0.125000 I-7.921979 J15.029130
G02 X116.658308 Y80.822129 Z-0.125000 I-3.909414 J16.201962
G02 X112.530043 Y81.411624 Z-0.125000 I0.273184 J16.663115
G02 X108.680463 Y83.015055 Z-0.125000 I4.334381 J15.828978
G02 X105.377423 Y85.519234 Z-0.125000 I8.183129 J14.224102
G02 X102.810383 Y88.773686 Z-0.125000 I11.399537 J11.631341
G02 X101.149743 Y92.565024 Z-0.125000 I13.966293 J8.376719
G02 X100.497385 Y96.652381 Z-0.125000 I15.660111 J4.595153
G02 X100.897454 Y100.786934 Z-0.125000 I16.315613 J0.507894
G02 X102.322545 Y104.688681 Z-0.125000 I16.095563 J-3.667687
G02 X104.697663 Y108.135004 Z-0.125000 I14.673456 J-7.570974
G02 X107.856977 Y110.880361 Z-0.125000 I12.514645 J-11.211135
G02 X111.635253 Y112.773254 Z-0.125000 I9.355679 J-13.957012
G02 X115.764144 Y113.673538 Z-0.125000 I5.685578 J-16.157138
G02 X120.026883 Y113.529224 Z-0.125000 I1.556434 J-17.054638
G02 X124.124147 Y112.344313 Z-0.125000 I-2.750767 J-17.188137
G02 X127.833193 Y110.180964 Z-0.125000 I-6.846283 J-15.999141
G02 X130.903188 Y107.178961 Z-0.125000 I-10.656960 J-13.969092
G02 X133.158073 Y103.511474 Z-0.125000 I-13.724780 J-10.965352
G02 X134.453579 Y99.405796 Z-0.125000 I-15.991392 J-7.303157
G02 X134.712893 Y95.116904 Z-0.125000 I-17.286915 J-3.197482
G02 X133.919766 Y90.893991 Z-0.125000 I-17.401602 J1.082347
G02 X132.132053 Y87.015814 Z-0.125000 I-16.611453 J5.306211
G02 X129.448990 Y83.693527 Z-0.125000 I-14.597311 J9.044161
G02 X126.062413 Y81.154964 Z-0.125000 I-11.915708 J12.367964
G02 X122.153958 Y79.530939 Z-0.125000 I-8.369722 J14.627816
G02 X118.005003 Y78.932634 Z-0.125000 I-4.461195 J16.251577
G02 X113.837713 Y79.386200 Z-0.125000 I-0.306891 J16.551323
G02 X109.947453 Y80.856344 Z-0.125000 I3.860245 J16.097116
G02 X106.550140 Y83.255039 Z-0.125000 I7.655769 J14.448181
G02 X103.877413 Y86.418524 Z-0.125000 I11.051864 J12.048159
G02 X102.086996 Y90.152895 Z-0.125000 I13.675556 J8.853032
G02 X101.295833 Y94.220834 Z-0.125000 I15.467311 J5.119103
G02 X101.553400 Y98.356967 Z-0.125000 I16.356667 J1.057517
G02 X102.849553 Y102.316504 Z-0.125000 I16.102756 J-3.079315
G02 X105.095665 Y105.825464 Z-0.125000 I15.015564 J-7.138219
G02 X108.172883 Y108.686984 Z-0.125000 I12.771634 J-10.648998
G02 X111.864499 Y110.694330 Z-0.125000 I9.874573 J-13.761656
G02 X115.977163 Y111.736154 Z-0.125000 I6.182824 J-15.768660
G02 X120.219702 Y111.732904 Z-0.125000 I2.108155 J-17.119539
G02 X124.366253 Y110.681084 Z-0.125000 I-2.133728 J-17.111028
G02 X128.129747 Y108.647363 Z-0.125000 I-6.366899 J-16.281357
G02 X131.300793 Y105.743774 Z-0.125000 I-10.128040 J-14.244325
G02 X133.669666 Y102.155644 Z-0.125000 I-13.378584 J-11.408528
G02 X135.097493 Y98.096754 Z-0.125000 I-15.746012 J-7.819681
G02 X135.495032 Y93.812448 Z-0.125000 I-17.121232 J-3.749270
G02 X134.841273 Y89.576014 Z-0.125000 I-17.520618 J0.535092
G02 X133.173256 Y85.627277 Z-0.125000 I-16.675852 J4.717509
G02 X130.609303 Y82.231524 Z-0.125000 I-15.010398 J8.667725
G02 X127.289632 Y79.569788 Z-0.125000 I-12.235878 J11.859389
G02 X123.452113 Y77.825294 Z-0.125000 I-8.917021 J14.522450
G02 X119.302022 Y77.085908 Z-0.125000 I-4.985394 J15.965766
G02 X115.136373 Y77.399984 Z-0.125000 I-0.835243 J16.703949
G02 X111.181172 Y78.744520 Z-0.125000 I3.278469 J16.133974
G02 X107.712363 Y81.023634 Z-0.125000 I7.232745 J14.787545
G02 X104.927324 Y84.101060 Z-0.125000 I10.607909 J12.398976
G02 X103.011993 Y87.772974 Z-0.125000 I13.392530 J9.321258
G02 X102.082552 Y91.808767 Z-0.125000 I15.314412 J5.651824
G02 X102.200273 Y95.959524 Z-0.125000 I16.246348 J1.616279
G02 X103.356466 Y99.947744 Z-0.125000 I16.282726 J-2.558694
G02 X105.490113 Y103.542954 Z-0.125000 I15.129720 J-6.548293
G02 X108.453484 Y106.491907 Z-0.125000 I13.206845 J-10.308012
G02 X112.090153 Y108.630634 Z-0.125000 I10.244243 J-13.257959
G02 X116.143038 Y109.802582 Z-0.125000 I6.731527 J-15.685370
G02 X120.398533 Y109.941024 Z-0.125000 I2.678352 J-16.855493
G02 X124.557736 Y109.030381 Z-0.125000 I-1.603389 J-17.276738
G02 X128.395093 Y107.117424 Z-0.125000 I-5.761240 J-16.362254
G02 X131.649674 Y104.325957 Z-0.125000 I-9.700460 J-14.602798
G02 X134.135983 Y100.815354 Z-0.125000 I-12.952762 J-11.809253
G02 X135.693421 Y96.805307 Z-0.125000 I-15.473520 J-8.317132
G02 X136.229543 Y92.541974 Z-0.125000 I-17.030682 J-4.307016
G02 X135.711205 Y88.276445 Z-0.125000 I-17.445386 J-0.044331
G02 X134.177083 Y84.287174 Z-0.125000 I-16.936799 J4.223630
G02 X131.713421 Y80.794594 Z-0.125000 I-15.188319 J8.098602
G02 X128.494953 Y78.036314 Z-0.125000 I-12.726290 J11.592669
G02 X124.695815 Y76.156611 Z-0.125000 I-9.338634 J14.095519
G02 X120.588133 Y75.284154 Z-0.125000 I-5.539695 J15.975794
G02 X116.392506 Y75.460249 Z-0.125000 I-1.406774 J16.552692
G02 X112.406233 Y76.668914 Z-0.125000 I2.788512 J16.374592
G02 X108.849592 Y78.837252 Z-0.125000 I6.687058 J14.969604
G02 X105.966153 Y81.815964 Z-0.125000 I10.242823 J12.800172
G02 X103.924435 Y85.424060 Z-0.125000 I13.060664 J9.772377
G02 X102.858313 Y89.429594 Z-0.125000 I15.102746 J6.164430
G02 X102.833883 Y93.574513 Z-0.125000 I16.238375 J2.168238
G02 X103.857223 Y97.610224 Z-0.125000 I16.266625 J-1.977146
G02 X105.858871 Y101.260910 Z-0.125000 I15.433320 J-6.087904
G02 X108.731873 Y104.319484 Z-0.125000 I13.433943 J-9.740236
G02 X112.275334 Y106.567307 Z-0.125000 I10.745969 J-13.023047
G02 X116.302313 Y107.879304 Z-0.125000 I7.202450 J-15.270745
G02 X120.528453 Y108.157350 Z-0.125000 I3.232981 J-16.883006
G02 X124.728483 Y107.382734 Z-0.125000 I-0.992966 J-17.157707
G02 X128.610957 Y105.603284 Z-0.125000 I-5.267180 J-16.617331
G02 X131.960803 Y102.916014 Z-0.125000 I-9.147654 J-14.834639
G02 X134.554854 Y99.493497 Z-0.125000 I-12.587219 J-12.234636
G02 X136.241923 Y95.537464 Z-0.125000 I-15.179655 J-8.811182
G02 X136.915513 Y91.289788 Z-0.125000 I-16.841453 J-4.847938
G02 X136.537013 Y87.018354 Z-0.125000 I-17.516539 J-0.600313
G02 X135.127718 Y82.968352 Z-0.125000 I-16.971464 J3.635425
G02 X132.787113 Y79.409234 Z-0.125000 I-15.564441 J7.686549
G02 X129.644527 Y76.533458 Z-0.125000 I-13.016680 J11.069384
G02 X125.923583 Y74.537914 Z-0.125000 I-9.875248 J13.946790
G02 X121.824600 Y73.524900 Z-0.125000 I-6.044023 J15.656659
G02 X117.640043 Y73.561934 Z-0.125000 I-1.944921 J16.668652
G02 X113.596896 Y74.641304 Z-0.125000 I2.204136 J16.368514
G02 X109.977753 Y76.685144 Z-0.125000 I6.246550 J15.287351
G02 X106.987142 Y79.571656 Z-0.125000 I9.769346 J13.114155
G02 X104.825813 Y83.107844 Z-0.125000 I12.759334 J10.227143
G02 X103.623485 Y87.074000 Z-0.125000 I14.903571 J6.683291
G02 X103.458673 Y91.222504 Z-0.125000 I16.107813 J2.717458
G02 X104.340987 Y95.279439 Z-0.125000 I16.400024 J-1.442312
G02 X106.224073 Y99.007404 Z-0.125000 I15.520701 J-5.500307
G02 X108.978678 Y102.146815 Z-0.125000 I13.839396 J-9.364875
G02 X112.457933 Y104.521614 Z-0.125000 I11.085781 J-12.505403
G02 X116.417242 Y105.959853 Z-0.125000 I7.743347 J-15.147671
G02 X120.646893 Y106.380164 Z-0.125000 I3.783779 J-16.584773
G02 X124.850013 Y105.747493 Z-0.125000 I-0.453256 J-17.289127
G02 X128.798923 Y104.093184 Z-0.125000 I-4.655364 J-16.652835
G02 X132.223950 Y101.524182 Z-0.125000 I-8.702793 J-15.170324
G02 X134.930953 Y98.185794 Z-0.125000 I-12.125583 J-12.598997
G02 X136.743581 Y94.288713 Z-0.125000 I-14.885956 J-9.293914
G02 X137.554453 Y90.069564 Z-0.125000 I-16.698095 J-5.396676
G02 X137.313161 Y85.779955 Z-0.125000 I-17.421897 J-1.171603
G02 X136.039843 Y81.696914 Z-0.125000 I-17.182210 J3.118297
G02 X133.806599 Y78.049256 Z-0.125000 I-15.712818 J7.112555
G02 X130.770673 Y75.083084 Z-0.125000 I-13.481321 J10.761608
G02 X127.097821 Y72.955786 Z-0.125000 I-10.270155 J13.497471
G02 X123.049673 Y71.812734 Z-0.125000 I-6.597380 J15.624951
G02 X118.844478 Y71.710299 Z-0.125000 I-2.505239 J16.478163
G02 X114.779853 Y72.651954 Z-0.125000 I1.700040 J16.581415
G02 X111.079778 Y74.580039 Z-0.125000 I5.686636 J15.427231
G02 X107.998513 Y77.360734 Z-0.125000 I9.385804 J13.497842
G02 X105.714620 Y80.826317 Z-0.125000 I12.388998 J10.649972
G02 X104.378513 Y84.751674 Z-0.125000 I14.672997 J7.184442
G02 X104.072262 Y88.886873 Z-0.125000 I16.050967 J3.267669
G02 X104.818623 Y92.980754 Z-0.125000 I16.360299 J-0.867694
G02 X106.567151 Y96.756935 Z-0.125000 I15.783607 J-5.015552
G02 X109.223563 Y99.998774 Z-0.125000 I14.037401 J-8.793188
G02 X112.603528 Y102.477022 Z-0.125000 I11.566980 J-12.231643
G02 X116.527223 Y104.053094 Z-0.125000 I8.187185 J-14.710197
G02 X120.718646 Y104.610970 Z-0.125000 I4.338792 J-16.573738
G02 X124.953793 Y104.116694 Z-0.125000 I0.147345 J-17.128826
G02 X128.938408 Y102.599006 Z-0.125000 I-4.147740 J-16.879232
G02 X132.452463 Y100.139764 Z-0.125000 I-8.130605 J-15.358239
G02 X135.260421 Y96.897587 Z-0.125000 I-11.740724 J-13.005345
G02 X137.199563 Y93.061704 Z-0.125000 I-14.546672 J-9.761820
G02 X138.146322 Y88.869090 Z-0.125000 I-16.486178 J-5.926044
G02 X138.045073 Y84.581234 Z-0.125000 I-17.433346 J-1.733471
G02 X136.900821 Y80.447630 Z-0.125000 I-17.191111 J2.533616
G02 X134.794163 Y76.740514 Z-0.125000 I-16.049101 J6.668151
G02 X131.842702 Y73.663223 Z-0.125000 I-13.742218 J10.226270
G02 X128.254913 Y71.425084 Z-0.125000 I-10.791983 J13.305073
G02 X124.225380 Y70.142708 Z-0.125000 I-7.080269 J15.275840
G02 X120.040453 Y69.902264 Z-0.125000 I-3.050714 J16.558091
G02 X115.927458 Y70.711411 Z-0.125000 I1.116119 J16.531385
G02 X112.174033 Y72.510824 Z-0.125000 I5.228705 J15.721010
G02 X108.991224 Y75.193333 Z-0.125000 I8.886818 J13.773714
G02 X106.593633 Y78.578114 Z-0.125000 I12.068674 J11.090328
G02 X105.123793 Y82.456884 Z-0.125000 I14.429046 J7.685690
G02 X104.677493 Y86.584684 Z-0.125000 I15.899687 J3.807112
G02 X105.282134 Y90.692270 Z-0.125000 I16.447583 J-0.322806
G02 X106.906683 Y94.536314 Z-0.125000 I15.844579 J-4.430850
G02 X109.440565 Y97.852213 Z-0.125000 I14.409831 J-8.385342
G02 X112.747303 Y100.452304 Z-0.125000 I11.877485 J-11.702755
G02 X116.595886 Y102.150305 Z-0.125000 I8.717151 J-14.547269
G02 X120.781203 Y102.850364 Z-0.125000 I4.868366 J-16.244595
G02 X125.009999 Y102.498154 Z-0.125000 I0.694374 J-17.225598
G02 X129.053203 Y101.109584 Z-0.125000 I-3.533771 J-16.870277
G02 X132.633793 Y98.774034 Z-0.125000 I-7.668574 J-15.668997
G02 X135.549773 Y95.622424 Z-0.125000 I-11.247096 J-13.330995
G02 X137.609720 Y91.855174 Z-0.125000 I-14.231680 J-10.228758
G02 X138.692053 Y87.698614 Z-0.125000 I-16.290810 J-6.461183
G02 X138.728886 Y83.403556 Z-0.125000 I-17.309084 J-2.296126
G02 X137.722373 Y79.244524 Z-0.125000 I-17.364946 J2.001125
G02 X135.729513 Y75.457702 Z-0.125000 I-16.168195 J6.090912
G02 X132.889753 Y72.296384 Z-0.125000 I-14.177219 J9.879047
G02 X129.359606 Y69.930704 Z-0.125000 I-11.159417 J12.835714
G02 X125.388983 Y68.521774 Z-0.125000 I-7.629454 J15.201761
G02 X121.193020 Y68.140990 Z-0.125000 I-3.597307 J16.331096
G02 X117.068053 Y68.811304 Z-0.125000 I0.598627 J16.711065
G02 X113.241076 Y70.490307 Z-0.125000 I4.658182 J15.818411
G02 X109.975723 Y73.060614 Z-0.125000 I8.484103 J14.137647
G02 X107.459831 Y76.368081 Z-0.125000 I11.662855 J11.482203
G02 X105.859883 Y80.195864 Z-0.125000 I14.178776 J8.174753
G02 X105.273249 Y84.302876 Z-0.125000 I15.795350 J4.351568
G02 X105.739663 Y88.436694 Z-0.125000 I16.384361 J0.244591
G02 X107.227481 Y92.321593 Z-0.125000 I16.065017 J-3.925146
G02 X109.655863 Y95.732114 Z-0.125000 I14.579951 J-7.811519
G02 X112.857672 Y98.429718 Z-0.125000 I12.334675 J-11.391202
G02 X116.661003 Y100.262624 Z-0.125000 I9.133464 J-14.089727
G02 X120.799525 Y101.097658 Z-0.125000 I5.421069 J-16.194412
G02 X125.051243 Y100.885724 Z-0.125000 I1.282385 J-17.027305
G02 X129.120706 Y99.636177 Z-0.125000 I-3.013520 J-17.065668
G02 X132.783633 Y97.415634 Z-0.125000 I-7.081436 J-15.812667
G02 X135.793299 Y94.367739 Z-0.125000 I-10.843005 J-13.716912
G02 X137.976203 Y90.668764 Z-0.125000 I-13.850215 J-10.667125
G02 X139.192058 Y86.549396 Z-0.125000 I-16.055870 J-6.978101
G02 X139.368803 Y82.263844 Z-0.125000 I-17.271781 J-2.858743
G02 X138.494734 Y78.064645 Z-0.125000 I-17.333342 J1.417391
G02 X136.631593 Y74.225594 Z-0.125000 I-16.461505 J5.617352
G02 X133.884425 Y70.960187 Z-0.125000 I-14.408401 J9.333413
G02 X130.445813 Y68.489004 Z-0.125000 I-11.662444 J12.600128
G02 X126.503731 Y66.942723 Z-0.125000 I-8.089354 J14.824862
G02 X122.337003 Y66.425584 Z-0.125000 I-4.147333 J16.371383
G02 X118.172517 Y66.960635 Z-0.125000 I0.018529 J16.618560
G02 X114.301473 Y68.507564 Z-0.125000 I4.183771 J16.086415
G02 X110.940654 Y70.973914 Z-0.125000 I7.963053 J14.374024
G02 X108.317553 Y74.192274 Z-0.125000 I11.323519 J11.907303
G02 X106.586777 Y77.966251 Z-0.125000 I13.891941 J8.654815
G02 X105.861243 Y82.055034 Z-0.125000 I15.623455 J4.881068
G02 X106.185615 Y86.194998 Z-0.125000 I16.422925 J0.795930
G02 X107.544793 Y90.137924 Z-0.125000 I16.101315 J-3.344607
G02 X109.846950 Y93.615580 Z-0.125000 I14.916237 J-7.373504
G02 X112.966843 Y96.429194 Z-0.125000 I12.616183 J-10.852969
G02 X116.687998 Y98.379326 Z-0.125000 I9.648986 J-13.886425
G02 X120.810683 Y99.355764 Z-0.125000 I5.927707 J-15.836226
G02 X125.046810 Y99.285315 Z-0.125000 I1.834481 J-17.087061
G02 X129.166603 Y98.168414 Z-0.125000 I-2.401250 J-17.013807
G02 X132.887210 Y96.076259 Z-0.125000 I-6.603290 J-16.097407
G02 X135.999503 Y93.125194 Z-0.125000 I-10.321821 J-14.002436
G02 X138.297826 Y89.504023 Z-0.125000 I-13.514641 J-11.117563
G02 X139.647113 Y85.428244 Z-0.125000 I-15.811016 J-7.495468
G02 X139.962263 Y81.146509 Z-0.125000 I-17.127123 J-3.413077
G02 X139.226993 Y76.929484 Z-0.125000 I-17.442922 J0.868690
G02 X137.483429 Y73.020018 Z-0.125000 I-16.551594 J5.038231
G02 X134.852593 Y69.677194 Z-0.125000 I-14.809607 J8.948650
G02 X131.480909 Y67.083397 Z-0.125000 I-12.001862 J12.112927
G02 X127.605453 Y65.414494 Z-0.125000 I-8.630590 J14.707427
G02 X123.437479 Y64.756835 Z-0.125000 I-4.677808 J16.109747
G02 X119.270443 Y65.152614 Z-0.125000 I-0.509818 J16.766894
G02 X115.333662 Y66.574823 Z-0.125000 I3.605756 J16.140750
G02 X111.898713 Y68.923294 Z-0.125000 I7.541897 J14.717295
G02 X109.162049 Y72.057764 Z-0.125000 I10.885490 J12.265883
G02 X107.305553 Y75.770984 Z-0.125000 I13.621877 J9.131227
G02 X106.441187 Y79.831479 Z-0.125000 I15.472365 J5.415882
G02 X106.625903 Y83.986844 Z-0.125000 I16.338244 J1.355513
G02 X107.846559 Y87.963184 Z-0.125000 I16.277443 J-2.821319
G02 X110.036503 Y91.527094 Z-0.125000 I15.059173 J-6.798736
G02 X113.046233 Y94.432044 Z-0.125000 I13.046186 J-10.505137
G02 X116.712633 Y96.513404 Z-0.125000 I10.037398 J-13.411344
G02 X120.780297 Y97.621718 Z-0.125000 I6.475140 J-15.746045
G02 X125.029983 Y97.692784 Z-0.125000 I2.407260 J-16.852840
G02 X129.166624 Y96.716587 Z-0.125000 I-1.869914 J-17.176397
G02 X132.962413 Y94.744374 Z-0.125000 I-6.005365 J-16.196990
G02 X136.160702 Y91.903861 Z-0.125000 I-9.898386 J-14.365956
G02 X138.577963 Y88.357974 Z-0.125000 I-13.094385 J-11.523428
G02 X140.057652 Y84.329714 Z-0.125000 I-15.553187 J-7.999002
G02 X140.511883 Y80.065174 Z-0.125000 I-17.032482 J-3.970650
G02 X139.911929 Y75.818680 Z-0.125000 I-17.397999 J0.292399
G02 X138.300793 Y71.864354 Z-0.125000 I-16.799067 J4.539170
G02 X135.770179 Y68.425081 Z-0.125000 I-15.011661 J8.394920
G02 X132.496093 Y65.731424 Z-0.125000 I-12.482375 J11.835453
G02 X128.659064 Y63.927887 Z-0.125000 I-9.066321 J14.305206
G02 X124.529003 Y63.136064 Z-0.125000 I-5.229395 J16.109061
G02 X120.331656 Y63.394471 Z-0.125000 I-1.082279 J16.638680
G02 X116.360123 Y64.681844 Z-0.125000 I3.114810 J16.378913
G02 X112.836300 Y66.920862 Z-0.125000 I7.002818 J14.913661
G02 X109.999413 Y69.958514 Z-0.125000 I10.525875 J12.673719
G02 X108.015417 Y73.610793 Z-0.125000 I13.294894 J9.587083
G02 X107.014103 Y77.642414 Z-0.125000 I15.279583 J5.935073
G02 X107.056863 Y81.796311 Z-0.125000 I16.329564 J1.909073
G02 X108.144973 Y85.820544 Z-0.125000 I16.288822 J-2.245102
G02 X110.205401 Y89.444504 Z-0.125000 I15.357582 J-6.333946
G02 X113.124943 Y92.458954 Z-0.125000 I13.299160 J-9.959409
G02 X116.702507 Y94.652484 Z-0.125000 I10.535248 J-13.168386
G02 X120.744543 Y95.900714 Z-0.125000 I6.957728 J-15.362011
G02 X124.969611 Y96.112104 Z-0.125000 I2.962095 J-16.874532
G02 X129.147963 Y95.271584 Z-0.125000 I-1.262783 J-17.083355
G02 X132.992420 Y93.431737 Z-0.125000 I-5.511513 J-16.453116
G02 X136.287453 Y90.694084 Z-0.125000 I-9.354103 J-14.610353
G02 X138.814158 Y87.234649 Z-0.125000 I-12.737066 J-11.955356
G02 X140.424693 Y83.257474 Z-0.125000 I-15.262020 J-8.494946
G02 X141.016708 Y79.007611 Z-0.125000 I-16.863159 J-4.515238
G02 X140.556353 Y74.751044 Z-0.125000 I-17.455154 J-0.265375
G02 X139.069862 Y70.735988 Z-0.125000 I-16.860895 J3.959697
G02 X136.659793 Y67.226104 Z-0.125000 I-15.376004 J7.975584
G02 X133.461604 Y64.415484 Z-0.125000 I-12.793439 J11.332673
G02 X129.698563 Y62.493664 Z-0.125000 I-9.595769 J14.144059
G02 X125.577175 Y61.561837 Z-0.125000 I-5.741811 J15.815345
G02 X121.386523 Y61.681104 Z-0.125000 I-1.620402 J16.746952
G02 X117.357510 Y62.839979 Z-0.125000 I2.533957 J16.392892
G02 X113.768223 Y64.956124 Z-0.125000 I6.562605 J15.233170
G02 X110.822993 Y67.903463 Z-0.125000 I10.059377 J12.997409
G02 X108.718323 Y71.485694 Z-0.125000 I13.004217 J10.049769
G02 X107.580097 Y75.481509 Z-0.125000 I15.082749 J6.456411
G02 X107.482583 Y79.639974 Z-0.125000 I16.222179 J2.460778
G02 X108.430787 Y83.690082 Z-0.125000 I16.419569 J-1.708070
G02 X110.372933 Y87.391424 Z-0.125000 I15.473608 J-5.759012
G02 X113.177507 Y90.490812 Z-0.125000 I13.699120 J-9.577465
G02 X116.691003 Y92.811154 Z-0.125000 I10.895792 J-12.678304
G02 X120.670162 Y94.187702 Z-0.125000 I7.496809 J-15.231363
G02 X124.899203 Y94.541204 Z-0.125000 I3.517463 J-16.607031
G02 X129.085045 Y93.842399 Z-0.125000 I-0.722103 J-17.211399
G02 X132.997103 Y92.127044 Z-0.125000 I-4.907149 J-16.509916
G02 X136.370104 Y89.506096 Z-0.125000 I-8.911962 J-14.950054
G02 X139.011253 Y86.128814 Z-0.125000 I-12.282812 J-12.326949
G02 X140.748351 Y82.209107 Z-0.125000 I-14.980978 J-8.983897
G02 X141.478343 Y77.984224 Z-0.125000 I-16.717544 J-5.064029
G02 X141.155210 Y73.708938 Z-0.125000 I-17.383342 J-0.835995
G02 X139.803453 Y69.656534 Z-0.125000 I-17.061610 J3.439574
G02 X137.500659 Y66.058404 Z-0.125000 I-15.548809 J7.415240
G02 X134.405743 Y63.153864 Z-0.125000 I-13.247320 J11.014455
G02 X130.690882 Y61.100860 Z-0.125000 I-10.006310 J13.718699
G02 X126.615803 Y60.037564 Z-0.125000 I-6.291641 J15.772185
G02 X122.404329 Y60.017928 Z-0.125000 I-2.183091 J16.581192
G02 X118.349893 Y61.039934 Z-0.125000 I2.028217 J16.599470
G02 X114.678784 Y63.041449 Z-0.125000 I6.008865 J15.388714
G02 X111.640753 Y65.884924 Z-0.125000 I9.679295 J13.386260
G02 X109.412385 Y69.399103 Z-0.125000 I12.639909 J10.478668
G02 X108.139943 Y73.355714 Z-0.125000 I14.868590 J6.964635
G02 X107.900949 Y77.505017 Z-0.125000 I16.165871 J3.012665
G02 X108.713483 Y81.592654 Z-0.125000 I16.407044 J-1.136789
G02 X110.523219 Y85.346826 Z-0.125000 I15.732051 J-5.270505
G02 X113.229803 Y88.548564 Z-0.125000 I13.924052 J-9.025802
G02 X116.648223 Y90.975698 Z-0.125000 I11.372759 J-12.396752
G02 X120.591953 Y92.489944 Z-0.125000 I7.954535 J-14.824251
G02 X124.787632 Y92.982042 Z-0.125000 I4.072446 J-16.589664
G02 X129.006213 Y92.421444 Z-0.125000 I-0.123222 J-17.080289
G02 X132.957810 Y90.841713 Z-0.125000 I-4.398751 J-16.735399
G02 X136.421213 Y88.329414 Z-0.125000 I-8.348931 J-15.153098
G02 X139.165303 Y85.046632 Z-0.125000 I-11.903981 J-12.738873
G02 X141.030203 Y81.185464 Z-0.125000 I-14.646261 J-9.454922
G02 X141.896546 Y76.985958 Z-0.125000 I-16.522895 J-5.597730
G02 X141.713413 Y72.708424 Z-0.125000 I-17.389087 J-1.398211
G02 X140.490614 Y68.605299 Z-0.125000 I-17.095026 J2.860833
G02 X138.312183 Y64.943554 Z-0.125000 I-15.873392 J6.964469
G02 X135.301748 Y61.928380 Z-0.125000 I-13.529863 J10.498159
G02 X131.667853 Y59.761814 Z-0.125000 I-10.520174 J13.514290
G02 X127.611451 Y58.559758 Z-0.125000 I-6.784266 J15.448562
G02 X123.415743 Y58.401754 Z-0.125000 I-2.727866 J16.650633
G02 X119.312481 Y59.291930 Z-0.125000 I1.447290 J16.573353
G02 X115.584763 Y61.166294 Z-0.125000 I5.550213 J15.682219
G02 X112.444089 Y63.913211 Z-0.125000 I9.187890 J13.673821
G02 X110.100683 Y67.348574 Z-0.125000 I12.327982 J10.926388
G02 X108.693700 Y71.261843 Z-0.125000 I14.628462 J7.469108
G02 X108.314653 Y75.404974 Z-0.125000 I16.036357 J3.556041
G02 X108.986299 Y79.510830 Z-0.125000 I16.492097 J-0.589956
G02 X110.672353 Y83.333094 Z-0.125000 I15.821804 J-4.696214
G02 X113.259559 Y86.613139 Z-0.125000 I14.291311 J-8.612197
G02 X116.604893 Y89.161974 Z-0.125000 I11.705598 J-11.893759
G02 X120.478226 Y90.800538 Z-0.125000 I8.482070 J-14.653127
G02 X124.668123 Y91.434684 Z-0.125000 I4.608671 J-16.291454
G02 X128.884981 Y91.016122 Z-0.125000 I0.424943 J-17.169768
G02 X132.896163 Y89.564994 Z-0.125000 I-3.791749 J-16.750474
G02 X136.429212 Y87.174862 Z-0.125000 I-7.888258 J-15.466584
G02 X139.282763 Y83.980954 Z-0.125000 I-11.419075 J-13.073897
G02 X141.269726 Y80.186783 Z-0.125000 I-14.341763 J-9.927975
G02 X142.272483 Y76.020054 Z-0.125000 I-16.327695 J-6.133416
G02 X142.227677 Y71.734590 Z-0.125000 I-17.290255 J-1.962189
G02 X141.141523 Y67.601754 Z-0.125000 I-17.246469 J2.323412
G02 X139.076806 Y63.860494 Z-0.125000 I-16.017158 J6.399144
G02 X136.174903 Y60.757574 Z-0.125000 I-13.953691 J10.141312
G02 X132.598765 Y58.464033 Z-0.125000 I-10.904629 J13.067967
G02 X128.596753 Y57.133684 Z-0.125000 I-7.328843 J15.362245
G02 X124.389938 Y56.835899 Z-0.125000 I-3.278317 J16.449112
G02 X120.270543 Y57.587834 Z-0.125000 I0.928464 J16.746303
G02 X116.468537 Y59.342741 Z-0.125000 I4.985724 J15.797550
G02 X113.242843 Y61.979404 Z-0.125000 I8.787074 J14.041595
G02 X110.780033 Y65.339716 Z-0.125000 I11.929460 J11.325897
G02 X109.242283 Y69.203794 Z-0.125000 I14.392212 J7.965553
G02 X108.722654 Y73.330020 Z-0.125000 I15.933536 J4.102396
G02 X109.256283 Y77.462894 Z-0.125000 I16.455629 J-0.023834
G02 X110.807439 Y81.330608 Z-0.125000 I16.038163 J-4.187237
G02 X113.289373 Y84.705284 Z-0.125000 I14.489093 J-8.056111
G02 X116.533784 Y87.355217 Z-0.125000 I12.158417 J-11.574906
G02 X120.362003 Y89.128534 Z-0.125000 I8.914345 J-14.225381
G02 X124.510032 Y89.898992 Z-0.125000 I5.160701 J-16.233018
G02 X128.750373 Y89.620494 Z-0.125000 I1.012617 J-17.002553
G02 X132.791935 Y88.307581 Z-0.125000 I-3.269994 J-16.943139
G02 X136.408553 Y86.031574 Z-0.125000 I-7.310489 J-15.627945
G02 X139.358093 Y82.939603 Z-0.125000 I-11.019330 J-13.464548
G02 X141.469333 Y79.211364 Z-0.125000 I-13.966950 J-10.371151
G02 X142.606267 Y75.080443 Z-0.125000 I-16.108129 J-6.655282
G02 X142.701403 Y70.800644 Z-0.125000 I-17.244559 J-2.524287
G02 X141.747760 Y66.627359 Z-0.125000 I-17.251661 J1.746599
G02 X139.810813 Y62.829664 Z-0.125000 I-16.299169 J5.920303
G02 X137.001521 Y59.623086 Z-0.125000 I-14.207295 J9.613147
G02 X133.512973 Y57.221054 Z-0.125000 I-11.398982 J12.820826
G02 X129.539632 Y55.753906 Z-0.125000 I-7.800200 J15.010665
G02 X125.357443 Y55.319084 Z-0.125000 I-3.826925 J16.478100
G02 X121.198244 Y55.936414 Z-0.125000 I0.350451 J16.680893
G02 X117.348583 Y57.560604 Z-0.125000 I4.509277 J16.062238
G02 X114.026481 Y60.094699 Z-0.125000 I8.274043 J14.291580
G02 X111.454813 Y63.367984 Z-0.125000 I11.595834 J11.757169
G02 X109.785337 Y67.181221 Z-0.125000 I14.110827 J8.449946
G02 X109.126663 Y71.290644 Z-0.125000 I15.781191 J4.636969
G02 X109.518843 Y75.434000 Z-0.125000 I16.493519 J0.529083
G02 X110.941653 Y79.360144 Z-0.125000 I16.102270 J-3.614483
G02 X113.300228 Y82.806310 Z-0.125000 I14.820718 J-7.613189
G02 X116.462863 Y85.572134 Z-0.125000 I12.463617 J-11.060662
G02 X120.213538 Y87.465380 Z-0.125000 I9.426956 J-14.013755
G02 X124.345933 Y88.377104 Z-0.125000 I5.676365 J-15.907236
G02 X128.575490 Y88.240401 Z-0.125000 I1.565725 J-17.055940
G02 X132.668213 Y87.059754 Z-0.125000 I-2.663491 J-16.917067
G02 X136.345933 Y84.910694 Z-0.125000 I-6.832033 J-15.913165
G02 X139.399473 Y81.914114 Z-0.125000 I-10.508042 J-13.761863
G02 X141.627642 Y78.261910 Z-0.125000 I-13.639383 J-10.827029
G02 X142.898973 Y74.171574 Z-0.125000 I-15.865863 J-7.174062
G02 X143.132737 Y69.894612 Z-0.125000 I-17.119060 J-3.080538
G02 X142.317223 Y65.699374 Z-0.125000 I-17.353505 J1.196471
G02 X140.499761 Y61.831316 Z-0.125000 I-16.413738 J5.351221
G02 X137.803893 Y58.543464 Z-0.125000 I-14.597626 J9.220131
G02 X134.382385 Y56.019353 Z-0.125000 I-11.756939 J12.355851
G02 X130.471223 Y54.427544 Z-0.125000 I-8.335768 J14.880564
G02 X126.287815 Y53.852752 Z-0.125000 I-4.362918 J16.242774
G02 X122.121683 Y54.331144 Z-0.125000 I-0.179500 J16.816613
G02 X118.205728 Y55.831466 Z-0.125000 I3.937407 J16.137560
G02 X114.806683 Y58.249594 Z-0.125000 I7.853047 J14.636651
G02 X112.120406 Y61.440959 Z-0.125000 I11.165995 J12.125031
G02 X110.324313 Y65.195404 Z-0.125000 I13.852143 J8.933582
G02 X109.526385 Y69.280156 Z-0.125000 I15.632634 J5.174036
G02 X109.779073 Y73.439914 Z-0.125000 I16.432010 J1.089379
G02 X111.064891 Y77.404011 Z-0.125000 I16.275023 J-3.088478
G02 X113.311503 Y80.936524 Z-0.125000 I14.991506 J-7.053658
G02 X116.367765 Y83.797499 Z-0.125000 I12.889277 J-10.706160
G02 X120.063763 Y85.821814 Z-0.125000 I9.833551 J-13.567875
G02 X124.146106 Y86.867085 Z-0.125000 I6.222723 J-15.808560
G02 X128.389623 Y86.871744 Z-0.125000 I2.140263 J-16.852912
G02 X132.503573 Y85.831194 Z-0.125000 I-2.130512 J-17.076047
G02 X136.257573 Y83.801354 Z-0.125000 I-6.243505 J-16.033038
G02 X139.399720 Y80.913537 Z-0.125000 I-10.087224 J-14.128955
G02 X141.748163 Y77.334554 Z-0.125000 I-13.227533 J-11.239576
G02 X143.150753 Y73.290173 Z-0.125000 I-15.621132 J-7.682802
G02 X143.523983 Y69.026844 Z-0.125000 I-17.023019 J-3.638271
G02 X142.843758 Y64.801599 Z-0.125000 I-17.330165 J0.622619
G02 X141.157073 Y60.884484 Z-0.125000 I-16.651385 J4.848284
G02 X138.561414 Y57.500515 Z-0.125000 I-14.822438 J8.682008
G02 X135.233753 Y54.873334 Z-0.125000 I-12.227639 J12.066826
G02 X131.361185 Y53.147448 Z-0.125000 I-8.784676 J14.503580
G02 X127.211023 Y52.437484 Z-0.125000 I-4.912240 J16.229903
G02 X123.014447 Y52.779030 Z-0.125000 I-0.751908 J16.713731
G02 X119.059863 Y54.145724 Z-0.125000 I3.444571 J16.371730
G02 X115.571139 Y56.455578 Z-0.125000 I7.322003 J14.848450
G02 X112.782663 Y59.552294 Z-0.125000 I10.810244 J12.538037
G02 X110.858136 Y63.248439 Z-0.125000 I13.531878 J9.394956
G02 X109.922963 Y67.305964 Z-0.125000 I15.457057 J5.699051
G02 X110.033984 Y71.468398 Z-0.125000 I16.423466 J1.644648
G02 X111.187553 Y75.480954 Z-0.125000 I16.314118 J-2.518044
G02 X113.307204 Y79.077961 Z-0.125000 I15.285299 J-6.584311
G02 X116.273423 Y82.048344 Z-0.125000 I13.167199 J-10.182518
G02 X119.885099 Y84.187822 Z-0.125000 I10.328163 J-13.316888
G02 X123.941933 Y85.372874 Z-0.125000 I6.716518 J-15.456437
G02 X128.165781 Y85.518457 Z-0.125000 I2.695787 J-16.866986
G02 X132.322103 Y84.613304 Z-0.125000 I-1.527941 J-17.011234
G02 X136.128499 Y82.714511 Z-0.125000 I-5.748607 J-16.288511
G02 X139.368673 Y79.928374 Z-0.125000 I-9.553731 J-14.387803
G02 X141.828362 Y76.433953 Z-0.125000 I-12.876354 J-11.676426
G02 X143.362863 Y72.437944 Z-0.125000 I-15.334708 J-8.181293
G02 X143.874214 Y68.188085 Z-0.125000 I-16.870971 J-4.185642
G02 X143.333163 Y63.948794 Z-0.125000 I-17.381688 J0.064215
G02 X141.771025 Y59.970829 Z-0.125000 I-16.737017 J4.276885
G02 X139.293283 Y56.512294 Z-0.125000 I-15.175873 J8.255390
G02 X136.041632 Y53.768638 Z-0.125000 I-12.558500 J11.585059
G02 X132.238683 Y51.922134 Z-0.125000 I-9.307427 J14.329606
G02 X128.097335 Y51.072706 Z-0.125000 I-5.431949 J15.963028
G02 X123.902893 Y51.275174 Z-0.125000 I-1.290576 J16.812134
G02 X119.890449 Y52.514069 Z-0.125000 I2.868460 J16.407212
G02 X116.333103 Y54.702894 Z-0.125000 I6.880748 J15.167973
G02 X113.435325 Y57.710984 Z-0.125000 I10.352783 J12.872931
G02 X111.388943 Y61.339194 Z-0.125000 I13.250228 J9.864594
G02 X110.316298 Y65.364259 Z-0.125000 I15.264832 J6.223402
G02 X110.287143 Y69.532474 Z-0.125000 I16.338635 J2.198493
G02 X111.302018 Y73.575351 Z-0.125000 I16.442554 J-1.978719
G02 X113.303653 Y77.249944 Z-0.125000 I15.429292 J-6.022226
G02 X116.158436 Y80.309268 Z-0.125000 I13.562674 J-9.794277
G02 X119.706113 Y82.575414 Z-0.125000 I10.708751 J-12.854633
G02 X123.705006 Y83.890771 Z-0.125000 I7.253999 J-15.316992
G02 X127.933103 Y84.178344 Z-0.125000 I3.255056 J-16.632098
G02 X132.101539 Y83.414521 Z-0.125000 I-0.985434 J-17.134022
G02 X135.976463 Y81.639674 Z-0.125000 I-5.153200 J-16.368069
G02 X139.297547 Y78.968456 Z-0.125000 I-9.112387 J-14.729427
G02 X141.872983 Y75.554414 Z-0.125000 I-12.431633 J-12.056426
G02 X143.535129 Y71.614144 Z-0.125000 I-15.064474 J-8.675443
G02 X144.185023 Y67.385934 Z-0.125000 I-16.725305 J-4.734801
G02 X143.781241 Y63.127177 Z-0.125000 I-17.332232 J-0.505213
G02 X142.352513 Y59.107724 Z-0.125000 I-16.927849 J3.753411
G02 X139.982006 Y55.561164 Z-0.125000 I-15.371983 J7.709072
G02 X136.830093 Y52.720164 Z-0.125000 I-13.002394 J11.256427
G02 X133.075520 Y50.743024 Z-0.125000 I-9.732713 J13.928821
G02 X128.975793 Y49.760814 Z-0.125000 I-5.978477 J15.906861
G02 X124.760512 Y49.824917 Z-0.125000 I-1.854584 J16.672443
G02 X120.718513 Y50.927944 Z-0.125000 I2.360617 J16.607781
G02 X117.078698 Y53.003119 Z-0.125000 I6.334860 J15.340884
G02 X114.085803 Y55.909534 Z-0.125000 I9.974483 J13.265454
G02 X111.914803 Y59.472048 Z-0.125000 I12.894033 J10.300398
G02 X110.707433 Y63.459754 Z-0.125000 I15.065287 J6.737997
G02 X110.536862 Y67.622728 Z-0.125000 I16.283798 J2.752185
G02 X111.416353 Y71.703894 Z-0.125000 I16.456061 J-1.410934
G02 X113.287811 Y75.435773 Z-0.125000 I15.683558 J-5.529782
G02 X116.044773 Y78.597424 Z-0.125000 I13.813891 J-9.262862
G02 X119.501703 Y80.973622 Z-0.125000 I11.181805 J-12.564772
G02 X123.465243 Y82.426544 Z-0.125000 I7.725342 J-14.941874
G02 X127.665001 Y82.853619 Z-0.125000 I3.810255 J-16.605902
G02 X131.866683 Y82.227774 Z-0.125000 I-0.389480 J-17.031968
G02 X135.785197 Y80.587367 Z-0.125000 I-4.643145 J-16.591656
G02 X139.197823 Y78.023844 Z-0.125000 I-8.560445 J-14.949128
G02 X141.878324 Y74.702327 Z-0.125000 I-12.057266 J-12.472702
G02 X143.669393 Y70.818164 Z-0.125000 I-14.736146 J-9.150178
G02 X144.456155 Y66.613936 Z-0.125000 I-16.546439 J-5.272160
G02 X144.192213 Y62.349114 Z-0.125000 I-17.332617 J-1.067896
G02 X142.892352 Y58.278654 Z-0.125000 I-16.984909 J3.181185
G02 X140.643873 Y54.664454 Z-0.125000 I-15.685827 J7.252005
G02 X137.576526 Y51.713259 Z-0.125000 I-13.305691 J10.759740
G02 X133.898683 Y49.619944 Z-0.125000 I-10.238955 J13.711753
G02 X129.817837 Y48.499506 Z-0.125000 I-6.480100 J15.609919
G02 X125.613623 Y48.424994 Z-0.125000 I-2.399285 J16.730573
G02 X121.522583 Y49.396794 Z-0.125000 I1.783414 J16.604767
G02 X117.822673 Y51.346564 Z-0.125000 I5.874275 J15.632491
G02 X114.726293 Y54.157866 Z-0.125000 I9.492296 J13.565691
G02 X112.438783 Y57.643804 Z-0.125000 I12.588405 J10.754158
G02 X111.096196 Y61.591214 Z-0.125000 I14.830883 J7.246280
G02 X110.785543 Y65.749444 Z-0.125000 I16.174541 J3.299088
G02 X111.525056 Y69.853163 Z-0.125000 I16.539131 J-0.861953
G02 X113.273143 Y73.653474 Z-0.125000 I15.801570 J-4.966285
G02 X115.913973 Y76.897579 Z-0.125000 I14.176426 J-8.843250
G02 X119.297883 Y79.395344 Z-0.125000 I11.536625 J-12.088432
G02 X123.195909 Y80.974894 Z-0.125000 I8.250598 J-14.761322
G02 X127.390053 Y81.543894 Z-0.125000 I4.352542 J-16.340760
G02 X131.594836 Y81.059989 Z-0.125000 I0.160281 J-17.117463
G02 X135.573693 Y79.547814 Z-0.125000 I-4.043895 J-16.631062
G02 X139.059255 Y77.104709 Z-0.125000 I-8.099392 J-15.263315
G02 X141.850463 Y73.870564 Z-0.125000 I-11.583516 J-12.818619
G02 X143.764927 Y70.051509 Z-0.125000 I-14.440665 J-9.628378
G02 X144.688813 Y65.876984 Z-0.125000 I-16.353752 J-5.808834
G02 X144.563325 Y61.603284 Z-0.125000 I-17.253936 J-1.632067
G02 X143.399053 Y57.499044 Z-0.125000 I-17.128233 J2.641600
G02 X141.264217 Y53.805406 Z-0.125000 I-15.853161 J6.698993
G02 X138.302133 Y50.762894 Z-0.125000 I-13.718757 J10.392958
G02 X134.682238 Y48.543119 Z-0.125000 I-10.639887 J13.289523
G02 X130.651113 Y47.292764 Z-0.125000 I-7.020258 J15.509884
G02 X126.435926 Y47.078978 Z-0.125000 I-2.952699 J16.555955
G02 X122.324353 Y47.913304 Z-0.125000 I1.262481 J16.769648
G02 X118.549679 Y49.744442 Z-0.125000 I5.317341 J15.767154
G02 X115.365623 Y52.447684 Z-0.125000 I9.091942 J13.935906
G02 X112.957808 Y55.860633 Z-0.125000 I12.198972 J11.162127
G02 X111.483733 Y59.760874 Z-0.125000 I14.607154 J7.749373
G02 X111.032367 Y63.905889 Z-0.125000 I16.074888 J3.847538
G02 X111.634133 Y68.037564 Z-0.125000 I16.527336 J-0.297497
G02 X113.249225 Y71.887793 Z-0.125000 I16.014277 J-4.453798
G02 X115.784993 Y75.226574 Z-0.125000 I14.401035 J-8.305094
G02 X119.072116 Y77.828957 Z-0.125000 I11.985516 J-11.761943
G02 X122.925023 Y79.543114 Z-0.125000 I8.698613 J-14.364688
G02 X127.082416 Y80.249671 Z-0.125000 I4.904552 J-16.274105
G02 X131.311033 Y79.905694 Z-0.125000 I0.747106 J-16.979455
G02 X135.324595 Y78.530710 Z-0.125000 I-3.520258 J-16.820857
G02 X138.894733 Y76.200984 Z-0.125000 I-7.532886 J-15.443960
G02 X141.784368 Y73.066751 Z-0.125000 I-11.185901 J-13.212122
G02 X143.824263 Y69.311484 Z-0.125000 I-14.074084 J-10.076850
G02 X144.883016 Y65.171175 Z-0.125000 I-16.147545 J-6.334751
G02 X144.897543 Y60.899534 Z-0.125000 I-17.205635 J-2.194357
G02 X143.865722 Y56.754353 Z-0.125000 I-17.156083 J2.069491
G02 X141.856633 Y53.000234 Z-0.125000 I-16.125086 J6.214990
G02 X138.987205 Y49.854410 Z-0.125000 I-13.994458 J9.883319
G02 X135.450823 Y47.523274 Z-0.125000 I-11.125587 J13.029795
G02 X131.448639 Y46.136663 Z-0.125000 I-7.502421 J15.185214
G02 X127.253263 Y45.785294 Z-0.125000 I-3.500368 J16.572448
G02 X123.101833 Y46.485548 Z-0.125000 I0.686997 J16.728758
G02 X119.275713 Y48.187554 Z-0.125000 I4.838319 J16.028147
G02 X115.994528 Y50.789448 Z-0.125000 I8.588315 J14.200376
G02 X113.476073 Y54.117704 Z-0.125000 I11.869534 J11.598516
G02 X111.869538 Y57.969855 Z-0.125000 I14.333137 J8.238695
G02 X111.278953 Y62.099714 Z-0.125000 I15.940015 J4.386638
G02 X111.739882 Y66.246036 Z-0.125000 I16.566021 J0.257207
G02 X113.226943 Y70.155204 Z-0.125000 I16.105874 J-3.889304
G02 X115.642288 Y73.569729 Z-0.125000 I14.728336 J-7.856898
G02 X118.847713 Y76.287894 Z-0.125000 I12.314109 J-11.272445
G02 X122.627872 Y78.124599 Z-0.125000 I9.208551 J-14.143941
G02 X126.769683 Y78.972304 Z-0.125000 I5.428456 J-15.980835
G02 X130.992520 Y78.770291 Z-0.125000 I1.301774 J-17.025652
G02 X135.057843 Y77.527294 Z-0.125000 I-2.920831 J-16.822297
G02 X138.692699 Y75.322840 Z-0.125000 I-7.053292 J-15.728879
G02 X141.687483 Y72.282774 Z-0.125000 I-10.686883 J-13.522824
G02 X143.845937 Y68.601506 Z-0.125000 I-13.753221 J-10.537408
G02 X145.039923 Y64.498984 Z-0.125000 I-15.909934 J-6.855390
G02 X145.193308 Y60.229000 Z-0.125000 I-17.098181 J-2.751944
G02 X144.298843 Y56.057914 Z-0.125000 I-17.251492 J1.518034
G02 X142.409154 Y52.233379 Z-0.125000 I-16.262845 J5.656300
G02 X139.650133 Y49.002544 Z-0.125000 I-14.373810 J9.481266
G02 X136.181005 Y46.549842 Z-0.125000 I-11.501503 J12.588112
G02 X132.236353 Y45.036624 Z-0.125000 I-8.032520 J15.041086
G02 X128.040003 Y44.545766 Z-0.125000 I-4.041098 J16.364650
G02 X123.877043 Y45.107524 Z-0.125000 I0.155261 J16.856467
G02 X119.984322 Y46.686354 Z-0.125000 I4.273437 J16.124784
G02 X116.623203 Y49.174434 Z-0.125000 I8.165935 J14.545557
G02 X113.989289 Y52.422538 Z-0.125000 I11.449488 J11.976468
G02 X112.255143 Y56.218114 Z-0.125000 I14.083940 J8.728697
G02 X111.525007 Y60.326703 Z-0.125000 I15.796138 J4.926296
G02 X111.846623 Y64.490604 Z-0.125000 I16.527785 J0.817781
G02 X113.198288 Y68.442124 Z-0.125000 I16.276522 J-3.360645
G02 X115.501913 Y71.943154 Z-0.125000 I14.926208 J-7.312827
G02 X118.604853 Y74.760189 Z-0.125000 I12.735276 J-10.910349
G02 X122.330323 Y76.727814 Z-0.125000 I9.633096 J-13.728468
G02 X126.427220 Y77.710643 Z-0.125000 I5.974193 J-15.872953
G02 X130.664213 Y77.649884 Z-0.125000 I1.877228 J-16.855177
G02 X134.755359 Y76.546186 Z-0.125000 I-2.385286 J-16.975989
G02 X138.467343 Y74.460404 Z-0.125000 I-6.475666 J-15.870414
G02 X141.553518 Y71.527039 Z-0.125000 I-10.266722 J-13.891708
G02 X143.833383 Y67.917144 Z-0.125000 I-13.351289 J-10.957023
G02 X145.159537 Y63.858783 Z-0.125000 I-15.676537 J-7.368489
G02 X145.452663 Y59.599044 Z-0.125000 I-17.001383 J-3.309874
G02 X144.693461 Y55.397267 Z-0.125000 I-17.250014 J0.947358
G02 X142.932823 Y51.519624 Z-0.125000 I-16.491068 J5.149215
G02 X140.274040 Y48.192950 Z-0.125000 I-14.621198 J8.959896
G02 X136.894873 Y45.634054 Z-0.125000 I-11.962973 J12.287144
G02 X132.989126 Y43.987287 Z-0.125000 I-8.494011 J14.690671
G02 X128.821153 Y43.360414 Z-0.125000 I-4.588383 J16.337864
G02 X124.627824 Y43.785900 Z-0.125000 I-0.415692 J16.779370
G02 X120.692403 Y45.232504 Z-0.125000 I3.777250 J16.352208
G02 X117.241017 Y47.613315 Z-0.125000 I7.644577 J14.774187
G02 X114.502793 Y50.769184 Z-0.125000 I11.096030 J12.393450
G02 X112.639461 Y54.508880 Z-0.125000 I13.772051 J9.196088
G02 X111.771733 Y58.592124 Z-0.125000 I15.636086 J5.456638
G02 X111.952066 Y62.762664 Z-0.125000 I16.520399 J1.374830
G02 X113.171783 Y66.763334 Z-0.125000 I16.341923 J-2.796028
G02 X115.351080 Y70.333171 Z-0.125000 I15.216462 J-6.839151
G02 X118.364083 Y73.259564 Z-0.125000 I13.038280 J-10.409878
G02 X122.009868 Y75.345260 Z-0.125000 I10.124374 J-13.468097
G02 X126.081233 Y76.467754 Z-0.125000 I6.478838 J-15.554389
G02 X130.303712 Y76.548394 Z-0.125000 I2.434023 J-16.861239
G02 X134.437663 Y75.579894 Z-0.125000 I-1.788245 J-16.939892
G02 X138.205979 Y73.623612 Z-0.125000 I-5.978521 J-16.123740
G02 X141.391223 Y70.790924 Z-0.125000 I-9.745782 J-14.165923
G02 X143.784270 Y67.263453 Z-0.125000 I-13.004828 J-11.397974
G02 X145.243243 Y63.250944 Z-0.125000 I-15.396252 J-7.869673
G02 X145.674876 Y59.003300 Z-0.125000 I-16.865480 J-3.859574
G02 X145.054373 Y54.783644 Z-0.125000 I-17.296853 J0.388063
G02 X143.418184 Y50.844949 Z-0.125000 I-16.599757 J4.586574
G02 X140.874583 Y47.439854 Z-0.125000 I-14.964046 J8.525541
G02 X137.571610 Y44.764959 Z-0.125000 I-12.312960 J11.827391
G02 X133.730943 Y42.995334 Z-0.125000 I-9.010385 J14.502926
G02 X129.572106 Y42.229488 Z-0.125000 I-5.114620 J16.099378
G02 X125.376143 Y42.516104 Z-0.125000 I-0.955767 J16.864944
G02 X121.382704 Y43.835500 Z-0.125000 I3.207524 J16.411478
G02 X117.859373 Y46.097364 Z-0.125000 I7.201025 J15.092212
G02 X115.011092 Y49.166107 Z-0.125000 I10.649116 J12.740271
G02 X113.024633 Y52.840254 Z-0.125000 I13.497549 J9.671636
G02 X112.019000 Y56.894144 Z-0.125000 I15.449859 J5.984263
G02 X112.059243 Y61.071864 Z-0.125000 I16.456834 J1.930531
G02 X113.141558 Y65.107154 Z-0.125000 I16.468727 J-2.254326
G02 X115.203113 Y68.754874 Z-0.125000 I15.387738 J-6.290158
G02 X118.108306 Y71.774098 Z-0.125000 I13.429429 J-10.014873
G02 X121.690073 Y73.986334 Z-0.125000 I10.525013 J-13.035059
G02 X125.708613 Y75.241025 Z-0.125000 I7.014932 J-15.404857
G02 X129.935403 Y75.463554 Z-0.125000 I2.996310 J-16.659089
G02 X134.086313 Y74.635851 Z-0.125000 I-1.243180 J-17.056723
G02 X137.923843 Y72.803114 Z-0.125000 I-5.393637 J-16.227656
G02 X141.193126 Y70.083303 Z-0.125000 I-9.304111 J-14.508568
G02 X143.703013 Y66.634644 Z-0.125000 I-12.571715 J-11.787182
G02 X145.290794 Y62.675891 Z-0.125000 I-15.135521 J-8.368364
G02 X145.861413 Y58.446754 Z-0.125000 I-16.722171 J-4.409312
G02 X145.378211 Y54.206748 Z-0.125000 I-17.265685 J-0.179894
G02 X143.873983 Y50.222544 Z-0.125000 I-16.782355 J4.060081
G02 X141.437608 Y46.729584 Z-0.125000 I-15.182912 J7.994057
G02 X138.230723 Y43.954024 Z-0.125000 I-12.746745 J11.487204
G02 X134.438758 Y42.054297 Z-0.125000 I-9.449859 J14.128113
G02 X130.316633 Y41.154474 Z-0.125000 I-5.658195 J16.028692
G02 X126.100063 Y41.303183 Z-0.125000 I-1.520072 J16.752826
G02 X122.072713 Y42.487904 Z-0.125000 I2.696515 J16.604221
G02 X118.466500 Y44.636955 Z-0.125000 I6.664871 J15.284212
G02 X115.520643 Y47.606474 Z-0.125000 I10.271180 J13.135284
G02 X113.408805 Y51.217051 Z-0.125000 I13.151262 J10.115113
G02 X112.267893 Y55.235664 Z-0.125000 I15.263296 J6.504620
G02 X112.166894 Y59.411895 Z-0.125000 I16.404697 J2.486071
G02 X113.114103 Y63.486354 Z-0.125000 I16.508260 J-1.690422
G02 X115.047791 Y67.195706 Z-0.125000 I15.638694 J-5.793770
G02 X117.855303 Y70.317274 Z-0.125000 I13.706293 J-9.504014
G02 X121.350802 Y72.642734 Z-0.125000 I10.994527 J-12.736498
G02 X125.333893 Y74.034854 Z-0.125000 I7.499238 J-15.062379
G02 X129.537615 Y74.397695 Z-0.125000 I3.552392 J-16.623822
G02 X133.722023 Y73.707834 Z-0.125000 I-0.651301 J-16.985887
G02 X137.607405 Y72.008140 Z-0.125000 I-4.880639 J-16.447502
G02 X140.969143 Y69.395254 Z-0.125000 I-8.765012 J-14.746109
G02 X143.586347 Y66.036883 Z-0.125000 I-12.200132 J-12.206645
G02 X145.304013 Y62.132024 Z-0.125000 I-14.815900 J-8.847417
G02 X146.012033 Y57.925252 Z-0.125000 I-16.557209 J-4.949626
G02 X145.668413 Y53.675554 Z-0.125000 I-17.264131 J-0.742807
G02 X144.292982 Y49.639939 Z-0.125000 I-16.861555 J3.494609
G02 X141.976193 Y46.075424 Z-0.125000 I-15.486378 J7.530348
G02 X138.854025 Y43.190074 Z-0.125000 I-13.070441 J11.011325
G02 X135.134383 Y41.171644 Z-0.125000 I-9.948665 J13.897222
G02 X131.031550 Y40.134098 Z-0.125000 I-6.168097 J15.760080
G02 X126.821113 Y40.144104 Z-0.125000 I-2.065311 J16.798008
G02 X122.744729 Y41.198113 Z-0.125000 I2.124429 J16.625964
G02 X119.074763 Y43.223714 Z-0.125000 I6.200849 J15.572046
G02 X116.024790 Y46.099382 Z-0.125000 I9.800310 J13.449601
G02 X113.794873 Y49.635874 Z-0.125000 I12.850406 J10.574034
G02 X112.518216 Y53.617031 Z-0.125000 I15.036765 J7.017186
G02 X112.277083 Y57.790134 Z-0.125000 I16.314382 J3.036207
G02 X113.085312 Y61.891305 Z-0.125000 I16.590445 J-1.139298
G02 X114.895933 Y65.669534 Z-0.125000 I15.783583 J-5.240923
G02 X117.590656 Y68.877603 Z-0.125000 I14.064660 J-9.078278
G02 X121.013113 Y71.324514 Z-0.125000 I11.370928 J-12.287417
G02 X124.935756 Y72.845486 Z-0.125000 I8.022722 J-14.872087
G02 X129.133813 Y73.350164 Z-0.125000 I4.100097 J-16.393131
G02 X133.326383 Y72.801977 Z-0.125000 I-0.098853 J-17.062647
G02 X137.272623 Y71.230224 Z-0.125000 I-4.291398 J-16.514365
G02 X140.710755 Y68.735771 Z-0.125000 I-8.302435 J-15.059971
G02 X143.439703 Y65.463474 Z-0.125000 I-11.739059 J-12.563904
G02 X145.282200 Y61.621578 Z-0.125000 I-14.527155 J-9.329697
G02 X146.127943 Y57.441644 Z-0.125000 I-16.368632 J-5.487459
G02 X145.922895 Y53.181935 Z-0.125000 I-17.203813 J-1.306655
G02 X144.681923 Y49.108604 Z-0.125000 I-16.998392 J2.952989
G02 X142.478740 Y45.464692 Z-0.125000 I-15.676502 J6.990329
G02 X139.458423 Y42.484514 Z-0.125000 I-13.473504 J10.634388
G02 X135.797060 Y40.340146 Z-0.125000 I-10.365463 J13.500374
G02 X131.739053 Y39.171164 Z-0.125000 I-6.704175 J15.644915
G02 X127.517985 Y39.042349 Z-0.125000 I-2.620666 J16.651798
G02 X123.416493 Y39.959834 Z-0.125000 I1.600416 J16.780765
G02 X119.671494 Y41.867494 Z-0.125000 I5.653175 J15.727759
G02 X116.531043 Y44.637534 Z-0.125000 I9.398239 J13.820196
G02 X114.180101 Y48.102874 Z-0.125000 I12.471479 J10.990978
G02 X112.771163 Y52.039154 Z-0.125000 I14.823366 J7.526119
G02 X112.389282 Y56.202510 Z-0.125000 I16.219254 J3.586890
G02 X113.060013 Y60.332764 Z-0.125000 I16.602084 J-0.576499
G02 X114.739628 Y64.165217 Z-0.125000 I15.994106 J-4.725311
G02 X117.329473 Y67.468074 Z-0.125000 I14.315840 J-8.558570
G02 X120.659397 Y70.023022 Z-0.125000 I11.815730 J-11.952261
G02 X124.536803 Y71.678464 Z-0.125000 I8.486103 J-14.507718
G02 X128.703423 Y72.321823 Z-0.125000 I4.652326 J-16.316168
G02 X132.919933 Y71.913484 Z-0.125000 I0.485685 J-16.958824
G02 X136.905431 Y70.477721 Z-0.125000 I-3.764146 J-16.698302
G02 X140.428913 Y68.096064 Z-0.125000 I-7.748960 J-15.261192
G02 X143.258874 Y64.921403 Z-0.125000 I-11.342658 J-12.959762
G02 X145.227783 Y61.141364 Z-0.125000 I-14.171354 J-9.784227
G02 X146.209123 Y56.993819 Z-0.125000 I-16.174423 J-6.016856
G02 X146.144073 Y52.732734 Z-0.125000 I-17.154377 J-1.869160
G02 X145.035479 Y48.617866 Z-0.125000 I-17.047263 J2.385965
G02 X142.955913 Y44.909524 Z-0.125000 I-15.938661 J6.500830
G02 X140.028360 Y41.826372 Z-0.125000 I-13.770033 J10.143612
G02 X136.446283 Y39.567864 Z-0.125000 I-10.842737 J13.227078
G02 X132.417648 Y38.263131 Z-0.125000 I-7.196547 J15.348844
G02 X128.211383 Y37.996324 Z-0.125000 I-3.167961 J16.653836
G02 X124.070190 Y38.780181 Z-0.125000 I1.028853 J16.766623
G02 X120.269773 Y40.560504 Z-0.125000 I5.170167 J15.983137
G02 X117.031683 Y43.230242 Z-0.125000 I8.906430 J14.101082
G02 X114.568203 Y46.613504 Z-0.125000 I12.144709 J11.431523
G02 X113.026222 Y50.504198 Z-0.125000 I14.558034 J8.020628
G02 X112.504943 Y54.654274 Z-0.125000 I16.100930 J4.130169
G02 X113.035463 Y58.803159 Z-0.125000 I16.633851 J-0.018618
G02 X114.587443 Y62.695164 Z-0.125000 I16.114476 J-4.170388
G02 X117.059906 Y66.077906 Z-0.125000 I14.639379 J-8.105055
G02 X120.308143 Y68.748554 Z-0.125000 I12.167649 J-11.488489
G02 X124.117743 Y70.529076 Z-0.125000 I8.993587 J-14.276886
G02 X128.268663 Y71.313494 Z-0.125000 I5.184061 J-16.057637
G02 X132.484626 Y71.047139 Z-0.125000 I1.042639 J-16.995809
G02 X136.522223 Y69.743194 Z-0.125000 I-3.173163 J-16.728607
G02 X140.114238 Y67.484914 Z-0.125000 I-7.266471 J-15.543897
G02 X143.050293 Y64.403364 Z-0.125000 I-10.857294 J-13.284158
G02 X145.139475 Y60.695045 Z-0.125000 I-13.855222 J-10.248375
G02 X146.256753 Y56.582694 Z-0.125000 I-15.942987 J-6.539474
G02 X146.330809 Y52.321915 Z-0.125000 I-17.063718 J-2.427614
G02 X145.358713 Y48.177334 Z-0.125000 I-17.136643 J1.833044
G02 X143.398476 Y44.398438 Z-0.125000 I-16.099166 J5.953298
G02 X140.578203 Y41.226634 Z-0.125000 I-14.139112 J9.732320
G02 X137.063678 Y38.847041 Z-0.125000 I-11.235748 J12.809396
G02 X133.087773 Y37.413884 Z-0.125000 I-7.721430 J15.189395
G02 X128.880959 Y37.008044 Z-0.125000 I-3.712430 J16.475740
G02 X124.723433 Y37.654114 Z-0.125000 I0.494381 J16.881490
G02 X120.856329 Y39.311830 Z-0.125000 I4.613828 J16.102522
G02 X117.535143 Y41.870134 Z-0.125000 I8.481077 J14.445052
G02 X114.955556 Y45.174810 Z-0.125000 I11.736668 J11.820622
G02 X113.284913 Y49.011394 Z-0.125000 I14.316956 J8.516363
G02 X112.623881 Y53.143416 Z-0.125000 I15.963405 J4.672679
G02 X113.015363 Y57.311214 Z-0.125000 I16.625151 J0.540680
G02 X114.433527 Y61.249821 Z-0.125000 I16.280963 J-3.637623
G02 X116.794493 Y64.719294 Z-0.125000 I14.863916 J-7.576800
G02 X119.944255 Y67.492451 Z-0.125000 I12.584807 J-11.118537
G02 X123.699033 Y69.403754 Z-0.125000 I9.435532 J-13.892412
G02 X127.810366 Y70.324756 Z-0.125000 I5.729412 J-15.939017
G02 X132.040473 Y70.199594 Z-0.125000 I1.618052 J-16.859735
G02 X136.108711 Y69.033975 Z-0.125000 I-2.634120 J-16.875872
G02 X139.778463 Y66.893954 Z-0.125000 I-6.701695 J-15.708698
G02 X142.808844 Y63.916799 Z-0.125000 I-10.436764 J-13.654212
G02 X145.020403 Y60.278224 Z-0.125000 I-13.465979 J-10.676133
G02 X146.270805 Y56.207992 Z-0.125000 I-15.719344 J-7.056268
G02 X146.484773 Y51.954254 Z-0.125000 I-16.968249 J-2.985773
G02 X145.647922 Y47.778163 Z-0.125000 I-17.155682 J1.265949
G02 X143.814923 Y43.942244 Z-0.125000 I-16.318647 J5.441978
G02 X141.094945 Y40.674821 Z-0.125000 I-14.408185 J9.228306
G02 X137.666353 Y38.186024 Z-0.125000 I-11.688097 J12.495612
G02 X133.729807 Y36.619821 Z-0.125000 I-8.194789 J14.866824
G02 X129.546303 Y36.077214 Z-0.125000 I-4.258413 J16.433686
G02 X125.358713 Y36.587389 Z-0.125000 I-0.074091 J16.833120
G02 X121.444623 Y38.114504 Z-0.125000 I4.113347 J16.322344
G02 X118.032821 Y40.566387 Z-0.125000 I7.971242 J14.691709
G02 X115.346693 Y43.781484 Z-0.125000 I11.383255 J12.240053
G02 X113.546243 Y47.564416 Z-0.125000 I14.015535 J8.990476
G02 X112.747243 Y51.673184 Z-0.125000 I15.817021 J5.207885
G02 X112.997916 Y55.851397 Z-0.125000 I16.620937 J1.099447
G02 X114.284453 Y59.839964 Z-0.125000 I16.371837 J-3.079062
G02 X116.523803 Y63.382455 Z-0.125000 I15.150739 J-7.098350
G02 X119.583683 Y66.264934 Z-0.125000 I12.912083 J-10.641413
G02 X123.263588 Y68.297143 Z-0.125000 I9.924025 J-13.622458
G02 X127.349183 Y69.357704 Z-0.125000 I6.244273 J-15.655049
G02 X131.570146 Y69.374283 Z-0.125000 I2.176718 J-16.855791
G02 X135.681373 Y68.343774 Z-0.125000 I-2.044086 J-16.871057
G02 X139.411608 Y66.331463 Z-0.125000 I-6.201127 J-15.958613
G02 X142.541883 Y63.454194 Z-0.125000 I-9.930567 J-13.945185
G02 X144.868651 Y59.895616 Z-0.125000 I-13.122341 J-11.119978
G02 X146.252653 Y55.868944 Z-0.125000 I-15.447567 J-7.560645
G02 X146.605514 Y51.625722 Z-0.125000 I-16.846763 J-3.537239
G02 X145.906773 Y47.428094 Z-0.125000 I-17.198725 J0.705946
G02 X144.198138 Y43.530804 Z-0.125000 I-16.449300 J4.888448
G02 X141.590513 Y40.181224 Z-0.125000 I-14.740840 J8.785843
G02 X138.238388 Y37.576867 Z-0.125000 I-12.056890 J12.059209
G02 X134.362193 Y35.885674 Z-0.125000 I-8.704820 J14.663659
G02 X130.188337 Y35.204556 Z-0.125000 I-4.790083 J16.224245
G02 X125.993133 Y35.576244 Z-0.125000 I-0.616243 J16.905806
G02 X122.021104 Y36.976608 Z-0.125000 I3.551284 J16.406320
G02 X118.533863 Y39.311854 Z-0.125000 I7.523417 J15.006162
G02 X115.737112 Y42.441136 Z-0.125000 I10.949118 J12.600035
G02 X113.812193 Y46.161144 Z-0.125000 I13.746337 J9.471075
G02 X112.874977 Y50.243461 Z-0.125000 I15.638600 J5.739044
G02 X112.985633 Y54.430444 Z-0.125000 I16.577003 J1.656845
G02 X114.136126 Y58.457787 Z-0.125000 I16.498005 J-2.534993
G02 X116.258003 Y62.078514 Z-0.125000 I15.349106 J-6.563017
G02 X119.213816 Y65.057648 Z-0.125000 I13.299343 J-10.239328
G02 X122.829563 Y67.216254 Z-0.125000 I10.344065 J-13.219146
G02 X126.867649 Y68.410814 Z-0.125000 I6.779425 J-15.494699
G02 X131.092783 Y68.569244 Z-0.125000 I2.741335 J-16.689241
G02 X135.226032 Y67.678793 Z-0.125000 I-1.495491 J-16.979663
G02 X139.025923 Y65.789764 Z-0.125000 I-5.628378 J-16.088176
G02 X142.243518 Y63.023081 Z-0.125000 I-9.486514 J-14.286960
G02 X144.688063 Y59.541964 Z-0.125000 I-12.703154 J-11.519411
G02 X146.202084 Y55.566827 Z-0.125000 I-15.194282 J-8.062980
G02 X146.694263 Y51.339164 Z-0.125000 I-16.706711 J-4.087454
G02 X146.132876 Y47.120132 Z-0.125000 I-17.185511 J0.139848
G02 X144.554673 Y43.173454 Z-0.125000 I-16.624760 J4.359047
G02 X142.054302 Y39.736129 Z-0.125000 I-14.981357 J8.269637
G02 X138.794463 Y37.027864 Z-0.125000 I-12.481243 J11.707203
G02 X134.967443 Y35.207076 Z-0.125000 I-9.158169 J14.316775
G02 X130.825203 Y34.390924 Z-0.125000 I-5.331106 J16.137434
G02 X126.609823 Y34.625089 Z-0.125000 I-1.179690 J16.822671
G02 X122.599343 Y35.892174 Z-0.125000 I3.035780 J16.589001
G02 X119.029006 Y38.115289 Z-0.125000 I6.998951 J15.218908
G02 X116.132103 Y41.148044 Z-0.125000 I10.569260 J12.995759
G02 X114.081201 Y44.806391 Z-0.125000 I13.411445 J9.922629
G02 X113.008123 Y48.855754 Z-0.125000 I15.462993 J6.264543
G02 X112.977773 Y53.044788 Z-0.125000 I16.529734 J2.214385
G02 X113.993473 Y57.112324 Z-0.125000 I16.560335 J-1.974679
G02 X115.989867 Y60.798904 Z-0.125000 I15.596881 J-6.062336
G02 X118.848093 Y63.880424 Z-0.125000 I13.601754 J-9.749824
G02 X122.382190 Y66.155363 Z-0.125000 I10.810342 J-12.911205
G02 X126.384593 Y67.487234 Z-0.125000 I7.276307 J-15.186273
G02 X130.592126 Y67.786635 Z-0.125000 I3.298699 J-16.642866
G02 X134.758903 Y67.033994 Z-0.125000 I-0.908804 J-16.941711
G02 X138.611095 Y65.276407 Z-0.125000 I-5.111250 J-16.302902
G02 X141.921853 Y62.616034 Z-0.125000 I-8.962617 J-14.543977
G02 X144.476069 Y59.222718 Z-0.125000 I-12.332341 J-11.940758
G02 X146.120803 Y55.299474 Z-0.125000 I-14.885285 J-8.546712
G02 X146.750949 Y51.092351 Z-0.125000 I-16.554383 J-4.630282
G02 X146.328793 Y46.860154 Z-0.125000 I-17.183394 J-0.423132
G02 X144.879308 Y42.861570 Z-0.125000 I-16.725269 J3.800892
G02 X142.495983 Y39.348874 Z-0.125000 I-15.275211 J7.799182
G02 X139.321085 Y36.531203 Z-0.125000 I-12.824300 J11.252631
G02 X135.561823 Y34.589304 Z-0.125000 I-9.649380 J14.070270
G02 X131.439433 Y33.635884 Z-0.125000 I-5.848535 J15.898957
G02 X127.225073 Y33.731424 Z-0.125000 I-1.726204 J16.852954
G02 X123.165798 Y34.868179 Z-0.125000 I2.470248 J16.637165
G02 X119.527873 Y36.970034 Z-0.125000 I6.529855 J15.501198
G02 X116.526400 Y39.909999 Z-0.125000 I10.111663 J13.325328
G02 X114.355763 Y43.497034 Z-0.125000 I13.113796 J10.385886
G02 X113.146533 Y47.511541 Z-0.125000 I15.246229 J6.781767
G02 X112.976023 Y51.699284 Z-0.125000 I16.456162 J2.767379
G02 X113.853803 Y55.797533 Z-0.125000 I16.645277 J-1.422027
G02 X115.727433 Y59.553514 Z-0.125000 I15.768457 J-5.520612
G02 X118.476320 Y62.725489 Z-0.125000 I13.956163 J-9.317542
G02 X121.937263 Y65.121754 Z-0.125000 I11.207978 J-12.490301
G02 X125.884452 Y66.584622 Z-0.125000 I7.798187 J-14.984800
G02 X130.086063 Y67.025804 Z-0.125000 I3.851048 J-16.447878
G02 X134.266293 Y66.414387 Z-0.125000 I-0.353139 J-17.010120
G02 X138.179623 Y64.784604 Z-0.125000 I-4.533075 J-16.397639
G02 X141.570407 Y62.240435 Z-0.125000 I-8.496782 J-14.855874
G02 X144.237223 Y58.932094 Z-0.125000 I-11.886452 J-12.310551
G02 X146.008271 Y55.069417 Z-0.125000 I-14.601702 J-9.032272
G02 X146.776623 Y50.886454 Z-0.125000 I-16.372012 J-5.169362
G02 X146.493173 Y46.642980 Z-0.125000 I-17.139922 J-0.986314
G02 X145.176913 Y42.602864 Z-0.125000 I-16.855243 J3.256922
G02 X142.907189 Y39.010750 Z-0.125000 I-15.487034 J7.272547
G02 X139.830603 Y36.094844 Z-0.125000 I-13.217422 J10.864753
G02 X136.130066 Y34.027492 Z-0.125000 I-10.081581 J13.700284
G02 X132.047433 Y32.941254 Z-0.125000 I-6.380939 J15.767376
G02 X127.823004 Y32.898291 Z-0.125000 I-2.282669 J16.738945
G02 X123.733803 Y33.899734 Z-0.125000 I1.940963 J16.775013
G02 X120.020815 Y35.884169 Z-0.125000 I5.993037 J15.679121
G02 X116.925923 Y38.721204 Z-0.125000 I9.706426 J13.695252
G02 X114.633703 Y42.238716 Z-0.125000 I12.747957 J10.812956
G02 X113.291353 Y46.210874 Z-0.125000 I15.041030 J7.295857
G02 X112.980167 Y50.392144 Z-0.125000 I16.366862 J3.320299
G02 X113.720703 Y54.520734 Z-0.125000 I16.679422 J-0.861042
G02 X115.465385 Y58.335129 Z-0.125000 I15.976997 J-5.001582
G02 X118.109543 Y61.602034 Z-0.125000 I14.233252 J-8.816557
G02 X121.482353 Y64.109699 Z-0.125000 I11.649216 J-12.146149
G02 X125.384033 Y65.706894 Z-0.125000 I8.276570 J-14.654104
G02 X129.559756 Y66.287773 Z-0.125000 I4.404007 J-16.359460
G02 X133.763793 Y65.816204 Z-0.125000 I0.228281 J-16.940138
G02 X137.721141 Y64.320995 Z-0.125000 I-4.001526 J-16.575314
G02 X141.197823 Y61.889214 Z-0.125000 I-7.958338 J-15.079090
G02 X143.968358 Y58.675951 Z-0.125000 I-11.489238 J-12.707269
G02 X145.866653 Y54.873424 Z-0.125000 I-14.258845 J-9.493388
G02 X146.771358 Y50.720810 Z-0.125000 I-16.187789 J-5.701593
G02 X146.627793 Y46.472674 Z-0.125000 I-17.091516 J-1.548891
G02 X145.443861 Y42.390340 Z-0.125000 I-16.924739 J2.695559
G02 X143.295503 Y38.729954 Z-0.125000 I-15.740373 J6.777707
G02 X140.311875 Y35.711370 Z-0.125000 I-13.534221 J10.393660
G02 X136.686223 Y33.527184 Z-0.125000 I-10.550669 J13.412341
G02 X132.633568 Y32.305666 Z-0.125000 I-6.882736 J15.501441
G02 X128.418693 Y32.124514 Z-0.125000 I-2.830065 J16.722866
G02 X124.290194 Y32.992614 Z-0.125000 I1.375915 J16.794738
G02 X120.517643 Y34.851754 Z-0.125000 I5.504480 J15.926828
G02 X117.324792 Y37.589342 Z-0.125000 I9.227982 J13.993311
G02 X114.918053 Y41.027624 Z-0.125000 I12.421447 J11.256279
G02 X113.442199 Y44.956507 Z-0.125000 I14.786854 J7.796205
G02 X112.991403 Y49.126564 Z-0.125000 I16.263630 J3.867541
G02 X113.592632 Y53.277622 Z-0.125000 I16.722951 J-0.303041
G02 X115.209903 Y57.152274 Z-0.125000 I16.120139 J-4.453661
G02 X117.739796 Y60.503114 Z-0.125000 I14.553241 J-8.357276
G02 X121.030863 Y63.126404 Z-0.125000 I12.024061 J-11.708811
G02 X124.869868 Y64.851132 Z-0.125000 I8.781937 J-14.412463
G02 X129.029553 Y65.573004 Z-0.125000 I4.942926 J-16.137171
G02 X133.238513 Y65.243283 Z-0.125000 I0.788247 J-16.966868
G02 X137.248073 Y63.879834 Z-0.125000 I-3.420496 J-16.636091
G02 X140.797267 Y61.569286 Z-0.125000 I-7.471671 J-15.358313
G02 X143.674643 Y58.448304 Z-0.125000 I-11.019936 J-13.046666
G02 X145.695005 Y54.714946 Z-0.125000 I-13.945530 J-9.960184
G02 X146.736243 Y50.595134 Z-0.125000 I-15.964923 J-6.226448
G02 X146.732032 Y46.345796 Z-0.125000 I-17.016085 J-2.107810
G02 X145.683653 Y42.230044 Z-0.125000 I-17.008771 J2.141137
G02 X143.654586 Y38.498923 Z-0.125000 I-15.922871 J6.241929
G02 X140.774963 Y35.388144 Z-0.125000 I-13.893235 J9.972641
G02 X137.217291 Y33.083338 Z-0.125000 I-10.960388 J13.020131
G02 X133.212353 Y31.731674 Z-0.125000 I-7.402718 J15.324941
G02 X128.997580 Y31.411884 Z-0.125000 I-3.377187 J16.575840
G02 X124.847733 Y32.143054 Z-0.125000 I0.837605 J16.896007
G02 X121.008610 Y33.880002 Z-0.125000 I4.958602 J16.071067
G02 X117.729383 Y36.508804 Z-0.125000 I8.797867 J14.334351
G02 X115.206046 Y39.869864 Z-0.125000 I12.027404 J11.657388
G02 X113.600423 Y43.747354 Z-0.125000 I14.551643 J8.296842
G02 X113.009791 Y47.902366 Z-0.125000 I16.133969 J4.412917
G02 X113.472053 Y52.073814 Z-0.125000 I16.725258 J0.257916
G02 X114.957356 Y55.999205 Z-0.125000 I16.288937 J-3.919760
G02 X117.375963 Y59.437044 Z-0.125000 I14.804280 J-7.845493
G02 X120.572699 Y62.166402 Z-0.125000 I12.437480 J-11.330534
G02 X124.356603 Y64.021774 Z-0.125000 I9.241172 J-14.060543
G02 X128.482268 Y64.881590 Z-0.125000 I5.488363 J-16.006849
G02 X132.705093 Y64.693074 Z-0.125000 I1.362670 J-16.866319
G02 X136.750338 Y63.466764 Z-0.125000 I-2.876953 J-16.775450
G02 X140.377663 Y61.274234 Z-0.125000 I-6.921768 J-15.548173
G02 X143.352424 Y58.255082 Z-0.125000 I-10.597160 J-13.416436
G02 X145.495983 Y54.590024 Z-0.125000 I-13.570886 J-10.396490
G02 X146.671326 Y50.510088 Z-0.125000 I-15.749136 J-6.746257
G02 X146.807103 Y46.264754 Z-0.125000 I-16.922930 J-2.666077
G02 X145.893951 Y42.116573 Z-0.125000 I-17.047794 J1.578184
G02 X143.990193 Y38.324584 Z-0.125000 I-16.133904 J5.726103
G02 X141.211015 Y35.118397 Z-0.125000 I-14.183215 J9.486639
G02 X137.735073 Y32.701454 Z-0.125000 I-11.403972 J12.692753
G02 X133.770112 Y31.217232 Z-0.125000 I-7.887314 J15.032098
G02 X129.573353 Y30.760094 Z-0.125000 I-3.922326 J16.516207
G02 X125.393975 Y31.355653 Z-0.125000 I0.272597 J16.875292
G02 X121.503423 Y32.963854 Z-0.125000 I4.452430 J16.281400
G02 X118.133413 Y35.486902 Z-0.125000 I8.301875 J14.600901
G02 X115.501193 Y38.761304 Z-0.125000 I11.672370 J12.078354
G02 X113.765293 Y42.587149 Z-0.125000 I14.262794 J8.778190
G02 X113.036303 Y46.721214 Z-0.125000 I15.999674 J4.952648
G02 X113.358308 Y50.906702 Z-0.125000 I16.725069 J0.818408
G02 X114.712313 Y54.882954 Z-0.125000 I16.403978 J-3.367268
G02 X117.012103 Y58.397917 Z-0.125000 I15.088130 J-7.362108
G02 X120.118933 Y61.236584 Z-0.125000 I12.788918 J-10.877563
G02 X123.832939 Y63.215612 Z-0.125000 I9.726746 J-13.779495
