%
(Header)
(Generated by gcodetools from Inkscape.)
(Using default header. To add your own header create file "header" in the output dir.)
M3
(Header end.)
G21 (All units in mm)

(Start cutting path id: path36746)
(Change tool to Default tool)

G00 Z10.000000
G00 X64.889586 Y53.199239

G00 Z4.875000 (Fast pre-penetrate)
G01 Z-0.125000 F100.0(Penetrate)
G01 X64.890641 Y53.201607 Z-0.125000 F800.000000
G01 X64.891873 Y53.203908 Z-0.125000
G01 X64.893103 Y53.206200 Z-0.125000
G01 X64.894447 Y53.208445 Z-0.125000
G01 X64.895876 Y53.210637 Z-0.125000
G01 X64.897432 Y53.212752 Z-0.125000
G01 X64.899056 Y53.214828 Z-0.125000
G01 X64.900840 Y53.216792 Z-0.125000
G01 X64.903219 Y53.218346 Z-0.125000
G01 X64.905166 Y53.220171 Z-0.125000
G01 X64.907350 Y53.221795 Z-0.125000
G01 X64.909565 Y53.223378 Z-0.125000
G01 X64.911883 Y53.224849 Z-0.125000
G01 X64.914384 Y53.226130 Z-0.125000
G01 X64.916888 Y53.227373 Z-0.125000
G01 X64.919582 Y53.228406 Z-0.125000
G01 X64.922251 Y53.229406 Z-0.125000
G01 X64.924994 Y53.230290 Z-0.125000
G01 X64.927911 Y53.230930 Z-0.125000
G01 X64.930780 Y53.231568 Z-0.125000
G01 X64.933703 Y53.232076 Z-0.125000
G01 X64.936794 Y53.232302 Z-0.125000
G01 X64.939802 Y53.232542 Z-0.125000
G01 X64.942850 Y53.232682 Z-0.125000
G01 X64.946043 Y53.232517 Z-0.125000
G01 X64.949030 Y53.232574 Z-0.125000
G01 X64.952265 Y53.232214 Z-0.125000
G01 X64.955399 Y53.231871 Z-0.125000
G01 X64.958643 Y53.231234 Z-0.125000
G01 X64.961790 Y53.230686 Z-0.125000
G01 X64.964942 Y53.230060 Z-0.125000
G01 X64.968170 Y53.229046 Z-0.125000
G01 X64.971309 Y53.228234 Z-0.125000
G01 X64.974427 Y53.227239 Z-0.125000
G01 X64.977617 Y53.225950 Z-0.125000
G01 X64.980705 Y53.224773 Z-0.125000
G01 X64.983852 Y53.223286 Z-0.125000
G01 X64.986899 Y53.221928 Z-0.125000
G01 X64.989922 Y53.220480 Z-0.125000
G01 X64.992985 Y53.218717 Z-0.125000
G01 X64.995965 Y53.217127 Z-0.125000
G01 X64.998911 Y53.215449 Z-0.125000
G01 X65.001873 Y53.213422 Z-0.125000
G01 X65.004754 Y53.211577 Z-0.125000
G01 X65.007612 Y53.209652 Z-0.125000
G01 X65.010454 Y53.207355 Z-0.125000
G01 X65.013235 Y53.205256 Z-0.125000
G01 X65.015974 Y53.203070 Z-0.125000
G01 X65.018681 Y53.200805 Z-0.125000
G01 X65.021350 Y53.198154 Z-0.125000
G01 X65.023962 Y53.195718 Z-0.125000
G01 X65.026525 Y53.192878 Z-0.125000
G01 X65.029041 Y53.190262 Z-0.125000
G01 X65.031505 Y53.187561 Z-0.125000
G01 X65.033890 Y53.184442 Z-0.125000
G01 X65.036242 Y53.181573 Z-0.125000
G01 X65.038537 Y53.178647 Z-0.125000
G01 X65.040739 Y53.175335 Z-0.125000
G01 X65.042923 Y53.172307 Z-0.125000
G01 X65.045053 Y53.169231 Z-0.125000
G01 X65.047128 Y53.166109 Z-0.125000
G01 X65.049082 Y53.162605 Z-0.125000
G01 X65.051038 Y53.159390 Z-0.125000
G01 X65.052941 Y53.156138 Z-0.125000
G01 X65.054706 Y53.152516 Z-0.125000
G01 X65.056494 Y53.149189 Z-0.125000
G01 X65.058228 Y53.145825 Z-0.125000
G01 X65.059807 Y53.142094 Z-0.125000
G01 X65.061426 Y53.138656 Z-0.125000
G01 X65.062871 Y53.134853 Z-0.125000
G01 X65.064375 Y53.131350 Z-0.125000
G01 X65.065818 Y53.127811 Z-0.125000
G01 X65.067068 Y53.123910 Z-0.125000
G01 X65.068395 Y53.120297 Z-0.125000
G01 X65.069660 Y53.116647 Z-0.125000
G01 X65.070714 Y53.112639 Z-0.125000
G01 X65.071845 Y53.108918 Z-0.125000
G01 X65.072914 Y53.105161 Z-0.125000
G01 X65.073919 Y53.101358 Z-0.125000
G01 X65.074672 Y53.097177 Z-0.125000
G01 X65.075521 Y53.093279 Z-0.125000
G01 X65.076107 Y53.088995 Z-0.125000
G01 X65.076788 Y53.084994 Z-0.125000
G01 X65.077384 Y53.080933 Z-0.125000
G01 X65.077668 Y53.076466 Z-0.125000
G01 X65.078064 Y53.072279 Z-0.125000
G01 X65.078366 Y53.068024 Z-0.125000
G01 X65.078324 Y53.063350 Z-0.125000
G01 X65.078428 Y53.058979 Z-0.125000
G01 X65.078181 Y53.054199 Z-0.125000
G01 X65.078087 Y53.049767 Z-0.125000
G01 X65.077900 Y53.045342 Z-0.125000
G01 X65.077382 Y53.040617 Z-0.125000
G01 X65.077120 Y53.036299 Z-0.125000
G01 X65.076872 Y53.032062 Z-0.125000
G01 X65.076637 Y53.027907 Z-0.125000
G01 X65.076509 Y53.023828 Z-0.125000
G01 X65.076070 Y53.019567 Z-0.125000
G01 X65.075969 Y53.015652 Z-0.125000
G01 X65.075650 Y53.011549 Z-0.125000
G01 X65.075798 Y53.007994 Z-0.125000
G01 X65.075405 Y53.004007 Z-0.125000
G01 X65.075244 Y53.000289 Z-0.125000
G01 X65.075087 Y52.996589 Z-0.125000
G01 X65.074705 Y52.992674 Z-0.125000
G01 X65.074235 Y52.988784 Z-0.125000
G01 X65.073988 Y52.985109 Z-0.125000
G01 X65.073738 Y52.981416 Z-0.125000
G01 X65.073394 Y52.977719 Z-0.125000
G01 X65.073046 Y52.974005 Z-0.125000
G01 X65.072352 Y52.970059 Z-0.125000
G01 X65.071587 Y52.966088 Z-0.125000
G01 X65.070999 Y52.962301 Z-0.125000
G01 X65.070330 Y52.958492 Z-0.125000
G01 X65.069269 Y52.954430 Z-0.125000
G01 X65.068423 Y52.950537 Z-0.125000
G01 X65.067478 Y52.946606 Z-0.125000
G01 X65.066432 Y52.942635 Z-0.125000
G01 X65.064871 Y52.938386 Z-0.125000
G01 X65.063529 Y52.934325 Z-0.125000
G01 X65.061992 Y52.930222 Z-0.125000
G01 X65.057147 Y52.924047 Z-0.125000
G01 X65.054744 Y52.919529 Z-0.125000
G01 X65.052105 Y52.914938 Z-0.125000
G01 X65.050161 Y52.910810 Z-0.125000
G01 X65.047031 Y52.906087 Z-0.125000
G01 X65.044132 Y52.901568 Z-0.125000
G01 X65.040407 Y52.896702 Z-0.125000
G01 X65.036925 Y52.892057 Z-0.125000
G01 X65.032503 Y52.887056 Z-0.125000
G01 X65.028336 Y52.882293 Z-0.125000
G01 X65.023804 Y52.877470 Z-0.125000
G01 X65.018872 Y52.872612 Z-0.125000
G01 X65.012692 Y52.867403 Z-0.125000
G01 X65.006811 Y52.862470 Z-0.125000
G01 X65.000424 Y52.857530 Z-0.125000
G01 X64.992495 Y52.852280 Z-0.125000
G01 X64.984904 Y52.847365 Z-0.125000
G01 X64.977830 Y52.842794 Z-0.125000
G01 X64.966546 Y52.837456 Z-0.125000
G01 X64.956821 Y52.832818 Z-0.125000
G01 X64.946312 Y52.828350 Z-0.125000
G01 X64.934971 Y52.824117 Z-0.125000
G01 X64.922751 Y52.820163 Z-0.125000
G01 X64.907888 Y52.816488 Z-0.125000
G01 X64.893690 Y52.813411 Z-0.125000
G01 X64.878515 Y52.810884 Z-0.125000
G01 X64.860290 Y52.809163 Z-0.125000
G01 X64.843049 Y52.808165 Z-0.125000
G01 X64.822591 Y52.808451 Z-0.125000
G01 X64.803449 Y52.809506 Z-0.125000
G01 X64.783534 Y52.811703 Z-0.125000
G01 X64.762973 Y52.815148 Z-0.125000
G01 X64.739381 Y52.820907 Z-0.125000
G01 X64.718009 Y52.827217 Z-0.125000
G01 X64.696559 Y52.834917 Z-0.125000
G01 X64.675251 Y52.843988 Z-0.125000
G01 X64.651913 Y52.855996 Z-0.125000
G01 X64.611771 Y52.884185 Z-0.125000
G01 X64.593528 Y52.897653 Z-0.125000
G01 X64.576396 Y52.911683 Z-0.125000
G01 X64.558825 Y52.928040 Z-0.125000
G01 X64.544360 Y52.942410 Z-0.125000
G01 X64.531247 Y52.956469 Z-0.125000
G01 X64.518516 Y52.971509 Z-0.125000
G01 X64.509654 Y52.981425 Z-0.125000
G01 X64.502700 Y52.988583 Z-0.125000
G01 X64.499547 Y52.988929 Z-0.125000
G01 X64.497265 Y52.987667 Z-0.125000
G01 X64.495786 Y52.984903 Z-0.125000
G01 X64.495219 Y52.980439 Z-0.125000
G01 X64.495486 Y52.974598 Z-0.125000
G01 X64.496075 Y52.968338 Z-0.125000
G01 X64.497150 Y52.961406 Z-0.125000
G01 X64.498645 Y52.953972 Z-0.125000
G01 X64.501021 Y52.945378 Z-0.125000
G01 X64.503197 Y52.937370 Z-0.125000
G01 X64.505598 Y52.929258 Z-0.125000
G01 X64.508793 Y52.920301 Z-0.125000
G01 X64.511545 Y52.912214 Z-0.125000
G01 X64.514397 Y52.904223 Z-0.125000
G01 X64.517939 Y52.895601 Z-0.125000
G01 X64.520278 Y52.888670 Z-0.125000
G01 X64.523860 Y52.880452 Z-0.125000
G01 X64.527403 Y52.872504 Z-0.125000
G01 X64.530270 Y52.865484 Z-0.125000
G01 X64.533056 Y52.858702 Z-0.125000
G01 X64.535734 Y52.852173 Z-0.125000
G01 X64.538269 Y52.845902 Z-0.125000
G01 X64.541149 Y52.839404 Z-0.125000
G01 X64.543297 Y52.833723 Z-0.125000
G01 X64.545660 Y52.827930 Z-0.125000
G01 X64.547272 Y52.822901 Z-0.125000
G01 X64.548582 Y52.818195 Z-0.125000
G01 X64.549868 Y52.813559 Z-0.125000
G01 X64.552040 Y52.808192 Z-0.125000
G01 X64.552020 Y52.804750 Z-0.125000
G01 X64.551102 Y52.802087 Z-0.125000
G01 X64.549695 Y52.799862 Z-0.125000
G01 X64.547758 Y52.798092 Z-0.125000
G01 X64.545149 Y52.796895 Z-0.125000
G01 X64.542092 Y52.796092 Z-0.125000
G01 X64.538537 Y52.795719 Z-0.125000
G01 X64.534234 Y52.796073 Z-0.125000
G01 X64.529800 Y52.796542 Z-0.125000
G01 X64.525029 Y52.797337 Z-0.125000
G01 X64.519550 Y52.798825 Z-0.125000
G01 X64.514208 Y52.800290 Z-0.125000
G01 X64.508594 Y52.802082 Z-0.125000
G01 X64.502670 Y52.804198 Z-0.125000
G01 X64.495878 Y52.807276 Z-0.125000
G01 X64.489327 Y52.810228 Z-0.125000
G01 X64.481880 Y52.814249 Z-0.125000
G01 X64.474157 Y52.818738 Z-0.125000
G01 X64.466242 Y52.823644 Z-0.125000
G01 X64.459562 Y52.827330 Z-0.125000
G01 X64.451484 Y52.832825 Z-0.125000
G01 X64.444084 Y52.837727 Z-0.125000
G01 X64.430806 Y52.850461 Z-0.125000
G01 X64.422943 Y52.856668 Z-0.125000
G01 X64.415797 Y52.862137 Z-0.125000
G01 X64.408718 Y52.867725 Z-0.125000
G01 X64.401715 Y52.873431 Z-0.125000
G01 X64.389587 Y52.887484 Z-0.125000
G01 X64.382292 Y52.894448 Z-0.125000
G01 X64.375639 Y52.900619 Z-0.125000
G01 X64.368525 Y52.907880 Z-0.125000
G01 X64.362025 Y52.914344 Z-0.125000
G01 X64.355587 Y52.920957 Z-0.125000
G01 X64.349222 Y52.927716 Z-0.125000
G01 X64.342937 Y52.934621 Z-0.125000
G01 X64.336252 Y52.942708 Z-0.125000
G01 X64.330132 Y52.949922 Z-0.125000
G01 X64.323645 Y52.958350 Z-0.125000
G01 X64.318146 Y52.964804 Z-0.125000
G01 X64.312280 Y52.972472 Z-0.125000
G01 X64.305699 Y52.982498 Z-0.125000
G01 X64.300049 Y52.990503 Z-0.125000
G01 X64.294500 Y52.998660 Z-0.125000
G01 X64.289053 Y53.006978 Z-0.125000
G01 X64.283360 Y53.016610 Z-0.125000
G01 X64.278137 Y53.025255 Z-0.125000
G01 X64.273027 Y53.034068 Z-0.125000
G01 X64.267736 Y53.044251 Z-0.125000
G01 X64.262880 Y53.053405 Z-0.125000
G01 X64.258147 Y53.062734 Z-0.125000
G01 X64.253546 Y53.072229 Z-0.125000
G01 X64.248843 Y53.083176 Z-0.125000
G01 X64.244527 Y53.093035 Z-0.125000
G01 X64.240165 Y53.104387 Z-0.125000
G01 X64.236156 Y53.114623 Z-0.125000
G01 X64.232301 Y53.125043 Z-0.125000
G01 X64.228607 Y53.135646 Z-0.125000
G01 X64.224974 Y53.147823 Z-0.125000
G01 X64.221637 Y53.158822 Z-0.125000
G01 X64.218425 Y53.171436 Z-0.125000
G01 X64.215484 Y53.182837 Z-0.125000
G01 X64.212741 Y53.192970 Z-0.125000
G01 X64.210189 Y53.206225 Z-0.125000
G01 X64.207853 Y53.218214 Z-0.125000
G01 X64.205808 Y53.231921 Z-0.125000
G01 X64.203945 Y53.244325 Z-0.125000
G01 X64.202455 Y53.258489 Z-0.125000
G01 X64.201102 Y53.271308 Z-0.125000
G01 X64.200007 Y53.284323 Z-0.125000
G01 X64.199180 Y53.297534 Z-0.125000
G01 X64.198905 Y53.312572 Z-0.125000
G01 X64.198678 Y53.326182 Z-0.125000
G01 X64.198746 Y53.339980 Z-0.125000
G01 X64.199513 Y53.355646 Z-0.125000
G01 X64.200243 Y53.369822 Z-0.125000
G01 X64.201312 Y53.384166 Z-0.125000
G01 X64.203216 Y53.400412 Z-0.125000
G01 X64.205043 Y53.415090 Z-0.125000
G01 X64.207177 Y53.429928 Z-0.125000
G01 X64.210382 Y53.446662 Z-0.125000
G01 X64.213313 Y53.461780 Z-0.125000
G01 X64.216639 Y53.477017 Z-0.125000
G01 X64.220393 Y53.492355 Z-0.125000
G01 X64.224557 Y53.507788 Z-0.125000
G01 X64.230031 Y53.525101 Z-0.125000
G01 X64.235091 Y53.540682 Z-0.125000
G01 X64.241577 Y53.558111 Z-0.125000
G01 X64.247549 Y53.573771 Z-0.125000
G01 X64.253964 Y53.589448 Z-0.125000
G01 X64.261990 Y53.606902 Z-0.125000
G01 X64.268138 Y53.620775 Z-0.125000
G01 X64.278431 Y53.639901 Z-0.125000
G01 X64.285416 Y53.653689 Z-0.125000
G01 X64.296870 Y53.672590 Z-0.125000
G01 X64.306118 Y53.687913 Z-0.125000
G01 X64.317285 Y53.704784 Z-0.125000
G01 X64.327448 Y53.719814 Z-0.125000
G01 X64.338041 Y53.734678 Z-0.125000
G01 X64.350678 Y53.750943 Z-0.125000
G01 X64.362137 Y53.765387 Z-0.125000
G01 X64.373987 Y53.779607 Z-0.125000
G01 X64.386217 Y53.793585 Z-0.125000
G01 X64.400619 Y53.808744 Z-0.125000
G01 X64.413610 Y53.822149 Z-0.125000
G01 X64.426937 Y53.835262 Z-0.125000
G01 X64.442496 Y53.849378 Z-0.125000
G01 X64.456480 Y53.861822 Z-0.125000
G01 X64.470747 Y53.873933 Z-0.125000
G01 X64.487281 Y53.886867 Z-0.125000
G01 X64.502087 Y53.898236 Z-0.125000
G01 X64.517121 Y53.909245 Z-0.125000
G01 X64.534428 Y53.920897 Z-0.125000
G01 X64.549878 Y53.931114 Z-0.125000
G01 X64.565500 Y53.940954 Z-0.125000
G01 X64.581275 Y53.950413 Z-0.125000
G01 X64.597185 Y53.959488 Z-0.125000
G01 X64.615334 Y53.968932 Z-0.125000
G01 X64.631469 Y53.977190 Z-0.125000
G01 X64.649814 Y53.985711 Z-0.125000
G01 X64.666104 Y53.993156 Z-0.125000
G01 X64.682448 Y54.000225 Z-0.125000
G01 X64.700956 Y54.007414 Z-0.125000
G01 X64.715246 Y54.013246 Z-0.125000
G01 X64.733789 Y54.019607 Z-0.125000
G01 X64.750218 Y54.025162 Z-0.125000
G01 X64.768744 Y54.030671 Z-0.125000
G01 X64.785150 Y54.035480 Z-0.125000
G01 X64.801538 Y54.039955 Z-0.125000
G01 X64.819971 Y54.044263 Z-0.125000
G01 X64.836295 Y54.048028 Z-0.125000
G01 X64.852587 Y54.051471 Z-0.125000
G01 X64.870880 Y54.054642 Z-0.125000
G01 X64.887093 Y54.057424 Z-0.125000
G01 X64.903273 Y54.059903 Z-0.125000
G01 X64.919421 Y54.062078 Z-0.125000
G01 X64.937536 Y54.063846 Z-0.125000
G01 X64.955613 Y54.065246 Z-0.125000
G01 X64.973662 Y54.066276 Z-0.125000
G01 X64.991693 Y54.066934 Z-0.125000
G01 X65.003829 Y54.068037 Z-0.125000
G01 X65.017962 Y54.068681 Z-0.125000
G01 X65.036065 Y54.068438 Z-0.125000
G01 X65.052256 Y54.068190 Z-0.125000
G01 X65.068522 Y54.067630 Z-0.125000
G01 X65.084878 Y54.066756 Z-0.125000
G01 X65.103327 Y54.065059 Z-0.125000
G01 X65.117917 Y54.064015 Z-0.125000
G01 X65.136605 Y54.061604 Z-0.125000
G01 X65.153334 Y54.059337 Z-0.125000
G01 X65.169988 Y54.056801 Z-0.125000
G01 X65.188234 Y54.053341 Z-0.125000
G01 X65.203845 Y54.050514 Z-0.125000
G01 X65.218399 Y54.047772 Z-0.125000
G01 X65.231627 Y54.045348 Z-0.125000
G01 X65.244660 Y54.042770 Z-0.125000
G01 X65.254898 Y54.041226 Z-0.125000
G01 X65.263907 Y54.040077 Z-0.125000
G01 X65.167554 Y53.808842 Z-0.125000
G01 X65.168376 Y53.804293 Z-0.125000
G01 X65.171278 Y53.777269 Z-0.125000
G01 X65.174844 Y53.765915 Z-0.125000
G01 X65.179380 Y53.754700 Z-0.125000
G01 X65.184815 Y53.743656 Z-0.125000
G01 X65.191758 Y53.731174 Z-0.125000
G01 X65.198864 Y53.720541 Z-0.125000
G01 X65.207483 Y53.708532 Z-0.125000
G01 X65.224407 Y53.684554 Z-0.125000
G01 X65.232860 Y53.676168 Z-0.125000
G01 X65.243774 Y53.664915 Z-0.125000
G01 X65.254052 Y53.655247 Z-0.125000
G01 X65.264675 Y53.645661 Z-0.125000
G01 X65.276774 Y53.634692 Z-0.125000
G01 X65.288004 Y53.625200 Z-0.125000
G01 X65.300696 Y53.614309 Z-0.125000
G01 X65.312403 Y53.604839 Z-0.125000
G01 X65.324294 Y53.595348 Z-0.125000
G01 X65.337619 Y53.584415 Z-0.125000
G01 X65.349826 Y53.574833 Z-0.125000
G01 X65.362150 Y53.565193 Z-0.125000
G01 X65.375869 Y53.554063 Z-0.125000
G01 X65.388377 Y53.544261 Z-0.125000
G01 X65.400948 Y53.534364 Z-0.125000
G01 X65.414866 Y53.522938 Z-0.125000
G01 X65.426210 Y53.514260 Z-0.125000
G01 X65.440168 Y53.502584 Z-0.125000
G01 X65.452824 Y53.492223 Z-0.125000
G01 X65.466751 Y53.480266 Z-0.125000
G01 X65.479356 Y53.469624 Z-0.125000
G01 X65.491918 Y53.458839 Z-0.125000
G01 X65.505680 Y53.446402 Z-0.125000
G01 X65.518104 Y53.435294 Z-0.125000
G01 X65.530445 Y53.424022 Z-0.125000
G01 X65.543904 Y53.411042 Z-0.125000
G01 X65.556025 Y53.399415 Z-0.125000
G01 X65.569199 Y53.386032 Z-0.125000
G01 X65.581040 Y53.374021 Z-0.125000
G01 X65.592729 Y53.361817 Z-0.125000
G01 X65.605361 Y53.347783 Z-0.125000
G01 X65.616678 Y53.335156 Z-0.125000
G01 X65.627796 Y53.322318 Z-0.125000
G01 X65.639725 Y53.307566 Z-0.125000
G01 X65.650368 Y53.294266 Z-0.125000
G01 X65.660758 Y53.280739 Z-0.125000
G01 X65.671800 Y53.265213 Z-0.125000
G01 X65.681594 Y53.251193 Z-0.125000
G01 X65.691077 Y53.236931 Z-0.125000
G01 X65.700227 Y53.222426 Z-0.125000
G01 X65.709772 Y53.205815 Z-0.125000
G01 X65.718145 Y53.190799 Z-0.125000
G01 X65.726761 Y53.173626 Z-0.125000
G01 X65.734258 Y53.158107 Z-0.125000
G01 X65.741309 Y53.142356 Z-0.125000
G01 X65.748356 Y53.124395 Z-0.125000
G01 X65.754516 Y53.108227 Z-0.125000
G01 X65.760542 Y53.091980 Z-0.125000
G01 X65.766844 Y53.073658 Z-0.125000
G01 X65.772591 Y53.057260 Z-0.125000
G01 X65.778204 Y53.040790 Z-0.125000
G01 X65.783665 Y53.024253 Z-0.125000
G01 X65.789318 Y53.005635 Z-0.125000
G01 X65.794466 Y52.988959 Z-0.125000
G01 X65.799453 Y52.972219 Z-0.125000
G01 X65.804546 Y52.953395 Z-0.125000
G01 X65.809174 Y52.936525 Z-0.125000
G01 X65.813623 Y52.919592 Z-0.125000
G01 X65.818092 Y52.900568 Z-0.125000
G01 X65.822136 Y52.883509 Z-0.125000
G01 X65.826125 Y52.864353 Z-0.125000
G01 X65.829707 Y52.847171 Z-0.125000
G01 X65.833055 Y52.829928 Z-0.125000
G01 X65.836225 Y52.810581 Z-0.125000
G01 X65.839028 Y52.793216 Z-0.125000
G01 X65.841540 Y52.775794 Z-0.125000
G01 X65.843705 Y52.756261 Z-0.125000
G01 X65.845533 Y52.738725 Z-0.125000
G01 X65.846997 Y52.721137 Z-0.125000
G01 X65.848069 Y52.703500 Z-0.125000
G01 X65.848458 Y52.683765 Z-0.125000
G01 X65.848544 Y52.666058 Z-0.125000
G01 X65.847717 Y52.646278 Z-0.125000
G01 X65.846594 Y52.628562 Z-0.125000
G01 X65.844793 Y52.610880 Z-0.125000
G01 X65.841568 Y52.591256 Z-0.125000
G01 X65.838055 Y52.573805 Z-0.125000
G01 X65.833569 Y52.556579 Z-0.125000
G01 X65.826976 Y52.537795 Z-0.125000
G01 X65.820113 Y52.521465 Z-0.125000
G01 X65.810666 Y52.504131 Z-0.125000
G01 X65.801185 Y52.489537 Z-0.125000
G01 X65.790542 Y52.476095 Z-0.125000
G01 X65.777095 Y52.462774 Z-0.125000
G01 X65.764506 Y52.452279 Z-0.125000
G01 X65.751328 Y52.443231 Z-0.125000
G01 X65.737758 Y52.435564 Z-0.125000
G01 X65.723950 Y52.429163 Z-0.125000
G01 X65.708047 Y52.423538 Z-0.125000
G01 X65.694093 Y52.419400 Z-0.125000
G01 X65.678188 Y52.415985 Z-0.125000
G01 X65.666277 Y52.413571 Z-0.125000
G01 X65.650514 Y52.411714 Z-0.125000
G01 X65.636787 Y52.410450 Z-0.125000
G01 X65.623134 Y52.409660 Z-0.125000
G01 X65.607642 Y52.409517 Z-0.125000
G01 X65.592236 Y52.409838 Z-0.125000
G01 X65.578799 Y52.410247 Z-0.125000
G01 X65.565410 Y52.410938 Z-0.125000
G01 X65.552062 Y52.411875 Z-0.125000
G01 X65.538741 Y52.413023 Z-0.125000
G01 X65.523581 Y52.414838 Z-0.125000
G01 X65.508431 Y52.416838 Z-0.125000
G01 X65.495142 Y52.418523 Z-0.125000
G01 X65.481851 Y52.420396 Z-0.125000
G01 X65.466670 Y52.422870 Z-0.125000
G01 X65.453316 Y52.424941 Z-0.125000
G01 X65.439919 Y52.427113 Z-0.125000
G01 X65.426460 Y52.429334 Z-0.125000
G01 X65.411061 Y52.432219 Z-0.125000
G01 X65.397447 Y52.434565 Z-0.125000
G01 X65.383739 Y52.436955 Z-0.125000
G01 X65.354611 Y52.444052 Z-0.125000
G01 X65.338628 Y52.447130 Z-0.125000
G01 X65.322459 Y52.450238 Z-0.125000
G01 X65.310024 Y52.452154 Z-0.125000
G01 X65.293450 Y52.455238 Z-0.125000
G01 X65.278643 Y52.457755 Z-0.125000
G01 X65.261552 Y52.460832 Z-0.125000
G01 X65.246228 Y52.463337 Z-0.125000
G01 X65.228512 Y52.466427 Z-0.125000
G01 X65.212568 Y52.468936 Z-0.125000
G01 X65.196279 Y52.471409 Z-0.125000
G01 X65.179612 Y52.473853 Z-0.125000
G01 X65.160266 Y52.476937 Z-0.125000
G01 X65.142711 Y52.479438 Z-0.125000
G01 X65.124665 Y52.481928 Z-0.125000
G01 X65.103645 Y52.485108 Z-0.125000
G01 X65.084439 Y52.487700 Z-0.125000
G01 X65.067202 Y52.489679 Z-0.125000
G01 X65.041430 Y52.493756 Z-0.125000
G01 X65.020134 Y52.496702 Z-0.125000
G01 X64.998073 Y52.499871 Z-0.125000
G01 X64.975188 Y52.503273 Z-0.125000
G01 X64.951421 Y52.506917 Z-0.125000
G01 X64.923579 Y52.511812 Z-0.125000
G01 X64.897849 Y52.516351 Z-0.125000
G01 X64.871156 Y52.521520 Z-0.125000
G01 X64.839969 Y52.528404 Z-0.125000
G01 X64.811205 Y52.535066 Z-0.125000
G01 X64.777780 Y52.543958 Z-0.125000
G01 X64.747105 Y52.552656 Z-0.125000
G01 X64.715650 Y52.562479 Z-0.125000
G01 X64.683532 Y52.573527 Z-0.125000
G01 X64.646923 Y52.587817 Z-0.125000
G01 X64.613958 Y52.601677 Z-0.125000
G01 X64.580888 Y52.616889 Z-0.125000
G01 X64.547929 Y52.633415 Z-0.125000
G01 X64.511437 Y52.653742 Z-0.125000
G01 X64.446267 Y52.697349 Z-0.125000
G01 X64.416137 Y52.717892 Z-0.125000
G01 X64.387022 Y52.738833 Z-0.125000
G01 X64.355824 Y52.762707 Z-0.125000
G01 X64.329074 Y52.783435 Z-0.125000
G01 X64.303452 Y52.803397 Z-0.125000
G01 X64.276257 Y52.824168 Z-0.125000
G01 X64.255720 Y52.837240 Z-0.125000
G01 X64.233481 Y52.843463 Z-0.125000
G01 X64.217598 Y52.838425 Z-0.125000
G01 X64.201609 Y52.829804 Z-0.125000
G01 X64.188641 Y52.819349 Z-0.125000
G01 X64.176095 Y52.804996 Z-0.125000
G01 X64.165420 Y52.788103 Z-0.125000
G01 X64.157211 Y52.771172 Z-0.125000
G01 X64.150350 Y52.752911 Z-0.125000
G01 X64.144719 Y52.733621 Z-0.125000
G01 X64.139963 Y52.711199 Z-0.125000
G01 X64.136498 Y52.690557 Z-0.125000
G01 X64.133793 Y52.669580 Z-0.125000
G01 X64.131862 Y52.645927 Z-0.125000
G01 X64.130491 Y52.624639 Z-0.125000
G01 X64.129550 Y52.603349 Z-0.125000
G01 X64.129142 Y52.579675 Z-0.125000
G01 X64.128576 Y52.560996 Z-0.125000
G01 X64.128594 Y52.537627 Z-0.125000
G01 X64.128682 Y52.514503 Z-0.125000
G01 X64.128518 Y52.493989 Z-0.125000
G01 X64.128254 Y52.473717 Z-0.125000
G01 X64.127811 Y52.453708 Z-0.125000
G01 X64.127107 Y52.433989 Z-0.125000
G01 X64.126146 Y52.412413 Z-0.125000
G01 X64.124633 Y52.393394 Z-0.125000
G01 X64.122536 Y52.372688 Z-0.125000
G01 X64.119838 Y52.354515 Z-0.125000
G01 X64.116468 Y52.336803 Z-0.125000
G01 X64.111871 Y52.317759 Z-0.125000
G01 X64.102697 Y52.289083 Z-0.125000
G01 X64.093897 Y52.270762 Z-0.125000
G01 X64.085170 Y52.256694 Z-0.125000
G01 X64.075187 Y52.243614 Z-0.125000
G01 X64.063919 Y52.231628 Z-0.125000
G01 X64.049942 Y52.219807 Z-0.125000
G01 X64.036042 Y52.210411 Z-0.125000
G01 X64.021026 Y52.202304 Z-0.125000
G01 X64.003165 Y52.194971 Z-0.125000
G01 X63.986199 Y52.189563 Z-0.125000
G01 X63.968530 Y52.185351 Z-0.125000
G01 X63.948212 Y52.182168 Z-0.125000
G01 X63.929428 Y52.180335 Z-0.125000
G01 X63.910162 Y52.179801 Z-0.125000
G01 X63.890462 Y52.180726 Z-0.125000
G01 X63.868119 Y52.183943 Z-0.125000
G01 X63.847831 Y52.188450 Z-0.125000
G01 X63.825223 Y52.195934 Z-0.125000
G01 X63.802877 Y52.205714 Z-0.125000
G01 X63.781091 Y52.217647 Z-0.125000
G01 X63.764251 Y52.227901 Z-0.125000
G01 X63.744003 Y52.243076 Z-0.125000
G01 X63.726652 Y52.257589 Z-0.125000
G01 X63.694899 Y52.293149 Z-0.125000
G01 X63.678622 Y52.312443 Z-0.125000
G01 X63.664723 Y52.329986 Z-0.125000
G01 X63.651532 Y52.347979 Z-0.125000
G01 X63.639003 Y52.366362 Z-0.125000
G01 X63.616895 Y52.408056 Z-0.125000
G01 X63.605198 Y52.429949 Z-0.125000
G01 X63.595107 Y52.449518 Z-0.125000
G01 X63.584575 Y52.471963 Z-0.125000
G01 X63.575358 Y52.491991 Z-0.125000
G01 X63.566517 Y52.512224 Z-0.125000
G01 X63.558055 Y52.532656 Z-0.125000
G01 X63.549975 Y52.553278 Z-0.125000
G01 X63.541644 Y52.576835 Z-0.125000
G01 X63.534390 Y52.597839 Z-0.125000
G01 X63.526996 Y52.621801 Z-0.125000
G01 X63.521052 Y52.640356 Z-0.125000
G01 X63.514972 Y52.661855 Z-0.125000
G01 X63.508539 Y52.689170 Z-0.125000
G01 X63.503345 Y52.710999 Z-0.125000
G01 X63.498550 Y52.732971 Z-0.125000
G01 X63.494143 Y52.755080 Z-0.125000
G01 X63.489965 Y52.780205 Z-0.125000
G01 X63.486392 Y52.802589 Z-0.125000
G01 X63.483204 Y52.825099 Z-0.125000
G01 X63.480400 Y52.850649 Z-0.125000
G01 X63.478042 Y52.873412 Z-0.125000
G01 X63.476059 Y52.896293 Z-0.125000
G01 X63.474462 Y52.919291 Z-0.125000
G01 X63.473449 Y52.945357 Z-0.125000
G01 X63.472668 Y52.968592 Z-0.125000
G01 X63.472569 Y52.994911 Z-0.125000
G01 X63.472596 Y53.018381 Z-0.125000
G01 X63.472998 Y53.041961 Z-0.125000
G01 X63.473783 Y53.065652 Z-0.125000
G01 X63.475443 Y53.092464 Z-0.125000
G01 X63.477035 Y53.116388 Z-0.125000
G01 X63.479608 Y53.143449 Z-0.125000
G01 X63.482017 Y53.167607 Z-0.125000
G01 X63.484109 Y53.188834 Z-0.125000
G01 X63.487997 Y53.216260 Z-0.125000
G01 X63.491578 Y53.240756 Z-0.125000
G01 X63.496353 Y53.268440 Z-0.125000
G01 X63.500723 Y53.293177 Z-0.125000
G01 X63.506495 Y53.321108 Z-0.125000
G01 X63.511774 Y53.346068 Z-0.125000
G01 X63.517465 Y53.371140 Z-0.125000
G01 X63.523576 Y53.396318 Z-0.125000
G01 X63.531281 Y53.424717 Z-0.125000
G01 X63.538300 Y53.450110 Z-0.125000
G01 X63.545757 Y53.475603 Z-0.125000
G01 X63.554995 Y53.504320 Z-0.125000
G01 X63.563410 Y53.530002 Z-0.125000
G01 X63.572280 Y53.555766 Z-0.125000
G01 X63.583136 Y53.584751 Z-0.125000
G01 X63.593005 Y53.610668 Z-0.125000
G01 X63.603362 Y53.636646 Z-0.125000
G01 X63.615897 Y53.665816 Z-0.125000
G01 X63.627300 Y53.691889 Z-0.125000
G01 X63.639205 Y53.717995 Z-0.125000
G01 X63.651618 Y53.744119 Z-0.125000
G01 X63.664548 Y53.770250 Z-0.125000
G01 X63.680016 Y53.799496 Z-0.125000
G01 X63.694062 Y53.825591 Z-0.125000
G01 X63.710784 Y53.854746 Z-0.125000
G01 X63.725958 Y53.880736 Z-0.125000
G01 X63.741671 Y53.906658 Z-0.125000
G01 X63.760266 Y53.935535 Z-0.125000
G01 X63.774714 Y53.958216 Z-0.125000
G01 X63.796988 Y53.989813 Z-0.125000
G01 X63.812443 Y54.012249 Z-0.125000
G01 X63.836111 Y54.043392 Z-0.125000
G01 X63.855225 Y54.068409 Z-0.125000
G01 X63.877596 Y54.096086 Z-0.125000
G01 X63.897804 Y54.120625 Z-0.125000
G01 X63.918520 Y54.144915 Z-0.125000
G01 X63.942644 Y54.171680 Z-0.125000
G01 X63.964395 Y54.195364 Z-0.125000
G01 X63.986619 Y54.218736 Z-0.125000
G01 X64.009299 Y54.241776 Z-0.125000
G01 X64.035550 Y54.267026 Z-0.125000
G01 X64.059153 Y54.289305 Z-0.125000
G01 X64.083166 Y54.311201 Z-0.125000
G01 X64.110835 Y54.335092 Z-0.125000
G01 X64.135662 Y54.356126 Z-0.125000
G01 X64.160845 Y54.376733 Z-0.125000
G01 X64.189746 Y54.399116 Z-0.125000
G01 X64.215620 Y54.418782 Z-0.125000
G01 X64.241796 Y54.437993 Z-0.125000
G01 X64.271720 Y54.458755 Z-0.125000
G01 X64.298461 Y54.476963 Z-0.125000
G01 X64.325445 Y54.494694 Z-0.125000
G01 X64.352653 Y54.511941 Z-0.125000
G01 X64.380066 Y54.528702 Z-0.125000
G01 X64.411241 Y54.546664 Z-0.125000
G01 X64.439029 Y54.562376 Z-0.125000
G01 X64.470567 Y54.579148 Z-0.125000
G01 X64.498662 Y54.593808 Z-0.125000
G01 X64.526880 Y54.607970 Z-0.125000
G01 X64.558836 Y54.622996 Z-0.125000
G01 X64.583647 Y54.634813 Z-0.125000
G01 X64.615800 Y54.648722 Z-0.125000
G01 X64.644405 Y54.660843 Z-0.125000
G01 X64.676719 Y54.673568 Z-0.125000
G01 X64.705460 Y54.684639 Z-0.125000
G01 X64.734260 Y54.695217 Z-0.125000
G01 X64.766749 Y54.706201 Z-0.125000
G01 X64.795653 Y54.715724 Z-0.125000
G01 X64.824606 Y54.724747 Z-0.125000
G01 X64.857239 Y54.733966 Z-0.125000
G01 X64.886286 Y54.741906 Z-0.125000
G01 X64.915386 Y54.749325 Z-0.125000
G01 X64.944540 Y54.756211 Z-0.125000
G01 X64.977391 Y54.762978 Z-0.125000
G01 X65.010319 Y54.769028 Z-0.125000
G01 X65.043331 Y54.774329 Z-0.125000
G01 X65.076441 Y54.778839 Z-0.125000
G01 X65.098691 Y54.782239 Z-0.125000
G01 X65.124689 Y54.785277 Z-0.125000
G01 X65.158140 Y54.787597 Z-0.125000
G01 X65.188054 Y54.789074 Z-0.125000
G01 X65.218106 Y54.789647 Z-0.125000
G01 X65.248286 Y54.789206 Z-0.125000
G01 X65.282289 Y54.787032 Z-0.125000
G01 X65.308918 Y54.784767 Z-0.125000
G01 X65.342896 Y54.779489 Z-0.125000
G01 X65.372865 Y54.773251 Z-0.125000
G01 X65.402165 Y54.765123 Z-0.125000
G01 X65.433500 Y54.753298 Z-0.125000
G01 X65.459255 Y54.741069 Z-0.125000
G01 X65.482175 Y54.727344 Z-0.125000
G01 X65.501792 Y54.712653 Z-0.125000
G01 X65.519708 Y54.695329 Z-0.125000
G01 X65.532454 Y54.680188 Z-0.125000
G01 X65.542519 Y54.665282 Z-0.125000
G01 X65.445912 Y54.418499 Z-0.125000
G01 X65.446456 Y54.407041 Z-0.125000
G01 X65.451015 Y54.350697 Z-0.125000
G01 X65.456879 Y54.325705 Z-0.125000
G01 X65.464604 Y54.301032 Z-0.125000
G01 X65.474047 Y54.276749 Z-0.125000
G01 X65.486370 Y54.249669 Z-0.125000
G01 X65.498946 Y54.226334 Z-0.125000
G01 X65.514402 Y54.200347 Z-0.125000
G01 X65.545875 Y54.150834 Z-0.125000
G01 X65.560833 Y54.132240 Z-0.125000
G01 X65.580479 Y54.108103 Z-0.125000
G01 X65.598819 Y54.087199 Z-0.125000
G01 X65.617748 Y54.066550 Z-0.125000
G01 X65.639446 Y54.043335 Z-0.125000
G01 X65.659402 Y54.023112 Z-0.125000
G01 X65.682096 Y54.000299 Z-0.125000
G01 X65.702835 Y53.980350 Z-0.125000
G01 X65.723873 Y53.960478 Z-0.125000
G01 X65.747603 Y53.937969 Z-0.125000
G01 X65.769141 Y53.918179 Z-0.125000
G01 X65.790862 Y53.898386 Z-0.125000
G01 X65.815214 Y53.875894 Z-0.125000
G01 X65.837215 Y53.856028 Z-0.125000
G01 X65.859303 Y53.836093 Z-0.125000
G01 X65.883948 Y53.813389 Z-0.125000
G01 X65.903639 Y53.795944 Z-0.125000
G01 X65.928324 Y53.772995 Z-0.125000
G01 X65.950500 Y53.752598 Z-0.125000
G01 X65.975108 Y53.729321 Z-0.125000
G01 X65.997171 Y53.708585 Z-0.125000
G01 X66.019147 Y53.687662 Z-0.125000
G01 X66.043435 Y53.663763 Z-0.125000
G01 X66.065150 Y53.642407 Z-0.125000
G01 X66.086707 Y53.620822 Z-0.125000
G01 X66.110435 Y53.596147 Z-0.125000
G01 X66.131582 Y53.574038 Z-0.125000
G01 X66.154784 Y53.548754 Z-0.125000
G01 X66.175413 Y53.526060 Z-0.125000
G01 X66.195760 Y53.503067 Z-0.125000
G01 X66.217961 Y53.476759 Z-0.125000
G01 X66.237617 Y53.453095 Z-0.125000
G01 X66.256904 Y53.429092 Z-0.125000
G01 X66.277800 Y53.401622 Z-0.125000
G01 X66.296197 Y53.376868 Z-0.125000
G01 X66.314125 Y53.351741 Z-0.125000
G01 X66.333364 Y53.322986 Z-0.125000
G01 X66.350173 Y53.297043 Z-0.125000
G01 X66.366398 Y53.270702 Z-0.125000
G01 X66.381997 Y53.243960 Z-0.125000
G01 X66.398422 Y53.213390 Z-0.125000
G01 X66.412556 Y53.185798 Z-0.125000
G01 X66.427228 Y53.154290 Z-0.125000
G01 X66.439709 Y53.125866 Z-0.125000
G01 X66.451346 Y53.097065 Z-0.125000
G01 X66.463058 Y53.064258 Z-0.125000
G01 X66.473025 Y53.034791 Z-0.125000
G01 X66.482781 Y53.005222 Z-0.125000
G01 X66.493186 Y52.971888 Z-0.125000
G01 X66.502494 Y52.942123 Z-0.125000
G01 X66.511580 Y52.912266 Z-0.125000
G01 X66.520434 Y52.882315 Z-0.125000
G01 X66.529787 Y52.848581 Z-0.125000
G01 X66.538117 Y52.818444 Z-0.125000
G01 X66.546184 Y52.788218 Z-0.125000
G01 X66.554614 Y52.754192 Z-0.125000
G01 X66.562080 Y52.723782 Z-0.125000
G01 X66.569242 Y52.693285 Z-0.125000
G01 X66.576603 Y52.658970 Z-0.125000
G01 X66.583060 Y52.628291 Z-0.125000
G01 X66.589585 Y52.593782 Z-0.125000
G01 X66.595250 Y52.562923 Z-0.125000
G01 X66.600502 Y52.531979 Z-0.125000
G01 X66.605581 Y52.497188 Z-0.125000
G01 X66.609860 Y52.466070 Z-0.125000
G01 X66.613628 Y52.434870 Z-0.125000
G01 X66.616904 Y52.399814 Z-0.125000
G01 X66.619429 Y52.368463 Z-0.125000
G01 X66.621298 Y52.337046 Z-0.125000
G01 X66.622437 Y52.305576 Z-0.125000
G01 X66.622461 Y52.270283 Z-0.125000
G01 X66.621793 Y52.238764 Z-0.125000
G01 X66.619554 Y52.203486 Z-0.125000
G01 X66.616617 Y52.172057 Z-0.125000
G01 X66.612410 Y52.140754 Z-0.125000
G01 X66.605685 Y52.105969 Z-0.125000
G01 X66.598235 Y52.075258 Z-0.125000
G01 X66.588953 Y52.045058 Z-0.125000
G01 X66.575815 Y52.012160 Z-0.125000
G01 X66.562006 Y51.983872 Z-0.125000
G01 X66.543387 Y51.953974 Z-0.125000
G01 X66.524530 Y51.929220 Z-0.125000
G01 X66.503400 Y51.906765 Z-0.125000
G01 X66.476989 Y51.884855 Z-0.125000
G01 X66.452028 Y51.868184 Z-0.125000
G01 X66.425886 Y51.854330 Z-0.125000
G01 X66.398938 Y51.843154 Z-0.125000
G01 X66.371500 Y51.834431 Z-0.125000
G01 X66.340097 Y51.827449 Z-0.125000
G01 X66.312314 Y51.823075 Z-0.125000
G01 X66.280865 Y51.820350 Z-0.125000
G01 X66.256904 Y51.819075 Z-0.125000
G01 X66.225728 Y51.819357 Z-0.125000
G01 X66.198388 Y51.820553 Z-0.125000
G01 X66.171215 Y51.822686 Z-0.125000
G01 X66.140624 Y51.826314 Z-0.125000
G01 X66.110246 Y51.830889 Z-0.125000
G01 X66.083594 Y51.835390 Z-0.125000
G01 X66.057079 Y51.840435 Z-0.125000
G01 X66.030695 Y51.846002 Z-0.125000
G01 X66.004425 Y51.852017 Z-0.125000
G01 X65.974786 Y51.859519 Z-0.125000
G01 X65.945262 Y51.867480 Z-0.125000
G01 X65.919278 Y51.874673 Z-0.125000
G01 X65.893352 Y51.882157 Z-0.125000
G01 X65.864040 Y51.891139 Z-0.125000
G01 X65.838192 Y51.899143 Z-0.125000
G01 X65.812361 Y51.907359 Z-0.125000
G01 X65.786529 Y51.915763 Z-0.125000
G01 X65.757270 Y51.925701 Z-0.125000
G01 X65.731397 Y51.934458 Z-0.125000
G01 X65.705479 Y51.943354 Z-0.125000
G01 X65.652072 Y51.963714 Z-0.125000
G01 X65.622509 Y51.974396 Z-0.125000
G01 X65.592812 Y51.985195 Z-0.125000
G01 X65.569888 Y51.993153 Z-0.125000
G01 X65.539878 Y52.004117 Z-0.125000
G01 X65.513157 Y52.013663 Z-0.125000
G01 X65.482712 Y52.024757 Z-0.125000
G01 X65.455546 Y52.034407 Z-0.125000
G01 X65.424544 Y52.045613 Z-0.125000
G01 X65.396815 Y52.055349 Z-0.125000
G01 X65.368772 Y52.065119 Z-0.125000
G01 X65.340381 Y52.074929 Z-0.125000
G01 X65.307871 Y52.086316 Z-0.125000
G01 X65.278633 Y52.096213 Z-0.125000
G01 X65.248930 Y52.106160 Z-0.125000
G01 X65.214815 Y52.117734 Z-0.125000
G01 X65.183989 Y52.127834 Z-0.125000
G01 X65.156607 Y52.136444 Z-0.125000
G01 X65.116356 Y52.150001 Z-0.125000
G01 X65.083489 Y52.160521 Z-0.125000
G01 X65.049861 Y52.171254 Z-0.125000
G01 X65.015424 Y52.182245 Z-0.125000
G01 X64.980123 Y52.193552 Z-0.125000
G01 X64.939309 Y52.207063 Z-0.125000
G01 X64.902057 Y52.219280 Z-0.125000
G01 X64.863835 Y52.232063 Z-0.125000
G01 X64.819684 Y52.247563 Z-0.125000
G01 X64.779398 Y52.261875 Z-0.125000
G01 X64.733004 Y52.279367 Z-0.125000
G01 X64.690796 Y52.295699 Z-0.125000
G01 X64.647798 Y52.313148 Z-0.125000
G01 X64.604126 Y52.331806 Z-0.125000
G01 X64.554499 Y52.354624 Z-0.125000
G01 X64.509940 Y52.376028 Z-0.125000
G01 X64.465250 Y52.398745 Z-0.125000
G01 X64.420640 Y52.422729 Z-0.125000
G01 X64.370994 Y52.451372 Z-0.125000
G01 X64.280796 Y52.510398 Z-0.125000
G01 X64.238777 Y52.538013 Z-0.125000
G01 X64.197681 Y52.565867 Z-0.125000
G01 X64.152856 Y52.597258 Z-0.125000
G01 X64.113820 Y52.624343 Z-0.125000
G01 X64.075689 Y52.650209 Z-0.125000
G01 X64.034030 Y52.676712 Z-0.125000
G01 X64.001819 Y52.692940 Z-0.125000
G01 X63.964289 Y52.698228 Z-0.125000
G01 X63.935670 Y52.687797 Z-0.125000
G01 X63.905976 Y52.671818 Z-0.125000
G01 X63.881514 Y52.653673 Z-0.125000
G01 X63.856955 Y52.629437 Z-0.125000
G01 X63.835338 Y52.601489 Z-0.125000
G01 X63.818331 Y52.573888 Z-0.125000
G01 X63.803535 Y52.544298 Z-0.125000
G01 X63.790787 Y52.513151 Z-0.125000
G01 X63.778908 Y52.476897 Z-0.125000
G01 X63.769808 Y52.443624 Z-0.125000
G01 X63.762079 Y52.409769 Z-0.125000
G01 X63.755032 Y52.371419 Z-0.125000
G01 X63.749573 Y52.336921 Z-0.125000
G01 X63.744837 Y52.302328 Z-0.125000
G01 X63.740479 Y52.263601 Z-0.125000
G01 X63.737018 Y52.233169 Z-0.125000
G01 X63.733473 Y52.194651 Z-0.125000
G01 X63.730105 Y52.156352 Z-0.125000
G01 X63.726901 Y52.122344 Z-0.125000
G01 X63.723579 Y52.088581 Z-0.125000
G01 X63.720013 Y52.055094 Z-0.125000
G01 X63.716071 Y52.021927 Z-0.125000
G01 X63.711258 Y51.985272 Z-0.125000
G01 X63.706067 Y51.952914 Z-0.125000
G01 X63.699483 Y51.917303 Z-0.125000
G01 X63.692447 Y51.885993 Z-0.125000
G01 X63.684306 Y51.855288 Z-0.125000
G01 X63.673836 Y51.821835 Z-0.125000
G01 X63.653312 Y51.769846 Z-0.125000
G01 X63.635700 Y51.736649 Z-0.125000
G01 X63.619135 Y51.711184 Z-0.125000
G01 X63.600578 Y51.687253 Z-0.125000
G01 X63.579988 Y51.665051 Z-0.125000
G01 X63.554644 Y51.642604 Z-0.125000
G01 X63.529907 Y51.624617 Z-0.125000
G01 X63.503425 Y51.608776 Z-0.125000
G01 X63.472016 Y51.593795 Z-0.125000
G01 X63.442524 Y51.582528 Z-0.125000
G01 X63.411962 Y51.573311 Z-0.125000
G01 X63.376804 Y51.565446 Z-0.125000
G01 X63.344577 Y51.560351 Z-0.125000
G01 X63.311672 Y51.557527 Z-0.125000
G01 X63.278196 Y51.557271 Z-0.125000
G01 X63.240297 Y51.560627 Z-0.125000
G01 X63.206264 Y51.566663 Z-0.125000
G01 X63.168493 Y51.577610 Z-0.125000
G01 X63.131523 Y51.592681 Z-0.125000
G01 X63.095863 Y51.611648 Z-0.125000
G01 X63.068861 Y51.628468 Z-0.125000
G01 X63.036441 Y51.653326 Z-0.125000
G01 X63.009140 Y51.677445 Z-0.125000
G01 X62.958913 Y51.735832 Z-0.125000
G01 X62.934227 Y51.768219 Z-0.125000
G01 X62.913579 Y51.797834 Z-0.125000
G01 X62.894271 Y51.828234 Z-0.125000
G01 X62.876214 Y51.859296 Z-0.125000
G01 X62.844124 Y51.928632 Z-0.125000
G01 X62.828029 Y51.965451 Z-0.125000
G01 X62.814497 Y51.998419 Z-0.125000
G01 X62.800549 Y52.036047 Z-0.125000
G01 X62.788620 Y52.069641 Z-0.125000
G01 X62.777372 Y52.103495 Z-0.125000
G01 X62.766811 Y52.137602 Z-0.125000
G01 X62.756942 Y52.171939 Z-0.125000
G01 X62.746964 Y52.210971 Z-0.125000
G01 X62.738575 Y52.245763 Z-0.125000
G01 X62.730271 Y52.285260 Z-0.125000
G01 X62.723889 Y52.315912 Z-0.125000
G01 X62.717593 Y52.351241 Z-0.125000
G01 X62.711311 Y52.395847 Z-0.125000
G01 X62.706578 Y52.431501 Z-0.125000
G01 X62.702531 Y52.467286 Z-0.125000
G01 X62.699167 Y52.503189 Z-0.125000
G01 X62.696505 Y52.543802 Z-0.125000
G01 X62.694580 Y52.579921 Z-0.125000
G01 X62.693316 Y52.616129 Z-0.125000
G01 X62.692997 Y52.657043 Z-0.125000
G01 X62.693127 Y52.693412 Z-0.125000
G01 X62.693905 Y52.729850 Z-0.125000
G01 X62.695321 Y52.766348 Z-0.125000
G01 X62.697989 Y52.807535 Z-0.125000
G01 X62.700743 Y52.844143 Z-0.125000
G01 X62.704897 Y52.885431 Z-0.125000
G01 X62.708951 Y52.922135 Z-0.125000
G01 X62.713610 Y52.958877 Z-0.125000
G01 X62.718865 Y52.995656 Z-0.125000
G01 X62.725817 Y53.037103 Z-0.125000
G01 X62.732329 Y53.073955 Z-0.125000
G01 X62.740687 Y53.115462 Z-0.125000
G01 X62.748446 Y53.152377 Z-0.125000
G01 X62.755382 Y53.184698 Z-0.125000
G01 X62.765684 Y53.226300 Z-0.125000
G01 X62.775163 Y53.263305 Z-0.125000
G01 X62.786831 Y53.304952 Z-0.125000
G01 X62.797526 Y53.342009 Z-0.125000
G01 X62.810559 Y53.383706 Z-0.125000
G01 X62.822461 Y53.420809 Z-0.125000
G01 X62.834937 Y53.457937 Z-0.125000
G01 X62.847988 Y53.495084 Z-0.125000
G01 X62.863673 Y53.536843 Z-0.125000
G01 X62.877936 Y53.574017 Z-0.125000
G01 X62.892782 Y53.611205 Z-0.125000
G01 X62.910500 Y53.652974 Z-0.125000
G01 X62.926589 Y53.690163 Z-0.125000
G01 X62.943267 Y53.727345 Z-0.125000
G01 X62.963056 Y53.769074 Z-0.125000
G01 X62.981001 Y53.806222 Z-0.125000
G01 X62.999551 Y53.843345 Z-0.125000
G01 X63.021447 Y53.884948 Z-0.125000
G01 X63.041291 Y53.921979 Z-0.125000
G01 X63.061752 Y53.958959 Z-0.125000
G01 X63.082833 Y53.995869 Z-0.125000
G01 X63.104535 Y54.032696 Z-0.125000
G01 X63.129994 Y54.073875 Z-0.125000
G01 X63.153029 Y54.110485 Z-0.125000
G01 X63.179983 Y54.151366 Z-0.125000
G01 X63.204357 Y54.187686 Z-0.125000
G01 X63.229366 Y54.223853 Z-0.125000
G01 X63.258531 Y54.264153 Z-0.125000
G01 X63.281281 Y54.295643 Z-0.125000
G01 X63.315535 Y54.339709 Z-0.125000
G01 X63.339459 Y54.370795 Z-0.125000
G01 X63.375341 Y54.414178 Z-0.125000
G01 X63.404322 Y54.448892 Z-0.125000
G01 X63.437892 Y54.487372 Z-0.125000
G01 X63.468145 Y54.521424 Z-0.125000
G01 X63.498987 Y54.555138 Z-0.125000
G01 X63.534598 Y54.592403 Z-0.125000
G01 X63.566645 Y54.625325 Z-0.125000
G01 X63.599243 Y54.657850 Z-0.125000
G01 X63.632373 Y54.689953 Z-0.125000
G01 X63.670470 Y54.725293 Z-0.125000
G01 X63.704686 Y54.756446 Z-0.125000
G01 X63.739385 Y54.787127 Z-0.125000
G01 X63.779166 Y54.820789 Z-0.125000
G01 X63.814836 Y54.850414 Z-0.125000
G01 X63.850933 Y54.879519 Z-0.125000
G01 X63.892202 Y54.911351 Z-0.125000
G01 X63.929145 Y54.939314 Z-0.125000
G01 X63.966461 Y54.966725 Z-0.125000
G01 X64.009004 Y54.996596 Z-0.125000
G01 X64.047036 Y55.022797 Z-0.125000
G01 X64.085381 Y55.048419 Z-0.125000
G01 X64.124021 Y55.073456 Z-0.125000
G01 X64.162938 Y55.097901 Z-0.125000
G01 X64.207139 Y55.124380 Z-0.125000
G01 X64.246580 Y55.147546 Z-0.125000
G01 X64.291311 Y55.172571 Z-0.125000
G01 X64.331210 Y55.194444 Z-0.125000
G01 X64.371304 Y55.215701 Z-0.125000
G01 X64.416706 Y55.238562 Z-0.125000
G01 X64.452039 Y55.256364 Z-0.125000
G01 X64.497803 Y55.277820 Z-0.125000
G01 X64.538584 Y55.296507 Z-0.125000
G01 X64.584685 Y55.316450 Z-0.125000
G01 X64.625761 Y55.333781 Z-0.125000
G01 X64.666974 Y55.350467 Z-0.125000
G01 X64.713520 Y55.368128 Z-0.125000
G01 X64.755003 Y55.383407 Z-0.125000
G01 X64.796616 Y55.398007 Z-0.125000
G01 X64.843589 Y55.413272 Z-0.125000
G01 X64.885470 Y55.426373 Z-0.125000
G01 X64.927491 Y55.438735 Z-0.125000
G01 X64.969650 Y55.450333 Z-0.125000
G01 X65.017239 Y55.462101 Z-0.125000
G01 X65.065016 Y55.472805 Z-0.125000
G01 X65.112993 Y55.482379 Z-0.125000
G01 X65.161182 Y55.490736 Z-0.125000
G01 X65.193548 Y55.496444 Z-0.125000
G01 X65.231410 Y55.501879 Z-0.125000
G01 X65.280210 Y55.506767 Z-0.125000
G01 X65.323848 Y55.509976 Z-0.125000
G01 X65.367687 Y55.511682 Z-0.125000
G01 X65.411692 Y55.511683 Z-0.125000
G01 X65.461247 Y55.509024 Z-0.125000
G01 X65.499915 Y55.505538 Z-0.125000
G01 X65.549183 Y55.497393 Z-0.125000
G01 X65.592391 Y55.487166 Z-0.125000
G01 X65.634339 Y55.473462 Z-0.125000
G01 X65.678759 Y55.453249 Z-0.125000
G01 X65.714662 Y55.431650 Z-0.125000
G01 X65.745947 Y55.406928 Z-0.125000
G01 X65.771954 Y55.379985 Z-0.125000
G01 X65.794751 Y55.347902 Z-0.125000
G01 X65.810006 Y55.319164 Z-0.125000
G01 X65.821124 Y55.290469 Z-0.125000
G01 X65.724262 Y55.028137 Z-0.125000
G01 X65.724527 Y55.009769 Z-0.125000
G01 X65.730743 Y54.924104 Z-0.125000
G01 X65.738909 Y54.885474 Z-0.125000
G01 X65.749824 Y54.847343 Z-0.125000
G01 X65.763274 Y54.809823 Z-0.125000
G01 X65.780981 Y54.768143 Z-0.125000
G01 X65.799032 Y54.732106 Z-0.125000
G01 X65.821326 Y54.692139 Z-0.125000
G01 X65.867347 Y54.617091 Z-0.125000
G01 X65.888811 Y54.588290 Z-0.125000
G01 X65.917187 Y54.551272 Z-0.125000
G01 X65.943590 Y54.519126 Z-0.125000
G01 X65.970824 Y54.487416 Z-0.125000
G01 X66.002119 Y54.451950 Z-0.125000
G01 X66.030802 Y54.420993 Z-0.125000
G01 X66.063500 Y54.386258 Z-0.125000
G01 X66.093272 Y54.355832 Z-0.125000
G01 X66.123456 Y54.325583 Z-0.125000
G01 X66.157588 Y54.291499 Z-0.125000
G01 X66.188460 Y54.261497 Z-0.125000
G01 X66.219577 Y54.231552 Z-0.125000
G01 X66.254562 Y54.197696 Z-0.125000
G01 X66.286054 Y54.167767 Z-0.125000
G01 X66.317660 Y54.137794 Z-0.125000
G01 X66.353032 Y54.103814 Z-0.125000
G01 X66.381071 Y54.077603 Z-0.125000
G01 X66.416484 Y54.043381 Z-0.125000
G01 X66.448180 Y54.012947 Z-0.125000
G01 X66.483468 Y53.978351 Z-0.125000
G01 X66.514988 Y53.947519 Z-0.125000
G01 X66.546379 Y53.916460 Z-0.125000
G01 X66.581193 Y53.881099 Z-0.125000
G01 X66.612198 Y53.849492 Z-0.125000
G01 X66.642971 Y53.817591 Z-0.125000
G01 X66.676967 Y53.781222 Z-0.125000
G01 X66.707141 Y53.748630 Z-0.125000
G01 X66.740370 Y53.711445 Z-0.125000
G01 X66.769787 Y53.678068 Z-0.125000
G01 X66.798793 Y53.644285 Z-0.125000
G01 X66.830562 Y53.605706 Z-0.125000
G01 X66.858558 Y53.571004 Z-0.125000
G01 X66.886013 Y53.535838 Z-0.125000
G01 X66.915876 Y53.495648 Z-0.125000
G01 X66.942030 Y53.459440 Z-0.125000
G01 X66.967495 Y53.422713 Z-0.125000
G01 X66.994930 Y53.380729 Z-0.125000
G01 X67.018754 Y53.342864 Z-0.125000
G01 X67.041721 Y53.304443 Z-0.125000
G01 X67.063769 Y53.265463 Z-0.125000
G01 X67.087074 Y53.220935 Z-0.125000
G01 X67.106969 Y53.180767 Z-0.125000
G01 X67.127697 Y53.134923 Z-0.125000
G01 X67.145162 Y53.093596 Z-0.125000
G01 X67.161388 Y53.051744 Z-0.125000
G01 X67.177762 Y53.004091 Z-0.125000
G01 X67.191537 Y52.961324 Z-0.125000
G01 X67.205021 Y52.918434 Z-0.125000
G01 X67.219529 Y52.870089 Z-0.125000
G01 X67.232400 Y52.826956 Z-0.125000
G01 X67.244962 Y52.783709 Z-0.125000
G01 X67.257205 Y52.740348 Z-0.125000
G01 X67.270260 Y52.691497 Z-0.125000
G01 X67.281774 Y52.647899 Z-0.125000
G01 X67.292921 Y52.604186 Z-0.125000
G01 X67.304684 Y52.554958 Z-0.125000
G01 X67.314989 Y52.511010 Z-0.125000
G01 X67.324863 Y52.466948 Z-0.125000
G01 X67.335116 Y52.417341 Z-0.125000
G01 X67.343994 Y52.373041 Z-0.125000
G01 X67.353057 Y52.323178 Z-0.125000
G01 X67.360804 Y52.278644 Z-0.125000
G01 X67.367959 Y52.233999 Z-0.125000
G01 X67.374950 Y52.183763 Z-0.125000
G01 X67.380707 Y52.138890 Z-0.125000
G01 X67.385724 Y52.093914 Z-0.125000
G01 X67.390109 Y52.043337 Z-0.125000
G01 X67.393337 Y51.998168 Z-0.125000
G01 X67.395600 Y51.952925 Z-0.125000
G01 X67.396805 Y51.907623 Z-0.125000
G01 X67.396464 Y51.856772 Z-0.125000
G01 X67.395034 Y51.811440 Z-0.125000
G01 X67.391382 Y51.760666 Z-0.125000
G01 X67.386632 Y51.715525 Z-0.125000
G01 X67.380018 Y51.670599 Z-0.125000
G01 X67.369784 Y51.620654 Z-0.125000
G01 X67.358406 Y51.576681 Z-0.125000
G01 X67.344336 Y51.533506 Z-0.125000
G01 X67.324654 Y51.486495 Z-0.125000
G01 X67.303902 Y51.446248 Z-0.125000
G01 X67.276115 Y51.403787 Z-0.125000
G01 X67.247880 Y51.368873 Z-0.125000
G01 X67.216266 Y51.337403 Z-0.125000
G01 X67.176892 Y51.306903 Z-0.125000
G01 X67.139560 Y51.284058 Z-0.125000
G01 X67.100452 Y51.265398 Z-0.125000
G01 X67.060129 Y51.250712 Z-0.125000
G01 X67.019056 Y51.239663 Z-0.125000
G01 X66.972156 Y51.231323 Z-0.125000
G01 X66.930542 Y51.226717 Z-0.125000
G01 X66.883551 Y51.224678 Z-0.125000
G01 X66.847540 Y51.224541 Z-0.125000
G01 X66.800949 Y51.226961 Z-0.125000
G01 X66.759999 Y51.230619 Z-0.125000
G01 X66.719304 Y51.235674 Z-0.125000
G01 X66.673622 Y51.243119 Z-0.125000
G01 X66.628263 Y51.251894 Z-0.125000
G01 X66.588397 Y51.260489 Z-0.125000
G01 X66.548761 Y51.269925 Z-0.125000
G01 X66.509341 Y51.280121 Z-0.125000
G01 X66.470120 Y51.290995 Z-0.125000
G01 X66.426008 Y51.304212 Z-0.125000
G01 X66.382109 Y51.318134 Z-0.125000
G01 X66.343424 Y51.330808 Z-0.125000
G01 X66.304868 Y51.343929 Z-0.125000
G01 X66.261429 Y51.359438 Z-0.125000
G01 X66.223090 Y51.373393 Z-0.125000
G01 X66.184829 Y51.387681 Z-0.125000
G01 X66.146625 Y51.402277 Z-0.125000
G01 X66.103512 Y51.419301 Z-0.125000
G01 X66.065380 Y51.434465 Z-0.125000
G01 X66.027251 Y51.449864 Z-0.125000
G01 X65.949567 Y51.483489 Z-0.125000
G01 X65.906424 Y51.501772 Z-0.125000
G01 X65.863197 Y51.520260 Z-0.125000
G01 X65.829785 Y51.534262 Z-0.125000
G01 X65.786330 Y51.553062 Z-0.125000
G01 X65.747699 Y51.569646 Z-0.125000
G01 X65.703892 Y51.588721 Z-0.125000
G01 X65.664884 Y51.605523 Z-0.125000
G01 X65.620594 Y51.624828 Z-0.125000
G01 X65.581085 Y51.641813 Z-0.125000
G01 X65.541288 Y51.658879 Z-0.125000
G01 X65.501167 Y51.676020 Z-0.125000
G01 X65.455490 Y51.695699 Z-0.125000
G01 X65.414571 Y51.713007 Z-0.125000
G01 X65.373211 Y51.730398 Z-0.125000
G01 X65.326003 Y51.750390 Z-0.125000
G01 X65.283559 Y51.768001 Z-0.125000
G01 X65.246024 Y51.783196 Z-0.125000
G01 X65.191289 Y51.806196 Z-0.125000
G01 X65.146850 Y51.824299 Z-0.125000
G01 X65.101662 Y51.842628 Z-0.125000
G01 X65.055676 Y51.861232 Z-0.125000
G01 X65.008834 Y51.880166 Z-0.125000
G01 X64.955046 Y51.902270 Z-0.125000
G01 X64.906267 Y51.922138 Z-0.125000
G01 X64.856520 Y51.942573 Z-0.125000
G01 X64.799409 Y51.966685 Z-0.125000
G01 X64.747598 Y51.988651 Z-0.125000
G01 X64.688238 Y52.014748 Z-0.125000
G01 X64.634497 Y52.038721 Z-0.125000
G01 X64.579957 Y52.063795 Z-0.125000
G01 X64.524730 Y52.090058 Z-0.125000
G01 X64.462085 Y52.121404 Z-0.125000
G01 X64.405932 Y52.150354 Z-0.125000
G01 X64.349623 Y52.180578 Z-0.125000
G01 X64.293361 Y52.212020 Z-0.125000
G01 X64.230560 Y52.248979 Z-0.125000
G01 X64.115334 Y52.323423 Z-0.125000
G01 X64.061428 Y52.358112 Z-0.125000
G01 X64.008350 Y52.392877 Z-0.125000
G01 X63.949897 Y52.431785 Z-0.125000
G01 X63.898577 Y52.465228 Z-0.125000
G01 X63.847935 Y52.496997 Z-0.125000
G01 X63.791814 Y52.529232 Z-0.125000
G01 X63.747927 Y52.548618 Z-0.125000
G01 X63.695107 Y52.552962 Z-0.125000
G01 X63.653751 Y52.537142 Z-0.125000
G01 X63.610352 Y52.513804 Z-0.125000
G01 X63.574398 Y52.487968 Z-0.125000
G01 X63.537824 Y52.453851 Z-0.125000
G01 X63.505263 Y52.414848 Z-0.125000
G01 X63.479459 Y52.376575 Z-0.125000
G01 X63.456728 Y52.335658 Z-0.125000
G01 X63.436855 Y52.292656 Z-0.125000
G01 X63.417850 Y52.242569 Z-0.125000
G01 X63.403112 Y52.196666 Z-0.125000
G01 X63.390314 Y52.149939 Z-0.125000
G01 X63.378142 Y52.096895 Z-0.125000
G01 X63.368522 Y52.049200 Z-0.125000
G01 X63.359956 Y52.001310 Z-0.125000
G01 X63.351611 Y51.947535 Z-0.125000
G01 X63.345228 Y51.905357 Z-0.125000
G01 X63.338119 Y51.851689 Z-0.125000
G01 X63.331304 Y51.798214 Z-0.125000
G01 X63.325069 Y51.750709 Z-0.125000
G01 X63.318697 Y51.703453 Z-0.125000
G01 X63.312010 Y51.656488 Z-0.125000
G01 X63.304784 Y51.609881 Z-0.125000
G01 X63.296122 Y51.558147 Z-0.125000
G01 X63.287289 Y51.512446 Z-0.125000
G01 X63.276282 Y51.461916 Z-0.125000
G01 X63.264926 Y51.417466 Z-0.125000
G01 X63.252058 Y51.373760 Z-0.125000
G01 X63.235707 Y51.325900 Z-0.125000
G01 X63.203833 Y51.250599 Z-0.125000
G01 X63.177414 Y51.202525 Z-0.125000
G01 X63.153012 Y51.165662 Z-0.125000
G01 X63.125880 Y51.130880 Z-0.125000
G01 X63.095967 Y51.098461 Z-0.125000
G01 X63.059257 Y51.065392 Z-0.125000
G01 X63.023680 Y51.038813 Z-0.125000
G01 X62.985734 Y51.015236 Z-0.125000
G01 X62.940776 Y50.992607 Z-0.125000
G01 X62.898758 Y50.975479 Z-0.125000
G01 X62.855303 Y50.961255 Z-0.125000
G01 X62.805304 Y50.948715 Z-0.125000
G01 X62.759636 Y50.940359 Z-0.125000
G01 X62.713091 Y50.935246 Z-0.125000
G01 X62.665837 Y50.933800 Z-0.125000
G01 X62.612383 Y50.937296 Z-0.125000
G01 X62.564613 Y50.944906 Z-0.125000
G01 X62.511680 Y50.959316 Z-0.125000
G01 X62.460082 Y50.979671 Z-0.125000
G01 X62.410549 Y51.005669 Z-0.125000
G01 X62.373385 Y51.029057 Z-0.125000
G01 X62.328792 Y51.063600 Z-0.125000
G01 X62.291543 Y51.097324 Z-0.125000
G01 X62.222841 Y51.178537 Z-0.125000
G01 X62.189746 Y51.224015 Z-0.125000
G01 X62.162350 Y51.265703 Z-0.125000
G01 X62.136925 Y51.308510 Z-0.125000
G01 X62.113340 Y51.352253 Z-0.125000
G01 X62.071269 Y51.449230 Z-0.125000
G01 X62.050774 Y51.500976 Z-0.125000
G01 X62.033803 Y51.547342 Z-0.125000
G01 X62.016437 Y51.600153 Z-0.125000
G01 X62.001796 Y51.647312 Z-0.125000
G01 X61.988142 Y51.694788 Z-0.125000
G01 X61.975482 Y51.742568 Z-0.125000
G01 X61.963823 Y51.790622 Z-0.125000
G01 X61.952200 Y51.845129 Z-0.125000
G01 X61.942675 Y51.893707 Z-0.125000
G01 X61.933462 Y51.948742 Z-0.125000
G01 X61.926641 Y51.991490 Z-0.125000
G01 X61.920126 Y52.040650 Z-0.125000
G01 X61.913997 Y52.102546 Z-0.125000
G01 X61.909720 Y52.152027 Z-0.125000
G01 X61.906424 Y52.201625 Z-0.125000
G01 X61.904103 Y52.251320 Z-0.125000
G01 X61.902957 Y52.307422 Z-0.125000
G01 X61.902671 Y52.357277 Z-0.125000
G01 X61.903330 Y52.407185 Z-0.125000
G01 X61.905506 Y52.463459 Z-0.125000
G01 X61.908133 Y52.513435 Z-0.125000
G01 X61.911662 Y52.563428 Z-0.125000
G01 X61.916092 Y52.613428 Z-0.125000
G01 X61.922439 Y52.669735 Z-0.125000
G01 X61.928720 Y52.719719 Z-0.125000
G01 X61.937128 Y52.775976 Z-0.125000
G01 X61.945198 Y52.825914 Z-0.125000
G01 X61.954106 Y52.875820 Z-0.125000
G01 X61.963840 Y52.925687 Z-0.125000
G01 X61.976085 Y52.981768 Z-0.125000
G01 X61.987527 Y53.031546 Z-0.125000
G01 X62.001661 Y53.087501 Z-0.125000
G01 X62.014761 Y53.137175 Z-0.125000
G01 X62.026531 Y53.180590 Z-0.125000
G01 X62.043266 Y53.236364 Z-0.125000
G01 X62.058651 Y53.285877 Z-0.125000
G01 X62.077176 Y53.341495 Z-0.125000
G01 X62.094141 Y53.390881 Z-0.125000
G01 X62.114437 Y53.446342 Z-0.125000
G01 X62.132966 Y53.495589 Z-0.125000
G01 X62.152223 Y53.544773 Z-0.125000
G01 X62.172205 Y53.593889 Z-0.125000
G01 X62.195873 Y53.649009 Z-0.125000
G01 X62.217389 Y53.697964 Z-0.125000
G01 X62.239628 Y53.746847 Z-0.125000
G01 X62.265823 Y53.801665 Z-0.125000
G01 X62.289590 Y53.850362 Z-0.125000
G01 X62.314075 Y53.898963 Z-0.125000
G01 X62.342800 Y53.953434 Z-0.125000
G01 X62.368819 Y54.001814 Z-0.125000
G01 X62.395564 Y54.050083 Z-0.125000
G01 X62.426817 Y54.104118 Z-0.125000
G01 X62.455102 Y54.152109 Z-0.125000
G01 X62.484118 Y54.199961 Z-0.125000
G01 X62.513860 Y54.247657 Z-0.125000
G01 X62.544331 Y54.295183 Z-0.125000
G01 X62.579782 Y54.348295 Z-0.125000
G01 X62.611806 Y54.395418 Z-0.125000
G01 X62.648994 Y54.448025 Z-0.125000
G01 X62.682566 Y54.494675 Z-0.125000
G01 X62.716871 Y54.541088 Z-0.125000
G01 X62.756607 Y54.592810 Z-0.125000
G01 X62.787658 Y54.633109 Z-0.125000
G01 X62.833893 Y54.689646 Z-0.125000
G01 X62.866285 Y54.729380 Z-0.125000
G01 X62.914379 Y54.785003 Z-0.125000
G01 X62.953227 Y54.829414 Z-0.125000
G01 X62.998000 Y54.878698 Z-0.125000
G01 X63.038296 Y54.922261 Z-0.125000
G01 X63.079264 Y54.965401 Z-0.125000
G01 X63.126363 Y55.013164 Z-0.125000
G01 X63.168705 Y55.055327 Z-0.125000
G01 X63.211676 Y55.097003 Z-0.125000
G01 X63.255256 Y55.138169 Z-0.125000
G01 X63.305202 Y55.183599 Z-0.125000
G01 X63.350029 Y55.223627 Z-0.125000
G01 X63.395415 Y55.263091 Z-0.125000
G01 X63.447306 Y55.306527 Z-0.125000
G01 X63.493820 Y55.344741 Z-0.125000
G01 X63.540832 Y55.382344 Z-0.125000
G01 X63.594469 Y55.423624 Z-0.125000
G01 X63.642480 Y55.459884 Z-0.125000
G01 X63.690937 Y55.495497 Z-0.125000
G01 X63.746097 Y55.534478 Z-0.125000
G01 X63.795420 Y55.568671 Z-0.125000
G01 X63.845127 Y55.602183 Z-0.125000
G01 X63.895200 Y55.635010 Z-0.125000
G01 X63.945620 Y55.667139 Z-0.125000
G01 X64.002847 Y55.702136 Z-0.125000
G01 X64.053941 Y55.732757 Z-0.125000
G01 X64.111865 Y55.766033 Z-0.125000
G01 X64.163569 Y55.795119 Z-0.125000
G01 X64.215537 Y55.823470 Z-0.125000
G01 X64.274386 Y55.854168 Z-0.125000
G01 X64.320241 Y55.877954 Z-0.125000
G01 X64.379615 Y55.906958 Z-0.125000
G01 X64.432572 Y55.932211 Z-0.125000
G01 X64.492461 Y55.959372 Z-0.125000
G01 X64.545873 Y55.982963 Z-0.125000
G01 X64.599497 Y56.005756 Z-0.125000
G01 X64.660101 Y56.030094 Z-0.125000
G01 X64.714163 Y56.051130 Z-0.125000
G01 X64.768435 Y56.071306 Z-0.125000
G01 X64.829748 Y56.092619 Z-0.125000
G01 X64.884465 Y56.110880 Z-0.125000
G01 X64.939405 Y56.128186 Z-0.125000
G01 X64.994572 Y56.144495 Z-0.125000
G01 X65.056896 Y56.161263 Z-0.125000
G01 X65.119523 Y56.176623 Z-0.125000
G01 X65.182465 Y56.190469 Z-0.125000
G01 X65.245733 Y56.202674 Z-0.125000
G01 X65.288213 Y56.210685 Z-0.125000
G01 X65.337940 Y56.218515 Z-0.125000
G01 X65.402089 Y56.225971 Z-0.125000
G01 X65.459451 Y56.230908 Z-0.125000
G01 X65.517076 Y56.233743 Z-0.125000
G01 X65.574906 Y56.234183 Z-0.125000
G01 X65.640014 Y56.231047 Z-0.125000
G01 X65.690722 Y56.226349 Z-0.125000
G01 X65.755280 Y56.215338 Z-0.125000
G01 X65.811726 Y56.201121 Z-0.125000
G01 X65.866323 Y56.181840 Z-0.125000
G01 X65.923828 Y56.153238 Z-0.125000
G01 X65.969879 Y56.122263 Z-0.125000
G01 X66.009529 Y56.086545 Z-0.125000
G01 X66.041926 Y56.047349 Z-0.125000
G01 X66.069604 Y56.000506 Z-0.125000
G01 X66.087368 Y55.958171 Z-0.125000
G01 X66.099536 Y55.915688 Z-0.125000
G01 X66.002422 Y55.637808 Z-0.125000
G01 X66.002407 Y55.612528 Z-0.125000
G01 X66.010280 Y55.497543 Z-0.125000
G01 X66.020747 Y55.445276 Z-0.125000
G01 X66.034855 Y55.393687 Z-0.125000
G01 X66.052312 Y55.342929 Z-0.125000
G01 X66.075402 Y55.286649 Z-0.125000
G01 X66.098928 Y55.237909 Z-0.125000
G01 X66.128059 Y55.183964 Z-0.125000
G01 X66.188629 Y55.083380 Z-0.125000
G01 X66.216599 Y55.044373 Z-0.125000
G01 X66.253705 Y54.994473 Z-0.125000
G01 X66.288169 Y54.951085 Z-0.125000
G01 X66.323711 Y54.908313 Z-0.125000
G01 X66.364604 Y54.860598 Z-0.125000
G01 X66.402011 Y54.818907 Z-0.125000
G01 X66.444713 Y54.772249 Z-0.125000
G01 X66.483517 Y54.731346 Z-0.125000
G01 X66.522848 Y54.690719 Z-0.125000
G01 X66.567385 Y54.645062 Z-0.125000
G01 X66.607588 Y54.604849 Z-0.125000
G01 X66.648103 Y54.564752 Z-0.125000
G01 X66.693720 Y54.519531 Z-0.125000
G01 X66.734703 Y54.479537 Z-0.125000
G01 X66.775828 Y54.439527 Z-0.125000
G01 X66.821927 Y54.394272 Z-0.125000
G01 X66.858312 Y54.359295 Z-0.125000
G01 X66.904453 Y54.313797 Z-0.125000
G01 X66.945669 Y54.273327 Z-0.125000
G01 X66.991638 Y54.227413 Z-0.125000
G01 X67.032616 Y54.186486 Z-0.125000
G01 X67.073420 Y54.145290 Z-0.125000
G01 X67.118763 Y54.098467 Z-0.125000
G01 X67.159056 Y54.056610 Z-0.125000
G01 X67.199046 Y54.014393 Z-0.125000
G01 X67.243309 Y53.966329 Z-0.125000
G01 X67.282509 Y53.923254 Z-0.125000
G01 X67.325767 Y53.874168 Z-0.125000
G01 X67.363972 Y53.830108 Z-0.125000
G01 X67.401635 Y53.785537 Z-0.125000
G01 X67.442974 Y53.734684 Z-0.125000
G01 X67.479309 Y53.688946 Z-0.125000
G01 X67.514933 Y53.642615 Z-0.125000
G01 X67.553762 Y53.589705 Z-0.125000
G01 X67.587671 Y53.542043 Z-0.125000
G01 X67.620673 Y53.493716 Z-0.125000
G01 X67.656306 Y53.438504 Z-0.125000
G01 X67.687146 Y53.388716 Z-0.125000
G01 X67.716854 Y53.338216 Z-0.125000
G01 X67.745350 Y53.286999 Z-0.125000
G01 X67.775536 Y53.228511 Z-0.125000
G01 X67.801192 Y53.175768 Z-0.125000
G01 X67.827977 Y53.115589 Z-0.125000
G01 X67.850425 Y53.061358 Z-0.125000
G01 X67.871238 Y53.006456 Z-0.125000
G01 X67.892276 Y52.943956 Z-0.125000
G01 X67.909859 Y52.887890 Z-0.125000
G01 X67.927071 Y52.831679 Z-0.125000
G01 X67.945682 Y52.768322 Z-0.125000
G01 X67.962115 Y52.711822 Z-0.125000
G01 X67.978156 Y52.655186 Z-0.125000
G01 X67.993788 Y52.598412 Z-0.125000
G01 X68.010542 Y52.534446 Z-0.125000
G01 X68.025241 Y52.477385 Z-0.125000
G01 X68.039469 Y52.420186 Z-0.125000
G01 X68.054565 Y52.355757 Z-0.125000
G01 X68.067707 Y52.298270 Z-0.125000
G01 X68.080294 Y52.240642 Z-0.125000
G01 X68.093439 Y52.175744 Z-0.125000
G01 X68.104736 Y52.117824 Z-0.125000
G01 X68.116338 Y52.052608 Z-0.125000
G01 X68.126166 Y51.994397 Z-0.125000
G01 X68.135226 Y51.936049 Z-0.125000
G01 X68.144130 Y51.870370 Z-0.125000
G01 X68.151365 Y51.811743 Z-0.125000
G01 X68.157633 Y51.752990 Z-0.125000
G01 X68.163129 Y51.686891 Z-0.125000
G01 X68.167056 Y51.627906 Z-0.125000
G01 X68.169716 Y51.568836 Z-0.125000
G01 X68.170986 Y51.509700 Z-0.125000
G01 X68.170284 Y51.443291 Z-0.125000
G01 X68.168091 Y51.384149 Z-0.125000
G01 X68.163026 Y51.317877 Z-0.125000
G01 X68.156472 Y51.259021 Z-0.125000
G01 X68.147415 Y51.200481 Z-0.125000
G01 X68.133681 Y51.135374 Z-0.125000
G01 X68.118375 Y51.078139 Z-0.125000
G01 X68.099515 Y51.021989 Z-0.125000
G01 X68.073289 Y50.960864 Z-0.125000
G01 X68.045593 Y50.908659 Z-0.125000
G01 X68.008635 Y50.853634 Z-0.125000
G01 X67.971022 Y50.808560 Z-0.125000
G01 X67.928926 Y50.768077 Z-0.125000
G01 X67.876588 Y50.728987 Z-0.125000
G01 X67.826885 Y50.699967 Z-0.125000
G01 X67.774811 Y50.676501 Z-0.125000
G01 X67.721113 Y50.658305 Z-0.125000
G01 X67.666407 Y50.644931 Z-0.125000
G01 X67.604007 Y50.635231 Z-0.125000
G01 X67.548565 Y50.630392 Z-0.125000
G01 X67.486029 Y50.629041 Z-0.125000
G01 X67.437968 Y50.630043 Z-0.125000
G01 X67.375965 Y50.634602 Z-0.125000
G01 X67.321401 Y50.640720 Z-0.125000
G01 X67.267187 Y50.648699 Z-0.125000
G01 X67.206406 Y50.659913 Z-0.125000
G01 X67.146068 Y50.672907 Z-0.125000
G01 X67.092987 Y50.685590 Z-0.125000
G01 X67.040228 Y50.699400 Z-0.125000
G01 X66.987773 Y50.714224 Z-0.125000
G01 X66.935602 Y50.729966 Z-0.125000
G01 X66.877018 Y50.748908 Z-0.125000
G01 X66.818743 Y50.768791 Z-0.125000
G01 X66.767361 Y50.786951 Z-0.125000
G01 X66.716175 Y50.805721 Z-0.125000
G01 X66.658608 Y50.827760 Z-0.125000
G01 X66.607779 Y50.847657 Z-0.125000
G01 X66.557087 Y50.868016 Z-0.125000
G01 X66.506510 Y50.888798 Z-0.125000
G01 X66.449543 Y50.912911 Z-0.125000
G01 X66.399151 Y50.934486 Z-0.125000
G01 X66.348814 Y50.956386 Z-0.125000
G01 X66.246851 Y51.003278 Z-0.125000
G01 X66.190128 Y51.029162 Z-0.125000
G01 X66.133372 Y51.055344 Z-0.125000
G01 X66.089473 Y51.075391 Z-0.125000
G01 X66.032575 Y51.102031 Z-0.125000
G01 X65.982032 Y51.125648 Z-0.125000
G01 X65.924864 Y51.152703 Z-0.125000
G01 X65.874012 Y51.176654 Z-0.125000
G01 X65.816435 Y51.204061 Z-0.125000
G01 X65.765145 Y51.228297 Z-0.125000
G01 X65.713594 Y51.252655 Z-0.125000
G01 X65.661744 Y51.277132 Z-0.125000
G01 X65.602901 Y51.305108 Z-0.125000
G01 X65.550303 Y51.329829 Z-0.125000
G01 X65.497283 Y51.354666 Z-0.125000
G01 X65.436983 Y51.383070 Z-0.125000
G01 X65.382920 Y51.408189 Z-0.125000
G01 X65.335233 Y51.429976 Z-0.125000
G01 X65.266014 Y51.462422 Z-0.125000
G01 X65.210003 Y51.488104 Z-0.125000
G01 X65.153256 Y51.514031 Z-0.125000
G01 X65.095721 Y51.540248 Z-0.125000
G01 X65.037339 Y51.566811 Z-0.125000
G01 X64.970576 Y51.597510 Z-0.125000
G01 X64.910270 Y51.625025 Z-0.125000
G01 X64.849000 Y51.653113 Z-0.125000
G01 X64.778925 Y51.685837 Z-0.125000
G01 X64.715592 Y51.715458 Z-0.125000
G01 X64.643263 Y51.750159 Z-0.125000
G01 X64.577989 Y51.781771 Z-0.125000
G01 X64.511908 Y51.814470 Z-0.125000
G01 X64.445127 Y51.848340 Z-0.125000
G01 X64.369462 Y51.888213 Z-0.125000
G01 X64.301717 Y51.924709 Z-0.125000
G01 X64.233788 Y51.962440 Z-0.125000
G01 X64.165874 Y52.001339 Z-0.125000
G01 X64.089919 Y52.046614 Z-0.125000
G01 X63.949665 Y52.136476 Z-0.125000
G01 X63.883871 Y52.178240 Z-0.125000
G01 X63.818810 Y52.219918 Z-0.125000
G01 X63.746732 Y52.266341 Z-0.125000
G01 X63.683125 Y52.306142 Z-0.125000
G01 X63.619975 Y52.343814 Z-0.125000
G01 X63.549389 Y52.381781 Z-0.125000
G01 X63.493829 Y52.404323 Z-0.125000
G01 X63.425717 Y52.407733 Z-0.125000
G01 X63.371627 Y52.386522 Z-0.125000
G01 X63.314521 Y52.355826 Z-0.125000
G01 X63.267074 Y52.322300 Z-0.125000
G01 X63.218487 Y52.278302 Z-0.125000
G01 X63.174982 Y52.228243 Z-0.125000
G01 X63.140381 Y52.179299 Z-0.125000
G01 X63.109715 Y52.127054 Z-0.125000
G01 X63.082720 Y52.072195 Z-0.125000
G01 X63.056588 Y52.008277 Z-0.125000
G01 X63.036210 Y51.949742 Z-0.125000
G01 X63.018342 Y51.890145 Z-0.125000
G01 X63.001045 Y51.822407 Z-0.125000
G01 X62.987302 Y51.761508 Z-0.125000
G01 X62.974986 Y51.700308 Z-0.125000
G01 X62.962692 Y51.631481 Z-0.125000
G01 X62.953477 Y51.577538 Z-0.125000
G01 X62.942804 Y51.508721 Z-0.125000
G01 X62.932534 Y51.440071 Z-0.125000
G01 X62.923267 Y51.379070 Z-0.125000
G01 X62.913837 Y51.318324 Z-0.125000
G01 X62.903991 Y51.257886 Z-0.125000
G01 X62.893554 Y51.197826 Z-0.125000
G01 X62.881048 Y51.131012 Z-0.125000
G01 X62.868564 Y51.071968 Z-0.125000
G01 X62.853106 Y51.006527 Z-0.125000
G01 X62.837431 Y50.948936 Z-0.125000
G01 X62.819837 Y50.892230 Z-0.125000
G01 X62.797609 Y50.829960 Z-0.125000
G01 X62.754387 Y50.731346 Z-0.125000
G01 X62.719161 Y50.668395 Z-0.125000
G01 X62.686921 Y50.620136 Z-0.125000
G01 X62.651213 Y50.574501 Z-0.125000
G01 X62.611977 Y50.531868 Z-0.125000
G01 X62.563901 Y50.488174 Z-0.125000
G01 X62.517486 Y50.453005 Z-0.125000
G01 X62.468075 Y50.421692 Z-0.125000
G01 X62.409569 Y50.391415 Z-0.125000
G01 X62.355023 Y50.368425 Z-0.125000
G01 X62.298675 Y50.349194 Z-0.125000
G01 X62.233836 Y50.331978 Z-0.125000
G01 X62.174727 Y50.320362 Z-0.125000
G01 X62.114543 Y50.312960 Z-0.125000
G01 X62.053510 Y50.310325 Z-0.125000
G01 X61.984501 Y50.313962 Z-0.125000
G01 X61.922996 Y50.323155 Z-0.125000
G01 X61.854900 Y50.341027 Z-0.125000
G01 X61.788675 Y50.366672 Z-0.125000
G01 X61.725270 Y50.399701 Z-0.125000
G01 X61.677944 Y50.429659 Z-0.125000
G01 X61.621178 Y50.473884 Z-0.125000
G01 X61.573981 Y50.517214 Z-0.125000
G01 X61.486804 Y50.621254 Z-0.125000
G01 X61.445299 Y50.679822 Z-0.125000
G01 X61.411154 Y50.733584 Z-0.125000
G01 X61.379614 Y50.788798 Z-0.125000
G01 X61.350500 Y50.845220 Z-0.125000
G01 X61.298448 Y50.969838 Z-0.125000
G01 X61.273554 Y51.036512 Z-0.125000
G01 X61.253144 Y51.096275 Z-0.125000
G01 X61.232360 Y51.164271 Z-0.125000
G01 X61.215007 Y51.224993 Z-0.125000
G01 X61.198946 Y51.286092 Z-0.125000
G01 X61.184188 Y51.347546 Z-0.125000
G01 X61.170738 Y51.409316 Z-0.125000
G01 X61.157470 Y51.479297 Z-0.125000
G01 X61.146810 Y51.541663 Z-0.125000
G01 X61.136687 Y51.612234 Z-0.125000
G01 X61.129425 Y51.667078 Z-0.125000
G01 X61.122694 Y51.730071 Z-0.125000
G01 X61.116716 Y51.809257 Z-0.125000
G01 X61.112896 Y51.872562 Z-0.125000
G01 X61.110352 Y51.935973 Z-0.125000
G01 X61.109073 Y51.999462 Z-0.125000
G01 X61.109442 Y52.071053 Z-0.125000
G01 X61.110805 Y52.134642 Z-0.125000
G01 X61.113387 Y52.198248 Z-0.125000
G01 X61.118049 Y52.269886 Z-0.125000
G01 X61.123165 Y52.333470 Z-0.125000
G01 X61.129454 Y52.397018 Z-0.125000
G01 X61.136888 Y52.460520 Z-0.125000
G01 X61.146925 Y52.531946 Z-0.125000
G01 X61.156704 Y52.595310 Z-0.125000
G01 X61.169403 Y52.666529 Z-0.125000
G01 X61.181526 Y52.729698 Z-0.125000
G01 X61.194700 Y52.792764 Z-0.125000
G01 X61.208913 Y52.855718 Z-0.125000
G01 X61.226451 Y52.926433 Z-0.125000
G01 X61.242822 Y52.989137 Z-0.125000
G01 X61.262742 Y53.059539 Z-0.125000
G01 X61.281192 Y53.121970 Z-0.125000
G01 X61.297797 Y53.176480 Z-0.125000
G01 X61.320963 Y53.246425 Z-0.125000
G01 X61.342258 Y53.308447 Z-0.125000
G01 X61.367645 Y53.378034 Z-0.125000
G01 X61.390891 Y53.439745 Z-0.125000
G01 X61.418450 Y53.508973 Z-0.125000
G01 X61.443603 Y53.570362 Z-0.125000
G01 X61.469646 Y53.631603 Z-0.125000
G01 X61.496564 Y53.692687 Z-0.125000
G01 X61.528214 Y53.761168 Z-0.125000
G01 X61.556978 Y53.821904 Z-0.125000
G01 X61.586607 Y53.882482 Z-0.125000
G01 X61.621280 Y53.950351 Z-0.125000
G01 X61.652725 Y54.010554 Z-0.125000
G01 X61.685017 Y54.070574 Z-0.125000
G01 X61.722677 Y54.137788 Z-0.125000
G01 X61.756770 Y54.197400 Z-0.125000
G01 X61.791709 Y54.256815 Z-0.125000
G01 X61.832321 Y54.323281 Z-0.125000
G01 X61.869047 Y54.382232 Z-0.125000
G01 X61.906616 Y54.440958 Z-0.125000
G01 X61.945021 Y54.499439 Z-0.125000
G01 X61.984261 Y54.557663 Z-0.125000
G01 X62.029704 Y54.622708 Z-0.125000
G01 X62.070717 Y54.680346 Z-0.125000
G01 X62.118138 Y54.744678 Z-0.125000
G01 X62.160910 Y54.801659 Z-0.125000
G01 X62.204510 Y54.858316 Z-0.125000
G01 X62.254816 Y54.921462 Z-0.125000
G01 X62.294169 Y54.970569 Z-0.125000
G01 X62.352383 Y55.039576 Z-0.125000
G01 X62.393246 Y55.087960 Z-0.125000
G01 X62.453552 Y55.155824 Z-0.125000
G01 X62.502267 Y55.209930 Z-0.125000
G01 X62.558242 Y55.270018 Z-0.125000
G01 X62.608581 Y55.323093 Z-0.125000
G01 X62.659675 Y55.375658 Z-0.125000
G01 X62.718261 Y55.433920 Z-0.125000
G01 X62.770898 Y55.485322 Z-0.125000
G01 X62.824243 Y55.536150 Z-0.125000
G01 X62.878273 Y55.586380 Z-0.125000
G01 X62.940066 Y55.641899 Z-0.125000
G01 X62.995506 Y55.690802 Z-0.125000
G01 X63.051578 Y55.739050 Z-0.125000
G01 X63.115579 Y55.792258 Z-0.125000
G01 X63.172937 Y55.839064 Z-0.125000
G01 X63.230865 Y55.885164 Z-0.125000
G01 X63.296868 Y55.935892 Z-0.125000
G01 X63.355949 Y55.980449 Z-0.125000
G01 X63.415546 Y56.024263 Z-0.125000
G01 X63.483324 Y56.072354 Z-0.125000
G01 X63.543938 Y56.114538 Z-0.125000
G01 X63.605007 Y56.155943 Z-0.125000
G01 X63.666513 Y56.196558 Z-0.125000
G01 X63.728436 Y56.236372 Z-0.125000
G01 X63.798689 Y56.279886 Z-0.125000
G01 X63.861436 Y56.317961 Z-0.125000
G01 X63.932552 Y56.359488 Z-0.125000
G01 X63.996061 Y56.395788 Z-0.125000
G01 X64.059904 Y56.431235 Z-0.125000
G01 X64.132201 Y56.469768 Z-0.125000
G01 X64.188578 Y56.499539 Z-0.125000
G01 X64.261561 Y56.536091 Z-0.125000
G01 X64.326693 Y56.567908 Z-0.125000
G01 X64.400371 Y56.602288 Z-0.125000
G01 X64.466118 Y56.632140 Z-0.125000
G01 X64.532155 Y56.661038 Z-0.125000
G01 X64.606816 Y56.692056 Z-0.125000
G01 X64.673457 Y56.718847 Z-0.125000
G01 X64.740388 Y56.744600 Z-0.125000
G01 X64.816042 Y56.771959 Z-0.125000
G01 X64.883594 Y56.795380 Z-0.125000
G01 X64.951454 Y56.817630 Z-0.125000
G01 X65.019626 Y56.838651 Z-0.125000
G01 X65.096687 Y56.860419 Z-0.125000
G01 X65.174164 Y56.880433 Z-0.125000
G01 X65.252071 Y56.898552 Z-0.125000
G01 X65.330417 Y56.914605 Z-0.125000
G01 X65.383013 Y56.924920 Z-0.125000
G01 X65.444604 Y56.935147 Z-0.125000
G01 X65.524102 Y56.945168 Z-0.125000
G01 X65.595187 Y56.951835 Z-0.125000
G01 X65.666599 Y56.955801 Z-0.125000
G01 X65.738254 Y56.956680 Z-0.125000
G01 X65.818913 Y56.953059 Z-0.125000
G01 X65.881660 Y56.947138 Z-0.125000
G01 X65.961509 Y56.933261 Z-0.125000
G01 X66.031194 Y56.915055 Z-0.125000
G01 X66.098438 Y56.890198 Z-0.125000
G01 X66.169028 Y56.853208 Z-0.125000
G01 X66.225227 Y56.812857 Z-0.125000
G01 X66.273240 Y56.766142 Z-0.125000
G01 X66.312029 Y56.714695 Z-0.125000
G01 X66.344588 Y56.653091 Z-0.125000
G01 X66.364860 Y56.597161 Z-0.125000
G01 X66.378081 Y56.540888 Z-0.125000
G01 X66.280713 Y56.247458 Z-0.125000
G01 X66.280419 Y56.215268 Z-0.125000
G01 X66.289949 Y56.070964 Z-0.125000
G01 X66.302717 Y56.005057 Z-0.125000
G01 X66.320016 Y55.940012 Z-0.125000
G01 X66.341481 Y55.876015 Z-0.125000
G01 X66.369953 Y55.805136 Z-0.125000
G01 X66.398954 Y55.743693 Z-0.125000
G01 X66.434923 Y55.675770 Z-0.125000
G01 X66.510040 Y55.549650 Z-0.125000
G01 X66.544517 Y55.500437 Z-0.125000
G01 X66.590354 Y55.437654 Z-0.125000
G01 X66.632880 Y55.383025 Z-0.125000
G01 X66.676728 Y55.329191 Z-0.125000
G01 X66.727219 Y55.269226 Z-0.125000
G01 X66.773352 Y55.216801 Z-0.125000
G01 X66.826056 Y55.158221 Z-0.125000
G01 X66.873893 Y55.106841 Z-0.125000
G01 X66.922371 Y55.055836 Z-0.125000
G01 X66.977312 Y54.998605 Z-0.125000
G01 X67.026848 Y54.948180 Z-0.125000
G01 X67.076759 Y54.897931 Z-0.125000
G01 X67.133008 Y54.841347 Z-0.125000
G01 X67.183483 Y54.791290 Z-0.125000
G01 X67.234127 Y54.741240 Z-0.125000
G01 X67.290951 Y54.684710 Z-0.125000
G01 X67.335686 Y54.640968 Z-0.125000
G01 X67.392553 Y54.584196 Z-0.125000
G01 X67.443289 Y54.533688 Z-0.125000
G01 X67.499939 Y54.476455 Z-0.125000
G01 X67.550374 Y54.425432 Z-0.125000
G01 X67.600593 Y54.374101 Z-0.125000
G01 X67.656461 Y54.315815 Z-0.125000
G01 X67.706045 Y54.263709 Z-0.125000
G01 X67.755251 Y54.211175 Z-0.125000
G01 X67.809782 Y54.151417 Z-0.125000
G01 X67.858009 Y54.097860 Z-0.125000
G01 X67.911294 Y54.036872 Z-0.125000
G01 X67.958287 Y53.982128 Z-0.125000
G01 X68.004609 Y53.926769 Z-0.125000
G01 X68.055517 Y53.863644 Z-0.125000
G01 X68.100190 Y53.806868 Z-0.125000
G01 X68.143983 Y53.749373 Z-0.125000
G01 X68.191779 Y53.683744 Z-0.125000
G01 X68.233445 Y53.624627 Z-0.125000
G01 X68.273984 Y53.564700 Z-0.125000
G01 X68.317813 Y53.496260 Z-0.125000
G01 X68.355667 Y53.434551 Z-0.125000
G01 X68.392117 Y53.371971 Z-0.125000
G01 X68.427062 Y53.308515 Z-0.125000
G01 X68.464129 Y53.236069 Z-0.125000
G01 X68.495545 Y53.170749 Z-0.125000
G01 X68.528387 Y53.096235 Z-0.125000
G01 X68.555818 Y53.029099 Z-0.125000
G01 X68.581219 Y52.961147 Z-0.125000
G01 X68.606921 Y52.883801 Z-0.125000
G01 X68.628311 Y52.814437 Z-0.125000
G01 X68.649251 Y52.744904 Z-0.125000
G01 X68.671966 Y52.666534 Z-0.125000
G01 X68.691961 Y52.596669 Z-0.125000
G01 X68.711479 Y52.526642 Z-0.125000
G01 X68.730500 Y52.456457 Z-0.125000
G01 X68.750955 Y52.377375 Z-0.125000
G01 X68.768839 Y52.306852 Z-0.125000
G01 X68.786147 Y52.236168 Z-0.125000
G01 X68.804576 Y52.156537 Z-0.125000
G01 X68.820556 Y52.085510 Z-0.125000
G01 X68.835855 Y52.014317 Z-0.125000
G01 X68.851893 Y51.934128 Z-0.125000
G01 X68.865609 Y51.862588 Z-0.125000
G01 X68.879750 Y51.782018 Z-0.125000
G01 X68.891661 Y51.710131 Z-0.125000
G01 X68.902624 Y51.638081 Z-0.125000
G01 X68.913439 Y51.556957 Z-0.125000
G01 X68.922153 Y51.484577 Z-0.125000
G01 X68.929672 Y51.412048 Z-0.125000
G01 X68.936280 Y51.330426 Z-0.125000
G01 X68.940905 Y51.257625 Z-0.125000
G01 X68.943964 Y51.184727 Z-0.125000
G01 X68.945301 Y51.111758 Z-0.125000
G01 X68.944234 Y51.029793 Z-0.125000
G01 X68.941279 Y50.956838 Z-0.125000
G01 X68.934811 Y50.875066 Z-0.125000
G01 X68.926443 Y50.802498 Z-0.125000
G01 X68.914989 Y50.730335 Z-0.125000
G01 X68.897746 Y50.650068 Z-0.125000
G01 X68.878512 Y50.579572 Z-0.125000
G01 X68.854862 Y50.510448 Z-0.125000
G01 X68.822092 Y50.435207 Z-0.125000
G01 X68.787451 Y50.371045 Z-0.125000
G01 X68.741324 Y50.303456 Z-0.125000
G01 X68.694333 Y50.248222 Z-0.125000
G01 X68.641755 Y50.198725 Z-0.125000
G01 X68.576451 Y50.151045 Z-0.125000
G01 X68.514377 Y50.115850 Z-0.125000
G01 X68.449338 Y50.087578 Z-0.125000
G01 X68.382265 Y50.065872 Z-0.125000
G01 X68.313926 Y50.050174 Z-0.125000
G01 X68.236027 Y50.039113 Z-0.125000
G01 X68.166756 Y50.034043 Z-0.125000
G01 X68.088675 Y50.033378 Z-0.125000
G01 X68.028565 Y50.035520 Z-0.125000
G01 X67.951149 Y50.042225 Z-0.125000
G01 X67.882974 Y50.050805 Z-0.125000
G01 X67.815237 Y50.061698 Z-0.125000
G01 X67.739351 Y50.076646 Z-0.125000
G01 X67.664037 Y50.093867 Z-0.125000
G01 X67.597740 Y50.110639 Z-0.125000
G01 X67.531858 Y50.128821 Z-0.125000
G01 X67.466367 Y50.148275 Z-0.125000
G01 X67.401245 Y50.168875 Z-0.125000
G01 X67.328188 Y50.193538 Z-0.125000
G01 X67.255540 Y50.219386 Z-0.125000
G01 X67.191458 Y50.243032 Z-0.125000
G01 X67.127643 Y50.267446 Z-0.125000
G01 X67.055949 Y50.296011 Z-0.125000
G01 X66.992628 Y50.321853 Z-0.125000
G01 X66.929506 Y50.348283 Z-0.125000
G01 X66.866557 Y50.375252 Z-0.125000
G01 X66.795736 Y50.406455 Z-0.125000
G01 X66.733085 Y50.434439 Z-0.125000
G01 X66.670538 Y50.462844 Z-0.125000
G01 X66.544296 Y50.523001 Z-0.125000
G01 X66.473993 Y50.556487 Z-0.125000
G01 X66.403709 Y50.590361 Z-0.125000
G01 X66.349321 Y50.616451 Z-0.125000
G01 X66.278980 Y50.650932 Z-0.125000
G01 X66.216524 Y50.681582 Z-0.125000
G01 X66.145995 Y50.716617 Z-0.125000
G01 X66.083302 Y50.747716 Z-0.125000
G01 X66.012436 Y50.783225 Z-0.125000
G01 X65.949366 Y50.814711 Z-0.125000
G01 X65.886062 Y50.846364 Z-0.125000
G01 X65.822482 Y50.878175 Z-0.125000
G01 X65.750472 Y50.914448 Z-0.125000
G01 X65.686195 Y50.946581 Z-0.125000
G01 X65.621517 Y50.978865 Z-0.125000
G01 X65.548124 Y51.015681 Z-0.125000
G01 X65.482441 Y51.048308 Z-0.125000
G01 X65.424602 Y51.076685 Z-0.125000
G01 X65.340900 Y51.118576 Z-0.125000
G01 X65.273317 Y51.151839 Z-0.125000
G01 X65.205010 Y51.185365 Z-0.125000
G01 X65.135927 Y51.219194 Z-0.125000
G01 X65.066003 Y51.253386 Z-0.125000
G01 X64.986266 Y51.292679 Z-0.125000
G01 X64.914433 Y51.327842 Z-0.125000
G01 X64.841639 Y51.363584 Z-0.125000
G01 X64.758602 Y51.404920 Z-0.125000
G01 X64.683746 Y51.442194 Z-0.125000
G01 X64.598450 Y51.485500 Z-0.125000
G01 X64.521643 Y51.524751 Z-0.125000
G01 X64.444019 Y51.565075 Z-0.125000
G01 X64.365683 Y51.606552 Z-0.125000
G01 X64.277001 Y51.654952 Z-0.125000
G01 X64.197662 Y51.698994 Z-0.125000
G01 X64.118112 Y51.744233 Z-0.125000
G01 X64.038548 Y51.790588 Z-0.125000
G01 X63.949439 Y51.844179 Z-0.125000
G01 X63.784155 Y51.949459 Z-0.125000
G01 X63.706474 Y51.998297 Z-0.125000
G01 X63.629432 Y52.046887 Z-0.125000
G01 X63.543726 Y52.100828 Z-0.125000
G01 X63.467834 Y52.146986 Z-0.125000
G01 X63.392174 Y52.190562 Z-0.125000
G01 X63.307125 Y52.234259 Z-0.125000
G01 X63.239890 Y52.259959 Z-0.125000
G01 X63.156488 Y52.262434 Z-0.125000
G01 X63.089663 Y52.235833 Z-0.125000
G01 X63.018851 Y52.197778 Z-0.125000
G01 X62.959911 Y52.156561 Z-0.125000
G01 X62.899310 Y52.102680 Z-0.125000
G01 X62.844862 Y52.041567 Z-0.125000
G01 X62.801464 Y51.981952 Z-0.125000
G01 X62.762861 Y51.918381 Z-0.125000
G01 X62.728745 Y51.851664 Z-0.125000
G01 X62.695486 Y51.773915 Z-0.125000
G01 X62.669471 Y51.702749 Z-0.125000
G01 X62.646539 Y51.630280 Z-0.125000
G01 X62.624117 Y51.547848 Z-0.125000
G01 X62.606258 Y51.473743 Z-0.125000
G01 X62.590157 Y51.399239 Z-0.125000
G01 X62.573940 Y51.315353 Z-0.125000
G01 X62.561793 Y51.249665 Z-0.125000
G01 X62.547554 Y51.165699 Z-0.125000
G01 X62.533846 Y51.081871 Z-0.125000
G01 X62.521530 Y51.007376 Z-0.125000
G01 X62.509047 Y50.933138 Z-0.125000
G01 X62.496080 Y50.859224 Z-0.125000
G01 X62.482422 Y50.785712 Z-0.125000
G01 X62.466065 Y50.703819 Z-0.125000
G01 X62.449920 Y50.631434 Z-0.125000
G01 X62.430012 Y50.551081 Z-0.125000
G01 X62.410009 Y50.480350 Z-0.125000
G01 X62.387685 Y50.410645 Z-0.125000
G01 X62.359579 Y50.333967 Z-0.125000
G01 X62.305007 Y50.212040 Z-0.125000
G01 X62.260974 Y50.134213 Z-0.125000
G01 X62.220897 Y50.074557 Z-0.125000
G01 X62.176614 Y50.018069 Z-0.125000
G01 X62.128053 Y49.965221 Z-0.125000
G01 X62.068612 Y49.910902 Z-0.125000
G01 X62.011359 Y49.867142 Z-0.125000
G01 X61.950482 Y49.828093 Z-0.125000
G01 X61.878428 Y49.790169 Z-0.125000
G01 X61.811356 Y49.761316 Z-0.125000
G01 X61.742113 Y49.737078 Z-0.125000
G01 X61.662434 Y49.715187 Z-0.125000
G01 X61.589885 Y49.700310 Z-0.125000
G01 X61.516060 Y49.690619 Z-0.125000
G01 X61.441249 Y49.686797 Z-0.125000
G01 X61.356686 Y49.690572 Z-0.125000
G01 X61.281442 Y49.701330 Z-0.125000
G01 X61.198185 Y49.722674 Z-0.125000
G01 X61.117334 Y49.753608 Z-0.125000
G01 X61.040056 Y49.793668 Z-0.125000
G01 X60.982568 Y49.830195 Z-0.125000
G01 X60.913629 Y49.884103 Z-0.125000
G01 X60.856484 Y49.937039 Z-0.125000
G01 X60.750832 Y50.063905 Z-0.125000
G01 X60.700919 Y50.135565 Z-0.125000
G01 X60.660024 Y50.201400 Z-0.125000
G01 X60.622368 Y50.269021 Z-0.125000
G01 X60.587725 Y50.338123 Z-0.125000
G01 X60.525693 Y50.490382 Z-0.125000
G01 X60.496398 Y50.571983 Z-0.125000
G01 X60.472549 Y50.645145 Z-0.125000
G01 X60.448348 Y50.728324 Z-0.125000
G01 X60.428283 Y50.802611 Z-0.125000
G01 X60.409816 Y50.877332 Z-0.125000
G01 X60.392958 Y50.952459 Z-0.125000
G01 X60.377718 Y51.027944 Z-0.125000
G01 X60.362805 Y51.113402 Z-0.125000
G01 X60.351010 Y51.189555 Z-0.125000
G01 X60.339978 Y51.275662 Z-0.125000
G01 X60.332276 Y51.342602 Z-0.125000
G01 X60.325327 Y51.419426 Z-0.125000
G01 X60.319501 Y51.515903 Z-0.125000
G01 X60.316138 Y51.593034 Z-0.125000
G01 X60.314345 Y51.670259 Z-0.125000
G01 X60.314108 Y51.747541 Z-0.125000
G01 X60.315991 Y51.834619 Z-0.125000
G01 X60.319001 Y51.911944 Z-0.125000
G01 X60.323507 Y51.989248 Z-0.125000
G01 X60.330654 Y52.076250 Z-0.125000
G01 X60.338267 Y52.153439 Z-0.125000
G01 X60.347308 Y52.230544 Z-0.125000
G01 X60.357755 Y52.307546 Z-0.125000
G01 X60.371455 Y52.394096 Z-0.125000
G01 X60.384805 Y52.470828 Z-0.125000
G01 X60.401739 Y52.557019 Z-0.125000
G01 X60.417889 Y52.633422 Z-0.125000
G01 X60.435321 Y52.709650 Z-0.125000
G01 X60.454003 Y52.785692 Z-0.125000
G01 X60.476834 Y52.871042 Z-0.125000
G01 X60.498125 Y52.946674 Z-0.125000
G01 X60.523827 Y53.031522 Z-0.125000
G01 X60.547629 Y53.106709 Z-0.125000
G01 X60.569072 Y53.172314 Z-0.125000
G01 X60.598669 Y53.256433 Z-0.125000
G01 X60.625873 Y53.330962 Z-0.125000
G01 X60.658117 Y53.414518 Z-0.125000
G01 X60.687640 Y53.488557 Z-0.125000
G01 X60.722461 Y53.571551 Z-0.125000
G01 X60.754240 Y53.645083 Z-0.125000
G01 X60.787065 Y53.718380 Z-0.125000
G01 X60.820920 Y53.791432 Z-0.125000
G01 X60.860552 Y53.873274 Z-0.125000
G01 X60.896566 Y53.945792 Z-0.125000
G01 X60.933584 Y54.018064 Z-0.125000
G01 X60.976734 Y54.098983 Z-0.125000
G01 X61.015857 Y54.170695 Z-0.125000
G01 X61.055957 Y54.242133 Z-0.125000
G01 X61.102553 Y54.322088 Z-0.125000
G01 X61.144719 Y54.392934 Z-0.125000
G01 X61.187852 Y54.463494 Z-0.125000
G01 X61.237823 Y54.542392 Z-0.125000
G01 X61.282989 Y54.612303 Z-0.125000
G01 X61.329112 Y54.681902 Z-0.125000
G01 X61.376180 Y54.751168 Z-0.125000
G01 X61.424189 Y54.820090 Z-0.125000
G01 X61.479624 Y54.897068 Z-0.125000
G01 X61.529626 Y54.965221 Z-0.125000
G01 X61.587280 Y55.041278 Z-0.125000
G01 X61.639250 Y55.108590 Z-0.125000
G01 X61.692147 Y55.175493 Z-0.125000
G01 X61.753023 Y55.250061 Z-0.125000
G01 X61.800678 Y55.307976 Z-0.125000
G01 X61.870871 Y55.389454 Z-0.125000
G01 X61.920203 Y55.446487 Z-0.125000
G01 X61.992723 Y55.526591 Z-0.125000
G01 X62.051305 Y55.590392 Z-0.125000
G01 X62.118480 Y55.661286 Z-0.125000
G01 X62.178864 Y55.723871 Z-0.125000
G01 X62.240083 Y55.785862 Z-0.125000
G01 X62.310156 Y55.854622 Z-0.125000
G01 X62.373089 Y55.915264 Z-0.125000
G01 X62.436808 Y55.975245 Z-0.125000
G01 X62.501288 Y56.034537 Z-0.125000
G01 X62.574929 Y56.100147 Z-0.125000
G01 X62.640981 Y56.157924 Z-0.125000
G01 X62.707739 Y56.214955 Z-0.125000
G01 X62.783851 Y56.277938 Z-0.125000
G01 X62.852051 Y56.333333 Z-0.125000
G01 X62.920895 Y56.387930 Z-0.125000
G01 X62.999266 Y56.448106 Z-0.125000
G01 X63.069415 Y56.500960 Z-0.125000
G01 X63.140153 Y56.552976 Z-0.125000
G01 X63.220549 Y56.610177 Z-0.125000
G01 X63.292454 Y56.660353 Z-0.125000
G01 X63.364885 Y56.709649 Z-0.125000
G01 X63.437823 Y56.758053 Z-0.125000
G01 X63.511250 Y56.805552 Z-0.125000
G01 X63.594528 Y56.857582 Z-0.125000
G01 X63.668927 Y56.903113 Z-0.125000
G01 X63.753238 Y56.952892 Z-0.125000
G01 X63.828551 Y56.996404 Z-0.125000
G01 X63.904270 Y57.038945 Z-0.125000
G01 X63.990012 Y57.085315 Z-0.125000
G01 X64.056911 Y57.121071 Z-0.125000
G01 X64.143505 Y57.165170 Z-0.125000
G01 X64.220814 Y57.203553 Z-0.125000
G01 X64.308278 Y57.245151 Z-0.125000
G01 X64.386360 Y57.281263 Z-0.125000
G01 X64.464810 Y57.316269 Z-0.125000
G01 X64.553527 Y57.353964 Z-0.125000
G01 X64.632748 Y57.386511 Z-0.125000
G01 X64.712340 Y57.417841 Z-0.125000
G01 X64.802333 Y57.451248 Z-0.125000
G01 X64.882719 Y57.479828 Z-0.125000
G01 X64.963500 Y57.507022 Z-0.125000
G01 X65.044679 Y57.532754 Z-0.125000
G01 X65.136476 Y57.559523 Z-0.125000
G01 X65.228803 Y57.584191 Z-0.125000
G01 X65.321674 Y57.606582 Z-0.125000
G01 X65.415099 Y57.626484 Z-0.125000
G01 X65.477809 Y57.639102 Z-0.125000
G01 X65.551266 Y57.651726 Z-0.125000
G01 X65.646113 Y57.664312 Z-0.125000
G01 X65.730921 Y57.672709 Z-0.125000
G01 X65.816119 Y57.677806 Z-0.125000
G01 X65.901599 Y57.679123 Z-0.125000
G01 X65.997811 Y57.675019 Z-0.125000
G01 X66.072598 Y57.667887 Z-0.125000
G01 X66.167737 Y57.651144 Z-0.125000
G01 X66.250662 Y57.628956 Z-0.125000
G01 X66.330554 Y57.598523 Z-0.125000
G01 X66.414229 Y57.553144 Z-0.125000
G01 X66.480576 Y57.503417 Z-0.125000
G01 X66.536954 Y57.445707 Z-0.125000
G01 X66.582132 Y57.382007 Z-0.125000
G01 X66.619573 Y57.305643 Z-0.125000
G01 X66.642354 Y57.236116 Z-0.125000
G01 X66.656627 Y57.166055 Z-0.125000
G01 X66.559005 Y56.857076 Z-0.125000
G01 X66.558432 Y56.817976 Z-0.125000
G01 X66.569619 Y56.644352 Z-0.125000
G01 X66.584687 Y56.564807 Z-0.125000
G01 X66.605179 Y56.486303 Z-0.125000
G01 X66.630651 Y56.409069 Z-0.125000
G01 X66.664506 Y56.323590 Z-0.125000
G01 X66.698982 Y56.249444 Z-0.125000
G01 X66.741788 Y56.167542 Z-0.125000
G01 X66.831454 Y56.015888 Z-0.125000
G01 X66.872437 Y55.956466 Z-0.125000
G01 X66.927005 Y55.880802 Z-0.125000
G01 X66.977592 Y55.814932 Z-0.125000
G01 X67.029746 Y55.750036 Z-0.125000
G01 X67.089836 Y55.677821 Z-0.125000
G01 X67.144694 Y55.614660 Z-0.125000
G01 X67.207401 Y55.544160 Z-0.125000
G01 X67.264272 Y55.482303 Z-0.125000
G01 X67.321896 Y55.420920 Z-0.125000
G01 X67.387241 Y55.352115 Z-0.125000
G01 X67.446109 Y55.291479 Z-0.125000
G01 X67.505417 Y55.231078 Z-0.125000
G01 X67.572299 Y55.163129 Z-0.125000
G01 X67.632265 Y55.103008 Z-0.125000
G01 X67.692427 Y55.042922 Z-0.125000
G01 X67.759979 Y54.975115 Z-0.125000
G01 X67.813060 Y54.922608 Z-0.125000
G01 X67.880654 Y54.854560 Z-0.125000
G01 X67.940910 Y54.794016 Z-0.125000
G01 X68.008241 Y54.725465 Z-0.125000
G01 X68.068135 Y54.664347 Z-0.125000
G01 X68.127767 Y54.602879 Z-0.125000
G01 X68.194162 Y54.533131 Z-0.125000
G01 X68.253036 Y54.470774 Z-0.125000
G01 X68.311458 Y54.407923 Z-0.125000
G01 X68.376256 Y54.336471 Z-0.125000
G01 X68.433510 Y54.272431 Z-0.125000
G01 X68.496822 Y54.199543 Z-0.125000
G01 X68.552604 Y54.134116 Z-0.125000
G01 X68.607583 Y54.067969 Z-0.125000
G01 X68.668061 Y53.992569 Z-0.125000
G01 X68.721075 Y53.924757 Z-0.125000
G01 X68.773035 Y53.856098 Z-0.125000
G01 X68.829798 Y53.777749 Z-0.125000
G01 X68.879219 Y53.707177 Z-0.125000
G01 X68.927295 Y53.635651 Z-0.125000
G01 X68.979321 Y53.553983 Z-0.125000
G01 X69.024191 Y53.480351 Z-0.125000
G01 X69.067383 Y53.405692 Z-0.125000
G01 X69.108776 Y53.329997 Z-0.125000
G01 X69.152722 Y53.243594 Z-0.125000
G01 X69.189901 Y53.165698 Z-0.125000
G01 X69.228799 Y53.076848 Z-0.125000
G01 X69.261214 Y52.996809 Z-0.125000
G01 X69.291202 Y52.915807 Z-0.125000
G01 X69.321567 Y52.823614 Z-0.125000
G01 X69.346766 Y52.740950 Z-0.125000
G01 X69.371435 Y52.658096 Z-0.125000
G01 X69.398253 Y52.564714 Z-0.125000
G01 X69.421809 Y52.481482 Z-0.125000
G01 X69.444805 Y52.398067 Z-0.125000
G01 X69.467215 Y52.314469 Z-0.125000
G01 X69.491370 Y52.220270 Z-0.125000
G01 X69.512439 Y52.136286 Z-0.125000
G01 X69.532826 Y52.052115 Z-0.125000
G01 X69.554589 Y51.957282 Z-0.125000
G01 X69.573407 Y51.872717 Z-0.125000
G01 X69.591419 Y51.787960 Z-0.125000
G01 X69.610349 Y51.692479 Z-0.125000
G01 X69.626485 Y51.607319 Z-0.125000
G01 X69.643164 Y51.511394 Z-0.125000
G01 X69.657156 Y51.425831 Z-0.125000
G01 X69.670023 Y51.340081 Z-0.125000
G01 X69.682750 Y51.243512 Z-0.125000
G01 X69.692943 Y51.157377 Z-0.125000
G01 X69.701714 Y51.071071 Z-0.125000
G01 X69.709432 Y50.973927 Z-0.125000
G01 X69.714755 Y50.887311 Z-0.125000
G01 X69.718213 Y50.800585 Z-0.125000
G01 X69.719617 Y50.713784 Z-0.125000
G01 X69.718185 Y50.616260 Z-0.125000
G01 X69.714471 Y50.529493 Z-0.125000
G01 X69.706589 Y50.432224 Z-0.125000
G01 X69.696408 Y50.345943 Z-0.125000
G01 X69.682557 Y50.260157 Z-0.125000
G01 X69.661804 Y50.164730 Z-0.125000
G01 X69.638643 Y50.080972 Z-0.125000
G01 X69.610201 Y49.998874 Z-0.125000
G01 X69.570889 Y49.909520 Z-0.125000
G01 X69.529302 Y49.833399 Z-0.125000
G01 X69.474005 Y49.753246 Z-0.125000
G01 X69.417637 Y49.687852 Z-0.125000
G01 X69.354575 Y49.629340 Z-0.125000
G01 X69.276309 Y49.573071 Z-0.125000
G01 X69.201863 Y49.531702 Z-0.125000
G01 X69.123858 Y49.498624 Z-0.125000
G01 X69.043408 Y49.473408 Z-0.125000
G01 X68.961437 Y49.455384 Z-0.125000
G01 X68.868040 Y49.442964 Z-0.125000
G01 X68.784940 Y49.437662 Z-0.125000
G01 X68.691314 Y49.437685 Z-0.125000
G01 X68.619154 Y49.440964 Z-0.125000
G01 X68.526325 Y49.449809 Z-0.125000
G01 X68.444538 Y49.460849 Z-0.125000
G01 X68.363281 Y49.474673 Z-0.125000
G01 X68.272297 Y49.493392 Z-0.125000
G01 X68.182005 Y49.514840 Z-0.125000
G01 X68.102495 Y49.535710 Z-0.125000
G01 X68.023491 Y49.558273 Z-0.125000
G01 X67.944965 Y49.582357 Z-0.125000
G01 X67.866892 Y49.607819 Z-0.125000
G01 X67.779363 Y49.638204 Z-0.125000
G01 X67.692340 Y49.670014 Z-0.125000
G01 X67.615558 Y49.699147 Z-0.125000
G01 X67.539115 Y49.729206 Z-0.125000
G01 X67.453293 Y49.764297 Z-0.125000
G01 X67.377481 Y49.796085 Z-0.125000
G01 X67.301929 Y49.828584 Z-0.125000
G01 X67.226607 Y49.861741 Z-0.125000
G01 X67.141932 Y49.900034 Z-0.125000
G01 X67.067023 Y49.934428 Z-0.125000
G01 X66.992267 Y49.969336 Z-0.125000
G01 X66.841745 Y50.042759 Z-0.125000
G01 X66.757862 Y50.083846 Z-0.125000
G01 X66.674050 Y50.125412 Z-0.125000
G01 X66.609173 Y50.157546 Z-0.125000
G01 X66.525389 Y50.199867 Z-0.125000
G01 X66.451021 Y50.237551 Z-0.125000
G01 X66.367132 Y50.280566 Z-0.125000
G01 X66.292595 Y50.318814 Z-0.125000
G01 X66.208442 Y50.362424 Z-0.125000
G01 X66.133592 Y50.401161 Z-0.125000
G01 X66.058532 Y50.440108 Z-0.125000
G01 X65.983224 Y50.479254 Z-0.125000
G01 X65.898048 Y50.523824 Z-0.125000
G01 X65.822091 Y50.563370 Z-0.125000
G01 X65.745754 Y50.603099 Z-0.125000
G01 X65.659269 Y50.648327 Z-0.125000
G01 X65.581967 Y50.688463 Z-0.125000
G01 X65.513975 Y50.723430 Z-0.125000
G01 X65.415789 Y50.774766 Z-0.125000
G01 X65.336635 Y50.815609 Z-0.125000
G01 X65.256769 Y50.856732 Z-0.125000
G01 X65.176136 Y50.898176 Z-0.125000
G01 X65.094673 Y50.939995 Z-0.125000
G01 X65.001960 Y50.987882 Z-0.125000
G01 X64.918600 Y51.030694 Z-0.125000
G01 X64.834281 Y51.074089 Z-0.125000
G01 X64.738284 Y51.124038 Z-0.125000
G01 X64.651904 Y51.168965 Z-0.125000
G01 X64.553641 Y51.220877 Z-0.125000
G01 X64.465301 Y51.267766 Z-0.125000
G01 X64.376135 Y51.315715 Z-0.125000
G01 X64.286244 Y51.364798 Z-0.125000
G01 X64.184544 Y51.421726 Z-0.125000
G01 X64.093610 Y51.473314 Z-0.125000
G01 X64.002442 Y51.526059 Z-0.125000
G01 X63.911226 Y51.579873 Z-0.125000
G01 X63.808963 Y51.641780 Z-0.125000
G01 X63.618651 Y51.762477 Z-0.125000
G01 X63.529082 Y51.818390 Z-0.125000
G01 X63.440057 Y51.873891 Z-0.125000
G01 X63.340724 Y51.935348 Z-0.125000
G01 X63.252548 Y51.987864 Z-0.125000
G01 X63.164379 Y52.037344 Z-0.125000
G01 X63.064864 Y52.086773 Z-0.125000
G01 X62.985956 Y52.115630 Z-0.125000
G01 X62.887264 Y52.117167 Z-0.125000
G01 X62.807702 Y52.085176 Z-0.125000
G01 X62.723184 Y52.039763 Z-0.125000
G01 X62.652752 Y51.990856 Z-0.125000
G01 X62.580137 Y51.927093 Z-0.125000
G01 X62.514744 Y51.854924 Z-0.125000
G01 X62.462550 Y51.784638 Z-0.125000
G01 X62.416013 Y51.709739 Z-0.125000
G01 X62.374773 Y51.631166 Z-0.125000
G01 X62.334389 Y51.539586 Z-0.125000
G01 X62.302736 Y51.455789 Z-0.125000
G01 X62.274736 Y51.370449 Z-0.125000
G01 X62.247197 Y51.273321 Z-0.125000
G01 X62.225214 Y51.186012 Z-0.125000
G01 X62.205319 Y51.098204 Z-0.125000
G01 X62.185152 Y50.999267 Z-0.125000
G01 X62.170109 Y50.921826 Z-0.125000
G01 X62.152309 Y50.822710 Z-0.125000
G01 X62.135101 Y50.723714 Z-0.125000
G01 X62.119753 Y50.635722 Z-0.125000
G01 X62.104261 Y50.547986 Z-0.125000
G01 X62.088199 Y50.460589 Z-0.125000
G01 X62.071294 Y50.373630 Z-0.125000
G01 X62.051085 Y50.276659 Z-0.125000
G01 X62.031280 Y50.190934 Z-0.125000
G01 X62.006913 Y50.095670 Z-0.125000
G01 X61.982589 Y50.011798 Z-0.125000
G01 X61.955538 Y49.929092 Z-0.125000
G01 X61.921553 Y49.838006 Z-0.125000
G01 X61.855633 Y49.692766 Z-0.125000
G01 X61.802793 Y49.600063 Z-0.125000
G01 X61.754878 Y49.529010 Z-0.125000
G01 X61.702020 Y49.461670 Z-0.125000
G01 X61.644136 Y49.398606 Z-0.125000
G01 X61.573328 Y49.333663 Z-0.125000
G01 X61.505236 Y49.281312 Z-0.125000
G01 X61.432895 Y49.234529 Z-0.125000
G01 X61.347292 Y49.188956 Z-0.125000
G01 X61.267693 Y49.154241 Z-0.125000
G01 X61.185559 Y49.124996 Z-0.125000
G01 X61.091039 Y49.098428 Z-0.125000
G01 X61.005048 Y49.080291 Z-0.125000
G01 X60.917584 Y49.068312 Z-0.125000
G01 X60.828996 Y49.063300 Z-0.125000
G01 X60.728876 Y49.067217 Z-0.125000
G01 X60.639893 Y49.079530 Z-0.125000
G01 X60.541474 Y49.104338 Z-0.125000
G01 X60.445996 Y49.140560 Z-0.125000
G01 X60.354845 Y49.187652 Z-0.125000
G01 X60.287195 Y49.230748 Z-0.125000
G01 X60.206083 Y49.294340 Z-0.125000
G01 X60.138990 Y49.356881 Z-0.125000
G01 X60.014863 Y49.506574 Z-0.125000
G01 X59.956540 Y49.591326 Z-0.125000
G01 X59.908897 Y49.669233 Z-0.125000
G01 X59.865124 Y49.749261 Z-0.125000
G01 X59.824953 Y49.831043 Z-0.125000
G01 X59.752939 Y50.010943 Z-0.125000
G01 X59.719245 Y50.107471 Z-0.125000
G01 X59.691957 Y50.194030 Z-0.125000
G01 X59.664339 Y50.292393 Z-0.125000
G01 X59.641561 Y50.380245 Z-0.125000
G01 X59.620688 Y50.468588 Z-0.125000
G01 X59.601733 Y50.557390 Z-0.125000
G01 X59.584701 Y50.646591 Z-0.125000
G01 X59.568143 Y50.747522 Z-0.125000
G01 X59.555213 Y50.837462 Z-0.125000
G01 X59.543271 Y50.939106 Z-0.125000
G01 X59.535130 Y51.018143 Z-0.125000
G01 X59.527963 Y51.108798 Z-0.125000
G01 X59.522289 Y51.222565 Z-0.125000
G01 X59.519382 Y51.313521 Z-0.125000
G01 X59.518341 Y51.404559 Z-0.125000
G01 X59.519146 Y51.495635 Z-0.125000
G01 X59.522544 Y51.598201 Z-0.125000
G01 X59.527200 Y51.689262 Z-0.125000
G01 X59.533629 Y51.780265 Z-0.125000
G01 X59.543261 Y51.882630 Z-0.125000
G01 X59.553372 Y51.973425 Z-0.125000
G01 X59.565164 Y52.064086 Z-0.125000
G01 X59.578615 Y52.154591 Z-0.125000
G01 X59.595995 Y52.256261 Z-0.125000
G01 X59.612880 Y52.346367 Z-0.125000
G01 X59.634069 Y52.447527 Z-0.125000
G01 X59.654254 Y52.537162 Z-0.125000
G01 X59.675943 Y52.626552 Z-0.125000
G01 X59.699104 Y52.715682 Z-0.125000
G01 X59.727224 Y52.815666 Z-0.125000
G01 X59.753440 Y52.904225 Z-0.125000
G01 X59.784925 Y53.003520 Z-0.125000
G01 X59.814076 Y53.091465 Z-0.125000
G01 X59.840356 Y53.168164 Z-0.125000
G01 X59.876383 Y53.266455 Z-0.125000
G01 X59.909495 Y53.353492 Z-0.125000
G01 X59.948596 Y53.451018 Z-0.125000
G01 X59.984397 Y53.537384 Z-0.125000
G01 X60.026479 Y53.634144 Z-0.125000
G01 X60.064884 Y53.719819 Z-0.125000
G01 X60.104493 Y53.805172 Z-0.125000
G01 X60.145285 Y53.890193 Z-0.125000
G01 X60.192899 Y53.985395 Z-0.125000
G01 X60.236161 Y54.069694 Z-0.125000
G01 X60.280570 Y54.153661 Z-0.125000
G01 X60.332196 Y54.247631 Z-0.125000
G01 X60.378998 Y54.330850 Z-0.125000
G01 X60.426905 Y54.413706 Z-0.125000
G01 X60.482436 Y54.506404 Z-0.125000
G01 X60.532676 Y54.588482 Z-0.125000
G01 X60.584005 Y54.670188 Z-0.125000
G01 X60.643332 Y54.761518 Z-0.125000
G01 X60.696940 Y54.842389 Z-0.125000
G01 X60.751617 Y54.922861 Z-0.125000
G01 X60.807347 Y55.002912 Z-0.125000
G01 X60.864126 Y55.082532 Z-0.125000
G01 X60.929551 Y55.171445 Z-0.125000
G01 X60.988543 Y55.250111 Z-0.125000
G01 X61.056429 Y55.337894 Z-0.125000
G01 X61.117599 Y55.415536 Z-0.125000
G01 X61.179792 Y55.492683 Z-0.125000
G01 X61.251239 Y55.578675 Z-0.125000
G01 X61.307194 Y55.645399 Z-0.125000
G01 X61.389368 Y55.739346 Z-0.125000
G01 X61.447170 Y55.805029 Z-0.125000
G01 X61.531902 Y55.897373 Z-0.125000
G01 X61.600351 Y55.970871 Z-0.125000
G01 X61.678727 Y56.052569 Z-0.125000
G01 X61.749155 Y56.124666 Z-0.125000
G01 X61.820501 Y56.196081 Z-0.125000
G01 X61.902061 Y56.275341 Z-0.125000
G01 X61.975288 Y56.345223 Z-0.125000
G01 X62.049381 Y56.414355 Z-0.125000
G01 X62.124311 Y56.482710 Z-0.125000
G01 X62.209799 Y56.558410 Z-0.125000
G01 X62.286464 Y56.625061 Z-0.125000
G01 X62.363908 Y56.690877 Z-0.125000
G01 X62.452130 Y56.763632 Z-0.125000
G01 X62.531174 Y56.827618 Z-0.125000
G01 X62.610934 Y56.890712 Z-0.125000
G01 X62.701672 Y56.960336 Z-0.125000
G01 X62.782889 Y57.021487 Z-0.125000
G01 X62.864768 Y57.081705 Z-0.125000
G01 X62.957782 Y57.148015 Z-0.125000
G01 X63.040978 Y57.206184 Z-0.125000
G01 X63.124770 Y57.263370 Z-0.125000
G01 X63.209142 Y57.319563 Z-0.125000
G01 X63.294071 Y57.374747 Z-0.125000
G01 X63.390376 Y57.435295 Z-0.125000
G01 X63.476428 Y57.488280 Z-0.125000
G01 X63.573931 Y57.546311 Z-0.125000
G01 X63.661049 Y57.597036 Z-0.125000
G01 X63.748643 Y57.646672 Z-0.125000
G01 X63.847831 Y57.700878 Z-0.125000
G01 X63.925253 Y57.742619 Z-0.125000
G01 X64.025456 Y57.794265 Z-0.125000
G01 X64.114941 Y57.839213 Z-0.125000
G01 X64.216193 Y57.888029 Z-0.125000
G01 X64.306611 Y57.930401 Z-0.125000
G01 X64.397473 Y57.971514 Z-0.125000
G01 X64.500248 Y58.015887 Z-0.125000
G01 X64.592047 Y58.054190 Z-0.125000
G01 X64.684299 Y58.091097 Z-0.125000
G01 X64.788632 Y58.130550 Z-0.125000
G01 X64.881853 Y58.164291 Z-0.125000
G01 X64.975554 Y58.196429 Z-0.125000
G01 X65.069739 Y58.226873 Z-0.125000
G01 X65.176273 Y58.258642 Z-0.125000
G01 X65.283450 Y58.287965 Z-0.125000
G01 X65.391286 Y58.314629 Z-0.125000
G01 X65.499789 Y58.338377 Z-0.125000
G01 X65.572615 Y58.353300 Z-0.125000
G01 X65.657936 Y58.368319 Z-0.125000
G01 X65.768131 Y58.383472 Z-0.125000
G01 X65.866663 Y58.393598 Z-0.125000
G01 X65.965649 Y58.399826 Z-0.125000
G01 X66.064954 Y58.401582 Z-0.125000
G01 X66.176716 Y58.396997 Z-0.125000
G01 X66.263543 Y58.388643 Z-0.125000
G01 X66.373971 Y58.369033 Z-0.125000
G01 X66.470135 Y58.342856 Z-0.125000
G01 X66.562675 Y58.306848 Z-0.125000
G01 X66.659436 Y58.253079 Z-0.125000
G01 X66.735931 Y58.193977 Z-0.125000
G01 X66.800673 Y58.125270 Z-0.125000
G01 X66.852242 Y58.049317 Z-0.125000
G01 X66.894563 Y57.958194 Z-0.125000
G01 X66.919853 Y57.875070 Z-0.125000
G01 X66.935178 Y57.791221 Z-0.125000
G01 X66.837303 Y57.466693 Z-0.125000
G01 X66.836450 Y57.420682 Z-0.125000
G01 X66.849293 Y57.217738 Z-0.125000
G01 X66.866663 Y57.124556 Z-0.125000
G01 X66.890346 Y57.032593 Z-0.125000
G01 X66.919826 Y56.942121 Z-0.125000
G01 X66.959065 Y56.842042 Z-0.125000
G01 X66.999015 Y56.755195 Z-0.125000
G01 X67.048659 Y56.659315 Z-0.125000
G01 X67.152872 Y56.482123 Z-0.125000
G01 X67.200362 Y56.412496 Z-0.125000
G01 X67.263660 Y56.323950 Z-0.125000
G01 X67.322309 Y56.246839 Z-0.125000
G01 X67.382770 Y56.170881 Z-0.125000
G01 X67.452457 Y56.086415 Z-0.125000
G01 X67.516041 Y56.012521 Z-0.125000
G01 X67.588750 Y55.930098 Z-0.125000
G01 X67.654654 Y55.857764 Z-0.125000
G01 X67.721425 Y55.786003 Z-0.125000
G01 X67.797174 Y55.705625 Z-0.125000
G01 X67.865375 Y55.634777 Z-0.125000
G01 X67.934079 Y55.564224 Z-0.125000
G01 X68.011593 Y55.484910 Z-0.125000
G01 X68.081051 Y55.414726 Z-0.125000
G01 X68.150731 Y55.344601 Z-0.125000
G01 X68.229010 Y55.265519 Z-0.125000
G01 X68.290439 Y55.204247 Z-0.125000
G01 X68.368760 Y55.124925 Z-0.125000
G01 X68.438536 Y55.054344 Z-0.125000
G01 X68.516548 Y54.974474 Z-0.125000
G01 X68.585900 Y54.903260 Z-0.125000
G01 X68.654946 Y54.831656 Z-0.125000
G01 X68.731867 Y54.750446 Z-0.125000
G01 X68.800030 Y54.677838 Z-0.125000
G01 X68.867669 Y54.604673 Z-0.125000
G01 X68.942735 Y54.521525 Z-0.125000
G01 X69.009015 Y54.447003 Z-0.125000
G01 X69.082356 Y54.362214 Z-0.125000
G01 X69.146926 Y54.286103 Z-0.125000
G01 X69.210563 Y54.209166 Z-0.125000
G01 X69.280609 Y54.121495 Z-0.125000
G01 X69.341962 Y54.042645 Z-0.125000
G01 X69.402091 Y53.962822 Z-0.125000
G01 X69.467821 Y53.871754 Z-0.125000
G01 X69.524998 Y53.789728 Z-0.125000
G01 X69.580612 Y53.706602 Z-0.125000
G01 X69.640834 Y53.611704 Z-0.125000
G01 X69.692719 Y53.526150 Z-0.125000
G01 X69.742653 Y53.439412 Z-0.125000
G01 X69.790494 Y53.351480 Z-0.125000
G01 X69.841322 Y53.251118 Z-0.125000
G01 X69.884261 Y53.160646 Z-0.125000
G01 X69.929216 Y53.057460 Z-0.125000
G01 X69.966614 Y52.964517 Z-0.125000
G01 X70.001190 Y52.870465 Z-0.125000
G01 X70.036218 Y52.763426 Z-0.125000
G01 X70.065224 Y52.667462 Z-0.125000
G01 X70.093622 Y52.571287 Z-0.125000
G01 X70.124543 Y52.462894 Z-0.125000
G01 X70.151662 Y52.366294 Z-0.125000
G01 X70.178135 Y52.269490 Z-0.125000
G01 X70.203933 Y52.172480 Z-0.125000
G01 X70.231789 Y52.063165 Z-0.125000
G01 X70.256043 Y51.965719 Z-0.125000
G01 X70.279511 Y51.868062 Z-0.125000
G01 X70.304606 Y51.758028 Z-0.125000
G01 X70.326262 Y51.659923 Z-0.125000
G01 X70.346988 Y51.561602 Z-0.125000
G01 X70.368809 Y51.450829 Z-0.125000
G01 X70.387365 Y51.352048 Z-0.125000
G01 X70.406583 Y51.240770 Z-0.125000
G01 X70.422657 Y51.141531 Z-0.125000
G01 X70.437428 Y51.042079 Z-0.125000
G01 X70.452067 Y50.930066 Z-0.125000
G01 X70.463737 Y50.830177 Z-0.125000
G01 X70.473760 Y50.730094 Z-0.125000
G01 X70.482589 Y50.617427 Z-0.125000
G01 X70.488611 Y50.516995 Z-0.125000
G01 X70.492466 Y50.416442 Z-0.125000
G01 X70.493938 Y50.315808 Z-0.125000
G01 X70.492142 Y50.202727 Z-0.125000
G01 X70.487667 Y50.102148 Z-0.125000
G01 X70.478372 Y49.989382 Z-0.125000
G01 X70.466387 Y49.889385 Z-0.125000
G01 X70.450139 Y49.789977 Z-0.125000
G01 X70.425886 Y49.679388 Z-0.125000
G01 X70.398795 Y49.582370 Z-0.125000
G01 X70.365563 Y49.487297 Z-0.125000
G01 X70.319706 Y49.383828 Z-0.125000
G01 X70.271174 Y49.295748 Z-0.125000
G01 X70.206708 Y49.203033 Z-0.125000
G01 X70.140962 Y49.127479 Z-0.125000
G01 X70.067418 Y49.059953 Z-0.125000
G01 X69.976187 Y48.995094 Z-0.125000
G01 X69.889370 Y48.947550 Z-0.125000
G01 X69.798400 Y48.909666 Z-0.125000
G01 X69.704575 Y48.880941 Z-0.125000
G01 X69.608971 Y48.860591 Z-0.125000
G01 X69.500074 Y48.846811 Z-0.125000
G01 X69.403145 Y48.841277 Z-0.125000
G01 X69.293976 Y48.841987 Z-0.125000
G01 X69.209766 Y48.846408 Z-0.125000
G01 X69.101524 Y48.857391 Z-0.125000
G01 X69.006123 Y48.870892 Z-0.125000
G01 X68.911352 Y48.887668 Z-0.125000
G01 X68.805270 Y48.910157 Z-0.125000
G01 X68.699999 Y48.935823 Z-0.125000
G01 X68.607273 Y48.960781 Z-0.125000
G01 X68.515145 Y48.987716 Z-0.125000
G01 X68.423585 Y49.016430 Z-0.125000
G01 X68.332561 Y49.046754 Z-0.125000
G01 X68.230559 Y49.082861 Z-0.125000
G01 X68.129161 Y49.120635 Z-0.125000
G01 X68.039681 Y49.155253 Z-0.125000
G01 X67.950608 Y49.190956 Z-0.125000
G01 X67.850659 Y49.232573 Z-0.125000
G01 X67.762355 Y49.270307 Z-0.125000
G01 X67.674373 Y49.308877 Z-0.125000
G01 X67.586678 Y49.348221 Z-0.125000
G01 X67.488149 Y49.393604 Z-0.125000
G01 X67.400981 Y49.434408 Z-0.125000
G01 X67.314015 Y49.475819 Z-0.125000
G01 X67.139215 Y49.562508 Z-0.125000
G01 X67.041753 Y49.611196 Z-0.125000
G01 X66.944412 Y49.660456 Z-0.125000
G01 X66.869046 Y49.698631 Z-0.125000
G01 X66.771820 Y49.748794 Z-0.125000
G01 X66.685540 Y49.793511 Z-0.125000
G01 X66.588288 Y49.844505 Z-0.125000
G01 X66.501909 Y49.889902 Z-0.125000
G01 X66.404468 Y49.941614 Z-0.125000
G01 X66.317838 Y49.987602 Z-0.125000
G01 X66.231025 Y50.033842 Z-0.125000
G01 X66.143987 Y50.080324 Z-0.125000
G01 X66.045645 Y50.133190 Z-0.125000
G01 X65.958008 Y50.180149 Z-0.125000
G01 X65.870012 Y50.227324 Z-0.125000
G01 X65.770434 Y50.280965 Z-0.125000
G01 X65.681513 Y50.328608 Z-0.125000
G01 X65.603369 Y50.370165 Z-0.125000
G01 X65.490699 Y50.430946 Z-0.125000
G01 X65.399973 Y50.479368 Z-0.125000
G01 X65.308548 Y50.528091 Z-0.125000
G01 X65.216366 Y50.577148 Z-0.125000
G01 X65.123362 Y50.626595 Z-0.125000
G01 X65.017675 Y50.683078 Z-0.125000
G01 X64.922788 Y50.733537 Z-0.125000
G01 X64.826946 Y50.784585 Z-0.125000
G01 X64.717985 Y50.843146 Z-0.125000
G01 X64.620083 Y50.895727 Z-0.125000
G01 X64.508853 Y50.956244 Z-0.125000
G01 X64.408979 Y51.010771 Z-0.125000
G01 X64.308271 Y51.066346 Z-0.125000
G01 X64.206825 Y51.123035 Z-0.125000
G01 X64.092107 Y51.188490 Z-0.125000
G01 X63.989580 Y51.247626 Z-0.125000
G01 X63.886792 Y51.307876 Z-0.125000
G01 X63.783925 Y51.369148 Z-0.125000
G01 X63.668507 Y51.439371 Z-0.125000
G01 X63.453167 Y51.575485 Z-0.125000
G01 X63.351710 Y51.638473 Z-0.125000
G01 X63.250703 Y51.700886 Z-0.125000
G01 X63.137743 Y51.769860 Z-0.125000
G01 X63.037281 Y51.828733 Z-0.125000
G01 X62.936603 Y51.884116 Z-0.125000
G01 X62.822625 Y51.939277 Z-0.125000
G01 X62.732042 Y51.971292 Z-0.125000
G01 X62.618059 Y51.971892 Z-0.125000
G01 X62.525762 Y51.934510 Z-0.125000
G01 X62.427539 Y51.881739 Z-0.125000
G01 X62.345613 Y51.825141 Z-0.125000
G01 X62.260985 Y51.751497 Z-0.125000
G01 X62.184648 Y51.668273 Z-0.125000
G01 X62.123657 Y51.587316 Z-0.125000
G01 X62.069184 Y51.501089 Z-0.125000
G01 X62.020823 Y51.410660 Z-0.125000
G01 X61.973311 Y51.305247 Z-0.125000
G01 X61.936021 Y51.208819 Z-0.125000
G01 X61.902954 Y51.110609 Z-0.125000
G01 X61.870293 Y50.998786 Z-0.125000
G01 X61.844186 Y50.898272 Z-0.125000
G01 X61.820497 Y50.797163 Z-0.125000
G01 X61.796380 Y50.683171 Z-0.125000
G01 X61.778442 Y50.593979 Z-0.125000
G01 X61.757078 Y50.479713 Z-0.125000
G01 X61.736451 Y50.365536 Z-0.125000
G01 X61.718071 Y50.264048 Z-0.125000
G01 X61.699485 Y50.162827 Z-0.125000
G01 X61.680301 Y50.061952 Z-0.125000
G01 X61.660157 Y49.961545 Z-0.125000
G01 X61.636106 Y49.849492 Z-0.125000
G01 X61.612641 Y49.750426 Z-0.125000
G01 X61.583821 Y49.640251 Z-0.125000
G01 X61.555176 Y49.543239 Z-0.125000
G01 X61.523397 Y49.447532 Z-0.125000
G01 X61.483534 Y49.342038 Z-0.125000
G01 X61.406264 Y49.173486 Z-0.125000
G01 X61.344616 Y49.065905 Z-0.125000
G01 X61.288865 Y48.983456 Z-0.125000
G01 X61.227431 Y48.905264 Z-0.125000
G01 X61.160224 Y48.831985 Z-0.125000
G01 X61.078049 Y48.756418 Z-0.125000
G01 X60.999119 Y48.695475 Z-0.125000
G01 X60.915313 Y48.640956 Z-0.125000
G01 X60.816162 Y48.587736 Z-0.125000
G01 X60.724037 Y48.547159 Z-0.125000
G01 X60.629008 Y48.512908 Z-0.125000
G01 X60.519649 Y48.481663 Z-0.125000
G01 X60.420216 Y48.460266 Z-0.125000
G01 X60.319113 Y48.445998 Z-0.125000
G01 X60.216746 Y48.439798 Z-0.125000
G01 X60.101072 Y48.443855 Z-0.125000
G01 X59.998350 Y48.457733 Z-0.125000
G01 X59.884768 Y48.486004 Z-0.125000
G01 X59.774664 Y48.527516 Z-0.125000
