%
(Header)
(Generated by gcodetools from Inkscape.)
(Using default header. To add your own header create file "header" in the output dir.)
M3
(Header end.)
G21 (All units in mm)

(Start cutting path id: path5960)
(Change tool to Default tool)

G00 Z3.000000
G00 X81.660799 Y55.822063

G00 Z4.875000 (Fast pre-penetrate)
G01 Z-0.125000 F400.0(Penetrate)
G01 X95.706465 Y60.297206 Z-0.125000 F800.000000
G01 X115.703357 Y58.821124 Z-0.125000
G00 Z3.000000

(End cutting path id: path5960)


(Start cutting path id: path5962)
(Change tool to Default tool)

G00 Z3.000000
G00 X81.597039 Y55.224365

G00 Z4.875000 (Fast pre-penetrate)
G01 Z-0.125000 F400.0(Penetrate)
G01 X95.867900 Y59.474314 Z-0.125000 F800.000000
G01 X115.963688 Y57.899336 Z-0.125000
G00 Z3.000000

(End cutting path id: path5962)


(Start cutting path id: path5964)
(Change tool to Default tool)

G00 Z3.000000
G00 X81.533280 Y54.626666

G00 Z4.875000 (Fast pre-penetrate)
G01 Z-0.125000 F400.0(Penetrate)
G01 X96.029333 Y58.651423 Z-0.125000 F800.000000
G01 X116.224017 Y56.977550 Z-0.125000
G00 Z3.000000

(End cutting path id: path5964)


(Start cutting path id: path5966)
(Change tool to Default tool)

G00 Z3.000000
G00 X81.469521 Y54.028968

G00 Z4.875000 (Fast pre-penetrate)
G01 Z-0.125000 F400.0(Penetrate)
G01 X96.190768 Y57.828531 Z-0.125000 F800.000000
G01 X116.484345 Y56.055764 Z-0.125000
G00 Z3.000000

(End cutting path id: path5966)


(Start cutting path id: path5968)
(Change tool to Default tool)

G00 Z3.000000
G00 X81.405762 Y53.431270

G00 Z4.875000 (Fast pre-penetrate)
G01 Z-0.125000 F400.0(Penetrate)
G01 X96.352201 Y57.005640 Z-0.125000 F800.000000
G01 X116.744676 Y55.133975 Z-0.125000
G00 Z3.000000

(End cutting path id: path5968)


(Start cutting path id: path5970)
(Change tool to Default tool)

G00 Z3.000000
G00 X81.342003 Y52.833571

G00 Z4.875000 (Fast pre-penetrate)
G01 Z-0.125000 F400.0(Penetrate)
G01 X96.513636 Y56.182748 Z-0.125000 F800.000000
G01 X117.005005 Y54.212189 Z-0.125000
G00 Z3.000000

(End cutting path id: path5970)


(Start cutting path id: path5972)
(Change tool to Default tool)

G00 Z3.000000
G00 X81.278243 Y52.235873

G00 Z4.875000 (Fast pre-penetrate)
G01 Z-0.125000 F400.0(Penetrate)
G01 X96.675069 Y55.359858 Z-0.125000 F800.000000
G01 X117.265336 Y53.290400 Z-0.125000
G00 Z3.000000

(End cutting path id: path5972)


(Start cutting path id: path5974)
(Change tool to Default tool)

G00 Z3.000000
G00 X81.214484 Y51.638175

G00 Z4.875000 (Fast pre-penetrate)
G01 Z-0.125000 F400.0(Penetrate)
G01 X96.836502 Y54.536967 Z-0.125000 F800.000000
G01 X117.525665 Y52.368614 Z-0.125000
G00 Z3.000000

(End cutting path id: path5974)


(Start cutting path id: path5976)
(Change tool to Default tool)

G00 Z3.000000
G00 X81.150725 Y51.040477

G00 Z4.875000 (Fast pre-penetrate)
G01 Z-0.125000 F400.0(Penetrate)
G01 X96.997937 Y53.714075 Z-0.125000 F800.000000
G01 X117.785993 Y51.446828 Z-0.125000
G00 Z3.000000

(End cutting path id: path5976)


(Start cutting path id: path5978)
(Change tool to Default tool)

G00 Z3.000000
G00 X81.086966 Y50.442778

G00 Z4.875000 (Fast pre-penetrate)
G01 Z-0.125000 F400.0(Penetrate)
G01 X97.159370 Y52.891184 Z-0.125000 F800.000000
G01 X118.046324 Y50.525040 Z-0.125000
G00 Z3.000000

(End cutting path id: path5978)


(Start cutting path id: path5980)
(Change tool to Default tool)

G00 Z3.000000
G00 X81.023207 Y49.845080

G00 Z4.875000 (Fast pre-penetrate)
G01 Z-0.125000 F400.0(Penetrate)
G01 X97.320805 Y52.068292 Z-0.125000 F800.000000
G01 X118.306653 Y49.603254 Z-0.125000
G00 Z3.000000

(End cutting path id: path5980)


(Start cutting path id: path5982)
(Change tool to Default tool)

G00 Z3.000000
G00 X80.959447 Y49.247382

G00 Z4.875000 (Fast pre-penetrate)
G01 Z-0.125000 F400.0(Penetrate)
G01 X97.482238 Y51.245401 Z-0.125000 F800.000000
G01 X118.566981 Y48.681468 Z-0.125000
G00 Z3.000000

(End cutting path id: path5982)


(Start cutting path id: path5984)
(Change tool to Default tool)

G00 Z3.000000
G00 X80.895688 Y48.649683

G00 Z4.875000 (Fast pre-penetrate)
G01 Z-0.125000 F400.0(Penetrate)
G01 X97.643673 Y50.422509 Z-0.125000 F800.000000
G01 X118.827312 Y47.759679 Z-0.125000
G00 Z3.000000

(End cutting path id: path5984)


(Start cutting path id: path5986)
(Change tool to Default tool)

G00 Z3.000000
G00 X80.831929 Y48.051985

G00 Z4.875000 (Fast pre-penetrate)
G01 Z-0.125000 F400.0(Penetrate)
G01 X97.805106 Y49.599618 Z-0.125000 F800.000000
G01 X119.087641 Y46.837893 Z-0.125000
G00 Z3.000000

(End cutting path id: path5986)


(Start cutting path id: path5988)
(Change tool to Default tool)

G00 Z3.000000
G00 X80.768170 Y47.454287

G00 Z4.875000 (Fast pre-penetrate)
G01 Z-0.125000 F400.0(Penetrate)
G01 X97.966541 Y48.776726 Z-0.125000 F800.000000
G01 X119.347969 Y45.916107 Z-0.125000
G00 Z3.000000

(End cutting path id: path5988)


(Start cutting path id: path5990)
(Change tool to Default tool)

G00 Z3.000000
G00 X80.704410 Y46.856589

G00 Z4.875000 (Fast pre-penetrate)
G01 Z-0.125000 F400.0(Penetrate)
G01 X98.127974 Y47.953835 Z-0.125000 F800.000000
G01 X119.608301 Y44.994318 Z-0.125000
G00 Z3.000000

(End cutting path id: path5990)


(Start cutting path id: path5992)
(Change tool to Default tool)

G00 Z3.000000
G00 X80.640651 Y46.258890

G00 Z4.875000 (Fast pre-penetrate)
G01 Z-0.125000 F400.0(Penetrate)
G01 X98.289406 Y47.130945 Z-0.125000 F800.000000
G01 X119.868629 Y44.072532 Z-0.125000
G00 Z3.000000

(End cutting path id: path5992)


(Start cutting path id: path5994)
(Change tool to Default tool)

G00 Z3.000000
G00 X80.576892 Y45.661192

G00 Z4.875000 (Fast pre-penetrate)
G01 Z-0.125000 F400.0(Penetrate)
G01 X98.450842 Y46.308052 Z-0.125000 F800.000000
G01 X120.128958 Y43.150746 Z-0.125000
G00 Z3.000000

(End cutting path id: path5994)


(Start cutting path id: path5996)
(Change tool to Default tool)

G00 Z3.000000
G00 X80.513133 Y45.063494

G00 Z4.875000 (Fast pre-penetrate)
G01 Z-0.125000 F400.0(Penetrate)
G01 X98.612274 Y45.485162 Z-0.125000 F800.000000
G01 X120.389289 Y42.228958 Z-0.125000
G00 Z3.000000

(End cutting path id: path5996)


(Start cutting path id: path5998)
(Change tool to Default tool)

G00 Z3.000000
G00 X80.449374 Y44.465795

G00 Z4.875000 (Fast pre-penetrate)
G01 Z-0.125000 F400.0(Penetrate)
G01 X98.773710 Y44.662269 Z-0.125000 F800.000000
G01 X120.649617 Y41.307172 Z-0.125000
G00 Z3.000000

(End cutting path id: path5998)


(Start cutting path id: path6000)
(Change tool to Default tool)

G00 Z3.000000
G00 X80.385614 Y43.868097

G00 Z4.875000 (Fast pre-penetrate)
G01 Z-0.125000 F400.0(Penetrate)
G01 X98.935142 Y43.839379 Z-0.125000 F800.000000
G01 X120.909946 Y40.385386 Z-0.125000
G00 Z3.000000

(End cutting path id: path6000)


(Start cutting path id: path6002)
(Change tool to Default tool)

G00 Z3.000000
G00 X80.321855 Y43.270399

G00 Z4.875000 (Fast pre-penetrate)
G01 Z-0.125000 F400.0(Penetrate)
G01 X99.096578 Y43.016486 Z-0.125000 F800.000000
G01 X121.170277 Y39.463597 Z-0.125000
G00 Z3.000000

(End cutting path id: path6002)


(Start cutting path id: path6004)
(Change tool to Default tool)

G00 Z3.000000
G00 X80.258096 Y42.672700

G00 Z4.875000 (Fast pre-penetrate)
G01 Z-0.125000 F400.0(Penetrate)
G01 X99.258010 Y42.193596 Z-0.125000 F800.000000
G01 X121.430605 Y38.541811 Z-0.125000
G00 Z3.000000

(End cutting path id: path6004)


(Start cutting path id: path6006)
(Change tool to Default tool)

G00 Z3.000000
G00 X80.194337 Y42.075002

G00 Z4.875000 (Fast pre-penetrate)
G01 Z-0.125000 F400.0(Penetrate)
G01 X99.419446 Y41.370703 Z-0.125000 F800.000000
G01 X121.690934 Y37.620025 Z-0.125000
G00 Z3.000000

(End cutting path id: path6006)


(Start cutting path id: path6008)
(Change tool to Default tool)

G00 Z3.000000
G00 X80.130578 Y41.477304

G00 Z4.875000 (Fast pre-penetrate)
G01 Z-0.125000 F400.0(Penetrate)
G01 X99.580878 Y40.547813 Z-0.125000 F800.000000
G01 X121.951265 Y36.698236 Z-0.125000
G00 Z3.000000

(End cutting path id: path6008)


(Start cutting path id: path6010)
(Change tool to Default tool)

G00 Z3.000000
G00 X80.066818 Y40.879606

G00 Z4.875000 (Fast pre-penetrate)
G01 Z-0.125000 F400.0(Penetrate)
G01 X99.742311 Y39.724923 Z-0.125000 F800.000000
G01 X122.211594 Y35.776450 Z-0.125000
G00 Z3.000000

(End cutting path id: path6010)


(Start cutting path id: path6012)
(Change tool to Default tool)

G00 Z3.000000
G00 X80.003059 Y40.281907

G00 Z4.875000 (Fast pre-penetrate)
G01 Z-0.125000 F400.0(Penetrate)
G01 X99.903746 Y38.902030 Z-0.125000 F800.000000
G01 X122.471922 Y34.854664 Z-0.125000
G00 Z3.000000

(End cutting path id: path6012)


(Start cutting path id: path6014)
(Change tool to Default tool)

G00 Z3.000000
G00 X79.939300 Y39.684209

G00 Z4.875000 (Fast pre-penetrate)
G01 Z-0.125000 F400.0(Penetrate)
G01 X100.065179 Y38.079140 Z-0.125000 F800.000000
G01 X122.732253 Y33.932876 Z-0.125000
G00 Z3.000000

(End cutting path id: path6014)


(Start cutting path id: path6016)
(Change tool to Default tool)

G00 Z3.000000
G00 X79.875541 Y39.086511

G00 Z4.875000 (Fast pre-penetrate)
G01 Z-0.125000 F400.0(Penetrate)
G01 X100.226614 Y37.256247 Z-0.125000 F800.000000
G01 X122.992582 Y33.011090 Z-0.125000
G00 Z3.000000

(End cutting path id: path6016)


(Start cutting path id: path6018)
(Change tool to Default tool)

G00 Z3.000000
G00 X79.731269 Y38.569325

G00 Z4.875000 (Fast pre-penetrate)
G01 Z-0.125000 F400.0(Penetrate)
G01 X100.063422 Y36.757982 Z-0.125000 F800.000000
G01 X122.621546 Y32.720668 Z-0.125000
G00 Z3.000000

(End cutting path id: path6018)


(Start cutting path id: path6020)
(Change tool to Default tool)

G00 Z3.000000
G00 X79.586997 Y38.052139

G00 Z4.875000 (Fast pre-penetrate)
G01 Z-0.125000 F400.0(Penetrate)
G01 X99.900230 Y36.259717 Z-0.125000 F800.000000
G01 X122.250508 Y32.430248 Z-0.125000
G00 Z3.000000

(End cutting path id: path6020)


(Start cutting path id: path6022)
(Change tool to Default tool)

G00 Z3.000000
G00 X79.442728 Y37.534951

G00 Z4.875000 (Fast pre-penetrate)
G01 Z-0.125000 F400.0(Penetrate)
G01 X99.737038 Y35.761451 Z-0.125000 F800.000000
G01 X121.879470 Y32.139829 Z-0.125000
G00 Z3.000000

(End cutting path id: path6022)


(Start cutting path id: path6024)
(Change tool to Default tool)

G00 Z3.000000
G00 X79.298456 Y37.017765

G00 Z4.875000 (Fast pre-penetrate)
G01 Z-0.125000 F400.0(Penetrate)
G01 X99.573846 Y35.263186 Z-0.125000 F800.000000
G01 X121.508435 Y31.849406 Z-0.125000
G00 Z3.000000

(End cutting path id: path6024)


(Start cutting path id: path6026)
(Change tool to Default tool)

G00 Z3.000000
G00 X79.154184 Y36.500580

G00 Z4.875000 (Fast pre-penetrate)
G01 Z-0.125000 F400.0(Penetrate)
G01 X99.410656 Y34.764918 Z-0.125000 F800.000000
G01 X121.137397 Y31.558987 Z-0.125000
G00 Z3.000000

(End cutting path id: path6026)


(Start cutting path id: path6028)
(Change tool to Default tool)

G00 Z3.000000
G00 X79.009912 Y35.983394

G00 Z4.875000 (Fast pre-penetrate)
G01 Z-0.125000 F400.0(Penetrate)
G01 X99.247464 Y34.266653 Z-0.125000 F800.000000
G01 X120.766362 Y31.268565 Z-0.125000
G00 Z3.000000

(End cutting path id: path6028)


(Start cutting path id: path6030)
(Change tool to Default tool)

G00 Z3.000000
G00 X78.865641 Y35.466208

G00 Z4.875000 (Fast pre-penetrate)
G01 Z-0.125000 F400.0(Penetrate)
G01 X99.084272 Y33.768387 Z-0.125000 F800.000000
G01 X120.395324 Y30.978145 Z-0.125000
G00 Z3.000000

(End cutting path id: path6030)


(Start cutting path id: path6032)
(Change tool to Default tool)

G00 Z3.000000
G00 X78.721371 Y34.949020

G00 Z4.875000 (Fast pre-penetrate)
G01 Z-0.125000 F400.0(Penetrate)
G01 X98.921080 Y33.270122 Z-0.125000 F800.000000
G01 X120.024289 Y30.687723 Z-0.125000
G00 Z3.000000

(End cutting path id: path6032)


(Start cutting path id: path6034)
(Change tool to Default tool)

G00 Z3.000000
G00 X78.577100 Y34.431834

G00 Z4.875000 (Fast pre-penetrate)
G01 Z-0.125000 F400.0(Penetrate)
G01 X98.757888 Y32.771856 Z-0.125000 F800.000000
G01 X119.653251 Y30.397303 Z-0.125000
G00 Z3.000000

(End cutting path id: path6034)


(Start cutting path id: path6036)
(Change tool to Default tool)

G00 Z3.000000
G00 X78.432828 Y33.914649

G00 Z4.875000 (Fast pre-penetrate)
G01 Z-0.125000 F400.0(Penetrate)
G01 X98.594698 Y32.273588 Z-0.125000 F800.000000
G01 X119.282213 Y30.106884 Z-0.125000
G00 Z3.000000

(End cutting path id: path6036)


(Start cutting path id: path6038)
(Change tool to Default tool)

G00 Z3.000000
G00 X78.288556 Y33.397463

G00 Z4.875000 (Fast pre-penetrate)
G01 Z-0.125000 F400.0(Penetrate)
G01 X98.431506 Y31.775323 Z-0.125000 F800.000000
G01 X118.911177 Y29.816462 Z-0.125000
G00 Z3.000000

(End cutting path id: path6038)


(Start cutting path id: path6040)
(Change tool to Default tool)

G00 Z3.000000
G00 X78.144284 Y32.880277

G00 Z4.875000 (Fast pre-penetrate)
G01 Z-0.125000 F400.0(Penetrate)
G01 X98.268314 Y31.277058 Z-0.125000 F800.000000
G01 X118.540139 Y29.526042 Z-0.125000
G00 Z3.000000

(End cutting path id: path6040)


(Start cutting path id: path6042)
(Change tool to Default tool)

G00 Z3.000000
G00 X78.000012 Y32.363092

G00 Z4.875000 (Fast pre-penetrate)
G01 Z-0.125000 F400.0(Penetrate)
G01 X98.105122 Y30.778792 Z-0.125000 F800.000000
G01 X118.169104 Y29.235620 Z-0.125000
G00 Z3.000000

(End cutting path id: path6042)


(Start cutting path id: path6044)
(Change tool to Default tool)

G00 Z3.000000
G00 X77.855743 Y31.845903

G00 Z4.875000 (Fast pre-penetrate)
G01 Z-0.125000 F400.0(Penetrate)
G01 X97.941929 Y30.280527 Z-0.125000 F800.000000
G01 X117.798066 Y28.945200 Z-0.125000
G00 Z3.000000

(End cutting path id: path6044)


(Start cutting path id: path6046)
(Change tool to Default tool)

G00 Z3.000000
G00 X77.711471 Y31.328718

G00 Z4.875000 (Fast pre-penetrate)
G01 Z-0.125000 F400.0(Penetrate)
G01 X97.778737 Y29.782262 Z-0.125000 F800.000000
G01 X117.427031 Y28.654778 Z-0.125000
G00 Z3.000000

(End cutting path id: path6046)


(Start cutting path id: path6048)
(Change tool to Default tool)

G00 Z3.000000
G00 X77.567200 Y30.811532

G00 Z4.875000 (Fast pre-penetrate)
G01 Z-0.125000 F400.0(Penetrate)
G01 X97.615548 Y29.283994 Z-0.125000 F800.000000
G01 X117.055993 Y28.364359 Z-0.125000
G00 Z3.000000

(End cutting path id: path6048)


(Start cutting path id: path6050)
(Change tool to Default tool)

G00 Z3.000000
G00 X77.422928 Y30.294346

G00 Z4.875000 (Fast pre-penetrate)
G01 Z-0.125000 F400.0(Penetrate)
G01 X97.452356 Y28.785728 Z-0.125000 F800.000000
G01 X116.684955 Y28.073939 Z-0.125000
G00 Z3.000000

(End cutting path id: path6050)


(Start cutting path id: path6052)
(Change tool to Default tool)

G00 Z3.000000
G00 X77.278656 Y29.777161

G00 Z4.875000 (Fast pre-penetrate)
G01 Z-0.125000 F400.0(Penetrate)
G01 X97.289163 Y28.287463 Z-0.125000 F800.000000
G01 X116.313919 Y27.783517 Z-0.125000
G00 Z3.000000

(End cutting path id: path6052)


(Start cutting path id: path6054)
(Change tool to Default tool)

G00 Z3.000000
G00 X77.134387 Y29.259972

G00 Z4.875000 (Fast pre-penetrate)
G01 Z-0.125000 F400.0(Penetrate)
G01 X97.125971 Y27.789198 Z-0.125000 F800.000000
G01 X115.942881 Y27.493098 Z-0.125000
G00 Z3.000000

(End cutting path id: path6054)


(Start cutting path id: path6056)
(Change tool to Default tool)

G00 Z3.000000
G00 X76.990115 Y28.742787

G00 Z4.875000 (Fast pre-penetrate)
G01 Z-0.125000 F400.0(Penetrate)
G01 X96.962779 Y27.290932 Z-0.125000 F800.000000
G01 X115.571846 Y27.202675 Z-0.125000
G00 Z3.000000

(End cutting path id: path6056)


(Start cutting path id: path6058)
(Change tool to Default tool)

G00 Z3.000000
G00 X76.845843 Y28.225601

G00 Z4.875000 (Fast pre-penetrate)
G01 Z-0.125000 F400.0(Penetrate)
G01 X96.799590 Y26.792664 Z-0.125000 F800.000000
G01 X115.200808 Y26.912256 Z-0.125000
G00 Z3.000000

(End cutting path id: path6058)


(Start cutting path id: path6060)
(Change tool to Default tool)

G00 Z3.000000
G00 X76.701571 Y27.708415

G00 Z4.875000 (Fast pre-penetrate)
G01 Z-0.125000 F400.0(Penetrate)
G01 X96.636398 Y26.294399 Z-0.125000 F800.000000
G01 X114.829773 Y26.621834 Z-0.125000
G00 Z3.000000

(End cutting path id: path6060)


(Start cutting path id: path6062)
(Change tool to Default tool)

G00 Z3.000000
G00 X76.557300 Y27.191229

G00 Z4.875000 (Fast pre-penetrate)
G01 Z-0.125000 F400.0(Penetrate)
G01 X96.473205 Y25.796134 Z-0.125000 F800.000000
G01 X114.458735 Y26.331414 Z-0.125000
G00 Z3.000000

(End cutting path id: path6062)


(Start cutting path id: path6064)
(Change tool to Default tool)

G00 Z3.000000
G00 X76.413028 Y26.674044

G00 Z4.875000 (Fast pre-penetrate)
G01 Z-0.125000 F400.0(Penetrate)
G01 X96.310013 Y25.297868 Z-0.125000 F800.000000
G01 X114.087697 Y26.040995 Z-0.125000
G00 Z3.000000

(End cutting path id: path6064)


(Start cutting path id: path6066)
(Change tool to Default tool)

G00 Z3.000000
G00 X76.268759 Y26.156855

G00 Z4.875000 (Fast pre-penetrate)
G01 Z-0.125000 F400.0(Penetrate)
G01 X96.146821 Y24.799603 Z-0.125000 F800.000000
G01 X113.716662 Y25.750572 Z-0.125000
G00 Z3.000000

(End cutting path id: path6066)


(Start cutting path id: path6068)
(Change tool to Default tool)

G00 Z3.000000
G00 X76.124487 Y25.639670

G00 Z4.875000 (Fast pre-penetrate)
G01 Z-0.125000 F400.0(Penetrate)
G01 X95.983629 Y24.301338 Z-0.125000 F800.000000
G01 X113.345624 Y25.460153 Z-0.125000
G00 Z3.000000

(End cutting path id: path6068)


(Start cutting path id: path6070)
(Change tool to Default tool)

G00 Z3.000000
G00 X75.980215 Y25.122484

G00 Z4.875000 (Fast pre-penetrate)
G01 Z-0.125000 F400.0(Penetrate)
G01 X95.820439 Y23.803070 Z-0.125000 F800.000000
G01 X112.974588 Y25.169731 Z-0.125000
G00 Z3.000000

(End cutting path id: path6070)


(Start cutting path id: path6072)
(Change tool to Default tool)

G00 Z3.000000
G00 X75.835943 Y24.605298

G00 Z4.875000 (Fast pre-penetrate)
G01 Z-0.125000 F400.0(Penetrate)
G01 X95.657247 Y23.304804 Z-0.125000 F800.000000
G01 X112.603550 Y24.879311 Z-0.125000
G00 Z3.000000

(End cutting path id: path6072)



(Footer)
M5
G00 X0.0000 Y0.0000
M2
(Using default footer. To add your own footer create file "footer" in the output dir.)
(end)
%