%
(Header)
(Generated by gcodetools from Inkscape.)
(Using default header. To add your own header create file "header" in the output dir.)
M3
(Header end.)
G21 (All units in mm)

(Start cutting path id: path267707)
(Change tool to Default tool)

G00 Z10.000000
G00 X51.979508 Y7.503750

G00 Z4.875000 (Fast pre-penetrate)
G01 Z-0.125000 F100.0(Penetrate)
G01 X52.378238 Y6.513680 Z-0.125000 F800.000000
G00 Z10.000000

(End cutting path id: path267707)


(Start cutting path id: path267567)
(Change tool to Default tool)

G00 Z10.000000
G00 X51.979508 Y7.503750

G00 Z4.875000 (Fast pre-penetrate)
G01 Z-0.125000 F100.0(Penetrate)
G01 X51.662008 Y8.493820 Z-0.125000 F800.000000
G01 X51.425468 Y9.483890 Z-0.125000
G01 X51.270428 Y10.473960 Z-0.125000
G01 X51.196328 Y11.464290 Z-0.125000
G01 X51.203328 Y12.454370 Z-0.125000
G01 X51.291728 Y13.444440 Z-0.125000
G01 X51.461328 Y14.434510 Z-0.125000
G01 X51.712148 Y15.424580 Z-0.125000
G01 X52.044208 Y16.414650 Z-0.125000
G01 X52.426788 Y17.404720 Z-0.125000
G01 X52.732918 Y18.394790 Z-0.125000
G01 X52.957808 Y19.384860 Z-0.125000
G01 X53.101738 Y20.375200 Z-0.125000
G01 X53.164238 Y21.365270 Z-0.125000
G01 X53.145738 Y22.355340 Z-0.125000
G01 X53.045718 Y23.345410 Z-0.125000
G01 X52.864748 Y24.335480 Z-0.125000
G01 X52.602548 Y25.325550 Z-0.125000
G01 X52.259118 Y26.315620 Z-0.125000
G01 X52.188418 Y27.305690 Z-0.125000
G01 X52.198418 Y28.295760 Z-0.125000
G01 X52.208418 Y29.286100 Z-0.125000
G01 X52.218418 Y30.276170 Z-0.125000
G01 X52.228418 Y31.266240 Z-0.125000
G01 X52.238418 Y32.256310 Z-0.125000
G01 X52.248418 Y33.246380 Z-0.125000
G01 X52.258418 Y34.236450 Z-0.125000
G01 X52.268418 Y35.226520 Z-0.125000
G01 X52.278418 Y36.216590 Z-0.125000
G01 X52.274418 Y37.206660 Z-0.125000
G01 X52.264418 Y38.196740 Z-0.125000
G01 X52.254418 Y39.187070 Z-0.125000
G01 X52.244418 Y40.177140 Z-0.125000
G01 X52.234418 Y41.167210 Z-0.125000
G01 X52.224418 Y42.157280 Z-0.125000
G01 X52.214418 Y43.147350 Z-0.125000
G01 X52.204418 Y44.137430 Z-0.125000
G01 X52.194418 Y45.127500 Z-0.125000
G01 X52.184418 Y46.117570 Z-0.125000
G01 X51.960588 Y47.107640 Z-0.125000
G01 X51.655518 Y48.097970 Z-0.125000
G01 X51.427718 Y49.088040 Z-0.125000
G01 X51.277168 Y50.078110 Z-0.125000
G01 X51.203568 Y51.068190 Z-0.125000
G01 X51.207568 Y52.058260 Z-0.125000
G01 X51.288568 Y53.048330 Z-0.125000
G01 X51.447048 Y54.038400 Z-0.125000
G01 X51.682528 Y55.028470 Z-0.125000
G01 X51.995268 Y56.018540 Z-0.125000
G01 X52.565708 Y57.008880 Z-0.125000
G01 X53.217108 Y57.998950 Z-0.125000
G01 X53.710028 Y58.989020 Z-0.125000
G01 X54.044728 Y59.979090 Z-0.125000
G01 X54.220938 Y60.969160 Z-0.125000
G01 X54.238438 Y61.959230 Z-0.125000
G01 X54.097948 Y62.949300 Z-0.125000
G01 X53.798708 Y63.939370 Z-0.125000
G01 X53.341238 Y64.929440 Z-0.125000
G01 X52.725028 Y65.919510 Z-0.125000
G01 X52.114108 Y66.909850 Z-0.125000
G01 X51.757708 Y67.899920 Z-0.125000
G01 X51.482278 Y68.889990 Z-0.125000
G01 X51.288078 Y69.880060 Z-0.125000
G01 X51.175098 Y70.870130 Z-0.125000
G01 X51.143298 Y71.860200 Z-0.125000
G01 X51.192798 Y72.850270 Z-0.125000
G01 X51.323498 Y73.840340 Z-0.125000
G01 X51.535428 Y74.830410 Z-0.125000
G01 X51.828328 Y75.820750 Z-0.125000
G01 X51.962468 Y76.810820 Z-0.125000
G01 X51.617448 Y77.800890 Z-0.125000
G01 X51.353658 Y78.790960 Z-0.125000
G01 X51.170838 Y79.781030 Z-0.125000
G01 X51.069238 Y80.771100 Z-0.125000
G01 X51.049138 Y81.761170 Z-0.125000
G01 X51.110038 Y82.751250 Z-0.125000
G01 X51.252118 Y83.741320 Z-0.125000
G01 X51.475428 Y84.731390 Z-0.125000
G01 X51.779968 Y85.721720 Z-0.125000
G01 X52.246688 Y86.711790 Z-0.125000
G01 X52.972708 Y87.701860 Z-0.125000
G01 X53.536268 Y88.691940 Z-0.125000
G01 X53.937378 Y89.682010 Z-0.125000
G01 X54.176028 Y90.672080 Z-0.125000
G01 X54.252528 Y91.662150 Z-0.125000
G01 X54.166528 Y92.652220 Z-0.125000
G01 X53.918078 Y93.642290 Z-0.125000
G01 X53.507448 Y94.632620 Z-0.125000
G01 X52.934358 Y95.622700 Z-0.125000
G01 X52.240888 Y96.612770 Z-0.125000
G01 X51.898258 Y97.602840 Z-0.125000
G01 X51.634728 Y98.592910 Z-0.125000
G01 X51.450318 Y99.582980 Z-0.125000
G01 X51.345278 Y100.573050 Z-0.125000
G01 X51.319378 Y101.563120 Z-0.125000
G01 X51.372778 Y102.553190 Z-0.125000
G01 X51.505338 Y103.543530 Z-0.125000
G01 X51.717008 Y104.533600 Z-0.125000
G01 X52.008048 Y105.523670 Z-0.125000
G01 X52.378198 Y106.513740 Z-0.125000
G00 Z10.000000

(End cutting path id: path267567)


(Start cutting path id: path267571)
(Change tool to Default tool)

G00 Z10.000000
G00 X54.202278 Y105.523670

G00 Z4.875000 (Fast pre-penetrate)
G01 Z-0.125000 F100.0(Penetrate)
G01 X53.960448 Y104.533600 Z-0.125000 F800.000000
G01 X53.767038 Y103.543530 Z-0.125000
G01 X53.622568 Y102.553190 Z-0.125000
G01 X53.526768 Y101.563120 Z-0.125000
G01 X53.479668 Y100.573050 Z-0.125000
G01 X53.481668 Y99.582980 Z-0.125000
G01 X53.531968 Y98.592910 Z-0.125000
G01 X53.630968 Y97.602840 Z-0.125000
G01 X53.778608 Y96.612770 Z-0.125000
G01 X54.217548 Y95.622700 Z-0.125000
G01 X54.560978 Y94.632620 Z-0.125000
G01 X54.772118 Y93.642290 Z-0.125000
G01 X54.851718 Y92.652220 Z-0.125000
G01 X54.799318 Y91.662150 Z-0.125000
G01 X54.615168 Y90.672080 Z-0.125000
G01 X54.298998 Y89.682010 Z-0.125000
G01 X53.851058 Y88.691940 Z-0.125000
G01 X53.271088 Y87.701860 Z-0.125000
G01 X52.559618 Y86.711790 Z-0.125000
G01 X52.156128 Y85.721720 Z-0.125000
G01 X51.908748 Y84.731390 Z-0.125000
G01 X51.727508 Y83.741320 Z-0.125000
G01 X51.612148 Y82.751250 Z-0.125000
G01 X51.562648 Y81.761170 Z-0.125000
G01 X51.579048 Y80.771100 Z-0.125000
G01 X51.661548 Y79.781030 Z-0.125000
G01 X51.809718 Y78.790960 Z-0.125000
G01 X52.024028 Y77.800890 Z-0.125000
G01 X52.304218 Y76.810820 Z-0.125000
G01 X52.280918 Y75.820750 Z-0.125000
G01 X52.165298 Y74.830410 Z-0.125000
G01 X52.115298 Y73.840340 Z-0.125000
G01 X52.131398 Y72.850270 Z-0.125000
G01 X52.213398 Y71.860200 Z-0.125000
G01 X52.361298 Y70.870130 Z-0.125000
G01 X52.575348 Y69.880060 Z-0.125000
G01 X52.855008 Y68.889990 Z-0.125000
G01 X53.200818 Y67.899920 Z-0.125000
G01 X53.612518 Y66.909850 Z-0.125000
G01 X54.031878 Y65.919510 Z-0.125000
G01 X54.347528 Y64.929440 Z-0.125000
G01 X54.565548 Y63.939370 Z-0.125000
G01 X54.686458 Y62.949300 Z-0.125000
G01 X54.710058 Y61.959230 Z-0.125000
G01 X54.635958 Y60.969160 Z-0.125000
G01 X54.464778 Y59.979090 Z-0.125000
G01 X54.196228 Y58.989020 Z-0.125000
G01 X53.830038 Y57.998950 Z-0.125000
G01 X53.366758 Y57.008880 Z-0.125000
G01 X53.023058 Y56.018540 Z-0.125000
G01 X52.895798 Y55.028470 Z-0.125000
G01 X52.799798 Y54.038400 Z-0.125000
G01 X52.735498 Y53.048330 Z-0.125000
G01 X52.702398 Y52.058260 Z-0.125000
G01 X52.700398 Y51.068190 Z-0.125000
G01 X52.730298 Y50.078110 Z-0.125000
G01 X52.791398 Y49.088040 Z-0.125000
G01 X52.884298 Y48.097970 Z-0.125000
G01 X53.008388 Y47.107640 Z-0.125000
G01 X53.125598 Y46.117570 Z-0.125000
G01 X53.194698 Y45.127500 Z-0.125000
G01 X53.263798 Y44.137430 Z-0.125000
G01 X53.332898 Y43.147350 Z-0.125000
G01 X53.401998 Y42.157280 Z-0.125000
G01 X53.471098 Y41.167210 Z-0.125000
G01 X53.540198 Y40.177140 Z-0.125000
G01 X53.609298 Y39.187070 Z-0.125000
G01 X53.678398 Y38.196740 Z-0.125000
G01 X53.747498 Y37.206660 Z-0.125000
G01 X53.774998 Y36.216590 Z-0.125000
G01 X53.705898 Y35.226520 Z-0.125000
G01 X53.636898 Y34.236450 Z-0.125000
G01 X53.567798 Y33.246380 Z-0.125000
G01 X53.498998 Y32.256310 Z-0.125000
G01 X53.429898 Y31.266240 Z-0.125000
G01 X53.360898 Y30.276170 Z-0.125000
G01 X53.291798 Y29.286100 Z-0.125000
G01 X53.222698 Y28.295760 Z-0.125000
G01 X53.153598 Y27.305690 Z-0.125000
G01 X53.149598 Y26.315620 Z-0.125000
G01 X53.367358 Y25.325550 Z-0.125000
G01 X53.519228 Y24.335480 Z-0.125000
G01 X53.604928 Y23.345410 Z-0.125000
G01 X53.625028 Y22.355340 Z-0.125000
G01 X53.579028 Y21.365270 Z-0.125000
G01 X53.467108 Y20.375200 Z-0.125000
G01 X53.289308 Y19.384860 Z-0.125000
G01 X53.045628 Y18.394790 Z-0.125000
G01 X52.735808 Y17.404720 Z-0.125000
G01 X52.388408 Y16.414650 Z-0.125000
G01 X52.302108 Y15.424580 Z-0.125000
G01 X52.281708 Y14.434510 Z-0.125000
G01 X52.327508 Y13.444440 Z-0.125000
G01 X52.438898 Y12.454370 Z-0.125000
G01 X52.616438 Y11.464290 Z-0.125000
G01 X52.859858 Y10.473960 Z-0.125000
G01 X53.169148 Y9.483890 Z-0.125000
G01 X53.544328 Y8.493820 Z-0.125000
G01 X53.985388 Y7.503750 Z-0.125000
G01 X54.492598 Y6.513680 Z-0.125000
G00 Z10.000000

(End cutting path id: path267571)


(Start cutting path id: path267701)
(Change tool to Default tool)

G00 Z10.000000
G00 X55.505348 Y7.503750

G00 Z4.875000 (Fast pre-penetrate)
G01 Z-0.125000 F100.0(Penetrate)
G01 X55.025398 Y8.493820 Z-0.125000 F800.000000
G01 X54.595978 Y9.483890 Z-0.125000
G01 X54.217618 Y10.473960 Z-0.125000
G01 X53.889538 Y11.464290 Z-0.125000
G01 X53.612258 Y12.454370 Z-0.125000
G01 X53.385768 Y13.444440 Z-0.125000
G01 X53.209818 Y14.434510 Z-0.125000
G01 X53.084678 Y15.424580 Z-0.125000
G01 X53.010378 Y16.414650 Z-0.125000
G01 X53.305388 Y17.404720 Z-0.125000
G01 X53.590348 Y18.394790 Z-0.125000
G01 X53.824498 Y19.384860 Z-0.125000
G01 X54.008118 Y20.375200 Z-0.125000
G01 X54.141208 Y21.365270 Z-0.125000
G01 X54.223508 Y22.355340 Z-0.125000
G01 X54.255008 Y23.345410 Z-0.125000
G01 X54.235908 Y24.335480 Z-0.125000
G01 X54.166308 Y25.325550 Z-0.125000
G01 X54.045928 Y26.315620 Z-0.125000
G01 X54.095628 Y27.305690 Z-0.125000
G01 X54.195638 Y28.295760 Z-0.125000
G01 X54.295648 Y29.286100 Z-0.125000
G01 X54.395668 Y30.276170 Z-0.125000
G01 X54.495678 Y31.266240 Z-0.125000
G01 X54.595688 Y32.256310 Z-0.125000
G01 X54.695698 Y33.246380 Z-0.125000
G01 X54.795718 Y34.236450 Z-0.125000
G01 X54.895728 Y35.226520 Z-0.125000
G01 X54.995738 Y36.216590 Z-0.125000
G01 X54.955738 Y37.206660 Z-0.125000
G01 X54.855728 Y38.196740 Z-0.125000
G01 X54.755718 Y39.187070 Z-0.125000
G01 X54.655698 Y40.177140 Z-0.125000
G01 X54.555688 Y41.167210 Z-0.125000
G01 X54.455678 Y42.157280 Z-0.125000
G01 X54.355668 Y43.147350 Z-0.125000
G01 X54.255648 Y44.137430 Z-0.125000
G01 X54.155638 Y45.127500 Z-0.125000
G01 X54.055628 Y46.117570 Z-0.125000
G01 X54.056418 Y47.107640 Z-0.125000
G01 X54.113018 Y48.097970 Z-0.125000
G01 X54.155318 Y49.088040 Z-0.125000
G01 X54.183318 Y50.078110 Z-0.125000
G01 X54.196818 Y51.068190 Z-0.125000
G01 X54.196288 Y52.058260 Z-0.125000
G01 X54.181188 Y53.048330 Z-0.125000
G01 X54.151788 Y54.038400 Z-0.125000
G01 X54.107888 Y55.028470 Z-0.125000
G01 X54.049888 Y56.018540 Z-0.125000
G01 X54.152548 Y57.008880 Z-0.125000
G01 X54.399668 Y57.998950 Z-0.125000
G01 X54.610538 Y58.989020 Z-0.125000
G01 X54.784898 Y59.979090 Z-0.125000
G01 X54.923018 Y60.969160 Z-0.125000
G01 X55.024878 Y61.959230 Z-0.125000
G01 X55.090478 Y62.949300 Z-0.125000
G01 X55.119578 Y63.939370 Z-0.125000
G01 X55.112578 Y64.929440 Z-0.125000
G01 X55.069178 Y65.919510 Z-0.125000
G01 X54.847188 Y66.909850 Z-0.125000
G01 X54.437088 Y67.899920 Z-0.125000
G01 X54.077248 Y68.889990 Z-0.125000
G01 X53.768478 Y69.880060 Z-0.125000
G01 X53.509988 Y70.870130 Z-0.125000
G01 X53.302548 Y71.860200 Z-0.125000
G01 X53.145388 Y72.850270 Z-0.125000
G01 X53.039288 Y73.840340 Z-0.125000
G01 X52.983688 Y74.830410 Z-0.125000
G01 X52.978688 Y75.820750 Z-0.125000
G01 X52.930788 Y76.810820 Z-0.125000
G01 X52.715418 Y77.800890 Z-0.125000
G01 X52.550848 Y78.790960 Z-0.125000
G01 X52.436818 Y79.781030 Z-0.125000
G01 X52.373618 Y80.771100 Z-0.125000
G01 X52.360918 Y81.761170 Z-0.125000
G01 X52.398718 Y82.751250 Z-0.125000
G01 X52.487618 Y83.741320 Z-0.125000
G01 X52.626788 Y84.731390 Z-0.125000
G01 X52.816758 Y85.721720 Z-0.125000
G01 X53.145638 Y86.711790 Z-0.125000
G01 X53.786458 Y87.701860 Z-0.125000
G01 X54.326208 Y88.691940 Z-0.125000
G01 X54.764358 Y89.682010 Z-0.125000
G01 X55.101168 Y90.672080 Z-0.125000
G01 X55.336648 Y91.662150 Z-0.125000
G01 X55.470788 Y92.652220 Z-0.125000
G01 X55.503588 Y93.642290 Z-0.125000
G01 X55.435088 Y94.632620 Z-0.125000
G01 X55.265218 Y95.622700 Z-0.125000
G01 X55.026568 Y96.612770 Z-0.125000
G01 X55.045668 Y97.602840 Z-0.125000
G01 X55.082968 Y98.592910 Z-0.125000
G01 X55.138568 Y99.582980 Z-0.125000
G01 X55.212368 Y100.573050 Z-0.125000
G01 X55.304168 Y101.563120 Z-0.125000
G01 X55.413968 Y102.553190 Z-0.125000
G01 X55.542288 Y103.543530 Z-0.125000
G01 X55.688608 Y104.533600 Z-0.125000
G01 X55.853178 Y105.523670 Z-0.125000
G01 X56.035738 Y106.513740 Z-0.125000
G00 Z10.000000

(End cutting path id: path267701)


(Start cutting path id: path267579)
(Change tool to Default tool)

G00 Z10.000000
G00 X57.236778 Y106.513740

G00 Z4.875000 (Fast pre-penetrate)
G01 Z-0.125000 F100.0(Penetrate)
G01 X57.547668 Y105.523670 Z-0.125000 F800.000000
G01 X57.784998 Y104.533600 Z-0.125000
G01 X57.949038 Y103.543530 Z-0.125000
G01 X58.039738 Y102.553190 Z-0.125000
G01 X58.056638 Y101.563120 Z-0.125000
G01 X58.000538 Y100.573050 Z-0.125000
G01 X57.870888 Y99.582980 Z-0.125000
G01 X57.667688 Y98.592910 Z-0.125000
G01 X57.391198 Y97.602840 Z-0.125000
G01 X57.041418 Y96.612770 Z-0.125000
G01 X57.000918 Y95.622700 Z-0.125000
G01 X56.990018 Y94.632620 Z-0.125000
G01 X56.969618 Y93.642290 Z-0.125000
G01 X56.939218 Y92.652220 Z-0.125000
G01 X56.899218 Y91.662150 Z-0.125000
G01 X56.849218 Y90.672080 Z-0.125000
G01 X56.789718 Y89.682010 Z-0.125000
G01 X56.720418 Y88.691940 Z-0.125000
G01 X56.641018 Y87.701860 Z-0.125000
G01 X56.552118 Y86.711790 Z-0.125000
G01 X56.515118 Y85.721720 Z-0.125000
G01 X56.496918 Y84.731390 Z-0.125000
G01 X56.483418 Y83.741320 Z-0.125000
G01 X56.475418 Y82.751250 Z-0.125000
G01 X56.471418 Y81.761170 Z-0.125000
G01 X56.472418 Y80.771100 Z-0.125000
G01 X56.478418 Y79.781030 Z-0.125000
G01 X56.489318 Y78.790960 Z-0.125000
G01 X56.505218 Y77.800890 Z-0.125000
G01 X56.526118 Y76.810820 Z-0.125000
G01 X56.549618 Y75.820750 Z-0.125000
G01 X56.577118 Y74.830410 Z-0.125000
G01 X56.609618 Y73.840340 Z-0.125000
G01 X56.646918 Y72.850270 Z-0.125000
G01 X56.689218 Y71.860200 Z-0.125000
G01 X56.736618 Y70.870130 Z-0.125000
G01 X56.788518 Y69.880060 Z-0.125000
G01 X56.845418 Y68.889990 Z-0.125000
G01 X56.907318 Y67.899920 Z-0.125000
G01 X56.974018 Y66.909850 Z-0.125000
G01 X56.569728 Y65.919510 Z-0.125000
G01 X55.966478 Y64.929440 Z-0.125000
G01 X55.510078 Y63.939370 Z-0.125000
G01 X55.200778 Y62.949300 Z-0.125000
G01 X55.038058 Y61.959230 Z-0.125000
G01 X55.022158 Y60.969160 Z-0.125000
G01 X55.153118 Y59.979090 Z-0.125000
G01 X55.430668 Y58.989020 Z-0.125000
G01 X55.855328 Y57.998950 Z-0.125000
G01 X56.426828 Y57.008880 Z-0.125000
G01 X57.131678 Y56.018540 Z-0.125000
G01 X57.746038 Y55.028470 Z-0.125000
G01 X58.208798 Y54.038400 Z-0.125000
G01 X58.519948 Y53.048330 Z-0.125000
G01 X58.679228 Y52.058260 Z-0.125000
G01 X58.686228 Y51.068190 Z-0.125000
G01 X58.542298 Y50.078110 Z-0.125000
G01 X58.246228 Y49.088040 Z-0.125000
G01 X57.798818 Y48.097970 Z-0.125000
G01 X57.199538 Y47.107640 Z-0.125000
G01 X56.776468 Y46.117570 Z-0.125000
G01 X56.799768 Y45.127500 Z-0.125000
G01 X56.823068 Y44.137430 Z-0.125000
G01 X56.846068 Y43.147350 Z-0.125000
G01 X56.869368 Y42.157280 Z-0.125000
G01 X56.892668 Y41.167210 Z-0.125000
G01 X56.915968 Y40.177140 Z-0.125000
G01 X56.938968 Y39.187070 Z-0.125000
G01 X56.962268 Y38.196740 Z-0.125000
G01 X56.985568 Y37.206660 Z-0.125000
G01 X56.994568 Y36.216590 Z-0.125000
G01 X56.971268 Y35.226520 Z-0.125000
G01 X56.947968 Y34.236450 Z-0.125000
G01 X56.924968 Y33.246380 Z-0.125000
G01 X56.901668 Y32.256310 Z-0.125000
G01 X56.878368 Y31.266240 Z-0.125000
G01 X56.855068 Y30.276170 Z-0.125000
G01 X56.832068 Y29.286100 Z-0.125000
G01 X56.808768 Y28.295760 Z-0.125000
G01 X56.785468 Y27.305690 Z-0.125000
G01 X56.767268 Y26.315620 Z-0.125000
G01 X56.765268 Y25.325550 Z-0.125000
G01 X56.758268 Y24.335480 Z-0.125000
G01 X56.746668 Y23.345410 Z-0.125000
G01 X56.729968 Y22.355340 Z-0.125000
G01 X56.708568 Y21.365270 Z-0.125000
G01 X56.682068 Y20.375200 Z-0.125000
G01 X56.650868 Y19.384860 Z-0.125000
G01 X56.614668 Y18.394790 Z-0.125000
G01 X56.573668 Y17.404720 Z-0.125000
G01 X56.537168 Y16.414650 Z-0.125000
G01 X56.585068 Y15.424580 Z-0.125000
G01 X56.637668 Y14.434510 Z-0.125000
G01 X56.695368 Y13.444440 Z-0.125000
G01 X56.758068 Y12.454370 Z-0.125000
G01 X56.825568 Y11.464290 Z-0.125000
G01 X56.897768 Y10.473960 Z-0.125000
G01 X56.975068 Y9.483890 Z-0.125000
G01 X57.057068 Y8.493820 Z-0.125000
G01 X57.144068 Y7.503750 Z-0.125000
G01 X57.235868 Y6.513680 Z-0.125000
G00 Z10.000000

(End cutting path id: path267579)


(Start cutting path id: path267581)
(Change tool to Default tool)

G00 Z10.000000
G00 X57.399498 Y6.513680

G00 Z4.875000 (Fast pre-penetrate)
G01 Z-0.125000 F100.0(Penetrate)
G01 X57.714358 Y7.503750 Z-0.125000 F800.000000
G01 X58.029468 Y8.493820 Z-0.125000
G01 X58.344328 Y9.483890 Z-0.125000
G01 X58.659448 Y10.473960 Z-0.125000
G01 X58.974298 Y11.464290 Z-0.125000
G01 X59.289158 Y12.454370 Z-0.125000
G01 X59.604268 Y13.444440 Z-0.125000
G01 X59.919128 Y14.434510 Z-0.125000
G01 X60.234248 Y15.424580 Z-0.125000
G01 X60.549098 Y16.414650 Z-0.125000
G01 X60.053008 Y17.404720 Z-0.125000
G01 X59.544478 Y18.394790 Z-0.125000
G01 X59.117708 Y19.384860 Z-0.125000
G01 X58.772688 Y20.375200 Z-0.125000
G01 X58.509428 Y21.365270 Z-0.125000
G01 X58.328188 Y22.355340 Z-0.125000
G01 X58.228688 Y23.345410 Z-0.125000
G01 X58.210988 Y24.335480 Z-0.125000
G01 X58.274988 Y25.325550 Z-0.125000
G01 X58.420768 Y26.315620 Z-0.125000
G01 X58.627678 Y27.305690 Z-0.125000
G01 X58.837758 Y28.295760 Z-0.125000
G01 X59.047838 Y29.286100 Z-0.125000
G01 X59.257648 Y30.276170 Z-0.125000
G01 X59.467728 Y31.266240 Z-0.125000
G01 X59.677808 Y32.256310 Z-0.125000
G01 X59.887618 Y33.246380 Z-0.125000
G01 X60.097698 Y34.236450 Z-0.125000
G01 X60.307518 Y35.226520 Z-0.125000
G01 X60.517598 Y36.216590 Z-0.125000
G01 X60.923198 Y37.206660 Z-0.125000
G01 X61.343098 Y38.196740 Z-0.125000
G01 X61.681228 Y39.187070 Z-0.125000
G01 X61.937618 Y40.177140 Z-0.125000
G01 X62.112238 Y41.167210 Z-0.125000
G01 X62.204838 Y42.157280 Z-0.125000
G01 X62.215638 Y43.147350 Z-0.125000
G01 X62.144738 Y44.137430 Z-0.125000
G01 X61.992078 Y45.127500 Z-0.125000
G01 X61.757658 Y46.117570 Z-0.125000
G01 X61.522708 Y47.107640 Z-0.125000
G01 X61.323738 Y48.097970 Z-0.125000
G01 X61.121858 Y49.088040 Z-0.125000
G01 X60.917078 Y50.078110 Z-0.125000
G01 X60.709638 Y51.068190 Z-0.125000
G01 X60.499558 Y52.058260 Z-0.125000
G01 X60.286838 Y53.048330 Z-0.125000
G01 X60.071198 Y54.038400 Z-0.125000
G01 X59.852918 Y55.028470 Z-0.125000
G01 X59.631728 Y56.018540 Z-0.125000
G01 X59.461078 Y57.008880 Z-0.125000
G01 X59.344918 Y57.998950 Z-0.125000
G01 X59.231678 Y58.989020 Z-0.125000
G01 X59.121088 Y59.979090 Z-0.125000
G01 X59.013138 Y60.969160 Z-0.125000
G01 X58.908098 Y61.959230 Z-0.125000
G01 X58.805698 Y62.949300 Z-0.125000
G01 X58.705898 Y63.939370 Z-0.125000
G01 X58.609098 Y64.929440 Z-0.125000
G01 X58.514898 Y65.919510 Z-0.125000
G01 X58.501698 Y66.909850 Z-0.125000
G01 X58.606738 Y67.899920 Z-0.125000
G01 X58.711778 Y68.889990 Z-0.125000
G01 X58.816808 Y69.880060 Z-0.125000
G01 X58.921848 Y70.870130 Z-0.125000
G01 X59.026628 Y71.860200 Z-0.125000
G01 X59.131668 Y72.850270 Z-0.125000
G01 X59.236708 Y73.840340 Z-0.125000
G01 X59.341748 Y74.830410 Z-0.125000
G01 X59.446788 Y75.820750 Z-0.125000
G01 X59.551558 Y76.810820 Z-0.125000
G01 X59.656598 Y77.800890 Z-0.125000
G01 X59.761638 Y78.790960 Z-0.125000
G01 X59.866678 Y79.781030 Z-0.125000
G01 X59.971718 Y80.771100 Z-0.125000
G01 X60.076498 Y81.761170 Z-0.125000
G01 X60.181538 Y82.751250 Z-0.125000
G01 X60.286578 Y83.741320 Z-0.125000
G01 X60.391608 Y84.731390 Z-0.125000
G01 X60.496648 Y85.721720 Z-0.125000
G01 X60.580548 Y86.711790 Z-0.125000
G01 X60.580548 Y87.701860 Z-0.125000
G01 X60.580548 Y88.691940 Z-0.125000
G01 X60.580548 Y89.682010 Z-0.125000
G01 X60.580548 Y90.672080 Z-0.125000
G01 X60.580548 Y91.662150 Z-0.125000
G01 X60.580548 Y92.652220 Z-0.125000
G01 X60.580548 Y93.642290 Z-0.125000
G01 X60.580548 Y94.632620 Z-0.125000
G01 X60.580548 Y95.622700 Z-0.125000
G01 X60.549848 Y96.612770 Z-0.125000
G01 X60.240808 Y97.602840 Z-0.125000
G01 X59.930718 Y98.592910 Z-0.125000
G01 X59.619038 Y99.582980 Z-0.125000
G01 X59.306038 Y100.573050 Z-0.125000
G01 X58.991708 Y101.563120 Z-0.125000
G01 X58.676068 Y102.553190 Z-0.125000
G01 X58.358828 Y103.543530 Z-0.125000
G01 X58.040538 Y104.533600 Z-0.125000
G01 X57.720658 Y105.523670 Z-0.125000
G01 X57.399448 Y106.513740 Z-0.125000
G01 X57.525918 Y105.523670 Z-0.125000
G01 X57.601018 Y104.533600 Z-0.125000
G01 X57.633318 Y103.543530 Z-0.125000
G01 X57.622718 Y102.553190 Z-0.125000
G01 X57.569018 Y101.563120 Z-0.125000
G01 X57.472718 Y100.573050 Z-0.125000
G01 X57.333548 Y99.582980 Z-0.125000
G01 X57.151248 Y98.592910 Z-0.125000
G01 X56.926088 Y97.602840 Z-0.125000
G01 X56.658328 Y96.612770 Z-0.125000
G01 X56.657328 Y95.622700 Z-0.125000
G01 X56.650328 Y94.632620 Z-0.125000
G01 X56.602728 Y93.642290 Z-0.125000
G01 X56.515128 Y92.652220 Z-0.125000
G01 X56.387068 Y91.662150 Z-0.125000
G01 X56.218798 Y90.672080 Z-0.125000
G01 X56.010298 Y89.682010 Z-0.125000
G01 X55.761328 Y88.691940 Z-0.125000
G01 X55.472138 Y87.701860 Z-0.125000
G01 X55.142738 Y86.711790 Z-0.125000
G01 X54.996948 Y85.721720 Z-0.125000
G01 X54.921548 Y84.731390 Z-0.125000
G01 X54.865948 Y83.741320 Z-0.125000
G01 X54.830748 Y82.751250 Z-0.125000
G01 X54.815648 Y81.761170 Z-0.125000
G01 X54.820648 Y80.771100 Z-0.125000
G01 X54.845748 Y79.781030 Z-0.125000
G01 X54.891048 Y78.790960 Z-0.125000
G01 X54.956648 Y77.800890 Z-0.125000
G01 X55.042148 Y76.810820 Z-0.125000
G01 X55.113548 Y75.820750 Z-0.125000
G01 X55.190048 Y74.830410 Z-0.125000
G01 X55.286848 Y73.840340 Z-0.125000
G01 X55.403798 Y72.850270 Z-0.125000
G01 X55.540848 Y71.860200 Z-0.125000
G01 X55.698018 Y70.870130 Z-0.125000
G01 X55.875548 Y69.880060 Z-0.125000
G01 X56.072928 Y68.889990 Z-0.125000
G01 X56.290678 Y67.899920 Z-0.125000
G01 X56.528538 Y66.909850 Z-0.125000
G01 X56.338568 Y65.919510 Z-0.125000
G01 X55.922648 Y64.929440 Z-0.125000
G01 X55.592448 Y63.939370 Z-0.125000
G01 X55.348238 Y62.949300 Z-0.125000
G01 X55.189488 Y61.959230 Z-0.125000
G01 X55.116688 Y60.969160 Z-0.125000
G01 X55.129688 Y59.979090 Z-0.125000
G01 X55.228388 Y58.989020 Z-0.125000
G01 X55.413068 Y57.998950 Z-0.125000
G01 X55.683208 Y57.008880 Z-0.125000
G01 X56.104688 Y56.018540 Z-0.125000
G01 X56.533848 Y55.028470 Z-0.125000
G01 X56.856898 Y54.038400 Z-0.125000
G01 X57.073858 Y53.048330 Z-0.125000
G01 X57.185248 Y52.058260 Z-0.125000
G01 X57.190248 Y51.068190 Z-0.125000
G01 X57.089438 Y50.078110 Z-0.125000
G01 X56.883068 Y49.088040 Z-0.125000
G01 X56.570598 Y48.097970 Z-0.125000
G01 X56.152028 Y47.107640 Z-0.125000
G01 X55.881088 Y46.117570 Z-0.125000
G01 X55.958088 Y45.127500 Z-0.125000
G01 X56.035288 Y44.137430 Z-0.125000
G01 X56.112288 Y43.147350 Z-0.125000
G01 X56.189588 Y42.157280 Z-0.125000
G01 X56.266588 Y41.167210 Z-0.125000
G01 X56.343588 Y40.177140 Z-0.125000
G01 X56.420888 Y39.187070 Z-0.125000
G01 X56.497888 Y38.196740 Z-0.125000
G01 X56.575088 Y37.206660 Z-0.125000
G01 X56.605788 Y36.216590 Z-0.125000
G01 X56.528788 Y35.226520 Z-0.125000
G01 X56.451488 Y34.236450 Z-0.125000
G01 X56.374488 Y33.246380 Z-0.125000
G01 X56.297488 Y32.256310 Z-0.125000
G01 X56.220188 Y31.266240 Z-0.125000
G01 X56.143188 Y30.276170 Z-0.125000
G01 X56.065888 Y29.286100 Z-0.125000
G01 X55.988888 Y28.295760 Z-0.125000
G01 X55.911888 Y27.305690 Z-0.125000
G01 X55.854688 Y26.315620 Z-0.125000
G01 X55.864988 Y25.325550 Z-0.125000
G01 X55.854988 Y24.335480 Z-0.125000
G01 X55.825388 Y23.345410 Z-0.125000
G01 X55.775388 Y22.355340 Z-0.125000
G01 X55.705288 Y21.365270 Z-0.125000
G01 X55.615088 Y20.375200 Z-0.125000
G01 X55.504748 Y19.384860 Z-0.125000
G01 X55.374308 Y18.394790 Z-0.125000
G01 X55.223768 Y17.404720 Z-0.125000
G01 X55.084068 Y16.414650 Z-0.125000
G01 X55.225618 Y15.424580 Z-0.125000
G01 X55.387538 Y14.434510 Z-0.125000
G01 X55.569308 Y13.444440 Z-0.125000
G01 X55.771448 Y12.454370 Z-0.125000
G01 X55.993698 Y11.464290 Z-0.125000
G01 X56.236058 Y10.473960 Z-0.125000
G01 X56.498528 Y9.483890 Z-0.125000
G01 X56.781368 Y8.493820 Z-0.125000
G01 X57.084048 Y7.503750 Z-0.125000
G01 X57.407108 Y6.513680 Z-0.125000
G00 Z10.000000

(End cutting path id: path267581)


(Start cutting path id: path267577)
(Change tool to Default tool)

G00 Z10.000000
G00 X57.007648 Y6.513680

G00 Z4.875000 (Fast pre-penetrate)
G01 Z-0.125000 F100.0(Penetrate)
G01 X56.538278 Y7.503750 Z-0.125000 F800.000000
G01 X56.104628 Y8.493820 Z-0.125000
G01 X55.706168 Y9.483890 Z-0.125000
G01 X55.343158 Y10.473960 Z-0.125000
G01 X55.015608 Y11.464290 Z-0.125000
G01 X54.723508 Y12.454370 Z-0.125000
G01 X54.466598 Y13.444440 Z-0.125000
G01 X54.245398 Y14.434510 Z-0.125000
G01 X54.059398 Y15.424580 Z-0.125000
G01 X53.908848 Y16.414650 Z-0.125000
G01 X54.134808 Y17.404720 Z-0.125000
G01 X54.366848 Y18.394790 Z-0.125000
G01 X54.563428 Y19.384860 Z-0.125000
G01 X54.724558 Y20.375200 Z-0.125000
G01 X54.850238 Y21.365270 Z-0.125000
G01 X54.940438 Y22.355340 Z-0.125000
G01 X54.995238 Y23.345410 Z-0.125000
G01 X55.014838 Y24.335480 Z-0.125000
G01 X54.998938 Y25.325550 Z-0.125000
G01 X54.947638 Y26.315620 Z-0.125000
G01 X55.015338 Y27.305690 Z-0.125000
G01 X55.117998 Y28.295760 Z-0.125000
G01 X55.220658 Y29.286100 Z-0.125000
G01 X55.323318 Y30.276170 Z-0.125000
G01 X55.425968 Y31.266240 Z-0.125000
G01 X55.528628 Y32.256310 Z-0.125000
G01 X55.631288 Y33.246380 Z-0.125000
G01 X55.734208 Y34.236450 Z-0.125000
G01 X55.836868 Y35.226520 Z-0.125000
G01 X55.939528 Y36.216590 Z-0.125000
G01 X55.898528 Y37.206660 Z-0.125000
G01 X55.795608 Y38.196740 Z-0.125000
G01 X55.692948 Y39.187070 Z-0.125000
G01 X55.590288 Y40.177140 Z-0.125000
G01 X55.487628 Y41.167210 Z-0.125000
G01 X55.384968 Y42.157280 Z-0.125000
G01 X55.282318 Y43.147350 Z-0.125000
G01 X55.179658 Y44.137430 Z-0.125000
G01 X55.076728 Y45.127500 Z-0.125000
G01 X54.974078 Y46.117570 Z-0.125000
G01 X55.104518 Y47.107640 Z-0.125000
G01 X55.342108 Y48.097970 Z-0.125000
G01 X55.519378 Y49.088040 Z-0.125000
G01 X55.636588 Y50.078110 Z-0.125000
G01 X55.693788 Y51.068190 Z-0.125000
G01 X55.690788 Y52.058260 Z-0.125000
G01 X55.627588 Y53.048330 Z-0.125000
G01 X55.504288 Y54.038400 Z-0.125000
G01 X55.320938 Y55.028470 Z-0.125000
G01 X55.077248 Y56.018540 Z-0.125000
G01 X54.925118 Y57.008880 Z-0.125000
G01 X54.928118 Y57.998950 Z-0.125000
G01 X54.955418 Y58.989020 Z-0.125000
G01 X55.007218 Y59.979090 Z-0.125000
G01 X55.083918 Y60.969160 Z-0.125000
G01 X55.185518 Y61.959230 Z-0.125000
G01 X55.311728 Y62.949300 Z-0.125000
G01 X55.462538 Y63.939370 Z-0.125000
G01 X55.638228 Y64.929440 Z-0.125000
G01 X55.838518 Y65.919510 Z-0.125000
G01 X55.819718 Y66.909850 Z-0.125000
G01 X55.467298 Y67.899920 Z-0.125000
G01 X55.150588 Y68.889990 Z-0.125000
G01 X54.869068 Y69.880060 Z-0.125000
G01 X54.622748 Y70.870130 Z-0.125000
G01 X54.412138 Y71.860200 Z-0.125000
G01 X54.236978 Y72.850270 Z-0.125000
G01 X54.097018 Y73.840340 Z-0.125000
G01 X53.992508 Y74.830410 Z-0.125000
G01 X53.923408 Y75.820750 Z-0.125000
G01 X53.844008 Y76.810820 Z-0.125000
G01 X53.693458 Y77.800890 Z-0.125000
G01 X53.578358 Y78.790960 Z-0.125000
G01 X53.498758 Y79.781030 Z-0.125000
G01 X53.454558 Y80.771100 Z-0.125000
G01 X53.445558 Y81.761170 Z-0.125000
G01 X53.472258 Y82.751250 Z-0.125000
G01 X53.534158 Y83.741320 Z-0.125000
G01 X53.631558 Y84.731390 Z-0.125000
G01 X53.764378 Y85.721720 Z-0.125000
G01 X54.007258 Y86.711790 Z-0.125000
G01 X54.520818 Y87.701860 Z-0.125000
G01 X54.963468 Y88.691940 Z-0.125000
G01 X55.335208 Y89.682010 Z-0.125000
G01 X55.636038 Y90.672080 Z-0.125000
G01 X55.866228 Y91.662150 Z-0.125000
G01 X56.025768 Y92.652220 Z-0.125000
G01 X56.114168 Y93.642290 Z-0.125000
G01 X56.131868 Y94.632620 Z-0.125000
G01 X56.078968 Y95.622700 Z-0.125000
G01 X55.986868 Y96.612770 Z-0.125000
G01 X56.144818 Y97.602840 Z-0.125000
G01 X56.290078 Y98.592910 Z-0.125000
G01 X56.422898 Y99.582980 Z-0.125000
G01 X56.543548 Y100.573050 Z-0.125000
G01 X56.652028 Y101.563120 Z-0.125000
G01 X56.747828 Y102.553190 Z-0.125000
G01 X56.831428 Y103.543530 Z-0.125000
G01 X56.902628 Y104.533600 Z-0.125000
G01 X56.961328 Y105.523670 Z-0.125000
G01 X57.007928 Y106.513740 Z-0.125000
G00 Z10.000000

(End cutting path id: path267577)


(Start cutting path id: path267569)
(Change tool to Default tool)

G00 Z10.000000
G00 X54.202278 Y105.523670

G00 Z4.875000 (Fast pre-penetrate)
G01 Z-0.125000 F100.0(Penetrate)
G01 X54.492788 Y106.513740 Z-0.125000 F800.000000
G00 Z10.000000

(End cutting path id: path267569)


(Start cutting path id: path267565)
(Change tool to Default tool)

G00 Z10.000000
G00 X49.742458 Y105.523670

G00 Z4.875000 (Fast pre-penetrate)
G01 Z-0.125000 F100.0(Penetrate)
G01 X49.456448 Y104.533600 Z-0.125000 F800.000000
G01 X49.266738 Y103.543530 Z-0.125000
G01 X49.173638 Y102.553190 Z-0.125000
G01 X49.176638 Y101.563120 Z-0.125000
G01 X49.276338 Y100.573050 Z-0.125000
G01 X49.472398 Y99.582980 Z-0.125000
G01 X49.765028 Y98.592910 Z-0.125000
G01 X50.154228 Y97.602840 Z-0.125000
G01 X50.639738 Y96.612770 Z-0.125000
G01 X51.484028 Y95.622700 Z-0.125000
G01 X52.203958 Y94.632620 Z-0.125000
G01 X52.757468 Y93.642290 Z-0.125000
G01 X53.144548 Y92.652220 Z-0.125000
G01 X53.365478 Y91.662150 Z-0.125000
G01 X53.419978 Y90.672080 Z-0.125000
G01 X53.308058 Y89.682010 Z-0.125000
G01 X53.029718 Y88.691940 Z-0.125000
G01 X52.585218 Y87.701860 Z-0.125000
G01 X51.974298 Y86.711790 Z-0.125000
G01 X51.518418 Y85.721720 Z-0.125000
G01 X51.212828 Y84.731390 Z-0.125000
G01 X51.004068 Y83.741320 Z-0.125000
G01 X50.891618 Y82.751250 Z-0.125000
G01 X50.875518 Y81.761170 Z-0.125000
G01 X50.955918 Y80.771100 Z-0.125000
G01 X51.132918 Y79.781030 Z-0.125000
G01 X51.406238 Y78.790960 Z-0.125000
G01 X51.776128 Y77.800890 Z-0.125000
G01 X52.242588 Y76.810820 Z-0.125000
G01 X52.131728 Y75.820750 Z-0.125000
G01 X51.806288 Y74.830410 Z-0.125000
G01 X51.550698 Y73.840340 Z-0.125000
G01 X51.364958 Y72.850270 Z-0.125000
G01 X51.249338 Y71.860200 Z-0.125000
G01 X51.203338 Y70.870130 Z-0.125000
G01 X51.227438 Y69.880060 Z-0.125000
G01 X51.321338 Y68.889990 Z-0.125000
G01 X51.485378 Y67.899920 Z-0.125000
G01 X51.719008 Y66.909850 Z-0.125000
G01 X52.272518 Y65.919510 Z-0.125000
G01 X52.873118 Y64.929440 Z-0.125000
G01 X53.307568 Y63.939370 Z-0.125000
G01 X53.575588 Y62.949300 Z-0.125000
G01 X53.677448 Y61.959230 Z-0.125000
G01 X53.612648 Y60.969160 Z-0.125000
G01 X53.381668 Y59.979090 Z-0.125000
G01 X52.984258 Y58.989020 Z-0.125000
G01 X52.420438 Y57.998950 Z-0.125000
G01 X51.690448 Y57.008880 Z-0.125000
G01 X51.063388 Y56.018540 Z-0.125000
G01 X50.726308 Y55.028470 Z-0.125000
G01 X50.472838 Y54.038400 Z-0.125000
G01 X50.302178 Y53.048330 Z-0.125000
G01 X50.214878 Y52.058260 Z-0.125000
G01 X50.210878 Y51.068190 Z-0.125000
G01 X50.289978 Y50.078110 Z-0.125000
G01 X50.452168 Y49.088040 Z-0.125000
G01 X50.697438 Y48.097970 Z-0.125000
G01 X51.026048 Y47.107640 Z-0.125000
G01 X51.266288 Y46.117570 Z-0.125000
G01 X51.265288 Y45.127500 Z-0.125000
G01 X51.250788 Y44.137430 Z-0.125000
G01 X51.222988 Y43.147350 Z-0.125000
G01 X51.181688 Y42.157280 Z-0.125000
G01 X51.127488 Y41.167210 Z-0.125000
G01 X51.059788 Y40.177140 Z-0.125000
G01 X50.978788 Y39.187070 Z-0.125000
G01 X50.884588 Y38.196740 Z-0.125000
G01 X50.777168 Y37.206660 Z-0.125000
G01 X50.725268 Y36.216590 Z-0.125000
G01 X50.837978 Y35.226520 Z-0.125000
G01 X50.963918 Y34.236450 Z-0.125000
G01 X51.103088 Y33.246380 Z-0.125000
G01 X51.255488 Y32.256310 Z-0.125000
G01 X51.421118 Y31.266240 Z-0.125000
G01 X51.600238 Y30.276170 Z-0.125000
G01 X51.792328 Y29.286100 Z-0.125000
G01 X51.997908 Y28.295760 Z-0.125000
G01 X52.216988 Y27.305690 Z-0.125000
G01 X52.472578 Y26.315620 Z-0.125000
G01 X52.778168 Y25.325550 Z-0.125000
G01 X53.000418 Y24.335480 Z-0.125000
G01 X53.139588 Y23.345410 Z-0.125000
G01 X53.195388 Y22.355340 Z-0.125000
G01 X53.168188 Y21.365270 Z-0.125000
G01 X53.057848 Y20.375200 Z-0.125000
G01 X52.864178 Y19.384860 Z-0.125000
G01 X52.587418 Y18.394790 Z-0.125000
G01 X52.227588 Y17.404720 Z-0.125000
G01 X51.786268 Y16.414650 Z-0.125000
G01 X51.362398 Y15.424580 Z-0.125000
G01 X51.008658 Y14.434510 Z-0.125000
G01 X50.724488 Y13.444440 Z-0.125000
G01 X50.510448 Y12.454370 Z-0.125000
G01 X50.366248 Y11.464290 Z-0.125000
G01 X50.292148 Y10.473960 Z-0.125000
G01 X50.288148 Y9.483890 Z-0.125000
G01 X50.353748 Y8.493820 Z-0.125000
G01 X50.489218 Y7.503750 Z-0.125000
G01 X50.694538 Y6.513680 Z-0.125000
G00 Z10.000000

(End cutting path id: path267565)


(Start cutting path id: path267561)
(Change tool to Default tool)

G00 Z10.000000
G00 X49.389768 Y6.513680

G00 Z4.875000 (Fast pre-penetrate)
G01 Z-0.125000 F100.0(Penetrate)
G01 X49.330468 Y7.503750 Z-0.125000 F800.000000
G01 X49.325468 Y8.493820 Z-0.125000
G01 X49.375468 Y9.483890 Z-0.125000
G01 X49.480238 Y10.473960 Z-0.125000
G01 X49.639518 Y11.464290 Z-0.125000
G01 X49.853568 Y12.454370 Z-0.125000
G01 X50.122118 Y13.444440 Z-0.125000
G01 X50.445178 Y14.434510 Z-0.125000
G01 X50.822998 Y15.424580 Z-0.125000
G01 X51.255598 Y16.414650 Z-0.125000
G01 X51.731578 Y17.404720 Z-0.125000
G01 X52.129778 Y18.394790 Z-0.125000
G01 X52.444898 Y19.384860 Z-0.125000
G01 X52.676668 Y20.375200 Z-0.125000
G01 X52.825628 Y21.365270 Z-0.125000
G01 X52.891028 Y22.355340 Z-0.125000
G01 X52.873528 Y23.345410 Z-0.125000
G01 X52.772728 Y24.335480 Z-0.125000
G01 X52.588578 Y25.325550 Z-0.125000
G01 X52.321608 Y26.315620 Z-0.125000
G01 X51.924738 Y27.305690 Z-0.125000
G01 X51.533678 Y28.295760 Z-0.125000
G01 X51.171198 Y29.286100 Z-0.125000
G01 X50.837038 Y30.276170 Z-0.125000
G01 X50.531708 Y31.266240 Z-0.125000
G01 X50.254948 Y32.256310 Z-0.125000
G01 X50.006508 Y33.246380 Z-0.125000
G01 X49.786638 Y34.236450 Z-0.125000
G01 X49.595348 Y35.226520 Z-0.125000
G01 X49.432628 Y36.216590 Z-0.125000
G01 X49.549568 Y37.206660 Z-0.125000
G01 X49.754098 Y38.196740 Z-0.125000
G01 X49.930038 Y39.187070 Z-0.125000
G01 X50.077678 Y40.177140 Z-0.125000
G01 X50.196478 Y41.167210 Z-0.125000
G01 X50.286978 Y42.157280 Z-0.125000
G01 X50.348878 Y43.147350 Z-0.125000
G01 X50.382178 Y44.137430 Z-0.125000
G01 X50.387178 Y45.127500 Z-0.125000
G01 X50.363378 Y46.117570 Z-0.125000
G01 X50.108848 Y47.107640 Z-0.125000
G01 X49.780238 Y48.097970 Z-0.125000
G01 X49.534698 Y49.088040 Z-0.125000
G01 X49.372508 Y50.078110 Z-0.125000
G01 X49.293708 Y51.068190 Z-0.125000
G01 X49.297708 Y52.058260 Z-0.125000
G01 X49.385308 Y53.048330 Z-0.125000
G01 X49.555698 Y54.038400 Z-0.125000
G01 X49.809438 Y55.028470 Z-0.125000
G01 X50.146248 Y56.018540 Z-0.125000
G01 X50.792628 Y57.008880 Z-0.125000
G01 X51.560978 Y57.998950 Z-0.125000
G01 X52.163168 Y58.989020 Z-0.125000
G01 X52.598678 Y59.979090 Z-0.125000
G01 X52.868018 Y60.969160 Z-0.125000
G01 X52.971208 Y61.959230 Z-0.125000
G01 X52.907708 Y62.949300 Z-0.125000
G01 X52.678048 Y63.939370 Z-0.125000
G01 X52.281968 Y64.929440 Z-0.125000
G01 X51.719468 Y65.919510 Z-0.125000
G01 X51.233958 Y66.909850 Z-0.125000
G01 X51.101928 Y67.899920 Z-0.125000
G01 X51.024628 Y68.889990 Z-0.125000
G01 X51.001628 Y69.880060 Z-0.125000
G01 X51.033628 Y70.870130 Z-0.125000
G01 X51.120128 Y71.860200 Z-0.125000
G01 X51.261148 Y72.850270 Z-0.125000
G01 X51.456938 Y73.840340 Z-0.125000
G01 X51.707238 Y74.830410 Z-0.125000
G01 X52.012298 Y75.820750 Z-0.125000
G01 X52.065698 Y76.810820 Z-0.125000
G01 X51.496308 Y77.800890 Z-0.125000
G01 X51.038318 Y78.790960 Z-0.125000
G01 X50.692238 Y79.781030 Z-0.125000
G01 X50.458088 Y80.771100 Z-0.125000
G01 X50.335318 Y81.761170 Z-0.125000
G01 X50.324418 Y82.751250 Z-0.125000
G01 X50.425228 Y83.741320 Z-0.125000
G01 X50.637948 Y84.731390 Z-0.125000
G01 X50.962068 Y85.721720 Z-0.125000
G01 X51.428788 Y86.711790 Z-0.125000
G01 X51.963248 Y87.701860 Z-0.125000
G01 X52.331018 Y88.691940 Z-0.125000
G01 X52.532638 Y89.682010 Z-0.125000
G01 X52.568038 Y90.672080 Z-0.125000
G01 X52.436808 Y91.662150 Z-0.125000
G01 X52.139418 Y92.652220 Z-0.125000
G01 X51.675338 Y93.642290 Z-0.125000
G01 X51.045098 Y94.632620 Z-0.125000
G01 X50.248698 Y95.622700 Z-0.125000
G01 X49.324248 Y96.612770 Z-0.125000
G01 X48.732378 Y97.602840 Z-0.125000
G01 X48.252158 Y98.592910 Z-0.125000
G01 X47.883858 Y99.582980 Z-0.125000
G01 X47.627208 Y100.573050 Z-0.125000
G01 X47.482218 Y101.563120 Z-0.125000
G01 X47.448918 Y102.553190 Z-0.125000
G01 X47.527518 Y103.543530 Z-0.125000
G01 X47.717758 Y104.533600 Z-0.125000
G01 X48.019648 Y105.523670 Z-0.125000
G01 X48.433188 Y106.513740 Z-0.125000
G00 Z10.000000

(End cutting path id: path267561)


(Start cutting path id: path267559)
(Change tool to Default tool)

G00 Z10.000000
G00 X47.313058 Y106.513740

G00 Z4.875000 (Fast pre-penetrate)
G01 Z-0.125000 F100.0(Penetrate)
G01 X46.839978 Y105.523670 Z-0.125000 F800.000000
G01 X46.493908 Y104.533600 Z-0.125000
G01 X46.274828 Y103.543530 Z-0.125000
G01 X46.182728 Y102.553190 Z-0.125000
G01 X46.217628 Y101.563120 Z-0.125000
G01 X46.379558 Y100.573050 Z-0.125000
G01 X46.668478 Y99.582980 Z-0.125000
G01 X47.084138 Y98.592910 Z-0.125000
G01 X47.627068 Y97.602840 Z-0.125000
G01 X48.296728 Y96.612770 Z-0.125000
G01 X49.247898 Y95.622700 Z-0.125000
G01 X50.064668 Y94.632620 Z-0.125000
G01 X50.715018 Y93.642290 Z-0.125000
G01 X51.198938 Y92.652220 Z-0.125000
G01 X51.516438 Y91.662150 Z-0.125000
G01 X51.667778 Y90.672080 Z-0.125000
G01 X51.652478 Y89.682010 Z-0.125000
G01 X51.470968 Y88.691940 Z-0.125000
G01 X51.123048 Y87.701860 Z-0.125000
G01 X50.608958 Y86.711790 Z-0.125000
G01 X50.097518 Y85.721720 Z-0.125000
G01 X49.726048 Y84.731390 Z-0.125000
G01 X49.481568 Y83.741320 Z-0.125000
G01 X49.364098 Y82.751250 Z-0.125000
G01 X49.374098 Y81.761170 Z-0.125000
G01 X49.510358 Y80.771100 Z-0.125000
G01 X49.773888 Y79.781030 Z-0.125000
G01 X50.164408 Y78.790960 Z-0.125000
G01 X50.681668 Y77.800890 Z-0.125000
G01 X51.326198 Y76.810820 Z-0.125000
G01 X51.341298 Y75.820750 Z-0.125000
G01 X51.085178 Y74.830410 Z-0.125000
G01 X50.868218 Y73.840340 Z-0.125000
G01 X50.690688 Y72.850270 Z-0.125000
G01 X50.552308 Y71.860200 Z-0.125000
G01 X50.453608 Y70.870130 Z-0.125000
G01 X50.394108 Y69.880060 Z-0.125000
G01 X50.374008 Y68.889990 Z-0.125000
G01 X50.393308 Y67.899920 Z-0.125000
G01 X50.452008 Y66.909850 Z-0.125000
G01 X50.897838 Y65.919510 Z-0.125000
G01 X51.450288 Y64.929440 Z-0.125000
G01 X51.836308 Y63.939370 Z-0.125000
G01 X52.056178 Y62.949300 Z-0.125000
G01 X52.109378 Y61.959230 Z-0.125000
G01 X51.996408 Y60.969160 Z-0.125000
G01 X51.717008 Y59.979090 Z-0.125000
G01 X51.271178 Y58.989020 Z-0.125000
G01 X50.659198 Y57.998950 Z-0.125000
G01 X49.880528 Y57.008880 Z-0.125000
G01 X49.229388 Y56.018540 Z-0.125000
G01 X48.892308 Y55.028470 Z-0.125000
G01 X48.638838 Y54.038400 Z-0.125000
G01 X48.468188 Y53.048330 Z-0.125000
G01 X48.380888 Y52.058260 Z-0.125000
G01 X48.376888 Y51.068190 Z-0.125000
G01 X48.455988 Y50.078110 Z-0.125000
G01 X48.618178 Y49.088040 Z-0.125000
G01 X48.863448 Y48.097970 Z-0.125000
G01 X49.192058 Y47.107640 Z-0.125000
G01 X49.472258 Y46.117570 Z-0.125000
G01 X49.549258 Y45.127500 Z-0.125000
G01 X49.582558 Y44.137430 Z-0.125000
G01 X49.571958 Y43.147350 Z-0.125000
G01 X49.517758 Y42.157280 Z-0.125000
G01 X49.419558 Y41.167210 Z-0.125000
G01 X49.277478 Y40.177140 Z-0.125000
G01 X49.091748 Y39.187070 Z-0.125000
G01 X48.862348 Y38.196740 Z-0.125000
G01 X48.589038 Y37.206660 Z-0.125000
G01 X48.401448 Y36.216590 Z-0.125000
G01 X48.529238 Y35.226520 Z-0.125000
G01 X48.701218 Y34.236450 Z-0.125000
G01 X48.916858 Y33.246380 Z-0.125000
G01 X49.176148 Y32.256310 Z-0.125000
G01 X49.479358 Y31.266240 Z-0.125000
G01 X49.826488 Y30.276170 Z-0.125000
G01 X50.217278 Y29.286100 Z-0.125000
G01 X50.651728 Y28.295760 Z-0.125000
G01 X51.130098 Y27.305690 Z-0.125000
G01 X51.605818 Y26.315620 Z-0.125000
G01 X51.862988 Y25.325550 Z-0.125000
G01 X52.036818 Y24.335480 Z-0.125000
G01 X52.127618 Y23.345410 Z-0.125000
G01 X52.135618 Y22.355340 Z-0.125000
G01 X52.059918 Y21.365270 Z-0.125000
G01 X51.901168 Y20.375200 Z-0.125000
G01 X51.659338 Y19.384860 Z-0.125000
G01 X51.334168 Y18.394790 Z-0.125000
G01 X50.925908 Y17.404720 Z-0.125000
G01 X50.446488 Y16.414650 Z-0.125000
G01 X50.061778 Y15.424580 Z-0.125000
G01 X49.716498 Y14.434510 Z-0.125000
G01 X49.410638 Y13.444440 Z-0.125000
G01 X49.144208 Y12.454370 Z-0.125000
G01 X48.916928 Y11.464290 Z-0.125000
G01 X48.729078 Y10.473960 Z-0.125000
G01 X48.580908 Y9.483890 Z-0.125000
G01 X48.471898 Y8.493820 Z-0.125000
G01 X48.401998 Y7.503750 Z-0.125000
G01 X48.371798 Y6.513680 Z-0.125000
G00 Z10.000000

(End cutting path id: path267559)


(Start cutting path id: path267557)
(Change tool to Default tool)

G00 Z10.000000
G00 X47.637698 Y6.513680

G00 Z4.875000 (Fast pre-penetrate)
G01 Z-0.125000 F100.0(Penetrate)
G01 X47.700898 Y7.503750 Z-0.125000 F800.000000
G01 X47.788198 Y8.493820 Z-0.125000
G01 X47.899588 Y9.483890 Z-0.125000
G01 X48.035318 Y10.473960 Z-0.125000
G01 X48.194858 Y11.464290 Z-0.125000
G01 X48.378748 Y12.454370 Z-0.125000
G01 X48.586708 Y13.444440 Z-0.125000
G01 X48.818748 Y14.434510 Z-0.125000
G01 X49.074868 Y15.424580 Z-0.125000
G01 X49.355058 Y16.414650 Z-0.125000
G01 X49.806698 Y17.404720 Z-0.125000
G01 X50.196698 Y18.394790 Z-0.125000
G01 X50.503618 Y19.384860 Z-0.125000
G01 X50.727188 Y20.375200 Z-0.125000
G01 X50.867948 Y21.365270 Z-0.125000
G01 X50.925148 Y22.355340 Z-0.125000
G01 X50.899448 Y23.345410 Z-0.125000
G01 X50.790438 Y24.335480 Z-0.125000
G01 X50.598358 Y25.325550 Z-0.125000
G01 X50.322928 Y26.315620 Z-0.125000
G01 X49.830538 Y27.305690 Z-0.125000
G01 X49.349518 Y28.295760 Z-0.125000
G01 X48.927778 Y29.286100 Z-0.125000
G01 X48.565028 Y30.276170 Z-0.125000
G01 X48.261288 Y31.266240 Z-0.125000
G01 X48.016548 Y32.256310 Z-0.125000
G01 X47.831078 Y33.246380 Z-0.125000
G01 X47.704338 Y34.236450 Z-0.125000
G01 X47.637138 Y35.226520 Z-0.125000
G01 X47.629138 Y36.216590 Z-0.125000
G01 X47.892928 Y37.206660 Z-0.125000
G01 X48.206728 Y38.196740 Z-0.125000
G01 X48.461518 Y39.187070 Z-0.125000
G01 X48.657308 Y40.177140 Z-0.125000
G01 X48.794098 Y41.167210 Z-0.125000
G01 X48.871598 Y42.157280 Z-0.125000
G01 X48.890098 Y43.147350 Z-0.125000
G01 X48.849598 Y44.137430 Z-0.125000
G01 X48.750098 Y45.127500 Z-0.125000
G01 X48.591348 Y46.117570 Z-0.125000
G01 X48.274378 Y47.107640 Z-0.125000
G01 X47.945768 Y48.097970 Z-0.125000
G01 X47.700498 Y49.088040 Z-0.125000
G01 X47.538308 Y50.078110 Z-0.125000
G01 X47.459208 Y51.068190 Z-0.125000
G01 X47.463208 Y52.058260 Z-0.125000
G01 X47.550508 Y53.048330 Z-0.125000
G01 X47.720898 Y54.038400 Z-0.125000
G01 X47.974628 Y55.028470 Z-0.125000
G01 X48.311448 Y56.018540 Z-0.125000
G01 X48.953588 Y57.008880 Z-0.125000
G01 X49.714008 Y57.998950 Z-0.125000
G01 X50.307728 Y58.989020 Z-0.125000
G01 X50.735298 Y59.979090 Z-0.125000
G01 X50.996438 Y60.969160 Z-0.125000
G01 X51.091138 Y61.959230 Z-0.125000
G01 X51.019738 Y62.949300 Z-0.125000
G01 X50.781878 Y63.939370 Z-0.125000
G01 X50.377598 Y64.929440 Z-0.125000
G01 X49.806888 Y65.919510 Z-0.125000
G01 X49.372448 Y66.909850 Z-0.125000
G01 X49.358648 Y67.899920 Z-0.125000
G01 X49.369248 Y68.889990 Z-0.125000
G01 X49.403948 Y69.880060 Z-0.125000
G01 X49.462648 Y70.870130 Z-0.125000
G01 X49.545448 Y71.860200 Z-0.125000
G01 X49.652338 Y72.850270 Z-0.125000
G01 X49.783568 Y73.840340 Z-0.125000
G01 X49.938878 Y74.830410 Z-0.125000
G01 X50.117998 Y75.820750 Z-0.125000
G01 X50.022998 Y76.810820 Z-0.125000
G01 X49.331908 Y77.800890 Z-0.125000
G01 X48.783158 Y78.790960 Z-0.125000
G01 X48.376498 Y79.781030 Z-0.125000
G01 X48.112178 Y80.771100 Z-0.125000
G01 X47.990198 Y81.761170 Z-0.125000
G01 X48.010298 Y82.751250 Z-0.125000
G01 X48.172758 Y83.741320 Z-0.125000
G01 X48.477558 Y84.731390 Z-0.125000
G01 X48.924438 Y85.721720 Z-0.125000
G01 X49.514718 Y86.711790 Z-0.125000
G01 X50.065318 Y87.701860 Z-0.125000
G01 X50.449758 Y88.691940 Z-0.125000
G01 X50.667778 Y89.682010 Z-0.125000
G01 X50.719378 Y90.672080 Z-0.125000
G01 X50.604548 Y91.662150 Z-0.125000
G01 X50.323568 Y92.652220 Z-0.125000
G01 X49.876148 Y93.642290 Z-0.125000
G01 X49.262318 Y94.632620 Z-0.125000
G01 X48.482068 Y95.622700 Z-0.125000
G01 X47.557878 Y96.612770 Z-0.125000
G01 X46.838468 Y97.602840 Z-0.125000
G01 X46.261148 Y98.592910 Z-0.125000
G01 X45.826178 Y99.582980 Z-0.125000
G01 X45.533548 Y100.573050 Z-0.125000
G01 X45.382998 Y101.563120 Z-0.125000
G01 X45.374998 Y102.553190 Z-0.125000
G01 X45.509138 Y103.543530 Z-0.125000
G01 X45.785368 Y104.533600 Z-0.125000
G01 X46.203668 Y105.523670 Z-0.125000
G01 X46.764588 Y106.513740 Z-0.125000
G00 Z10.000000

(End cutting path id: path267557)


(Start cutting path id: path267555)
(Change tool to Default tool)

G00 Z10.000000
G00 X46.786798 Y106.513740

G00 Z4.875000 (Fast pre-penetrate)
G01 Z-0.125000 F100.0(Penetrate)
G01 X46.109998 Y105.523670 Z-0.125000 F800.000000
G01 X45.590878 Y104.533600 Z-0.125000
G01 X45.228928 Y103.543530 Z-0.125000
G01 X45.024938 Y102.553190 Z-0.125000
G01 X44.978138 Y101.563120 Z-0.125000
G01 X45.088998 Y100.573050 Z-0.125000
G01 X45.357288 Y99.582980 Z-0.125000
G01 X45.783268 Y98.592910 Z-0.125000
G01 X46.366668 Y97.602840 Z-0.125000
G01 X47.107498 Y96.612770 Z-0.125000
G01 X47.950728 Y95.622700 Z-0.125000
G01 X48.637848 Y94.632620 Z-0.125000
G01 X49.158818 Y93.642290 Z-0.125000
G01 X49.513098 Y92.652220 Z-0.125000
G01 X49.701218 Y91.662150 Z-0.125000
G01 X49.722618 Y90.672080 Z-0.125000
G01 X49.578148 Y89.682010 Z-0.125000
G01 X49.266998 Y88.691940 Z-0.125000
G01 X48.789698 Y87.701860 Z-0.125000
G01 X48.145698 Y86.711790 Z-0.125000
G01 X47.443228 Y85.721720 Z-0.125000
G01 X46.892368 Y84.731390 Z-0.125000
G01 X46.499198 Y83.741320 Z-0.125000
G01 X46.263448 Y82.751250 Z-0.125000
G01 X46.185448 Y81.761170 Z-0.125000
G01 X46.264548 Y80.771100 Z-0.125000
G01 X46.501618 Y79.781030 Z-0.125000
G01 X46.895848 Y78.790960 Z-0.125000
G01 X47.447768 Y77.800890 Z-0.125000
G01 X48.157118 Y76.810820 Z-0.125000
G01 X48.343378 Y75.820750 Z-0.125000
G01 X48.269578 Y74.830410 Z-0.125000
G01 X48.204278 Y73.840340 Z-0.125000
G01 X48.147878 Y72.850270 Z-0.125000
G01 X48.100478 Y71.860200 Z-0.125000
G01 X48.061878 Y70.870130 Z-0.125000
G01 X48.032278 Y69.880060 Z-0.125000
G01 X48.011078 Y68.889990 Z-0.125000
G01 X47.999178 Y67.899920 Z-0.125000
G01 X47.996178 Y66.909850 Z-0.125000
G01 X48.447548 Y65.919510 Z-0.125000
G01 X49.064558 Y64.929440 Z-0.125000
G01 X49.515408 Y63.939370 Z-0.125000
G01 X49.799838 Y62.949300 Z-0.125000
G01 X49.918108 Y61.959230 Z-0.125000
G01 X49.869708 Y60.969160 Z-0.125000
G01 X49.655128 Y59.979090 Z-0.125000
G01 X49.274128 Y58.989020 Z-0.125000
G01 X48.726708 Y57.998950 Z-0.125000
G01 X48.013128 Y57.008880 Z-0.125000
G01 X47.394268 Y56.018540 Z-0.125000
G01 X47.057448 Y55.028470 Z-0.125000
G01 X46.803718 Y54.038400 Z-0.125000
G01 X46.633058 Y53.048330 Z-0.125000
G01 X46.545758 Y52.058260 Z-0.125000
G01 X46.541758 Y51.068190 Z-0.125000
G01 X46.620858 Y50.078110 Z-0.125000
G01 X46.783048 Y49.088040 Z-0.125000
G01 X47.028578 Y48.097970 Z-0.125000
G01 X47.356928 Y47.107640 Z-0.125000
G01 X47.722318 Y46.117570 Z-0.125000
G01 X47.990868 Y45.127500 Z-0.125000
G01 X48.185068 Y44.137430 Z-0.125000
G01 X48.304928 Y43.147350 Z-0.125000
G01 X48.350428 Y42.157280 Z-0.125000
G01 X48.321628 Y41.167210 Z-0.125000
G01 X48.218438 Y40.177140 Z-0.125000
G01 X48.041168 Y39.187070 Z-0.125000
G01 X47.789288 Y38.196740 Z-0.125000
G01 X47.463058 Y37.206660 Z-0.125000
G01 X47.117248 Y36.216590 Z-0.125000
G01 X46.921188 Y35.226520 Z-0.125000
G01 X46.799478 Y34.236450 Z-0.125000
G01 X46.752078 Y33.246380 Z-0.125000
G01 X46.779078 Y32.256310 Z-0.125000
G01 X46.880408 Y31.266240 Z-0.125000
G01 X47.055828 Y30.276170 Z-0.125000
G01 X47.305858 Y29.286100 Z-0.125000
G01 X47.629978 Y28.295760 Z-0.125000
G01 X48.028698 Y27.305690 Z-0.125000
G01 X48.475318 Y26.315620 Z-0.125000
G01 X48.797318 Y25.325550 Z-0.125000
G01 X49.035968 Y24.335480 Z-0.125000
G01 X49.191548 Y23.345410 Z-0.125000
G01 X49.263748 Y22.355340 Z-0.125000
G01 X49.252848 Y21.365270 Z-0.125000
G01 X49.158948 Y20.375200 Z-0.125000
G01 X48.981678 Y19.384860 Z-0.125000
G01 X48.721328 Y18.394790 Z-0.125000
G01 X48.377898 Y17.404720 Z-0.125000
G01 X47.984998 Y16.414650 Z-0.125000
G01 X47.865668 Y15.424580 Z-0.125000
G01 X47.755338 Y14.434510 Z-0.125000
G01 X47.653738 Y13.444440 Z-0.125000
G01 X47.561138 Y12.454370 Z-0.125000
G01 X47.477238 Y11.464290 Z-0.125000
G01 X47.402138 Y10.473960 Z-0.125000
G01 X47.336038 Y9.483890 Z-0.125000
G01 X47.278638 Y8.493820 Z-0.125000
G01 X47.230238 Y7.503750 Z-0.125000
G01 X47.190538 Y6.513680 Z-0.125000
G00 Z10.000000

(End cutting path id: path267555)


(Start cutting path id: path267553)
(Change tool to Default tool)

G00 Z10.000000
G00 X46.374308 Y6.513680

G00 Z4.875000 (Fast pre-penetrate)
G01 Z-0.125000 F100.0(Penetrate)
G01 X46.433608 Y7.503750 Z-0.125000 F800.000000
G01 X46.486208 Y8.493820 Z-0.125000
G01 X46.532208 Y9.483890 Z-0.125000
G01 X46.572208 Y10.473960 Z-0.125000
G01 X46.605508 Y11.464290 Z-0.125000
G01 X46.632508 Y12.454370 Z-0.125000
G01 X46.653108 Y13.444440 Z-0.125000
G01 X46.667108 Y14.434510 Z-0.125000
G01 X46.675108 Y15.424580 Z-0.125000
G01 X46.676108 Y16.414650 Z-0.125000
G01 X46.967148 Y17.404720 Z-0.125000
G01 X47.223798 Y18.394790 Z-0.125000
G01 X47.410328 Y19.384860 Z-0.125000
G01 X47.526478 Y20.375200 Z-0.125000
G01 X47.572278 Y21.365270 Z-0.125000
G01 X47.547678 Y22.355340 Z-0.125000
G01 X47.452678 Y23.345410 Z-0.125000
G01 X47.287318 Y24.335480 Z-0.125000
G01 X47.051568 Y25.325550 Z-0.125000
G01 X46.745448 Y26.315620 Z-0.125000
G01 X46.414188 Y27.305690 Z-0.125000
G01 X46.150138 Y28.295760 Z-0.125000
G01 X45.956728 Y29.286100 Z-0.125000
G01 X45.833698 Y30.276170 Z-0.125000
G01 X45.780798 Y31.266240 Z-0.125000
G01 X45.798498 Y32.256310 Z-0.125000
G01 X45.886298 Y33.246380 Z-0.125000
G01 X46.044778 Y34.236450 Z-0.125000
G01 X46.273378 Y35.226520 Z-0.125000
G01 X46.572358 Y36.216590 Z-0.125000
G01 X46.886418 Y37.206660 Z-0.125000
G01 X47.122428 Y38.196740 Z-0.125000
G01 X47.281448 Y39.187070 Z-0.125000
G01 X47.363748 Y40.177140 Z-0.125000
G01 X47.369748 Y41.167210 Z-0.125000
G01 X47.298348 Y42.157280 Z-0.125000
G01 X47.150448 Y43.147350 Z-0.125000
G01 X46.925548 Y44.137430 Z-0.125000
G01 X46.623928 Y45.127500 Z-0.125000
G01 X46.245568 Y46.117570 Z-0.125000
G01 X45.889438 Y47.107640 Z-0.125000
G01 X45.650518 Y48.097970 Z-0.125000
G01 X45.494678 Y49.088040 Z-0.125000
G01 X45.422178 Y50.078110 Z-0.125000
G01 X45.432778 Y51.068190 Z-0.125000
G01 X45.526678 Y52.058260 Z-0.125000
G01 X45.703688 Y53.048330 Z-0.125000
G01 X45.963768 Y54.038400 Z-0.125000
G01 X46.307198 Y55.028470 Z-0.125000
G01 X46.733708 Y56.018540 Z-0.125000
G01 X47.331928 Y57.008880 Z-0.125000
G01 X47.920098 Y57.998950 Z-0.125000
G01 X48.348198 Y58.989020 Z-0.125000
G01 X48.616218 Y59.979090 Z-0.125000
G01 X48.724428 Y60.969160 Z-0.125000
G01 X48.672828 Y61.959230 Z-0.125000
G01 X48.461158 Y62.949300 Z-0.125000
G01 X48.089418 Y63.939370 Z-0.125000
G01 X47.557878 Y64.929440 Z-0.125000
G01 X46.866248 Y65.919510 Z-0.125000
G01 X46.361688 Y66.909850 Z-0.125000
G01 X46.338188 Y67.899920 Z-0.125000
G01 X46.327888 Y68.889990 Z-0.125000
G01 X46.329888 Y69.880060 Z-0.125000
G01 X46.345188 Y70.870130 Z-0.125000
G01 X46.372988 Y71.860200 Z-0.125000
G01 X46.413788 Y72.850270 Z-0.125000
G01 X46.467488 Y73.840340 Z-0.125000
G01 X46.533888 Y74.830410 Z-0.125000
G01 X46.612988 Y75.820750 Z-0.125000
G01 X46.450528 Y76.810820 Z-0.125000
G01 X45.798068 Y77.800890 Z-0.125000
G01 X45.299068 Y78.790960 Z-0.125000
G01 X44.953518 Y79.781030 Z-0.125000
G01 X44.761428 Y80.771100 Z-0.125000
G01 X44.723028 Y81.761170 Z-0.125000
G01 X44.838388 Y82.751250 Z-0.125000
G01 X45.106938 Y83.741320 Z-0.125000
G01 X45.529218 Y84.731390 Z-0.125000
G01 X46.104948 Y85.721720 Z-0.125000
G01 X46.840488 Y86.711790 Z-0.125000
G01 X47.566238 Y87.701860 Z-0.125000
G01 X48.131918 Y88.691940 Z-0.125000
G01 X48.537528 Y89.682010 Z-0.125000
G01 X48.783328 Y90.672080 Z-0.125000
G01 X48.869328 Y91.662150 Z-0.125000
G01 X48.795228 Y92.652220 Z-0.125000
G01 X48.561078 Y93.642290 Z-0.125000
G01 X48.167108 Y94.632620 Z-0.125000
G01 X47.613338 Y95.622700 Z-0.125000
G01 X46.904248 Y96.612770 Z-0.125000
G01 X46.249678 Y97.602840 Z-0.125000
G01 X45.741938 Y98.592910 Z-0.125000
G01 X45.381578 Y99.582980 Z-0.125000
G01 X45.168318 Y100.573050 Z-0.125000
G01 X45.101918 Y101.563120 Z-0.125000
G01 X45.182918 Y102.553190 Z-0.125000
G01 X45.410988 Y103.543530 Z-0.125000
G01 X45.786168 Y104.533600 Z-0.125000
G01 X46.308448 Y105.523670 Z-0.125000
G01 X46.977848 Y106.513740 Z-0.125000
G00 Z10.000000

(End cutting path id: path267553)


(Start cutting path id: path267551)
(Change tool to Default tool)

G00 Z10.000000
G00 X46.576188 Y106.513740

G00 Z4.875000 (Fast pre-penetrate)
G01 Z-0.125000 F100.0(Penetrate)
G01 X46.115018 Y105.523670 Z-0.125000 F800.000000
G01 X45.755188 Y104.533600 Z-0.125000
G01 X45.496958 Y103.543530 Z-0.125000
G01 X45.339788 Y102.553190 Z-0.125000
G01 X45.283988 Y101.563120 Z-0.125000
G01 X45.329788 Y100.573050 Z-0.125000
G01 X45.476628 Y99.582980 Z-0.125000
G01 X45.724808 Y98.592910 Z-0.125000
G01 X46.074588 Y97.602840 Z-0.125000
G01 X46.525438 Y96.612770 Z-0.125000
G01 X47.102498 Y95.622700 Z-0.125000
G01 X47.549638 Y94.632620 Z-0.125000
G01 X47.852058 Y93.642290 Z-0.125000
G01 X48.009748 Y92.652220 Z-0.125000
G01 X48.022948 Y91.662150 Z-0.125000
G01 X47.891458 Y90.672080 Z-0.125000
G01 X47.615228 Y89.682010 Z-0.125000
G01 X47.194278 Y88.691940 Z-0.125000
G01 X46.628598 Y87.701860 Z-0.125000
G01 X45.918188 Y86.711790 Z-0.125000
G01 X45.301178 Y85.721720 Z-0.125000
G01 X44.839748 Y84.731390 Z-0.125000
G01 X44.501608 Y83.741320 Z-0.125000
G01 X44.286238 Y82.751250 Z-0.125000
G01 X44.193938 Y81.761170 Z-0.125000
G01 X44.224938 Y80.771100 Z-0.125000
G01 X44.378658 Y79.781030 Z-0.125000
G01 X44.655418 Y78.790960 Z-0.125000
G01 X45.055198 Y77.800890 Z-0.125000
G01 X45.578018 Y76.810820 Z-0.125000
G01 X45.559518 Y75.820750 Z-0.125000
G01 X45.311868 Y74.830410 Z-0.125000
G01 X45.107338 Y73.840340 Z-0.125000
G01 X44.946208 Y72.850270 Z-0.125000
G01 X44.828468 Y71.860200 Z-0.125000
G01 X44.754168 Y70.870130 Z-0.125000
G01 X44.722968 Y69.880060 Z-0.125000
G01 X44.735168 Y68.889990 Z-0.125000
G01 X44.790968 Y67.899920 Z-0.125000
G01 X44.889968 Y66.909850 Z-0.125000
G01 X45.451148 Y65.919510 Z-0.125000
G01 X46.184308 Y64.929440 Z-0.125000
G01 X46.773008 Y63.939370 Z-0.125000
G01 X47.217238 Y62.949300 Z-0.125000
G01 X47.516488 Y61.959230 Z-0.125000
G01 X47.670998 Y60.969160 Z-0.125000
G01 X47.681098 Y59.979090 Z-0.125000
G01 X47.546418 Y58.989020 Z-0.125000
G01 X47.266758 Y57.998950 Z-0.125000
G01 X46.842628 Y57.008880 Z-0.125000
G01 X46.255518 Y56.018540 Z-0.125000
G01 X45.675818 Y55.028470 Z-0.125000
G01 X45.179198 Y54.038400 Z-0.125000
G01 X44.765918 Y53.048330 Z-0.125000
G01 X44.435718 Y52.058260 Z-0.125000
G01 X44.188858 Y51.068190 Z-0.125000
G01 X44.025078 Y50.078110 Z-0.125000
G01 X43.944378 Y49.088040 Z-0.125000
G01 X43.947378 Y48.097970 Z-0.125000
G01 X44.033078 Y47.107640 Z-0.125000
G01 X44.308508 Y46.117570 Z-0.125000
G01 X44.725758 Y45.127500 Z-0.125000
G01 X45.081358 Y44.137430 Z-0.125000
G01 X45.375308 Y43.147350 Z-0.125000
G01 X45.608138 Y42.157280 Z-0.125000
G01 X45.779058 Y41.167210 Z-0.125000
G01 X45.888598 Y40.177140 Z-0.125000
G01 X45.936798 Y39.187070 Z-0.125000
G01 X45.923298 Y38.196740 Z-0.125000
G01 X45.848398 Y37.206660 Z-0.125000
G01 X45.700768 Y36.216590 Z-0.125000
G01 X45.531428 Y35.226520 Z-0.125000
G01 X45.402048 Y34.236450 Z-0.125000
G01 X45.312348 Y33.246380 Z-0.125000
G01 X45.262648 Y32.256310 Z-0.125000
G01 X45.252548 Y31.266240 Z-0.125000
G01 X45.282448 Y30.276170 Z-0.125000
G01 X45.352348 Y29.286100 Z-0.125000
G01 X45.461888 Y28.295760 Z-0.125000
G01 X45.611108 Y27.305690 Z-0.125000
G01 X45.798968 Y26.315620 Z-0.125000
G01 X45.971998 Y25.325550 Z-0.125000
G01 X46.105618 Y24.335480 Z-0.125000
G01 X46.199318 Y23.345410 Z-0.125000
G01 X46.253018 Y22.355340 Z-0.125000
G01 X46.267018 Y21.365270 Z-0.125000
G01 X46.241118 Y20.375200 Z-0.125000
G01 X46.175218 Y19.384860 Z-0.125000
G01 X46.069658 Y18.394790 Z-0.125000
G01 X45.924398 Y17.404720 Z-0.125000
G01 X45.762208 Y16.414650 Z-0.125000
G01 X45.777508 Y15.424580 Z-0.125000
G01 X45.771508 Y14.434510 Z-0.125000
G01 X45.743708 Y13.444440 Z-0.125000
G01 X45.694208 Y12.454370 Z-0.125000
G01 X45.623008 Y11.464290 Z-0.125000
G01 X45.530108 Y10.473960 Z-0.125000
G01 X45.415548 Y9.483890 Z-0.125000
G01 X45.279278 Y8.493820 Z-0.125000
G01 X45.121588 Y7.503750 Z-0.125000
G01 X44.941938 Y6.513680 Z-0.125000
G00 Z10.000000

(End cutting path id: path267551)


(Start cutting path id: path267549)
(Change tool to Default tool)

G00 Z10.000000
G00 X43.793828 Y6.513680

G00 Z4.875000 (Fast pre-penetrate)
G01 Z-0.125000 F100.0(Penetrate)
G01 X44.065818 Y7.503750 Z-0.125000 F800.000000
G01 X44.300508 Y8.493820 Z-0.125000
G01 X44.498418 Y9.483890 Z-0.125000
G01 X44.659288 Y10.473960 Z-0.125000
G01 X44.783368 Y11.464290 Z-0.125000
G01 X44.870368 Y12.454370 Z-0.125000
G01 X44.920668 Y13.444440 Z-0.125000
G01 X44.933868 Y14.434510 Z-0.125000
G01 X44.910068 Y15.424580 Z-0.125000
G01 X44.849468 Y16.414650 Z-0.125000
G01 X44.879868 Y17.404720 Z-0.125000
G01 X44.913768 Y18.394790 Z-0.125000
G01 X44.938368 Y19.384860 Z-0.125000
G01 X44.953668 Y20.375200 Z-0.125000
G01 X44.959668 Y21.365270 Z-0.125000
G01 X44.956668 Y22.355340 Z-0.125000
G01 X44.944268 Y23.345410 Z-0.125000
G01 X44.922268 Y24.335480 Z-0.125000
G01 X44.891068 Y25.325550 Z-0.125000
G01 X44.850568 Y26.315620 Z-0.125000
G01 X44.806668 Y27.305690 Z-0.125000
G01 X44.771768 Y28.295760 Z-0.125000
G01 X44.746068 Y29.286100 Z-0.125000
G01 X44.729968 Y30.276170 Z-0.125000
G01 X44.722968 Y31.266240 Z-0.125000
G01 X44.724968 Y32.256310 Z-0.125000
G01 X44.736568 Y33.246380 Z-0.125000
G01 X44.757468 Y34.236450 Z-0.125000
G01 X44.787868 Y35.226520 Z-0.125000
G01 X44.827268 Y36.216590 Z-0.125000
G01 X44.847868 Y37.206660 Z-0.125000
G01 X44.818468 Y38.196740 Z-0.125000
G01 X44.743068 Y39.187070 Z-0.125000
G01 X44.621098 Y40.177140 Z-0.125000
G01 X44.453088 Y41.167210 Z-0.125000
G01 X44.238778 Y42.157280 Z-0.125000
G01 X43.978158 Y43.147350 Z-0.125000
G01 X43.671248 Y44.137430 Z-0.125000
G01 X43.318288 Y45.127500 Z-0.125000
G01 X42.918768 Y46.117570 Z-0.125000
G01 X42.695728 Y47.107640 Z-0.125000
G01 X42.678228 Y48.097970 Z-0.125000
G01 X42.744128 Y49.088040 Z-0.125000
G01 X42.892818 Y50.078110 Z-0.125000
G01 X43.125128 Y51.068190 Z-0.125000
G01 X43.440238 Y52.058260 Z-0.125000
G01 X43.838708 Y53.048330 Z-0.125000
G01 X44.320248 Y54.038400 Z-0.125000
G01 X44.885128 Y55.028470 Z-0.125000
G01 X45.533098 Y56.018540 Z-0.125000
G01 X46.095338 Y57.008880 Z-0.125000
G01 X46.412038 Y57.998950 Z-0.125000
G01 X46.599368 Y58.989020 Z-0.125000
G01 X46.657268 Y59.979090 Z-0.125000
G01 X46.585868 Y60.969160 Z-0.125000
G01 X46.384778 Y61.959230 Z-0.125000
G01 X46.054578 Y62.949300 Z-0.125000
G01 X45.594738 Y63.939370 Z-0.125000
G01 X45.005508 Y64.929440 Z-0.125000
G01 X44.286898 Y65.919510 Z-0.125000
G01 X43.691848 Y66.909850 Z-0.125000
G01 X43.488918 Y67.899920 Z-0.125000
G01 X43.359798 Y68.889990 Z-0.125000
G01 X43.304798 Y69.880060 Z-0.125000
G01 X43.323598 Y70.870130 Z-0.125000
G01 X43.416198 Y71.860200 Z-0.125000
G01 X43.582618 Y72.850270 Z-0.125000
G01 X43.823128 Y73.840340 Z-0.125000
G01 X44.137188 Y74.830410 Z-0.125000
G01 X44.525328 Y75.820750 Z-0.125000
G01 X44.704978 Y76.810820 Z-0.125000
G01 X44.311808 Y77.800890 Z-0.125000
G01 X44.011248 Y78.790960 Z-0.125000
G01 X43.803278 Y79.781030 Z-0.125000
G01 X43.687658 Y80.771100 Z-0.125000
G01 X43.664358 Y81.761170 Z-0.125000
G01 X43.733958 Y82.751250 Z-0.125000
G01 X43.895618 Y83.741320 Z-0.125000
G01 X44.150148 Y84.731390 Z-0.125000
G01 X44.497018 Y85.721720 Z-0.125000
G01 X44.989938 Y86.711790 Z-0.125000
G01 X45.656688 Y87.701860 Z-0.125000
G01 X46.193788 Y88.691940 Z-0.125000
G01 X46.601778 Y89.682010 Z-0.125000
G01 X46.880118 Y90.672080 Z-0.125000
G01 X47.029078 Y91.662150 Z-0.125000
G01 X47.048678 Y92.652220 Z-0.125000
G01 X46.938878 Y93.642290 Z-0.125000
G01 X46.699698 Y94.632620 Z-0.125000
G01 X46.330868 Y95.622700 Z-0.125000
G01 X45.860698 Y96.612770 Z-0.125000
G01 X45.613318 Y97.602840 Z-0.125000
G01 X45.421758 Y98.592910 Z-0.125000
G01 X45.285498 Y99.582980 Z-0.125000
G01 X45.205098 Y100.573050 Z-0.125000
G01 X45.179998 Y101.563120 Z-0.125000
G01 X45.210698 Y102.553190 Z-0.125000
G01 X45.296698 Y103.543530 Z-0.125000
G01 X45.438518 Y104.533600 Z-0.125000
G01 X45.635628 Y105.523670 Z-0.125000
G01 X45.888568 Y106.513740 Z-0.125000
G00 Z10.000000

(End cutting path id: path267549)


(Start cutting path id: path267547)
(Change tool to Default tool)

G00 Z10.000000
G00 X44.915668 Y106.513740

G00 Z4.875000 (Fast pre-penetrate)
G01 Z-0.125000 F100.0(Penetrate)
G01 X44.871268 Y105.523670 Z-0.125000 F800.000000
G01 X44.836568 Y104.533600 Z-0.125000
G01 X44.811468 Y103.543530 Z-0.125000
G01 X44.796368 Y102.553190 Z-0.125000
G01 X44.791368 Y101.563120 Z-0.125000
G01 X44.795368 Y100.573050 Z-0.125000
G01 X44.809668 Y99.582980 Z-0.125000
G01 X44.833468 Y98.592910 Z-0.125000
G01 X44.867368 Y97.602840 Z-0.125000
G01 X44.910768 Y96.612770 Z-0.125000
G01 X45.299968 Y95.622700 Z-0.125000
G01 X45.618528 Y94.632620 Z-0.125000
G01 X45.822788 Y93.642290 Z-0.125000
G01 X45.912988 Y92.652220 Z-0.125000
G01 X45.888888 Y91.662150 Z-0.125000
G01 X45.750778 Y90.672080 Z-0.125000
G01 X45.498628 Y89.682010 Z-0.125000
G01 X45.132188 Y88.691940 Z-0.125000
G01 X44.651438 Y87.701860 Z-0.125000
G01 X44.056648 Y86.711790 Z-0.125000
G01 X43.693378 Y85.721720 Z-0.125000
G01 X43.461078 Y84.731390 Z-0.125000
G01 X43.290688 Y83.741320 Z-0.125000
G01 X43.182208 Y82.751250 Z-0.125000
G01 X43.135608 Y81.761170 Z-0.125000
G01 X43.151208 Y80.771100 Z-0.125000
G01 X43.228708 Y79.781030 Z-0.125000
G01 X43.368148 Y78.790960 Z-0.125000
G01 X43.569498 Y77.800890 Z-0.125000
G01 X43.832758 Y76.810820 Z-0.125000
G01 X43.511818 Y75.820750 Z-0.125000
G01 X43.011488 Y74.830410 Z-0.125000
G01 X42.615938 Y73.840340 Z-0.125000
G01 X42.324628 Y72.850270 Z-0.125000
G01 X42.137568 Y71.860200 Z-0.125000
G01 X42.055068 Y70.870130 Z-0.125000
G01 X42.077068 Y69.880060 Z-0.125000
G01 X42.203278 Y68.889990 Z-0.125000
G01 X42.433998 Y67.899920 Z-0.125000
G01 X42.768958 Y66.909850 Z-0.125000
G01 X43.375648 Y65.919510 Z-0.125000
G01 X44.022818 Y64.929440 Z-0.125000
G01 X44.555948 Y63.939370 Z-0.125000
G01 X44.975048 Y62.949300 Z-0.125000
G01 X45.279848 Y61.959230 Z-0.125000
G01 X45.470348 Y60.969160 Z-0.125000
G01 X45.547048 Y59.979090 Z-0.125000
G01 X45.509248 Y58.989020 Z-0.125000
G01 X45.357378 Y57.998950 Z-0.125000
G01 X45.091468 Y57.008880 Z-0.125000
G01 X44.568648 Y56.018540 Z-0.125000
G01 X43.937358 Y55.028470 Z-0.125000
G01 X43.389138 Y54.038400 Z-0.125000
G01 X42.923998 Y53.048330 Z-0.125000
G01 X42.542208 Y52.058260 Z-0.125000
G01 X42.243498 Y51.068190 Z-0.125000
G01 X42.027858 Y50.078110 Z-0.125000
G01 X41.895568 Y49.088040 Z-0.125000
G01 X41.846368 Y48.097970 Z-0.125000
G01 X41.880268 Y47.107640 Z-0.125000
G01 X42.079498 Y46.117570 Z-0.125000
G01 X42.404408 Y45.127500 Z-0.125000
G01 X42.698358 Y44.137430 Z-0.125000
G01 X42.961358 Y43.147350 Z-0.125000
G01 X43.193398 Y42.157280 Z-0.125000
G01 X43.394218 Y41.167210 Z-0.125000
G01 X43.564338 Y40.177140 Z-0.125000
G01 X43.703248 Y39.187070 Z-0.125000
G01 X43.811468 Y38.196740 Z-0.125000
G01 X43.888468 Y37.206660 Z-0.125000
G01 X43.955168 Y36.216590 Z-0.125000
G01 X44.045368 Y35.226520 Z-0.125000
G01 X44.114368 Y34.236450 Z-0.125000
G01 X44.161968 Y33.246380 Z-0.125000
G01 X44.188468 Y32.256310 Z-0.125000
G01 X44.193468 Y31.266240 Z-0.125000
G01 X44.177568 Y30.276170 Z-0.125000
G01 X44.140568 Y29.286100 Z-0.125000
G01 X44.082368 Y28.295760 Z-0.125000
G01 X44.002768 Y27.305690 Z-0.125000
G01 X43.902758 Y26.315620 Z-0.125000
G01 X43.810458 Y25.325550 Z-0.125000
G01 X43.739558 Y24.335480 Z-0.125000
G01 X43.689558 Y23.345410 Z-0.125000
G01 X43.660958 Y22.355340 Z-0.125000
G01 X43.653958 Y21.365270 Z-0.125000
G01 X43.667758 Y20.375200 Z-0.125000
G01 X43.702658 Y19.384860 Z-0.125000
G01 X43.758958 Y18.394790 Z-0.125000
G01 X43.836458 Y17.404720 Z-0.125000
G01 X43.940438 Y16.414650 Z-0.125000
G01 X44.074578 Y15.424580 Z-0.125000
G01 X44.156378 Y14.434510 Z-0.125000
G01 X44.186278 Y13.444440 Z-0.125000
G01 X44.163778 Y12.454370 Z-0.125000
G01 X44.088878 Y11.464290 Z-0.125000
G01 X43.962138 Y10.473960 Z-0.125000
G01 X43.783018 Y9.483890 Z-0.125000
G01 X43.551768 Y8.493820 Z-0.125000
G01 X43.268138 Y7.503750 Z-0.125000
G01 X42.932648 Y6.513680 Z-0.125000
G00 Z10.000000

(End cutting path id: path267547)


(Start cutting path id: path267545)
(Change tool to Default tool)

G00 Z10.000000
G00 X42.356088 Y6.513680

G00 Z4.875000 (Fast pre-penetrate)
G01 Z-0.125000 F100.0(Penetrate)
G01 X42.727558 Y7.503750 Z-0.125000 F800.000000
G01 X43.031298 Y8.493820 Z-0.125000
G01 X43.267838 Y9.483890 Z-0.125000
G01 X43.436648 Y10.473960 Z-0.125000
G01 X43.538248 Y11.464290 Z-0.125000
G01 X43.572348 Y12.454370 Z-0.125000
G01 X43.538748 Y13.444440 Z-0.125000
G01 X43.437948 Y14.434510 Z-0.125000
G01 X43.269408 Y15.424580 Z-0.125000
G01 X43.033668 Y16.414650 Z-0.125000
G01 X42.792368 Y17.404720 Z-0.125000
G01 X42.603448 Y18.394790 Z-0.125000
G01 X42.466398 Y19.384860 Z-0.125000
G01 X42.380898 Y20.375200 Z-0.125000
G01 X42.347298 Y21.365270 Z-0.125000
G01 X42.365298 Y22.355340 Z-0.125000
G01 X42.435198 Y23.345410 Z-0.125000
G01 X42.556908 Y24.335480 Z-0.125000
G01 X42.730208 Y25.325550 Z-0.125000
G01 X42.955098 Y26.315620 Z-0.125000
G01 X43.199048 Y27.305690 Z-0.125000
G01 X43.392988 Y28.295760 Z-0.125000
G01 X43.535338 Y29.286100 Z-0.125000
G01 X43.625838 Y30.276170 Z-0.125000
G01 X43.664738 Y31.266240 Z-0.125000
G01 X43.651738 Y32.256310 Z-0.125000
G01 X43.586938 Y33.246380 Z-0.125000
G01 X43.470518 Y34.236450 Z-0.125000
G01 X43.302508 Y35.226520 Z-0.125000
G01 X43.082638 Y36.216590 Z-0.125000
G01 X42.968078 Y37.206660 Z-0.125000
G01 X42.899778 Y38.196740 Z-0.125000
G01 X42.815878 Y39.187070 Z-0.125000
G01 X42.716178 Y40.177140 Z-0.125000
G01 X42.600818 Y41.167210 Z-0.125000
G01 X42.469578 Y42.157280 Z-0.125000
G01 X42.322738 Y43.147350 Z-0.125000
G01 X42.160288 Y44.137430 Z-0.125000
G01 X41.981958 Y45.127500 Z-0.125000
G01 X41.788018 Y46.117570 Z-0.125000
G01 X41.584818 Y47.107640 Z-0.125000
G01 X41.449348 Y48.097970 Z-0.125000
G01 X41.396948 Y49.088040 Z-0.125000
G01 X41.427948 Y50.078110 Z-0.125000
G01 X41.542248 Y51.068190 Z-0.125000
G01 X41.739358 Y52.058260 Z-0.125000
G01 X42.020088 Y53.048330 Z-0.125000
G01 X42.383618 Y54.038400 Z-0.125000
G01 X42.830508 Y55.028470 Z-0.125000
G01 X43.360468 Y56.018540 Z-0.125000
G01 X43.829838 Y57.008880 Z-0.125000
G01 X44.101558 Y57.998950 Z-0.125000
G01 X44.274338 Y58.989020 Z-0.125000
G01 X44.348438 Y59.979090 Z-0.125000
G01 X44.323538 Y60.969160 Z-0.125000
G01 X44.199708 Y61.959230 Z-0.125000
G01 X43.976928 Y62.949300 Z-0.125000
G01 X43.655198 Y63.939370 Z-0.125000
G01 X43.234778 Y64.929440 Z-0.125000
G01 X42.715398 Y65.919510 Z-0.125000
G01 X42.120088 Y66.909850 Z-0.125000
G01 X41.624518 Y67.899920 Z-0.125000
G01 X41.264158 Y68.889990 Z-0.125000
G01 X41.038468 Y69.880060 Z-0.125000
G01 X40.947468 Y70.870130 Z-0.125000
G01 X40.991668 Y71.860200 Z-0.125000
G01 X41.170788 Y72.850270 Z-0.125000
G01 X41.484848 Y73.840340 Z-0.125000
G01 X41.933588 Y74.830410 Z-0.125000
G01 X42.517518 Y75.820750 Z-0.125000
G01 X42.960168 Y76.810820 Z-0.125000
G01 X42.826558 Y77.800890 Z-0.125000
G01 X42.724428 Y78.790960 Z-0.125000
G01 X42.653728 Y79.781030 Z-0.125000
G01 X42.614328 Y80.771100 Z-0.125000
G01 X42.606328 Y81.761170 Z-0.125000
G01 X42.629928 Y82.751250 Z-0.125000
G01 X42.684928 Y83.741320 Z-0.125000
G01 X42.771128 Y84.731390 Z-0.125000
G01 X42.889138 Y85.721720 Z-0.125000
G01 X43.116938 Y86.711790 Z-0.125000
G01 X43.611448 Y87.701860 Z-0.125000
G01 X44.007268 Y88.691940 Z-0.125000
G01 X44.304128 Y89.682010 Z-0.125000
G01 X44.502038 Y90.672080 Z-0.125000
G01 X44.601038 Y91.662150 Z-0.125000
G01 X44.601038 Y92.652220 Z-0.125000
G01 X44.502338 Y93.642290 Z-0.125000
G01 X44.304428 Y94.632620 Z-0.125000
G01 X44.007838 Y95.622700 Z-0.125000
G01 X43.674458 Y96.612770 Z-0.125000
G01 X43.834798 Y97.602840 Z-0.125000
G01 X43.958888 Y98.592910 Z-0.125000
G01 X44.047288 Y99.582980 Z-0.125000
G01 X44.099388 Y100.573050 Z-0.125000
G01 X44.115788 Y101.563120 Z-0.125000
G01 X44.095888 Y102.553190 Z-0.125000
G01 X44.040088 Y103.543530 Z-0.125000
G01 X43.948288 Y104.533600 Z-0.125000
G01 X43.820238 Y105.523670 Z-0.125000
G01 X43.656458 Y106.513740 Z-0.125000
G00 Z10.000000

(End cutting path id: path267545)


(Start cutting path id: path267543)
(Change tool to Default tool)

G00 Z10.000000
G00 X42.112138 Y106.513740

G00 Z4.875000 (Fast pre-penetrate)
G01 Z-0.125000 F100.0(Penetrate)
G01 X42.484408 Y105.523670 Z-0.125000 F800.000000
G01 X42.774918 Y104.533600 Z-0.125000
G01 X42.983408 Y103.543530 Z-0.125000
G01 X43.110408 Y102.553190 Z-0.125000
G01 X43.155408 Y101.563120 Z-0.125000
G01 X43.118408 Y100.573050 Z-0.125000
G01 X42.999878 Y99.582980 Z-0.125000
G01 X42.799588 Y98.592910 Z-0.125000
G01 X42.517278 Y97.602840 Z-0.125000
G01 X42.153208 Y96.612770 Z-0.125000
G01 X42.456418 Y95.622700 Z-0.125000
G01 X42.759368 Y94.632620 Z-0.125000
G01 X42.978708 Y93.642290 Z-0.125000
G01 X43.114438 Y92.652220 Z-0.125000
G01 X43.166538 Y91.662150 Z-0.125000
G01 X43.135038 Y90.672080 Z-0.125000
G01 X43.019678 Y89.682010 Z-0.125000
G01 X42.820978 Y88.691940 Z-0.125000
G01 X42.538408 Y87.701860 Z-0.125000
G01 X42.172218 Y86.711790 Z-0.125000
G01 X42.085718 Y85.721720 Z-0.125000
G01 X42.082718 Y84.731390 Z-0.125000
G01 X42.079718 Y83.741320 Z-0.125000
G01 X42.077718 Y82.751250 Z-0.125000
G01 X42.077188 Y81.761170 Z-0.125000
G01 X42.077188 Y80.771100 Z-0.125000
G01 X42.078188 Y79.781030 Z-0.125000
G01 X42.080188 Y78.790960 Z-0.125000
G01 X42.083188 Y77.800890 Z-0.125000
G01 X42.087188 Y76.810820 Z-0.125000
G01 X41.542408 Y75.820750 Z-0.125000
G01 X40.903178 Y74.830410 Z-0.125000
G01 X40.429308 Y73.840340 Z-0.125000
G01 X40.121068 Y72.850270 Z-0.125000
G01 X39.978198 Y71.860200 Z-0.125000
G01 X40.000698 Y70.870130 Z-0.125000
G01 X40.188548 Y69.880060 Z-0.125000
G01 X40.542028 Y68.889990 Z-0.125000
G01 X41.060878 Y67.899920 Z-0.125000
G01 X41.745088 Y66.909850 Z-0.125000
G01 X42.306278 Y65.919510 Z-0.125000
G01 X42.641238 Y64.929440 Z-0.125000
G01 X42.892588 Y63.939370 Z-0.125000
G01 X43.060338 Y62.949300 Z-0.125000
G01 X43.144438 Y61.959230 Z-0.125000
G01 X43.144708 Y60.969160 Z-0.125000
G01 X43.061608 Y59.979090 Z-0.125000
G01 X42.894658 Y58.989020 Z-0.125000
G01 X42.644098 Y57.998950 Z-0.125000
G01 X42.309928 Y57.008880 Z-0.125000
G01 X41.908558 Y56.018540 Z-0.125000
G01 X41.564858 Y55.028470 Z-0.125000
G01 X41.304248 Y54.038400 Z-0.125000
G01 X41.126708 Y53.048330 Z-0.125000
G01 X41.032508 Y52.058260 Z-0.125000
G01 X41.021408 Y51.068190 Z-0.125000
G01 X41.093608 Y50.078110 Z-0.125000
G01 X41.248918 Y49.088040 Z-0.125000
G01 X41.487308 Y48.097970 Z-0.125000
G01 X41.809038 Y47.107640 Z-0.125000
G01 X42.044518 Y46.117570 Z-0.125000
G01 X42.051518 Y45.127500 Z-0.125000
G01 X42.057518 Y44.137430 Z-0.125000
G01 X42.063518 Y43.147350 Z-0.125000
G01 X42.068518 Y42.157280 Z-0.125000
G01 X42.073518 Y41.167210 Z-0.125000
G01 X42.077518 Y40.177140 Z-0.125000
G01 X42.081518 Y39.187070 Z-0.125000
G01 X42.084518 Y38.196740 Z-0.125000
G01 X42.087518 Y37.206660 Z-0.125000
G01 X42.210288 Y36.216590 Z-0.125000
G01 X42.559798 Y35.226520 Z-0.125000
G01 X42.827298 Y34.236450 Z-0.125000
G01 X43.012238 Y33.246380 Z-0.125000
G01 X43.115158 Y32.256310 Z-0.125000
G01 X43.135758 Y31.266240 Z-0.125000
G01 X43.073858 Y30.276170 Z-0.125000
G01 X42.929918 Y29.286100 Z-0.125000
G01 X42.703708 Y28.295760 Z-0.125000
G01 X42.395198 Y27.305690 Z-0.125000
G01 X42.007848 Y26.315620 Z-0.125000
G01 X41.649868 Y25.325550 Z-0.125000
G01 X41.374438 Y24.335480 Z-0.125000
G01 X41.181028 Y23.345410 Z-0.125000
G01 X41.069898 Y22.355340 Z-0.125000
G01 X41.041098 Y21.365270 Z-0.125000
G01 X41.094798 Y20.375200 Z-0.125000
G01 X41.230538 Y19.384860 Z-0.125000
G01 X41.448548 Y18.394790 Z-0.125000
G01 X41.748588 Y17.404720 Z-0.125000
G01 X42.130378 Y16.414650 Z-0.125000
G01 X42.496298 Y15.424580 Z-0.125000
G01 X42.779408 Y14.434510 Z-0.125000
G01 X42.979698 Y13.444440 Z-0.125000
G01 X43.097438 Y12.454370 Z-0.125000
G01 X43.132338 Y11.464290 Z-0.125000
G01 X43.084438 Y10.473960 Z-0.125000
G01 X42.953998 Y9.483890 Z-0.125000
G01 X42.740748 Y8.493820 Z-0.125000
G01 X42.444678 Y7.503750 Z-0.125000
G01 X42.066058 Y6.513680 Z-0.125000
G00 Z10.000000

(End cutting path id: path267543)


(Start cutting path id: path267541)
(Change tool to Default tool)

G00 Z10.000000
G00 X41.171548 Y6.513680

G00 Z4.875000 (Fast pre-penetrate)
G01 Z-0.125000 F100.0(Penetrate)
G01 X41.359668 Y7.503750 Z-0.125000 F800.000000
G01 X41.479518 Y8.493820 Z-0.125000
G01 X41.531118 Y9.483890 Z-0.125000
G01 X41.514218 Y10.473960 Z-0.125000
G01 X41.428718 Y11.464290 Z-0.125000
G01 X41.275258 Y12.454370 Z-0.125000
G01 X41.053008 Y13.444440 Z-0.125000
G01 X40.762768 Y14.434510 Z-0.125000
G01 X40.403728 Y15.424580 Z-0.125000
G01 X39.976688 Y16.414650 Z-0.125000
G01 X39.696498 Y17.404720 Z-0.125000
G01 X39.515788 Y18.394790 Z-0.125000
G01 X39.418188 Y19.384860 Z-0.125000
G01 X39.403888 Y20.375200 Z-0.125000
G01 X39.472688 Y21.365270 Z-0.125000
G01 X39.624818 Y22.355340 Z-0.125000
G01 X39.860038 Y23.345410 Z-0.125000
G01 X40.178328 Y24.335480 Z-0.125000
G01 X40.579968 Y25.325550 Z-0.125000
G01 X41.064688 Y26.315620 Z-0.125000
G01 X41.530348 Y27.305690 Z-0.125000
G01 X41.903678 Y28.295760 Z-0.125000
G01 X42.193928 Y29.286100 Z-0.125000
G01 X42.400828 Y30.276170 Z-0.125000
G01 X42.524658 Y31.266240 Z-0.125000
G01 X42.565358 Y32.256310 Z-0.125000
G01 X42.522758 Y33.246380 Z-0.125000
G01 X42.397078 Y34.236450 Z-0.125000
G01 X42.188318 Y35.226520 Z-0.125000
G01 X41.896218 Y36.216590 Z-0.125000
G01 X41.700688 Y37.206660 Z-0.125000
G01 X41.582158 Y38.196740 Z-0.125000
G01 X41.478438 Y39.187070 Z-0.125000
G01 X41.389538 Y40.177140 Z-0.125000
G01 X41.315438 Y41.167210 Z-0.125000
G01 X41.256438 Y42.157280 Z-0.125000
G01 X41.212038 Y43.147350 Z-0.125000
G01 X41.182438 Y44.137430 Z-0.125000
G01 X41.167638 Y45.127500 Z-0.125000
G01 X41.167638 Y46.117570 Z-0.125000
G01 X40.903058 Y47.107640 Z-0.125000
G01 X40.510148 Y48.097970 Z-0.125000
G01 X40.185508 Y49.088040 Z-0.125000
G01 X39.929118 Y50.078110 Z-0.125000
G01 X39.741268 Y51.068190 Z-0.125000
G01 X39.621678 Y52.058260 Z-0.125000
G01 X39.570578 Y53.048330 Z-0.125000
G01 X39.587778 Y54.038400 Z-0.125000
G01 X39.673478 Y55.028470 Z-0.125000
G01 X39.827458 Y56.018540 Z-0.125000
G01 X40.196028 Y57.008880 Z-0.125000
G01 X40.654288 Y57.998950 Z-0.125000
G01 X41.014648 Y58.989020 Z-0.125000
G01 X41.277118 Y59.979090 Z-0.125000
G01 X41.441418 Y60.969160 Z-0.125000
G01 X41.507618 Y61.959230 Z-0.125000
G01 X41.476118 Y62.949300 Z-0.125000
G01 X41.346478 Y63.939370 Z-0.125000
G01 X41.118938 Y64.929440 Z-0.125000
G01 X40.793228 Y65.919510 Z-0.125000
G01 X40.261158 Y66.909850 Z-0.125000
G01 X39.631978 Y67.899920 Z-0.125000
G01 X39.139848 Y68.889990 Z-0.125000
G01 X38.784248 Y69.880060 Z-0.125000
G01 X38.565708 Y70.870130 Z-0.125000
G01 X38.483708 Y71.860200 Z-0.125000
G01 X38.538508 Y72.850270 Z-0.125000
G01 X38.730068 Y73.840340 Z-0.125000
G01 X39.058418 Y74.830410 Z-0.125000
G01 X39.523288 Y75.820750 Z-0.125000
G01 X39.967258 Y76.810820 Z-0.125000
G01 X40.090028 Y77.800890 Z-0.125000
G01 X40.213058 Y78.790960 Z-0.125000
G01 X40.335828 Y79.781030 Z-0.125000
G01 X40.458858 Y80.771100 Z-0.125000
G01 X40.581628 Y81.761170 Z-0.125000
G01 X40.704658 Y82.751250 Z-0.125000
G01 X40.827428 Y83.741320 Z-0.125000
G01 X40.950458 Y84.731390 Z-0.125000
G01 X41.073488 Y85.721720 Z-0.125000
G01 X41.185408 Y86.711790 Z-0.125000
G01 X41.231208 Y87.701860 Z-0.125000
G01 X41.238208 Y88.691940 Z-0.125000
G01 X41.206408 Y89.682010 Z-0.125000
G01 X41.135708 Y90.672080 Z-0.125000
G01 X41.026438 Y91.662150 Z-0.125000
G01 X40.878278 Y92.652220 Z-0.125000
G01 X40.691478 Y93.642290 Z-0.125000
G01 X40.465788 Y94.632620 Z-0.125000
G01 X40.201468 Y95.622700 Z-0.125000
G01 X39.976838 Y96.612770 Z-0.125000
G01 X40.403878 Y97.602840 Z-0.125000
G01 X40.762918 Y98.592910 Z-0.125000
G01 X41.053158 Y99.582980 Z-0.125000
G01 X41.275408 Y100.573050 Z-0.125000
G01 X41.428868 Y101.563120 Z-0.125000
G01 X41.514368 Y102.553190 Z-0.125000
G01 X41.531268 Y103.543530 Z-0.125000
G01 X41.479668 Y104.533600 Z-0.125000
G01 X41.359818 Y105.523670 Z-0.125000
G01 X41.171698 Y106.513740 Z-0.125000
G00 Z10.000000

(End cutting path id: path267541)


(Start cutting path id: path267539)
(Change tool to Default tool)

G00 Z10.000000
G00 X40.254238 Y106.513740

G00 Z4.875000 (Fast pre-penetrate)
G01 Z-0.125000 F100.0(Penetrate)
G01 X40.301838 Y105.523670 Z-0.125000 F800.000000
G01 X40.296838 Y104.533600 Z-0.125000
G01 X40.238338 Y103.543530 Z-0.125000
G01 X40.126678 Y102.553190 Z-0.125000
G01 X39.962108 Y101.563120 Z-0.125000
G01 X39.744358 Y100.573050 Z-0.125000
G01 X39.473428 Y99.582980 Z-0.125000
G01 X39.149308 Y98.592910 Z-0.125000
G01 X38.772018 Y97.602840 Z-0.125000
G01 X38.341798 Y96.612770 Z-0.125000
G01 X38.441298 Y95.622700 Z-0.125000
G01 X38.609568 Y94.632620 Z-0.125000
G01 X38.784988 Y93.642290 Z-0.125000
G01 X38.967288 Y92.652220 Z-0.125000
G01 X39.156728 Y91.662150 Z-0.125000
G01 X39.353048 Y90.672080 Z-0.125000
G01 X39.556518 Y89.682010 Z-0.125000
G01 X39.766858 Y88.691940 Z-0.125000
G01 X39.984348 Y87.701860 Z-0.125000
G01 X40.208708 Y86.711790 Z-0.125000
G01 X40.099178 Y85.721720 Z-0.125000
G01 X39.905498 Y84.731390 Z-0.125000
G01 X39.711558 Y83.741320 Z-0.125000
G01 X39.517618 Y82.751250 Z-0.125000
G01 X39.323678 Y81.761170 Z-0.125000
G01 X39.129738 Y80.771100 Z-0.125000
G01 X38.935798 Y79.781030 Z-0.125000
G01 X38.741858 Y78.790960 Z-0.125000
G01 X38.547928 Y77.800890 Z-0.125000
G01 X38.353988 Y76.810820 Z-0.125000
G01 X38.014258 Y75.820750 Z-0.125000
G01 X37.702318 Y74.830410 Z-0.125000
G01 X37.496468 Y73.840340 Z-0.125000
G01 X37.396968 Y72.850270 Z-0.125000
G01 X37.403968 Y71.860200 Z-0.125000
G01 X37.516948 Y70.870130 Z-0.125000
G01 X37.736018 Y69.880060 Z-0.125000
G01 X38.061198 Y68.889990 Z-0.125000
G01 X38.492998 Y67.899920 Z-0.125000
G01 X39.030628 Y66.909850 Z-0.125000
G01 X39.540218 Y65.919510 Z-0.125000
G01 X39.890528 Y64.929440 Z-0.125000
G01 X40.127588 Y63.939370 Z-0.125000
G01 X40.251418 Y62.949300 Z-0.125000
G01 X40.262318 Y61.959230 Z-0.125000
G01 X40.159658 Y60.969160 Z-0.125000
G01 X39.943758 Y59.979090 Z-0.125000
G01 X39.614618 Y58.989020 Z-0.125000
G01 X39.172228 Y57.998950 Z-0.125000
G01 X38.616608 Y57.008880 Z-0.125000
G01 X38.265768 Y56.018540 Z-0.125000
G01 X38.244568 Y55.028470 Z-0.125000
G01 X38.276568 Y54.038400 Z-0.125000
G01 X38.361468 Y53.048330 Z-0.125000
G01 X38.499578 Y52.058260 Z-0.125000
G01 X38.690878 Y51.068190 Z-0.125000
G01 X38.935348 Y50.078110 Z-0.125000
G01 X39.232738 Y49.088040 Z-0.125000
G01 X39.583318 Y48.097970 Z-0.125000
G01 X39.987068 Y47.107640 Z-0.125000
G01 X40.235248 Y46.117570 Z-0.125000
G01 X40.207448 Y45.127500 Z-0.125000
G01 X40.209448 Y44.137430 Z-0.125000
G01 X40.241748 Y43.147350 Z-0.125000
G01 X40.304148 Y42.157280 Z-0.125000
G01 X40.396448 Y41.167210 Z-0.125000
G01 X40.518958 Y40.177140 Z-0.125000
G01 X40.671618 Y39.187070 Z-0.125000
G01 X40.854178 Y38.196740 Z-0.125000
G01 X41.066908 Y37.206660 Z-0.125000
G01 X41.326988 Y36.216590 Z-0.125000
G01 X41.583638 Y35.226520 Z-0.125000
G01 X41.756938 Y34.236450 Z-0.125000
G01 X41.847138 Y33.246380 Z-0.125000
G01 X41.854138 Y32.256310 Z-0.125000
G01 X41.778238 Y31.266240 Z-0.125000
G01 X41.618688 Y30.276170 Z-0.125000
G01 X41.376338 Y29.286100 Z-0.125000
G01 X41.050628 Y28.295760 Z-0.125000
G01 X40.641588 Y27.305690 Z-0.125000
G01 X40.133588 Y26.315620 Z-0.125000
G01 X39.577698 Y25.325550 Z-0.125000
G01 X39.105148 Y24.335480 Z-0.125000
G01 X38.715948 Y23.345410 Z-0.125000
G01 X38.409558 Y22.355340 Z-0.125000
G01 X38.186518 Y21.365270 Z-0.125000
G01 X38.046818 Y20.375200 Z-0.125000
G01 X37.990218 Y19.384860 Z-0.125000
G01 X38.016718 Y18.394790 Z-0.125000
G01 X38.126518 Y17.404720 Z-0.125000
G01 X38.342148 Y16.414650 Z-0.125000
G01 X38.772368 Y15.424580 Z-0.125000
G01 X39.149658 Y14.434510 Z-0.125000
G01 X39.473778 Y13.444440 Z-0.125000
G01 X39.744708 Y12.454370 Z-0.125000
G01 X39.962458 Y11.464290 Z-0.125000
G01 X40.127028 Y10.473960 Z-0.125000
G01 X40.238688 Y9.483890 Z-0.125000
G01 X40.297188 Y8.493820 Z-0.125000
G01 X40.302188 Y7.503750 Z-0.125000
G01 X40.254588 Y6.513680 Z-0.125000
G00 Z10.000000

(End cutting path id: path267539)


(Start cutting path id: path267537)
(Change tool to Default tool)

G00 Z10.000000
G00 X39.336658 Y6.513680

G00 Z4.875000 (Fast pre-penetrate)
G01 Z-0.125000 F100.0(Penetrate)
G01 X39.300658 Y7.503750 Z-0.125000 F800.000000
G01 X39.226558 Y8.493820 Z-0.125000
G01 X39.114898 Y9.483890 Z-0.125000
G01 X38.965148 Y10.473960 Z-0.125000
G01 X38.777558 Y11.464290 Z-0.125000
G01 X38.552128 Y12.454370 Z-0.125000
G01 X38.289138 Y13.444440 Z-0.125000
G01 X37.988038 Y14.434510 Z-0.125000
G01 X37.649108 Y15.424580 Z-0.125000
G01 X37.272338 Y16.414650 Z-0.125000
G01 X37.075758 Y17.404720 Z-0.125000
G01 X36.980458 Y18.394790 Z-0.125000
G01 X36.968258 Y19.384860 Z-0.125000
G01 X37.039158 Y20.375200 Z-0.125000
G01 X37.193668 Y21.365270 Z-0.125000
G01 X37.430998 Y22.355340 Z-0.125000
G01 X37.751678 Y23.345410 Z-0.125000
G01 X38.155428 Y24.335480 Z-0.125000
G01 X38.642528 Y25.325550 Z-0.125000
G01 X39.212708 Y26.315620 Z-0.125000
G01 X39.729438 Y27.305690 Z-0.125000
G01 X40.145358 Y28.295760 Z-0.125000
G01 X40.478468 Y29.286100 Z-0.125000
G01 X40.728238 Y30.276170 Z-0.125000
G01 X40.894658 Y31.266240 Z-0.125000
G01 X40.977958 Y32.256310 Z-0.125000
G01 X40.978218 Y33.246380 Z-0.125000
G01 X40.895118 Y34.236450 Z-0.125000
G01 X40.728958 Y35.226520 Z-0.125000
G01 X40.479728 Y36.216590 Z-0.125000
G01 X40.166458 Y37.206660 Z-0.125000
G01 X39.887848 Y38.196740 Z-0.125000
G01 X39.654488 Y39.187070 Z-0.125000
G01 X39.466368 Y40.177140 Z-0.125000
G01 X39.323758 Y41.167210 Z-0.125000
G01 X39.226358 Y42.157280 Z-0.125000
G01 X39.174258 Y43.147350 Z-0.125000
G01 X39.167258 Y44.137430 Z-0.125000
G01 X39.205858 Y45.127500 Z-0.125000
G01 X39.289758 Y46.117570 Z-0.125000
G01 X39.103228 Y47.107640 Z-0.125000
G01 X38.745508 Y48.097970 Z-0.125000
G01 X38.425368 Y49.088040 Z-0.125000
G01 X38.143318 Y50.078110 Z-0.125000
G01 X37.899108 Y51.068190 Z-0.125000
G01 X37.692468 Y52.058260 Z-0.125000
G01 X37.523928 Y53.048330 Z-0.125000
G01 X37.393228 Y54.038400 Z-0.125000
G01 X37.300328 Y55.028470 Z-0.125000
G01 X37.245328 Y56.018540 Z-0.125000
G01 X37.592458 Y57.008880 Z-0.125000
G01 X38.217138 Y57.998950 Z-0.125000
G01 X38.713228 Y58.989020 Z-0.125000
G01 X39.080738 Y59.979090 Z-0.125000
G01 X39.319918 Y60.969160 Z-0.125000
G01 X39.430518 Y61.959230 Z-0.125000
G01 X39.412518 Y62.949300 Z-0.125000
G01 X39.266198 Y63.939370 Z-0.125000
G01 X38.991298 Y64.929440 Z-0.125000
G01 X38.587808 Y65.919510 Z-0.125000
G01 X38.095418 Y66.909850 Z-0.125000
G01 X37.677118 Y67.899920 Z-0.125000
G01 X37.334478 Y68.889990 Z-0.125000
G01 X37.067518 Y69.880060 Z-0.125000
G01 X36.876488 Y70.870130 Z-0.125000
G01 X36.760858 Y71.860200 Z-0.125000
G01 X36.721158 Y72.850270 Z-0.125000
G01 X36.756858 Y73.840340 Z-0.125000
G01 X36.868518 Y74.830410 Z-0.125000
G01 X37.055838 Y75.820750 Z-0.125000
G01 X37.294498 Y76.810820 Z-0.125000
G01 X37.502718 Y77.800890 Z-0.125000
G01 X37.711218 Y78.790960 Z-0.125000
G01 X37.919438 Y79.781030 Z-0.125000
G01 X38.127668 Y80.771100 Z-0.125000
G01 X38.336158 Y81.761170 Z-0.125000
G01 X38.544388 Y82.751250 Z-0.125000
G01 X38.752878 Y83.741320 Z-0.125000
G01 X38.961108 Y84.731390 Z-0.125000
G01 X39.169338 Y85.721720 Z-0.125000
G01 X39.242138 Y86.711790 Z-0.125000
G01 X38.804248 Y87.701860 Z-0.125000
G01 X38.419018 Y88.691940 Z-0.125000
G01 X38.086438 Y89.682010 Z-0.125000
G01 X37.806768 Y90.672080 Z-0.125000
G01 X37.580018 Y91.662150 Z-0.125000
G01 X37.405928 Y92.652220 Z-0.125000
G01 X37.284748 Y93.642290 Z-0.125000
G01 X37.216448 Y94.632620 Z-0.125000
G01 X37.200848 Y95.622700 Z-0.125000
G01 X37.271748 Y96.612770 Z-0.125000
G01 X37.648518 Y97.602840 Z-0.125000
G01 X37.987448 Y98.592910 Z-0.125000
G01 X38.288548 Y99.582980 Z-0.125000
G01 X38.551538 Y100.573050 Z-0.125000
G01 X38.776968 Y101.563120 Z-0.125000
G01 X38.964558 Y102.553190 Z-0.125000
G01 X39.114308 Y103.543530 Z-0.125000
G01 X39.225968 Y104.533600 Z-0.125000
G01 X39.300068 Y105.523670 Z-0.125000
G01 X39.336068 Y106.513740 Z-0.125000
G00 Z10.000000

(End cutting path id: path267537)


(Start cutting path id: path267535)
(Change tool to Default tool)

G00 Z10.000000
G00 X38.419348 Y106.513740

G00 Z4.875000 (Fast pre-penetrate)
G01 Z-0.125000 F100.0(Penetrate)
G01 X38.355848 Y105.523670 Z-0.125000 F800.000000
G01 X38.269848 Y104.533600 Z-0.125000
G01 X38.161368 Y103.543530 Z-0.125000
G01 X38.030138 Y102.553190 Z-0.125000
G01 X37.876418 Y101.563120 Z-0.125000
G01 X37.699938 Y100.573050 Z-0.125000
G01 X37.500968 Y99.582980 Z-0.125000
G01 X37.279518 Y98.592910 Z-0.125000
G01 X37.035308 Y97.602840 Z-0.125000
G01 X36.768608 Y96.612770 Z-0.125000
G01 X36.482058 Y95.622700 Z-0.125000
G01 X36.288388 Y94.632620 Z-0.125000
G01 X36.193388 Y93.642290 Z-0.125000
G01 X36.196388 Y92.652220 Z-0.125000
G01 X36.298518 Y91.662150 Z-0.125000
G01 X36.499338 Y90.672080 Z-0.125000
G01 X36.798578 Y89.682010 Z-0.125000
G01 X37.196518 Y88.691940 Z-0.125000
G01 X37.692878 Y87.701860 Z-0.125000
G01 X38.287918 Y86.711790 Z-0.125000
G01 X38.285918 Y85.721720 Z-0.125000
G01 X38.119758 Y84.731390 Z-0.125000
G01 X37.953598 Y83.741320 Z-0.125000
G01 X37.787438 Y82.751250 Z-0.125000
G01 X37.621278 Y81.761170 Z-0.125000
G01 X37.455128 Y80.771100 Z-0.125000
G01 X37.288968 Y79.781030 Z-0.125000
G01 X37.122808 Y78.790960 Z-0.125000
G01 X36.956388 Y77.800890 Z-0.125000
G01 X36.790228 Y76.810820 Z-0.125000
G01 X36.649998 Y75.820750 Z-0.125000
G01 X36.559298 Y74.830410 Z-0.125000
G01 X36.513498 Y73.840340 Z-0.125000
G01 X36.512968 Y72.850270 Z-0.125000
G01 X36.557668 Y71.860200 Z-0.125000
G01 X36.647668 Y70.870130 Z-0.125000
G01 X36.782598 Y69.880060 Z-0.125000
G01 X36.962788 Y68.889990 Z-0.125000
G01 X37.188208 Y67.899920 Z-0.125000
G01 X37.458878 Y66.909850 Z-0.125000
G01 X37.939628 Y65.919510 Z-0.125000
G01 X38.424338 Y64.929440 Z-0.125000
G01 X38.765388 Y63.939370 Z-0.125000
G01 X38.962768 Y62.949300 Z-0.125000
G01 X39.016168 Y61.959230 Z-0.125000
G01 X38.925968 Y60.969160 Z-0.125000
G01 X38.691818 Y59.979090 Z-0.125000
G01 X38.313988 Y58.989020 Z-0.125000
G01 X37.792498 Y57.998950 Z-0.125000
G01 X37.127068 Y57.008880 Z-0.125000
G01 X36.769358 Y56.018540 Z-0.125000
G01 X36.843958 Y55.028470 Z-0.125000
G01 X36.941358 Y54.038400 Z-0.125000
G01 X37.061218 Y53.048330 Z-0.125000
G01 X37.203828 Y52.058260 Z-0.125000
G01 X37.368928 Y51.068190 Z-0.125000
G01 X37.556518 Y50.078110 Z-0.125000
G01 X37.766598 Y49.088040 Z-0.125000
G01 X37.999428 Y48.097970 Z-0.125000
G01 X38.255018 Y47.107640 Z-0.125000
G01 X38.334618 Y46.117570 Z-0.125000
G01 X38.166348 Y45.127500 Z-0.125000
G01 X38.058398 Y44.137430 Z-0.125000
G01 X38.011298 Y43.147350 Z-0.125000
G01 X38.024798 Y42.157280 Z-0.125000
G01 X38.098898 Y41.167210 Z-0.125000
G01 X38.233298 Y40.177140 Z-0.125000
G01 X38.428568 Y39.187070 Z-0.125000
G01 X38.684418 Y38.196740 Z-0.125000
G01 X39.000858 Y37.206660 Z-0.125000
G01 X39.355668 Y36.216590 Z-0.125000
G01 X39.626068 Y35.226520 Z-0.125000
G01 X39.813128 Y34.236450 Z-0.125000
G01 X39.917378 Y33.246380 Z-0.125000
G01 X39.938278 Y32.256310 Z-0.125000
G01 X39.875878 Y31.266240 Z-0.125000
G01 X39.730358 Y30.276170 Z-0.125000
G01 X39.501758 Y29.286100 Z-0.125000
G01 X39.190078 Y28.295760 Z-0.125000
G01 X38.795058 Y27.305690 Z-0.125000
G01 X38.303458 Y26.315620 Z-0.125000
G01 X37.775348 Y25.325550 Z-0.125000
G01 X37.330588 Y24.335480 Z-0.125000
G01 X36.968898 Y23.345410 Z-0.125000
G01 X36.690288 Y22.355340 Z-0.125000
G01 X36.495028 Y21.365270 Z-0.125000
G01 X36.383108 Y20.375200 Z-0.125000
G01 X36.354008 Y19.384860 Z-0.125000
G01 X36.408208 Y18.394790 Z-0.125000
G01 X36.545788 Y17.404720 Z-0.125000
G01 X36.768308 Y16.414650 Z-0.125000
G01 X37.035008 Y15.424580 Z-0.125000
G01 X37.279218 Y14.434510 Z-0.125000
G01 X37.500668 Y13.444440 Z-0.125000
G01 X37.699638 Y12.454370 Z-0.125000
G01 X37.876118 Y11.464290 Z-0.125000
G01 X38.029838 Y10.473960 Z-0.125000
G01 X38.161068 Y9.483890 Z-0.125000
G01 X38.269548 Y8.493820 Z-0.125000
G01 X38.355548 Y7.503750 Z-0.125000
G01 X38.419048 Y6.513680 Z-0.125000
G00 Z10.000000

(End cutting path id: path267535)


(Start cutting path id: path267531)
(Change tool to Default tool)

G00 Z10.000000
G00 X37.316828 Y6.513680

G00 Z4.875000 (Fast pre-penetrate)
G01 Z-0.125000 F100.0(Penetrate)
G01 X37.280328 Y7.503750 Z-0.125000 F800.000000
G01 X37.236128 Y8.493820 Z-0.125000
G01 X37.183728 Y9.483890 Z-0.125000
G01 X37.123628 Y10.473960 Z-0.125000
G01 X37.055328 Y11.464290 Z-0.125000
G01 X36.979128 Y12.454370 Z-0.125000
G01 X36.895228 Y13.444440 Z-0.125000
G01 X36.803128 Y14.434510 Z-0.125000
G01 X36.703328 Y15.424580 Z-0.125000
G01 X36.595378 Y16.414650 Z-0.125000
G01 X36.272848 Y17.404720 Z-0.125000
G01 X35.991068 Y18.394790 Z-0.125000
G01 X35.776488 Y19.384860 Z-0.125000
G01 X35.629118 Y20.375200 Z-0.125000
G01 X35.549218 Y21.365270 Z-0.125000
G01 X35.536518 Y22.355340 Z-0.125000
G01 X35.591018 Y23.345410 Z-0.125000
G01 X35.712988 Y24.335480 Z-0.125000
G01 X35.902168 Y25.325550 Z-0.125000
G01 X36.158548 Y26.315620 Z-0.125000
G01 X36.468908 Y27.305690 Z-0.125000
G01 X36.714968 Y28.295760 Z-0.125000
G01 X36.885628 Y29.286100 Z-0.125000
G01 X36.980828 Y30.276170 Z-0.125000
G01 X37.001228 Y31.266240 Z-0.125000
G01 X36.945928 Y32.256310 Z-0.125000
G01 X36.815758 Y33.246380 Z-0.125000
G01 X36.610178 Y34.236450 Z-0.125000
G01 X36.329448 Y35.226520 Z-0.125000
G01 X35.973318 Y36.216590 Z-0.125000
G01 X35.628838 Y37.206660 Z-0.125000
G01 X35.381188 Y38.196740 Z-0.125000
G01 X35.216618 Y39.187070 Z-0.125000
G01 X35.135418 Y40.177140 Z-0.125000
G01 X35.137418 Y41.167210 Z-0.125000
G01 X35.222618 Y42.157280 Z-0.125000
G01 X35.390628 Y43.147350 Z-0.125000
G01 X35.641988 Y44.137430 Z-0.125000
G01 X35.976678 Y45.127500 Z-0.125000
G01 X36.394198 Y46.117570 Z-0.125000
G01 X36.583898 Y47.107640 Z-0.125000
G01 X36.588898 Y48.097970 Z-0.125000
G01 X36.601898 Y49.088040 Z-0.125000
G01 X36.622498 Y50.078110 Z-0.125000
G01 X36.651298 Y51.068190 Z-0.125000
G01 X36.687798 Y52.058260 Z-0.125000
G01 X36.732498 Y53.048330 Z-0.125000
G01 X36.784898 Y54.038400 Z-0.125000
G01 X36.845498 Y55.028470 Z-0.125000
G01 X36.913798 Y56.018540 Z-0.125000
G01 X37.330258 Y57.008880 Z-0.125000
G01 X37.976108 Y57.998950 Z-0.125000
G01 X38.471408 Y58.989020 Z-0.125000
G01 X38.816158 Y59.979090 Z-0.125000
G01 X39.010358 Y60.969160 Z-0.125000
G01 X39.054258 Y61.959230 Z-0.125000
G01 X38.947368 Y62.949300 Z-0.125000
G01 X38.690198 Y63.939370 Z-0.125000
G01 X38.282468 Y64.929440 Z-0.125000
G01 X37.724468 Y65.919510 Z-0.125000
G01 X37.302718 Y66.909850 Z-0.125000
G01 X37.266518 Y67.899920 Z-0.125000
G01 X37.230318 Y68.889990 Z-0.125000
G01 X37.194118 Y69.880060 Z-0.125000
G01 X37.157918 Y70.870130 Z-0.125000
G01 X37.121618 Y71.860200 Z-0.125000
G01 X37.085418 Y72.850270 Z-0.125000
G01 X37.049218 Y73.840340 Z-0.125000
G01 X37.013018 Y74.830410 Z-0.125000
G01 X36.976818 Y75.820750 Z-0.125000
G01 X36.952218 Y76.810820 Z-0.125000
G01 X36.949218 Y77.800890 Z-0.125000
G01 X36.938918 Y78.790960 Z-0.125000
G01 X36.920418 Y79.781030 Z-0.125000
G01 X36.894218 Y80.771100 Z-0.125000
G01 X36.859818 Y81.761170 Z-0.125000
G01 X36.817718 Y82.751250 Z-0.125000
G01 X36.767418 Y83.741320 Z-0.125000
G01 X36.709518 Y84.731390 Z-0.125000
G01 X36.643318 Y85.721720 Z-0.125000
G01 X36.458108 Y86.711790 Z-0.125000
G01 X35.910688 Y87.701860 Z-0.125000
G01 X35.505608 Y88.691940 Z-0.125000
G01 X35.243138 Y89.682010 Z-0.125000
G01 X35.123018 Y90.672080 Z-0.125000
G01 X35.145818 Y91.662150 Z-0.125000
G01 X35.310918 Y92.652220 Z-0.125000
G01 X35.618628 Y93.642290 Z-0.125000
G01 X36.068948 Y94.632620 Z-0.125000
G01 X36.661878 Y95.622700 Z-0.125000
G01 X37.301908 Y96.612770 Z-0.125000
G01 X37.158768 Y97.602840 Z-0.125000
G01 X37.031498 Y98.592910 Z-0.125000
G01 X36.920108 Y99.582980 Z-0.125000
G01 X36.824608 Y100.573050 Z-0.125000
G01 X36.745008 Y101.563120 Z-0.125000
G01 X36.681208 Y102.553190 Z-0.125000
G01 X36.633308 Y103.543530 Z-0.125000
G01 X36.601308 Y104.533600 Z-0.125000
G01 X36.585208 Y105.523670 Z-0.125000
G01 X36.584948 Y106.513740 Z-0.125000
G00 Z10.000000

(End cutting path id: path267531)


(Start cutting path id: path267533)
(Change tool to Default tool)

G00 Z10.000000
G00 X37.501778 Y106.513740

G00 Z4.875000 (Fast pre-penetrate)
G01 Z-0.125000 F100.0(Penetrate)
G01 X37.467678 Y105.523670 Z-0.125000 F800.000000
G01 X37.426378 Y104.533600 Z-0.125000
G01 X37.377478 Y103.543530 Z-0.125000
G01 X37.321378 Y102.553190 Z-0.125000
G01 X37.257878 Y101.563120 Z-0.125000
G01 X37.187278 Y100.573050 Z-0.125000
G01 X37.109178 Y99.582980 Z-0.125000
G01 X37.023678 Y98.592910 Z-0.125000
G01 X36.930778 Y97.602840 Z-0.125000
G01 X36.830758 Y96.612770 Z-0.125000
G01 X36.283338 Y95.622700 Z-0.125000
G01 X35.823758 Y94.632620 Z-0.125000
G01 X35.508638 Y93.642290 Z-0.125000
G01 X35.337978 Y92.652220 Z-0.125000
G01 X35.311578 Y91.662150 Z-0.125000
G01 X35.429578 Y90.672080 Z-0.125000
G01 X35.692048 Y89.682010 Z-0.125000
G01 X36.098708 Y88.691940 Z-0.125000
G01 X36.649838 Y87.701860 Z-0.125000
G01 X37.345428 Y86.711790 Z-0.125000
G01 X37.447818 Y85.721720 Z-0.125000
G01 X37.380318 Y84.731390 Z-0.125000
G01 X37.312818 Y83.741320 Z-0.125000
G01 X37.245318 Y82.751250 Z-0.125000
G01 X37.177818 Y81.761170 Z-0.125000
G01 X37.110318 Y80.771100 Z-0.125000
G01 X37.042818 Y79.781030 Z-0.125000
G01 X36.975318 Y78.790960 Z-0.125000
G01 X36.907818 Y77.800890 Z-0.125000
G01 X36.840318 Y76.810820 Z-0.125000
G01 X36.795618 Y75.820750 Z-0.125000
G01 X36.772818 Y74.830410 Z-0.125000
G01 X36.764818 Y73.840340 Z-0.125000
G01 X36.771818 Y72.850270 Z-0.125000
G01 X36.793018 Y71.860200 Z-0.125000
G01 X36.829018 Y70.870130 Z-0.125000
G01 X36.879518 Y69.880060 Z-0.125000
G01 X36.944818 Y68.889990 Z-0.125000
G01 X37.024718 Y67.899920 Z-0.125000
G01 X37.119218 Y66.909850 Z-0.125000
G01 X37.594148 Y65.919510 Z-0.125000
G01 X38.188668 Y64.929440 Z-0.125000
G01 X38.623908 Y63.939370 Z-0.125000
G01 X38.900388 Y62.949300 Z-0.125000
G01 X39.017868 Y61.959230 Z-0.125000
G01 X38.976068 Y60.969160 Z-0.125000
G01 X38.775248 Y59.979090 Z-0.125000
G01 X38.415678 Y58.989020 Z-0.125000
G01 X37.896828 Y57.998950 Z-0.125000
G01 X37.218968 Y57.008880 Z-0.125000
G01 X36.836638 Y56.018540 Z-0.125000
G01 X36.874438 Y55.028470 Z-0.125000
G01 X36.919438 Y54.038400 Z-0.125000
G01 X36.971838 Y53.048330 Z-0.125000
G01 X37.031638 Y52.058260 Z-0.125000
G01 X37.098838 Y51.068190 Z-0.125000
G01 X37.173138 Y50.078110 Z-0.125000
G01 X37.254938 Y49.088040 Z-0.125000
G01 X37.344138 Y48.097970 Z-0.125000
G01 X37.440438 Y47.107640 Z-0.125000
G01 X37.368238 Y46.117570 Z-0.125000
G01 X37.087258 Y45.127500 Z-0.125000
G01 X36.881938 Y44.137430 Z-0.125000
G01 X36.752558 Y43.147350 Z-0.125000
G01 X36.699158 Y42.157280 Z-0.125000
G01 X36.721658 Y41.167210 Z-0.125000
G01 X36.819858 Y40.177140 Z-0.125000
G01 X36.993958 Y39.187070 Z-0.125000
G01 X37.243718 Y38.196740 Z-0.125000
G01 X37.569688 Y37.206660 Z-0.125000
G01 X37.954918 Y36.216590 Z-0.125000
G01 X38.274808 Y35.226520 Z-0.125000
G01 X38.511338 Y34.236450 Z-0.125000
G01 X38.664798 Y33.246380 Z-0.125000
G01 X38.734898 Y32.256310 Z-0.125000
G01 X38.721898 Y31.266240 Z-0.125000
G01 X38.625898 Y30.276170 Z-0.125000
G01 X38.446508 Y29.286100 Z-0.125000
G01 X38.184038 Y28.295760 Z-0.125000
G01 X37.838498 Y27.305690 Z-0.125000
G01 X37.406168 Y26.315620 Z-0.125000
G01 X36.976748 Y25.325550 Z-0.125000
G01 X36.630668 Y24.335480 Z-0.125000
G01 X36.367678 Y23.345410 Z-0.125000
G01 X36.188028 Y22.355340 Z-0.125000
G01 X36.091428 Y21.365270 Z-0.125000
G01 X36.077928 Y20.375200 Z-0.125000
G01 X36.147828 Y19.384860 Z-0.125000
G01 X36.300758 Y18.394790 Z-0.125000
G01 X36.537028 Y17.404720 Z-0.125000
G01 X36.830978 Y16.414650 Z-0.125000
G01 X36.930998 Y15.424580 Z-0.125000
G01 X37.023898 Y14.434510 Z-0.125000
G01 X37.109398 Y13.444440 Z-0.125000
G01 X37.187498 Y12.454370 Z-0.125000
G01 X37.258098 Y11.464290 Z-0.125000
G01 X37.321598 Y10.473960 Z-0.125000
G01 X37.377698 Y9.483890 Z-0.125000
G01 X37.426598 Y8.493820 Z-0.125000
G01 X37.467898 Y7.503750 Z-0.125000
G01 X37.501998 Y6.513680 Z-0.125000
G01 X37.310438 Y7.503750 Z-0.125000
G01 X37.223638 Y8.493820 Z-0.125000
G01 X37.113828 Y9.483890 Z-0.125000
G01 X36.981008 Y10.473960 Z-0.125000
G01 X36.824638 Y11.464290 Z-0.125000
G01 X36.645258 Y12.454370 Z-0.125000
G01 X36.442588 Y13.444440 Z-0.125000
G01 X36.216898 Y14.434510 Z-0.125000
G01 X35.967918 Y15.424580 Z-0.125000
G01 X35.695668 Y16.414650 Z-0.125000
G01 X35.439018 Y17.404720 Z-0.125000
G01 X35.220208 Y18.394790 Z-0.125000
G01 X35.038178 Y19.384860 Z-0.125000
G01 X34.892918 Y20.375200 Z-0.125000
G01 X34.784708 Y21.365270 Z-0.125000
G01 X34.713008 Y22.355340 Z-0.125000
G01 X34.678108 Y23.345410 Z-0.125000
G01 X34.680108 Y24.335480 Z-0.125000
G01 X34.718708 Y25.325550 Z-0.125000
G01 X34.794408 Y26.315620 Z-0.125000
G01 X34.969298 Y27.305690 Z-0.125000
G01 X35.109788 Y28.295760 Z-0.125000
G01 X35.190188 Y29.286100 Z-0.125000
G01 X35.210788 Y30.276170 Z-0.125000
G01 X35.171388 Y31.266240 Z-0.125000
G01 X35.071888 Y32.256310 Z-0.125000
G01 X34.912348 Y33.246380 Z-0.125000
G01 X34.693008 Y34.236450 Z-0.125000
G01 X34.413348 Y35.226520 Z-0.125000
G01 X34.074148 Y36.216590 Z-0.125000
G01 X33.805068 Y37.206660 Z-0.125000
G01 X33.653988 Y38.196740 Z-0.125000
G01 X33.585688 Y39.187070 Z-0.125000
G01 X33.600788 Y40.177140 Z-0.125000
G01 X33.698988 Y41.167210 Z-0.125000
G01 X33.880498 Y42.157280 Z-0.125000
G01 X34.145078 Y43.147350 Z-0.125000
G01 X34.493008 Y44.137430 Z-0.125000
G01 X34.924008 Y45.127500 Z-0.125000
G01 X35.438098 Y46.117570 Z-0.125000
G01 X35.651618 Y47.107640 Z-0.125000
G01 X35.644618 Y48.097970 Z-0.125000
G01 X35.660718 Y49.088040 Z-0.125000
G01 X35.699918 Y50.078110 Z-0.125000
G01 X35.762318 Y51.068190 Z-0.125000
G01 X35.848018 Y52.058260 Z-0.125000
G01 X35.956758 Y53.048330 Z-0.125000
G01 X36.088788 Y54.038400 Z-0.125000
G01 X36.244098 Y55.028470 Z-0.125000
G01 X36.422428 Y56.018540 Z-0.125000
G01 X36.850518 Y57.008880 Z-0.125000
G01 X37.420958 Y57.998950 Z-0.125000
G01 X37.871288 Y58.989020 Z-0.125000
G01 X38.201748 Y59.979090 Z-0.125000
G01 X38.412088 Y60.969160 Z-0.125000
G01 X38.502588 Y61.959230 Z-0.125000
G01 X38.473188 Y62.949300 Z-0.125000
G01 X38.323698 Y63.939370 Z-0.125000
G01 X38.054358 Y64.929440 Z-0.125000
G01 X37.664888 Y65.919510 Z-0.125000
G01 X37.339978 Y66.909850 Z-0.125000
G01 X37.255278 Y67.899920 Z-0.125000
G01 X37.170878 Y68.889990 Z-0.125000
G01 X37.086478 Y69.880060 Z-0.125000
G01 X37.001778 Y70.870130 Z-0.125000
G01 X36.917378 Y71.860200 Z-0.125000
G01 X36.832978 Y72.850270 Z-0.125000
G01 X36.748278 Y73.840340 Z-0.125000
G01 X36.663878 Y74.830410 Z-0.125000
G01 X36.579478 Y75.820750 Z-0.125000
G01 X36.528978 Y76.810820 Z-0.125000
G01 X36.543278 Y77.800890 Z-0.125000
G01 X36.534278 Y78.790960 Z-0.125000
G01 X36.501978 Y79.781030 Z-0.125000
G01 X36.446678 Y80.771100 Z-0.125000
G01 X36.367878 Y81.761170 Z-0.125000
G01 X36.266008 Y82.751250 Z-0.125000
G01 X36.141128 Y83.741320 Z-0.125000
G01 X35.992698 Y84.731390 Z-0.125000
G01 X35.821248 Y85.721720 Z-0.125000
G01 X35.605348 Y86.711790 Z-0.125000
G01 X35.353468 Y87.701860 Z-0.125000
G01 X35.198158 Y88.691940 Z-0.125000
G01 X35.139658 Y89.682010 Z-0.125000
G01 X35.178058 Y90.672080 Z-0.125000
G01 X35.313258 Y91.662150 Z-0.125000
G01 X35.545028 Y92.652220 Z-0.125000
G01 X35.873648 Y93.642290 Z-0.125000
G01 X36.299098 Y94.632620 Z-0.125000
G01 X36.821118 Y95.622700 Z-0.125000
G01 X37.333878 Y96.612770 Z-0.125000
G01 X36.958438 Y97.602840 Z-0.125000
G01 X36.629298 Y98.592910 Z-0.125000
G01 X36.346718 Y99.582980 Z-0.125000
G01 X36.110448 Y100.573050 Z-0.125000
G01 X35.920738 Y101.563120 Z-0.125000
G01 X35.777068 Y102.553190 Z-0.125000
G01 X35.680268 Y103.543530 Z-0.125000
G01 X35.629468 Y104.533600 Z-0.125000
G01 X35.625468 Y105.523670 Z-0.125000
G01 X35.667568 Y106.513740 Z-0.125000
G00 Z10.000000

(End cutting path id: path267533)


(Start cutting path id: path267529)
(Change tool to Default tool)

G00 Z10.000000
G00 X34.749578 Y106.513740

G00 Z4.875000 (Fast pre-penetrate)
G01 Z-0.125000 F100.0(Penetrate)
G01 X34.608288 Y105.523670 Z-0.125000 F800.000000
G01 X34.544288 Y104.533600 Z-0.125000
G01 X34.556988 Y103.543530 Z-0.125000
G01 X34.646388 Y102.553190 Z-0.125000
