%
(Header)
(Generated by gcodetools from Inkscape.)
(Using default header. To add your own header create file "header" in the output dir.)
M3
(Header end.)
G21 (All units in mm)

(Start cutting path id: path338533)
(Change tool to Default tool)

G00 Z3.000000
G00 X124.768832 Y255.827166

G00 Z4.875000 (Fast pre-penetrate)
G01 Z-0.125000 F400.0(Penetrate)
G02 X125.082043 Y255.928932 Z-0.125000 I26.210076 J-80.135024 F800.000000
G02 X125.391100 Y256.026693 Z-0.125000 I8.526148 J-26.416738
G02 X125.701011 Y256.121340 Z-0.125000 I11.688909 J-37.719234
G02 X126.008171 Y256.211240 Z-0.125000 I6.087855 J-20.230729
G02 X126.316453 Y256.296919 Z-0.125000 I7.199921 J-25.308426
G02 X126.623715 Y256.377345 Z-0.125000 I4.622111 J-17.031416
G02 X126.932243 Y256.452609 Z-0.125000 I5.014750 J-19.886759
G02 X127.241702 Y256.522291 Z-0.125000 I3.621256 J-15.360000
G02 X127.552428 Y256.586058 Z-0.125000 I3.693927 J-17.211057
G02 X127.866128 Y256.644013 Z-0.125000 I2.861852 J-14.612788
G02 X128.180988 Y256.695505 Z-0.125000 I2.770236 J-15.950725
G02 X128.500815 Y256.740972 Z-0.125000 I2.219298 J-14.463649
G02 X128.821606 Y256.779618 Z-0.125000 I2.037378 J-15.561046
G02 X129.149195 Y256.811994 Z-0.125000 I1.623782 J-14.756314
G02 X129.477490 Y256.837332 Z-0.125000 I1.384071 J-15.793301
G02 X129.814131 Y256.856089 Z-0.125000 I1.022232 J-15.316061
G02 X130.151201 Y256.867689 Z-0.125000 I0.731507 J-16.353222
G02 X130.497787 Y256.872282 Z-0.125000 I0.384978 J-15.972367
G02 X130.844513 Y256.869631 Z-0.125000 I0.039942 J-17.453274
G02 X131.201491 Y256.859529 Z-0.125000 I-0.292970 J-16.664881
G02 X131.558308 Y256.842070 Z-0.125000 I-0.704638 J-18.055997
G02 X131.925620 Y256.816515 Z-0.125000 I-1.012299 J-17.203172
G02 X132.292465 Y256.783477 Z-0.125000 I-1.510526 J-18.825597
G02 X132.669527 Y256.741715 Z-0.125000 I-1.756031 J-17.577939
G02 X133.045783 Y256.692227 Z-0.125000 I-2.351812 J-19.335945
G02 X133.431431 Y256.633363 Z-0.125000 I-2.494785 J-17.637232
G02 X133.815895 Y256.566449 Z-0.125000 I-3.191280 J-19.473942
G02 X134.208360 Y256.489549 Z-0.125000 I-3.211272 J-17.428886
G02 X134.599213 Y256.404210 Z-0.125000 I-3.990812 J-19.215752
G02 X134.996119 Y256.308402 Z-0.125000 I-3.896283 J-17.011226
G02 X135.390910 Y256.203715 Z-0.125000 I-4.722206 J-18.604850
G02 X135.789265 Y256.088301 Z-0.125000 I-4.546508 J-16.437596
G02 X136.184944 Y255.963561 Z-0.125000 I-5.361118 J-17.695589
G02 X136.581183 Y255.828189 Z-0.125000 I-5.174539 J-15.793684
G02 X136.974356 Y255.682698 Z-0.125000 I-5.565787 J-15.644887
G02 X137.364184 Y255.528004 Z-0.125000 I-7.016636 J-18.250434
G02 X137.750496 Y255.364141 Z-0.125000 I-6.273244 J-15.326630
G02 X138.128832 Y255.194738 Z-0.125000 I-11.660884 J-26.550011
G02 X138.503782 Y255.018911 Z-0.125000 I-8.293860 J-18.174305
G02 X138.866963 Y254.842197 Z-0.125000 I-21.934787 J-45.541752
G02 X139.227683 Y254.661448 Z-0.125000 I-11.594757 J-23.589966
G02 X139.574601 Y254.484118 Z-0.125000 I-252.815909 J-495.021878
G02 X139.920294 Y254.305373 Z-0.125000 I-20.556562 J-40.179976
G03 X140.251830 Y254.133686 Z-0.125000 I23.431377 J44.841283
G02 X140.583570 Y253.963338 Z-0.125000 I-339.284746 J-661.139262
G03 X140.902331 Y253.802751 Z-0.125000 I10.235449 J19.920452
G03 X141.222703 Y253.646273 Z-0.125000 I18.138900 J36.731261
G03 X141.532584 Y253.501214 Z-0.125000 I6.109882 J12.648618
G03 X141.845217 Y253.362908 Z-0.125000 I7.736209 J17.064790
G03 X142.150877 Y253.236729 Z-0.125000 I4.124005 J9.556802
G03 X142.459959 Y253.119643 Z-0.125000 I4.491315 J11.389577
G03 X142.766276 Y253.014725 Z-0.125000 I2.968928 J8.168471
G03 X143.076112 Y252.920746 Z-0.125000 I2.941307 J9.139367
G03 X143.387665 Y252.838695 Z-0.125000 I2.194280 J7.699322
G03 X143.702309 Y252.768806 Z-0.125000 I2.014154 J8.324569
G03 X144.022942 Y252.710671 Z-0.125000 I1.585444 J7.831046
G03 X144.345874 Y252.665290 Z-0.125000 I1.333595 J8.318115
G03 X144.678378 Y252.631770 Z-0.125000 I1.013111 J8.383745
G03 X145.012239 Y252.611098 Z-0.125000 I0.715759 J8.853302
G03 X145.358181 Y252.602706 Z-0.125000 I0.396670 J9.217252
G03 X145.704533 Y252.606942 Z-0.125000 I0.055240 J9.644330
G03 X146.064189 Y252.624163 Z-0.125000 I-0.307772 J10.191797
G03 X146.423366 Y252.653728 Z-0.125000 I-0.709534 J10.816458
G03 X146.795698 Y252.696966 Z-0.125000 I-1.096270 J11.065056
G03 X147.166724 Y252.752358 Z-0.125000 I-1.575696 J11.824738
G03 X147.549410 Y252.822066 Z-0.125000 I-1.952183 J11.802360
G03 X147.929983 Y252.903816 Z-0.125000 I-2.508794 J12.605958
G03 X148.319495 Y253.000221 Z-0.125000 I-2.838690 J12.304544
G03 X148.706077 Y253.108640 Z-0.125000 I-3.443048 J13.019989
G03 X149.097819 Y253.231519 Z-0.125000 I-3.738534 J12.604437
G03 X149.485803 Y253.366374 Z-0.125000 I-4.314519 J13.038608
G03 X149.874365 Y253.514742 Z-0.125000 I-4.659903 J12.786854
G03 X150.258366 Y253.674915 Z-0.125000 I-5.097484 J12.761206
G03 X150.637901 Y253.846701 Z-0.125000 I-5.644654 J12.976131
G03 X151.012176 Y254.029849 Z-0.125000 I-5.789085 J12.304357
G03 X151.376900 Y254.221663 Z-0.125000 I-6.788750 J13.351137
G03 X151.735892 Y254.423991 Z-0.125000 I-6.429744 J11.827969
G03 X152.080688 Y254.631002 Z-0.125000 I-8.330426 J14.265770
G03 X152.419666 Y254.847194 Z-0.125000 I-7.107280 J11.517674
G03 X152.740732 Y255.063246 Z-0.125000 I-10.942260 J16.607501
G03 X153.056458 Y255.286606 Z-0.125000 I-8.020634 J11.672234
G03 X153.351927 Y255.504544 Z-0.125000 I-17.551480 J24.104606
G03 X153.643233 Y255.727370 Z-0.125000 I-9.711454 J12.997804
G03 X153.913661 Y255.939603 Z-0.125000 I-94.711489 J120.960332
G03 X154.181857 Y256.153762 Z-0.125000 I-14.515581 J18.453217
G02 X154.430508 Y256.352977 Z-0.125000 I17.654062 J-21.780188
G03 X154.679498 Y256.550605 Z-0.125000 I-88.714691 J112.026359
G02 X154.912361 Y256.730478 Z-0.125000 I6.404040 J-8.049978
G02 X155.148418 Y256.904719 Z-0.125000 I11.658370 J-15.547458
G02 X155.374011 Y257.060472 Z-0.125000 I3.350624 J-4.611807
G02 X155.605233 Y257.206178 Z-0.125000 I4.181122 J-6.378735
G02 X155.834158 Y257.334691 Z-0.125000 I2.070083 J-3.419361
G02 X156.070722 Y257.448686 Z-0.125000 I2.039462 J-3.929873
G02 X156.314095 Y257.548331 Z-0.125000 I1.740258 J-3.903369
G02 X156.568449 Y257.631663 Z-0.125000 I1.137138 J-3.041016
G03 X156.827698 Y257.706208 Z-0.125000 I-7.948364 J28.130837
G02 X157.084854 Y257.779213 Z-0.125000 I4.695233 J-16.049231
G02 X157.339291 Y257.848254 Z-0.125000 I9.576308 J-34.787928
G02 X157.593510 Y257.915134 Z-0.125000 I8.346735 J-31.210674
G02 X157.845377 Y257.978368 Z-0.125000 I4.516431 J-17.455993
G02 X158.098008 Y258.038268 Z-0.125000 I5.126086 J-21.056754
G02 X158.350458 Y258.094398 Z-0.125000 I3.619644 J-15.683898
G02 X158.603729 Y258.146656 Z-0.125000 I3.718685 J-17.383084
G02 X158.859058 Y258.195220 Z-0.125000 I3.073539 J-15.463718
G02 X159.115167 Y258.239668 Z-0.125000 I2.944206 J-16.204677
G02 X159.375530 Y258.280630 Z-0.125000 I2.724406 J-16.468605
G02 X159.636560 Y258.317488 Z-0.125000 I2.481485 J-16.631253
G02 X159.903886 Y258.351155 Z-0.125000 I2.485547 J-18.658063
G02 X160.171749 Y258.380953 Z-0.125000 I2.145869 J-18.070784
G02 X160.447694 Y258.407874 Z-0.125000 I2.331958 J-22.475857
G02 X160.724050 Y258.431300 Z-0.125000 I1.950780 J-21.371473
G02 X161.009983 Y258.452205 Z-0.125000 I2.183438 J-27.898806
G02 X161.296214 Y258.470064 Z-0.125000 I1.770304 J-26.069714
G02 X161.593195 Y258.485725 Z-0.125000 I2.038309 J-35.830136
G02 X161.890385 Y258.498813 Z-0.125000 I1.589576 J-32.712520
G02 X162.199173 Y258.509987 Z-0.125000 I1.846828 J-46.765094
G02 X162.508110 Y258.519008 Z-0.125000 I1.381167 J-42.005284
G02 X162.829171 Y258.526338 Z-0.125000 I1.524048 J-59.718362
G02 X163.150339 Y258.531877 Z-0.125000 I1.116659 J-55.439063
G02 X163.483861 Y258.535916 Z-0.125000 I1.070230 J-74.593508
G02 X163.817464 Y258.538377 Z-0.125000 I0.741538 J-77.902244
G02 X164.163365 Y258.539461 Z-0.125000 I0.430887 J-82.288150
G02 X164.509331 Y258.539099 Z-0.125000 I0.086867 J-82.282204
G02 X164.867267 Y258.537345 Z-0.125000 I-0.321485 J-102.093800
G02 X165.225252 Y258.534276 Z-0.125000 I-0.621404 J-93.374151
G02 X165.594624 Y258.529698 Z-0.125000 I-1.017492 J-97.003760
G02 X165.964034 Y258.523766 Z-0.125000 I-1.500510 J-104.947698
G02 X166.343984 Y258.516231 Z-0.125000 I-1.681809 J-94.384837
G02 X166.723960 Y258.507250 Z-0.125000 I-2.319487 J-106.175933
G02 X167.113392 Y258.496520 Z-0.125000 I-2.329264 J-91.607431
G02 X167.502826 Y258.484236 Z-0.125000 I-3.109073 J-104.747995
G02 X167.900386 Y258.470088 Z-0.125000 I-3.043472 J-91.113189
G02 X168.297933 Y258.454273 Z-0.125000 I-3.746395 J-99.183317
G02 X168.702046 Y258.436515 Z-0.125000 I-3.921187 J-93.836835
G02 X169.106126 Y258.417041 Z-0.125000 I-4.485933 J-97.283540
G02 X169.515004 Y258.395634 Z-0.125000 I-4.957371 J-98.603834
G02 X169.923829 Y258.372530 Z-0.125000 I-5.339891 J-98.115723
G02 X170.335505 Y258.347668 Z-0.125000 I-6.776905 J-115.637025
G02 X170.747115 Y258.321244 Z-0.125000 I-6.336377 J-101.922198
G02 X171.159480 Y258.293391 Z-0.125000 I-10.395911 J-156.980058
G02 X171.571779 Y258.264270 Z-0.125000 I-7.857236 J-114.177500
G02 X171.982624 Y258.234244 Z-0.125000 I-23.391758 J-322.887902
G02 X172.393427 Y258.203407 Z-0.125000 I-11.289702 J-153.151859
G03 X172.800484 Y258.172408 Z-0.125000 I60.235140 J788.281156
G02 X173.207549 Y258.141247 Z-0.125000 I-22.631008 J-298.311407
G03 X173.608539 Y258.110850 Z-0.125000 I10.875468 J140.807297
G03 X174.009598 Y258.081129 Z-0.125000 I46.070103 J618.946766
G03 X174.402214 Y258.053274 Z-0.125000 I5.133519 J69.577257
G03 X174.794981 Y258.027128 Z-0.125000 I8.666602 J127.223918
G03 X175.176903 Y258.004027 Z-0.125000 I2.747183 J42.251176
G03 X175.559038 Y257.983842 Z-0.125000 I3.395884 J60.660082
G03 X175.927839 Y257.967909 Z-0.125000 I1.419180 J28.574460
G03 X176.294402 Y257.957101 Z-0.125000 I0.928153 J25.256109
G03 X176.649945 Y257.949891 Z-0.125000 I2.028229 J91.253546
G03 X177.002643 Y257.946125 Z-0.125000 I0.422557 J23.054461
G02 X177.356955 Y257.941768 Z-0.125000 I-0.057935 J-19.122466
G02 X177.715817 Y257.932293 Z-0.125000 I-0.822521 J-37.950117
G02 X178.085556 Y257.918856 Z-0.125000 I-1.107510 J-35.568204
G02 X178.455330 Y257.901691 Z-0.125000 I-1.581046 J-38.052965
G02 X178.835622 Y257.880290 Z-0.125000 I-1.961553 J-38.245060
G02 X179.215720 Y257.855208 Z-0.125000 I-2.501327 J-40.798469
G02 X179.605495 Y257.825691 Z-0.125000 I-2.737279 J-38.733663
G02 X179.994997 Y257.792398 Z-0.125000 I-3.409441 J-42.183347
G02 X180.393180 Y257.754449 Z-0.125000 I-3.497947 J-38.810439
G02 X180.790997 Y257.712580 Z-0.125000 I-4.246619 J-42.259979
G02 X181.196354 Y257.665830 Z-0.125000 I-4.245967 J-38.596006
G02 X181.601242 Y257.614982 Z-0.125000 I-5.050511 J-41.853834
G02 X182.012386 Y257.559068 Z-0.125000 I-4.972424 J-38.102098
G02 X182.422952 Y257.498870 Z-0.125000 I-5.792641 J-40.937542
G02 X182.838377 Y257.433478 Z-0.125000 I-5.709709 J-37.625328
G02 X183.253100 Y257.363631 Z-0.125000 I-6.508440 J-39.910795
G02 X183.671186 Y257.288558 Z-0.125000 I-6.471434 J-37.241364
G02 X184.088437 Y257.208889 Z-0.125000 I-7.200665 J-38.844428
G02 X184.507486 Y257.124077 Z-0.125000 I-7.296831 J-37.130876
G02 X184.925574 Y257.034586 Z-0.125000 I-7.899616 J-37.926866
G02 X185.343851 Y256.940174 Z-0.125000 I-8.205042 J-37.324876
G02 X185.761046 Y256.841072 Z-0.125000 I-8.618766 J-37.210805
G02 X186.176822 Y256.737426 Z-0.125000 I-9.264365 J-38.049783
G02 X186.591418 Y256.629169 Z-0.125000 I-9.409860 J-36.885255
G02 X187.003024 Y256.516904 Z-0.125000 I-10.525658 J-39.401882
G02 X187.413386 Y256.400209 Z-0.125000 I-10.306559 J-37.023027
G02 X187.819271 Y256.280200 Z-0.125000 I-12.115780 J-41.723645
G02 X188.223886 Y256.156053 Z-0.125000 I-11.377143 J-37.801295
G02 X188.622680 Y256.029434 Z-0.125000 I-14.292158 J-45.705216
G02 X189.020229 Y255.899081 Z-0.125000 I-12.749132 J-39.553715
G02 X189.410791 Y255.767224 Z-0.125000 I-17.544398 J-52.610931
G02 X189.800202 Y255.632153 Z-0.125000 I-14.605156 J-42.735814
G02 X190.181680 Y255.496635 Z-0.125000 I-23.144874 J-65.756402
G02 X190.562167 Y255.358543 Z-0.125000 I-17.438518 J-48.641805
G02 X190.934045 Y255.221112 Z-0.125000 I-35.518829 J-96.683010
G02 X191.305161 Y255.081847 Z-0.125000 I-22.447430 J-60.382678
G02 X191.667284 Y254.944363 Z-0.125000 I-88.274854 J-233.055084
G00 Z3.000000

(End cutting path id: path338533)


(Start cutting path id: path338531)
(Change tool to Default tool)

G00 Z3.000000
G00 X124.561161 Y255.186541

G00 Z4.875000 (Fast pre-penetrate)
G01 Z-0.125000 F400.0(Penetrate)
G02 X124.863891 Y255.276514 Z-0.125000 I8.199245 J-27.033613 F800.000000
G02 X125.165120 Y255.361290 Z-0.125000 I4.880971 J-16.765552
G02 X125.467650 Y255.441069 Z-0.125000 I5.448656 J-20.048569
G02 X125.770761 Y255.515294 Z-0.125000 I3.807033 J-14.890676
G02 X126.075224 Y255.583688 Z-0.125000 I3.944744 J-16.848544
G02 X126.382479 Y255.646315 Z-0.125000 I3.031731 J-14.088919
G02 X126.691001 Y255.702527 Z-0.125000 I2.967512 J-15.412697
G02 X127.004495 Y255.752818 Z-0.125000 I2.409261 J-14.016088
G02 X127.319073 Y255.796336 Z-0.125000 I2.239652 J-15.031024
G02 X127.640627 Y255.833775 Z-0.125000 I1.846277 J-14.457509
G02 X127.963010 Y255.864274 Z-0.125000 I1.607599 J-15.273698
G02 X128.294076 Y255.888472 Z-0.125000 I1.283797 J-15.287297
G02 X128.625695 Y255.905691 Z-0.125000 I1.004461 J-16.142845
G02 X128.967294 Y255.916322 Z-0.125000 I0.676970 J-16.259229
G02 X129.309168 Y255.919983 Z-0.125000 I0.354966 J-17.181940
G02 X129.661856 Y255.916587 Z-0.125000 I0.012927 J-16.969678
G02 X130.014544 Y255.906359 Z-0.125000 I-0.360263 J-18.510212
G02 X130.378370 Y255.888737 Z-0.125000 I-0.709830 J-18.418995
G02 X130.741921 Y255.864154 Z-0.125000 I-1.155440 J-19.788259
G02 X131.116409 Y255.831690 Z-0.125000 I-1.474754 J-19.188118
G02 X131.490343 Y255.792182 Z-0.125000 I-2.006991 J-20.784923
G02 X131.874468 Y255.744301 Z-0.125000 I-2.265632 J-19.740846
G02 X132.257751 Y255.689229 Z-0.125000 I-2.881535 J-21.415757
G02 X132.649956 Y255.625344 Z-0.125000 I-3.063657 J-20.044552
G02 X133.040999 Y255.554063 Z-0.125000 I-3.751429 J-21.688273
G02 X133.439202 Y255.473656 Z-0.125000 I-3.857592 J-20.130377
G02 X133.835892 Y255.385628 Z-0.125000 I-4.579576 J-21.575158
G02 X134.237520 Y255.288366 Z-0.125000 I-4.655541 J-20.102261
G02 X134.637267 Y255.183283 Z-0.125000 I-5.353742 J-21.179008
G02 X135.039349 Y255.069154 Z-0.125000 I-5.476399 J-20.059000
G02 X135.439171 Y254.947076 Z-0.125000 I-6.079632 J-20.627346
G02 X135.838445 Y254.816519 Z-0.125000 I-6.351526 J-20.100420
G02 X136.235082 Y254.678038 Z-0.125000 I-6.788194 J-20.079884
G02 X136.628165 Y254.532050 Z-0.125000 I-7.263511 J-20.159778
G02 X137.018095 Y254.378677 Z-0.125000 I-7.997504 J-20.904906
G02 X137.401896 Y254.218398 Z-0.125000 I-6.783917 J-16.784237
G02 X137.782503 Y254.048856 Z-0.125000 I-6.887682 J-15.974309
G02 X138.154031 Y253.874146 Z-0.125000 I-10.061399 J-21.878335
G02 X138.522016 Y253.692068 Z-0.125000 I-7.809271 J-16.245633
G02 X138.877499 Y253.509077 Z-0.125000 I-20.044445 J-39.375683
G02 X139.230166 Y253.321672 Z-0.125000 I-10.812838 J-20.773595
G02 X139.568230 Y253.138050 Z-0.125000 I-152.235017 J-280.680443
G02 X139.904848 Y252.952790 Z-0.125000 I-18.622758 J-34.236126
G03 X140.226584 Y252.775240 Z-0.125000 I23.623747 J42.428033
G02 X140.548474 Y252.598970 Z-0.125000 I-166.867609 J-305.102065
G03 X140.856865 Y252.433259 Z-0.125000 I9.945809 J18.139498
G03 X141.166994 Y252.271765 Z-0.125000 I18.014549 J34.216209
G03 X141.466427 Y252.122477 Z-0.125000 I5.859982 J11.378668
G03 X141.768890 Y251.980210 Z-0.125000 I7.429553 J15.402717
G03 X142.064586 Y251.850711 Z-0.125000 I3.934229 J8.580996
G03 X142.364057 Y251.730704 Z-0.125000 I4.271380 J10.225366
G03 X142.661459 Y251.623286 Z-0.125000 I2.837897 J7.391687
G03 X142.962726 Y251.527267 Z-0.125000 I2.800816 J8.267205
G03 X143.266928 Y251.443382 Z-0.125000 I2.115738 J7.079031
G03 X143.574495 Y251.372106 Z-0.125000 I1.938056 J7.663674
G03 X143.889759 Y251.312644 Z-0.125000 I1.550953 J7.357636
G03 X144.207502 Y251.266286 Z-0.125000 I1.305671 J7.837160
G03 X144.536926 Y251.231803 Z-0.125000 I1.011046 J8.067994
G03 X144.867805 Y251.210393 Z-0.125000 I0.720793 J8.571675
G03 X145.213150 Y251.201313 Z-0.125000 I0.410859 J9.054675
G03 X145.558957 Y251.205041 Z-0.125000 I0.067382 J9.788206
G03 X145.920582 Y251.221818 Z-0.125000 I-0.287475 J10.102530
G03 X146.281764 Y251.251066 Z-0.125000 I-0.703842 J10.936328
G03 X146.658618 Y251.294324 Z-0.125000 I-1.087458 J11.136832
G03 X147.034184 Y251.349850 Z-0.125000 I-1.599477 J12.116488
G03 X147.423807 Y251.420250 Z-0.125000 I-1.945601 J11.881167
G03 X147.811313 Y251.502914 Z-0.125000 I-2.565088 J12.974006
G03 X148.209899 Y251.601037 Z-0.125000 I-2.824411 J12.331687
G03 X148.605496 Y251.711570 Z-0.125000 I-3.521501 J13.366593
G03 X149.008014 Y251.837611 Z-0.125000 I-3.702590 J12.530135
G03 X149.406612 Y251.976229 Z-0.125000 I-4.396514 J13.284615
G03 X149.807052 Y252.129610 Z-0.125000 I-4.583218 J12.565079
G03 X150.202616 Y252.295609 Z-0.125000 I-5.155378 J12.839234
G03 X150.594364 Y252.474579 Z-0.125000 I-5.502765 J12.563246
G03 X150.980346 Y252.665908 Z-0.125000 I-5.800901 J12.187598
G03 X151.356741 Y252.867215 Z-0.125000 I-6.536965 J12.675071
G03 X151.726686 Y253.080180 Z-0.125000 I-6.368923 J11.491315
G03 X152.081680 Y253.298900 Z-0.125000 I-7.858820 J13.152731
G03 X152.429941 Y253.528030 Z-0.125000 I-6.928416 J10.909940
G03 X152.758862 Y253.757637 Z-0.125000 I-9.932854 J14.579584
G03 X153.081363 Y253.995798 Z-0.125000 I-7.628111 J10.666903
G03 X153.381640 Y254.228521 Z-0.125000 I-14.480950 J18.994522
G03 X153.676595 Y254.467328 Z-0.125000 I-8.831323 J11.209252
G03 X153.948340 Y254.694769 Z-0.125000 I-37.938458 J45.604763
G03 X154.216760 Y254.925234 Z-0.125000 I-11.868835 J14.095082
G02 X154.463120 Y255.139192 Z-0.125000 I27.272831 J-31.154271
G03 X154.708987 Y255.352534 Z-0.125000 I-30.380743 J35.260701
G02 X154.936192 Y255.545898 Z-0.125000 I7.505186 J-8.588510
G02 X155.166232 Y255.734392 Z-0.125000 I17.055388 J-20.580000
G02 X155.383364 Y255.901839 Z-0.125000 I3.600142 J-4.443862
G02 X155.606394 Y256.059641 Z-0.125000 I4.704275 J-6.412296
G02 X155.824926 Y256.197894 Z-0.125000 I2.111477 J-3.095705
G02 X156.051863 Y256.321502 Z-0.125000 I2.119186 J-3.620584
G02 X156.284139 Y256.429087 Z-0.125000 I1.689036 J-3.342095
G02 X156.528128 Y256.519716 Z-0.125000 I1.152985 J-2.730279
G03 X156.777478 Y256.600147 Z-0.125000 I-134.472872 J417.313017
G02 X157.025911 Y256.677046 Z-0.125000 I3.285070 J-10.173142
G02 X157.273664 Y256.748613 Z-0.125000 I5.377983 J-18.153154
G02 X157.521798 Y256.816359 Z-0.125000 I4.438469 J-15.768445
G02 X157.769971 Y256.879518 Z-0.125000 I3.457747 J-13.067582
G02 X158.019263 Y256.938103 Z-0.125000 I3.405808 J-13.932649
G02 X158.270848 Y256.992365 Z-0.125000 I2.991895 J-13.261549
G02 X158.523444 Y257.041905 Z-0.125000 I2.791912 J-13.566774
G02 X158.780517 Y257.087480 Z-0.125000 I2.685640 J-14.400931
G02 X159.038429 Y257.128446 Z-0.125000 I2.397355 J-14.260843
G02 X159.302817 Y257.165847 Z-0.125000 I2.480977 J-16.584903
G02 X159.567858 Y257.198958 Z-0.125000 I2.126983 J-15.948315
G02 X159.841095 Y257.228910 Z-0.125000 I2.339055 J-20.076578
G02 X160.114821 Y257.255028 Z-0.125000 I1.932925 J-18.810715
G02 X160.398156 Y257.278385 Z-0.125000 I2.224777 J-25.257814
G02 X160.681835 Y257.298422 Z-0.125000 I1.780835 J-23.193999
G02 X160.976201 Y257.316069 Z-0.125000 I2.096522 J-32.507451
G02 X161.270809 Y257.330924 Z-0.125000 I1.616957 J-29.140164
G02 X161.576855 Y257.343702 Z-0.125000 I1.930227 J-42.557435
G02 X161.883067 Y257.354157 Z-0.125000 I1.474623 J-38.702841
G02 X162.201160 Y257.362805 Z-0.125000 I1.605464 J-53.194294
G02 X162.519370 Y257.369531 Z-0.125000 I1.215617 J-49.979941
G02 X162.849608 Y257.374659 Z-0.125000 I1.221658 J-68.047855
G02 X163.179934 Y257.378137 Z-0.125000 I0.842832 J-64.344393
G02 X163.522172 Y257.380135 Z-0.125000 I0.640912 J-80.470104
G02 X163.864475 Y257.380698 Z-0.125000 I0.324595 J-93.287322
G02 X164.218324 Y257.379871 Z-0.125000 I-0.015628 J-82.326818
G02 X164.572219 Y257.377641 Z-0.125000 I-0.438173 J-97.631690
G02 X164.937051 Y257.373997 Z-0.125000 I-0.789279 J-97.285702
G02 X165.301918 Y257.368996 Z-0.125000 I-1.260272 J-105.264803
G02 X165.676881 Y257.362488 Z-0.125000 I-1.509167 J-97.748334
G02 X166.051862 Y257.354616 Z-0.125000 I-2.106184 J-109.260024
G02 X166.435879 Y257.345131 Z-0.125000 I-2.195321 J-96.665702
G02 X166.819902 Y257.334240 Z-0.125000 I-2.873545 J-108.098969
G02 X167.211679 Y257.321663 Z-0.125000 I-3.006388 J-99.753779
G02 X167.603447 Y257.307593 Z-0.125000 I-3.627352 J-106.468192
G02 X168.001488 Y257.291810 Z-0.125000 I-3.963061 J-104.969260
G02 X168.399505 Y257.274522 Z-0.125000 I-4.331100 J-104.306628
G02 X168.802130 Y257.255551 Z-0.125000 I-5.163330 J-113.864883
G02 X169.204717 Y257.235127 Z-0.125000 I-5.239572 J-107.256690
G02 X169.610082 Y257.213192 Z-0.125000 I-7.135690 J-135.622668
G02 X170.015399 Y257.189945 Z-0.125000 I-6.384441 J-114.862470
G02 X170.421531 Y257.165500 Z-0.125000 I-11.313670 J-191.354974
G02 X170.827623 Y257.140016 Z-0.125000 I-8.318760 J-135.807049
G02 X171.232454 Y257.113819 Z-0.125000 I-28.804941 J-448.280790
G02 X171.637266 Y257.087001 Z-0.125000 I-12.427761 J-190.660019
G03 X172.038670 Y257.060128 Z-0.125000 I36.934079 J548.674071
G02 X172.440091 Y257.033211 Z-0.125000 I-31.803101 J-477.300800
G03 X172.835899 Y257.007063 Z-0.125000 I9.491119 J140.659406
G03 X173.231779 Y256.981626 Z-0.125000 I31.629634 J489.173600
G03 X173.619795 Y256.957898 Z-0.125000 I4.615686 J72.293286
G03 X174.007939 Y256.935801 Z-0.125000 I7.346635 J125.624883
G03 X174.385916 Y256.916448 Z-0.125000 I2.509345 J45.310340
G03 X174.764072 Y256.899782 Z-0.125000 I3.043287 J64.753260
G03 X175.129664 Y256.886897 Z-0.125000 I1.275668 J31.002200
G03 X175.495448 Y256.877867 Z-0.125000 I1.150906 J39.207524
G03 X175.846102 Y256.873562 Z-0.125000 I0.453385 J22.646438
G03 X176.193814 Y256.875270 Z-0.125000 I0.083469 J18.403586
G03 X176.529737 Y256.880521 Z-0.125000 I-1.897955 J132.173220
G03 X176.862108 Y256.889083 Z-0.125000 I-0.317252 J18.770094
G02 X177.198610 Y256.896449 Z-0.125000 I0.457605 J-13.215920
G02 X177.540977 Y256.897228 Z-0.125000 I0.226879 J-24.462973
G02 X177.899110 Y256.893009 Z-0.125000 I-0.119753 J-25.367289
G02 X178.257407 Y256.884135 Z-0.125000 I-0.505963 J-27.666992
G02 X178.630936 Y256.870176 Z-0.125000 I-0.954247 J-30.537861
G02 X179.004321 Y256.851772 Z-0.125000 I-1.406013 J-32.322487
G02 X179.391741 Y256.828112 Z-0.125000 I-1.789049 J-32.479292
G02 X179.778905 Y256.800007 Z-0.125000 I-2.367945 J-35.300120
G02 X180.178672 Y256.766372 Z-0.125000 I-2.609183 J-33.403814
G02 X180.578062 Y256.728171 Z-0.125000 I-3.323263 J-36.851576
G02 X180.988413 Y256.684139 Z-0.125000 I-3.395969 J-33.582793
G02 X181.398250 Y256.635333 Z-0.125000 I-4.214759 J-37.137298
G02 X181.817221 Y256.580417 Z-0.125000 I-4.163890 J-33.393702
G02 X182.235530 Y256.520474 Z-0.125000 I-5.036065 J-36.633169
G02 X182.660982 Y256.454217 Z-0.125000 I-4.924568 J-33.020718
G02 X183.085605 Y256.382681 Z-0.125000 I-5.787210 J-35.647745
G02 X183.515260 Y256.304748 Z-0.125000 I-5.716783 J-32.740977
G02 X183.943905 Y256.221333 Z-0.125000 I-6.503691 J-34.563560
G02 X184.375387 Y256.131608 Z-0.125000 I-6.564064 J-32.648427
G02 X184.805676 Y256.036263 Z-0.125000 I-7.220498 J-33.604541
G02 X185.236578 Y255.934898 Z-0.125000 I-7.502883 J-32.861400
G02 X185.666116 Y255.827893 Z-0.125000 I-7.948142 J-32.820872
G02 X186.094065 Y255.715382 Z-0.125000 I-8.591718 J-33.549661
G02 X186.520507 Y255.597332 Z-0.125000 I-8.750947 J-32.440967
G02 X186.943255 Y255.474529 Z-0.125000 I-9.924119 J-34.952918
G02 X187.364400 Y255.346438 Z-0.125000 I-9.650950 J-32.487178
G02 X187.779898 Y255.214569 Z-0.125000 I-11.638366 J-37.391117
G02 X188.193773 Y255.077819 Z-0.125000 I-10.743898 J-33.211364
G02 X188.600278 Y254.938471 Z-0.125000 I-14.071373 J-41.711302
G02 X189.005218 Y254.794808 Z-0.125000 I-12.181453 J-34.978314
G02 X189.401358 Y254.649882 Z-0.125000 I-17.922888 J-49.604165
G02 X189.796088 Y254.501366 Z-0.125000 I-14.224155 J-38.403945
G02 X190.180947 Y254.353015 Z-0.125000 I-25.372582 J-66.396243
G02 X190.564646 Y254.201950 Z-0.125000 I-17.553183 J-45.147353
G02 X190.937792 Y254.052520 Z-0.125000 I-47.142925 J-118.262278
G02 X191.310138 Y253.901381 Z-0.125000 I-24.099246 J-59.905225
G02 X191.671676 Y253.753303 Z-0.125000 I-2185.029286 J-5335.345607
G00 Z3.000000

(End cutting path id: path338531)


(Start cutting path id: path338529)
(Change tool to Default tool)

G00 Z3.000000
G00 X124.287905 Y254.514810

G00 Z4.875000 (Fast pre-penetrate)
G01 Z-0.125000 F400.0(Penetrate)
G02 X124.582831 Y254.591262 Z-0.125000 I4.332760 J-16.107173 F800.000000
G02 X124.879976 Y254.661770 Z-0.125000 I3.205012 J-12.845675
G02 X125.178617 Y254.725732 Z-0.125000 I3.209709 J-14.257096
G02 X125.482056 Y254.783658 Z-0.125000 I2.583397 J-12.709074
G02 X125.786815 Y254.834602 Z-0.125000 I2.446723 J-13.699829
G02 X126.098804 Y254.879437 Z-0.125000 I2.055893 J-13.198222
G02 X126.411849 Y254.917106 Z-0.125000 I1.843632 J-14.001737
G02 X126.734242 Y254.948546 Z-0.125000 I1.542682 J-14.150344
G02 X127.057390 Y254.972831 Z-0.125000 I1.279468 J-14.863370
G02 X127.391556 Y254.990671 Z-0.125000 I0.992002 J-15.443129
G02 X127.726170 Y255.001467 Z-0.125000 I0.691846 J-16.251254
G02 X128.072948 Y255.005514 Z-0.125000 I0.369893 J-16.838407
G02 X128.419882 Y255.002607 Z-0.125000 I0.020841 J-18.221862
G02 X128.779543 Y254.992602 Z-0.125000 I-0.324695 J-18.140835
G02 X129.139091 Y254.975722 Z-0.125000 I-0.739042 J-19.579424
G02 X129.511321 Y254.951256 Z-0.125000 I-1.096714 J-19.529147
G02 X129.883177 Y254.919931 Z-0.125000 I-1.586101 J-21.051332
G02 X130.267079 Y254.880525 Z-0.125000 I-1.902084 J-20.420174
G02 X130.650335 Y254.834182 Z-0.125000 I-2.487705 J-22.181249
G02 X131.044411 Y254.779311 Z-0.125000 I-2.731944 J-21.063094
G02 X131.437555 Y254.717342 Z-0.125000 I-3.401254 J-22.856373
G02 X131.839747 Y254.646509 Z-0.125000 I-3.574276 J-21.472039
G02 X132.240700 Y254.568393 Z-0.125000 I-4.286035 J-23.067289
G02 X132.648437 Y254.481272 Z-0.125000 I-4.438654 J-21.771118
G02 X133.054606 Y254.386707 Z-0.125000 I-5.128772 J-22.948447
G02 X133.464885 Y254.283295 Z-0.125000 I-5.355589 J-22.113335
G02 X133.873272 Y254.172365 Z-0.125000 I-5.936761 J-22.663332
G02 X134.282806 Y254.053131 Z-0.125000 I-6.381585 J-22.681906
G02 X134.690147 Y253.926463 Z-0.125000 I-6.734029 J-22.373720
G02 X135.095536 Y253.792493 Z-0.125000 I-7.621006 J-23.741233
G02 X135.498508 Y253.651394 Z-0.125000 I-7.577310 J-22.286412
G02 X135.896463 Y253.504489 Z-0.125000 I-9.269656 J-25.723330
G02 X136.291880 Y253.351088 Z-0.125000 I-8.632417 J-22.837738
G02 X136.679510 Y253.193766 Z-0.125000 I-11.401225 J-28.647982
G02 X137.064111 Y253.032013 Z-0.125000 I-13.798606 J-33.347232
G02 X137.439773 Y252.865889 Z-0.125000 I-6.474231 J-15.148228
G02 X137.812552 Y252.690335 Z-0.125000 I-7.583224 J-16.586047
G02 X138.175012 Y252.510017 Z-0.125000 I-8.650946 J-17.843920
G02 X138.533633 Y252.321248 Z-0.125000 I-7.260795 J-14.229004
G02 X138.878845 Y252.131563 Z-0.125000 I-17.960130 J-33.094989
G02 X139.220774 Y251.937007 Z-0.125000 I-9.929713 J-17.849074
G02 X139.547137 Y251.746690 Z-0.125000 I-95.466627 J-164.084512
G02 X139.871750 Y251.554445 Z-0.125000 I-16.535164 J-28.290353
G03 X140.180610 Y251.370707 Z-0.125000 I24.395819 J40.657498
G02 X140.489531 Y251.188121 Z-0.125000 I-95.168478 J-161.370835
G03 X140.784317 Y251.017057 Z-0.125000 I9.697618 J16.371854
G03 X141.080971 Y250.850252 Z-0.125000 I18.188680 J32.000341
G03 X141.366651 Y250.696576 Z-0.125000 I5.600990 J10.069730
G03 X141.655675 Y250.550136 Z-0.125000 I7.127779 J13.709488
G03 X141.938126 Y250.417168 Z-0.125000 I3.735169 J7.567786
G03 X142.224770 Y250.294040 Z-0.125000 I4.043815 J9.018824
G03 X142.510110 Y250.183880 Z-0.125000 I2.704103 J6.579626
G03 X142.799724 Y250.085532 Z-0.125000 I2.658616 J7.353446
G03 X143.093661 Y249.999381 Z-0.125000 I2.044387 J6.430707
G03 X143.391284 Y249.926188 Z-0.125000 I1.869055 J6.958418
G03 X143.698590 Y249.864650 Z-0.125000 I1.537430 J6.879466
G03 X144.008596 Y249.816417 Z-0.125000 I1.300304 J7.337090
G03 X144.332758 Y249.779785 Z-0.125000 I1.043976 J7.785627
G03 X144.658529 Y249.756241 Z-0.125000 I0.764021 J8.306077
G03 X145.001600 Y249.744741 Z-0.125000 I0.473254 J8.994907
G03 X145.345261 Y249.745895 Z-0.125000 I0.139403 J9.659766
G03 X145.707801 Y249.759928 Z-0.125000 I-0.218624 J10.337950
G03 X146.070042 Y249.786211 Z-0.125000 I-0.635738 J11.271580
G03 X146.451124 Y249.826455 Z-0.125000 I-1.014191 J11.427973
G03 X146.831080 Y249.878797 Z-0.125000 I-1.556987 J12.707589
G03 X147.228262 Y249.946218 Z-0.125000 I-1.873079 J12.237979
G03 X147.623496 Y250.025866 Z-0.125000 I-2.560154 J13.724633
G03 X148.032851 Y250.121513 Z-0.125000 I-2.740423 J12.652498
G03 X148.439357 Y250.229739 Z-0.125000 I-3.544174 J14.129693
G03 X148.855564 Y250.354406 Z-0.125000 I-3.595169 J12.759712
G03 X149.267911 Y250.492094 Z-0.125000 I-4.431437 J13.957599
G03 X149.684444 Y250.645871 Z-0.125000 I-4.437792 J12.661565
G03 X150.096026 Y250.813001 Z-0.125000 I-5.180638 J13.348445
G03 X150.505538 Y250.994771 Z-0.125000 I-5.300460 J12.493615
G03 X150.909008 Y251.189923 Z-0.125000 I-5.797278 J12.500357
G03 X151.303885 Y251.396924 Z-0.125000 I-6.246595 J12.396187
G03 X151.691780 Y251.616854 Z-0.125000 I-6.317416 J11.594225
G03 X152.064874 Y251.844411 Z-0.125000 I-7.393954 J12.542448
G03 X152.430411 Y252.083815 Z-0.125000 I-6.796248 J10.775727
G03 X152.775885 Y252.325312 Z-0.125000 I-9.052519 J13.317944
G03 X153.113839 Y252.576892 Z-0.125000 I-7.340245 J10.213115
G03 X153.428026 Y252.824109 Z-0.125000 I-12.207262 J15.837446
G03 X153.735580 Y253.078947 Z-0.125000 I-8.188261 J10.195055
G03 X154.017716 Y253.322708 Z-0.125000 I-22.666399 J26.519989
G03 X154.295122 Y253.570972 Z-0.125000 I-10.096357 J11.560585
G02 X154.547800 Y253.802058 Z-0.125000 I85.560103 J-93.301080
G03 X154.798688 Y254.033916 Z-0.125000 I-17.574821 J19.268929
G02 X155.027970 Y254.244123 Z-0.125000 I10.098186 J-10.784418
G02 X155.259171 Y254.450707 Z-0.125000 I45.534530 J-50.727575
G02 X155.474364 Y254.633751 Z-0.125000 I4.245491 J-4.773170
G02 X155.695229 Y254.808102 Z-0.125000 I6.125578 J-7.532695
G02 X155.908394 Y254.960071 Z-0.125000 I2.313955 J-3.020259
G02 X156.130466 Y255.097748 Z-0.125000 I2.406594 J-3.633898
G02 X156.355026 Y255.216971 Z-0.125000 I1.726417 J-2.980657
G02 X156.591949 Y255.318666 Z-0.125000 I1.229745 J-2.538142
G02 X156.833583 Y255.408328 Z-0.125000 I10.281218 J-27.336965
G02 X157.075883 Y255.492530 Z-0.125000 I2.679400 J-7.319508
G02 X157.319106 Y255.569877 Z-0.125000 I3.948020 J-11.993760
G02 X157.563486 Y255.641752 Z-0.125000 I3.187975 J-10.387899
G02 X157.810042 Y255.708008 Z-0.125000 I2.929701 J-10.410400
G02 X158.058151 Y255.768420 Z-0.125000 I2.667391 J-10.415146
G02 X158.310818 Y255.823861 Z-0.125000 I2.653985 J-11.491826
G02 X158.564738 Y255.873674 Z-0.125000 I2.330696 J-11.208512
G02 X158.825342 Y255.919135 Z-0.125000 I2.471074 J-13.395833
G02 X159.086903 Y255.959408 Z-0.125000 I2.101183 J-12.776947
G02 X159.356940 Y255.995893 Z-0.125000 I2.344528 J-16.335051
G02 X159.627666 Y256.027773 Z-0.125000 I1.924104 J-15.174171
G02 X159.908286 Y256.056361 Z-0.125000 I2.247874 J-20.673621
G02 X160.189387 Y256.080972 Z-0.125000 I1.804215 J-18.989564
G02 X160.481418 Y256.102753 Z-0.125000 I2.130677 J-26.598844
G02 X160.773776 Y256.121174 Z-0.125000 I1.666454 J-24.118399
G02 X161.077745 Y256.137130 Z-0.125000 I1.955067 J-34.341923
G02 X161.381934 Y256.150285 Z-0.125000 I1.497092 J-31.094483
G02 X161.698087 Y256.161286 Z-0.125000 I1.709807 J-44.587056
G02 X162.014385 Y256.169950 Z-0.125000 I1.282493 J-41.041311
G02 X162.342704 Y256.176711 Z-0.125000 I1.312873 J-55.779063
G02 X162.671118 Y256.181471 Z-0.125000 I0.917961 J-52.012535
G02 X163.011344 Y256.184490 Z-0.125000 I0.784365 J-69.206713
G02 X163.351632 Y256.185678 Z-0.125000 I0.423535 J-72.598101
G02 X163.703274 Y256.185284 Z-0.125000 I0.088931 J-77.556802
G02 X164.054956 Y256.183291 Z-0.125000 I-0.261462 J-77.187122
G02 X164.417304 Y256.179648 Z-0.125000 I-0.682017 J-85.855228
G02 X164.779679 Y256.174490 Z-0.125000 I-1.064583 J-87.513548
G02 X165.151813 Y256.167663 Z-0.125000 I-1.488554 J-91.285726
G02 X165.523962 Y256.159339 Z-0.125000 I-1.914251 J-93.907530
G02 X165.904766 Y256.149301 Z-0.125000 I-2.306833 J-94.738378
G02 X166.285567 Y256.137766 Z-0.125000 I-2.817462 J-99.304106
G02 X166.673734 Y256.124483 Z-0.125000 I-3.114996 J-96.707519
G02 X167.061883 Y256.109712 Z-0.125000 I-3.640643 J-100.773627
G02 X167.455926 Y256.093222 Z-0.125000 I-4.238671 J-106.007853
G02 X167.849936 Y256.075269 Z-0.125000 I-4.518065 J-103.487687
G02 X168.248212 Y256.055699 Z-0.125000 I-5.698862 J-120.042900
G02 X168.646449 Y256.034757 Z-0.125000 I-5.605837 J-110.396431
G02 X169.047189 Y256.012421 Z-0.125000 I-8.167450 J-150.145796
G02 X169.447883 Y255.988893 Z-0.125000 I-7.157719 J-125.322217
G02 X169.849212 Y255.964331 Z-0.125000 I-13.814508 J-229.008370
G02 X170.250503 Y255.938880 Z-0.125000 I-9.344168 J-150.511232
G02 X170.650472 Y255.912885 Z-0.125000 I-55.898078 J-863.154317
G02 X171.050432 Y255.886441 Z-0.125000 I-15.552541 J-238.253904
G03 X171.447052 Y255.860114 Z-0.125000 I22.886744 J341.774020
G02 X171.843703 Y255.833922 Z-0.125000 I-62.788578 J-953.877302
G03 X172.234962 Y255.808637 Z-0.125000 I8.047743 J121.489892
G03 X172.626299 Y255.784231 Z-0.125000 I20.543955 J326.264353
G03 X173.010161 Y255.761620 Z-0.125000 I4.159035 J67.338515
G03 X173.394151 Y255.740777 Z-0.125000 I6.265636 J111.881554
G03 X173.768530 Y255.722703 Z-0.125000 I2.302463 J43.805961
G03 X174.143081 Y255.707401 Z-0.125000 I2.668367 J60.724031
G03 X174.505798 Y255.695829 Z-0.125000 I1.169726 J30.973876
G03 X174.868688 Y255.688127 Z-0.125000 I0.993961 J38.275869
G03 X175.217376 Y255.685034 Z-0.125000 I0.377406 J22.895118
G03 X175.566181 Y255.686911 Z-0.125000 I0.030501 J26.751350
G03 X175.898151 Y255.694136 Z-0.125000 I-0.200302 J16.832854
G03 X176.226509 Y255.708469 Z-0.125000 I-0.410097 J13.163163
G03 X176.542198 Y255.726312 Z-0.125000 I-24.811786 J441.795337
G03 X176.853707 Y255.747329 Z-0.125000 I-0.839118 J14.756141
G02 X177.171147 Y255.766528 Z-0.125000 I0.706577 J-9.048547
G02 X177.495669 Y255.777163 Z-0.125000 I0.685951 J-15.975239
G02 X177.839896 Y255.782007 Z-0.125000 I0.455806 J-20.160089
G02 X178.184484 Y255.780971 Z-0.125000 I0.113255 J-19.649315
G02 X178.548269 Y255.774043 Z-0.125000 I-0.294596 J-25.021629
G02 X178.911988 Y255.761855 Z-0.125000 I-0.666725 J-25.331397
G02 X179.293497 Y255.743713 Z-0.125000 I-1.135074 J-27.890094
G02 X179.674785 Y255.720501 Z-0.125000 I-1.630784 J-29.930975
G02 X180.072103 Y255.691080 Z-0.125000 I-1.983770 J-29.487064
G02 X180.469051 Y255.656555 Z-0.125000 I-2.640454 J-32.657971
G02 X180.879984 Y255.615475 Z-0.125000 I-2.815278 J-30.237714
G02 X181.290389 Y255.569102 Z-0.125000 I-3.608219 J-33.772148
G02 X181.712492 Y255.515823 Z-0.125000 I-3.614827 J-30.336960
G02 X182.133882 Y255.456970 Z-0.125000 I-4.495945 J-33.729123
G02 X182.564491 Y255.390937 Z-0.125000 I-4.406688 J-30.173735
G02 X182.994178 Y255.319024 Z-0.125000 I-5.301075 J-32.993986
G02 X183.430448 Y255.239805 Z-0.125000 I-5.220815 J-29.992530
G02 X183.865573 Y255.154444 Z-0.125000 I-6.052599 J-32.004698
G02 X184.304550 Y255.061859 Z-0.125000 I-6.086661 J-29.946123
G02 X184.742152 Y254.962961 Z-0.125000 I-6.784432 J-31.037187
G02 X185.180844 Y254.857186 Z-0.125000 I-7.052787 J-30.213255
G02 X185.617950 Y254.745060 Z-0.125000 I-7.530348 J-30.263965
G02 X186.053441 Y254.626697 Z-0.125000 I-8.187041 J-30.982839
G02 X186.487167 Y254.502110 Z-0.125000 I-8.334593 J-29.832546
G02 X186.916715 Y254.372226 Z-0.125000 I-9.579315 J-32.455697
G02 X187.344388 Y254.236439 Z-0.125000 I-9.254855 J-29.890301
G02 X187.765545 Y254.096584 Z-0.125000 I-11.423072 J-35.103227
G02 X188.184809 Y253.951341 Z-0.125000 I-10.381642 J-30.645911
G02 X188.595547 Y253.803500 Z-0.125000 I-14.113468 J-39.855012
G02 X189.004487 Y253.650990 Z-0.125000 I-11.886821 J-32.497786
G02 X189.403282 Y253.497536 Z-0.125000 I-18.704399 J-49.203862
G02 X189.800503 Y253.340320 Z-0.125000 I-14.149691 J-36.330954
G02 X190.186439 Y253.183907 Z-0.125000 I-28.765311 J-71.530563
G02 X190.571151 Y253.024824 Z-0.125000 I-18.057848 J-44.214096
G02 X190.943954 Y252.868294 Z-0.125000 I-73.566356 J-175.733032
G02 X191.316002 Y252.710339 Z-0.125000 I-26.961329 J-64.021898
G03 X191.676063 Y252.556589 Z-0.125000 I92.677640 J216.539648
G00 Z3.000000

(End cutting path id: path338529)


(Start cutting path id: path338527)
(Change tool to Default tool)

G00 Z3.000000
G00 X123.964834 Y253.790551

G00 Z4.875000 (Fast pre-penetrate)
G01 Z-0.125000 F400.0(Penetrate)
G02 X124.254828 Y253.853293 Z-0.125000 I2.752098 J-12.018775 F800.000000
G02 X124.551536 Y253.909714 Z-0.125000 I2.297827 J-11.275412
G02 X124.849688 Y253.958575 Z-0.125000 I2.126004 J-12.038860
G02 X125.157386 Y254.001146 Z-0.125000 I1.843287 J-12.189799
G02 X125.466190 Y254.036151 Z-0.125000 I1.610756 J-12.829996
G02 X125.786913 Y254.064794 Z-0.125000 I1.375363 J-13.590403
G02 X126.108383 Y254.086046 Z-0.125000 I1.107435 J-14.309931
G02 X126.443564 Y254.100746 Z-0.125000 I0.838208 J-15.283755
G02 X126.779157 Y254.108293 Z-0.125000 I0.531619 J-16.173641
G02 X127.129577 Y254.108948 Z-0.125000 I0.207162 J-17.100479
G02 X127.480115 Y254.102692 Z-0.125000 I-0.140021 J-17.669875
G02 X127.845893 Y254.088998 Z-0.125000 I-0.526277 J-18.949733
G02 X128.211520 Y254.068488 Z-0.125000 I-0.961215 J-20.404112
G02 X128.592089 Y254.040085 Z-0.125000 I-1.305660 J-20.058201
G02 X128.972239 Y254.004783 Z-0.125000 I-1.852645 J-22.014991
G02 X129.366346 Y253.960998 Z-0.125000 I-2.129845 J-20.966241
G02 X129.759751 Y253.910151 Z-0.125000 I-2.797123 J-23.188861
G02 X130.165455 Y253.850291 Z-0.125000 I-2.960232 J-21.467890
G02 X130.570143 Y253.783111 Z-0.125000 I-3.724634 J-23.689182
G02 X130.984858 Y253.706530 Z-0.125000 I-3.805605 J-21.770160
G02 X131.398216 Y253.622347 Z-0.125000 I-4.600876 J-23.648351
G02 X131.818774 Y253.528640 Z-0.125000 I-4.684795 J-22.015983
G02 X132.237615 Y253.427114 Z-0.125000 I-5.420308 J-23.275855
G02 X132.660407 Y253.316326 Z-0.125000 I-5.650936 J-22.427350
G02 X133.081124 Y253.197640 Z-0.125000 I-6.215117 J-22.836280
G02 X133.502275 Y253.070457 Z-0.125000 I-6.788431 J-23.240004
G02 X133.921042 Y252.935531 Z-0.125000 I-7.023472 J-22.515966
G02 X134.336656 Y252.793449 Z-0.125000 I-8.266213 J-24.858981
G02 X134.749699 Y252.644097 Z-0.125000 I-7.932461 J-22.583475
G02 X135.156163 Y252.489528 Z-0.125000 I-10.455766 J-28.106864
G02 X135.560051 Y252.328536 Z-0.125000 I-9.086092 J-23.381903
G02 X135.954359 Y252.164821 Z-0.125000 I-14.502237 J-35.485339
G02 X136.346311 Y251.996032 Z-0.125000 I-11.020347 J-26.130297
G02 X136.726426 Y251.827282 Z-0.125000 I-22.936527 J-52.177641
G02 X137.103913 Y251.657192 Z-0.125000 I-44.746990 J-99.812649
G02 X137.469835 Y251.485411 Z-0.125000 I-6.098121 J-13.465695
G02 X137.833128 Y251.303956 Z-0.125000 I-8.342286 J-17.156508
G02 X138.184786 Y251.118160 Z-0.125000 I-7.442769 J-14.512694
G02 X138.532134 Y250.922712 Z-0.125000 I-6.676432 J-12.271661
G02 X138.864976 Y250.726381 Z-0.125000 I-15.833061 J-27.222296
G02 X139.193955 Y250.524653 Z-0.125000 I-8.999199 J-15.045056
G02 X139.506225 Y250.327736 Z-0.125000 I-63.623442 J-101.239878
G02 X139.816338 Y250.128524 Z-0.125000 I-14.408237 J-22.770253
G03 X140.109667 Y249.938794 Z-0.125000 I25.721953 J39.445402
G02 X140.402892 Y249.750015 Z-0.125000 I-59.122821 J-92.155600
G03 X140.681201 Y249.573918 Z-0.125000 I9.449796 J14.626818
G03 X140.961484 Y249.402056 Z-0.125000 I18.672605 J30.137858
G03 X141.230388 Y249.244423 Z-0.125000 I5.320002 J8.767125
G03 X141.502977 Y249.094176 Z-0.125000 I6.803681 J12.021387
G03 X141.769097 Y248.958205 Z-0.125000 I3.511156 J6.543547
G03 X142.039879 Y248.832372 Z-0.125000 I3.786047 J7.793009
G03 X142.310082 Y248.719881 Z-0.125000 I2.550213 J5.744868
G03 X142.585025 Y248.619548 Z-0.125000 I2.493959 J6.407327
G03 X142.865722 Y248.531353 Z-0.125000 I1.963213 J5.757472
G03 X143.150462 Y248.456371 Z-0.125000 I1.790201 J6.220106
G03 X143.446998 Y248.392658 Z-0.125000 I1.527124 J6.385669
G03 X143.746470 Y248.342290 Z-0.125000 I1.298420 J6.804413
G03 X144.062788 Y248.302936 Z-0.125000 I1.097921 J7.533926
G03 X144.380877 Y248.276454 Z-0.125000 I0.829204 J8.036358
G03 X144.719386 Y248.261343 Z-0.125000 I0.573265 J9.043258
G03 X145.058650 Y248.258436 Z-0.125000 I0.253240 J9.754088
G03 X145.420221 Y248.267746 Z-0.125000 I-0.094191 J10.683273
G03 X145.781700 Y248.288773 Z-0.125000 I-0.505387 J11.805961
G03 X146.165665 Y248.323208 Z-0.125000 I-0.882761 J12.001031
G03 X146.548780 Y248.369212 Z-0.125000 I-1.445007 J13.652132
G03 X146.952897 Y248.429980 Z-0.125000 I-1.733701 J12.903378
G03 X147.355392 Y248.502586 Z-0.125000 I-2.485945 J14.932896
G03 X147.775825 Y248.591252 Z-0.125000 I-2.583736 J13.292667
G03 X148.193760 Y248.692350 Z-0.125000 I-3.502272 J15.392636
G03 X148.625102 Y248.810456 Z-0.125000 I-3.406723 J13.288590
G03 X149.052909 Y248.941751 Z-0.125000 I-4.401064 J15.102924
G03 X149.488327 Y249.090287 Z-0.125000 I-4.214723 J13.067496
G03 X149.919019 Y249.252720 Z-0.125000 I-5.148371 J14.303136
G03 X150.350566 Y249.431536 Z-0.125000 I-5.032667 J12.755806
G03 X150.776115 Y249.624665 Z-0.125000 I-5.755329 J13.246891
G03 X151.195277 Y249.831895 Z-0.125000 I-5.909750 J12.481150
G03 X151.607230 Y250.053338 Z-0.125000 I-6.251351 J12.123389
G03 X152.005663 Y250.284975 Z-0.125000 I-6.934098 J12.385634
G03 X152.395980 Y250.530035 Z-0.125000 I-6.685491 J11.081612
G03 X152.766466 Y250.779790 Z-0.125000 I-8.309892 J12.726543
G03 X153.128494 Y251.041388 Z-0.125000 I-7.136071 J10.256959
G03 X153.465912 Y251.300912 Z-0.125000 I-10.608053 J14.141092
G03 X153.795403 Y251.569900 Z-0.125000 I-7.763518 J9.846063
G03 X154.097641 Y251.829406 Z-0.125000 I-16.340382 J19.336822
G03 X154.393585 Y252.095254 Z-0.125000 I-9.002268 J10.319078
G03 X154.662166 Y252.344512 Z-0.125000 I-73.117359 J79.054521
G03 X154.927298 Y252.596301 Z-0.125000 I-12.722496 J13.662216
G02 X155.167620 Y252.825797 Z-0.125000 I16.456443 J-16.992166
G03 X155.408386 Y253.053328 Z-0.125000 I-63.098961 J67.010549
G02 X155.629537 Y253.255398 Z-0.125000 I5.542341 J-5.843635
G02 X155.855473 Y253.450243 Z-0.125000 I9.749443 J-11.076697
G02 X156.069721 Y253.619800 Z-0.125000 I2.750772 J-3.255675
G02 X156.292841 Y253.776000 Z-0.125000 I3.042789 J-4.108948
G02 X156.514395 Y253.910669 Z-0.125000 I1.883257 J-2.848693
G02 X156.748677 Y254.027549 Z-0.125000 I1.402564 J-2.518147
G02 X156.985752 Y254.130011 Z-0.125000 I5.581853 J-12.589719
G02 X157.225372 Y254.225195 Z-0.125000 I2.446311 J-5.809227
G02 X157.466690 Y254.311687 Z-0.125000 I3.321274 J-8.886683
G02 X157.710155 Y254.391028 Z-0.125000 I2.665473 J-7.765985
G02 X157.957336 Y254.463486 Z-0.125000 I2.658960 J-8.612856
G02 X158.206638 Y254.528732 Z-0.125000 I2.315106 J-8.337042
G02 X158.462279 Y254.588150 Z-0.125000 I2.465379 J-10.027488
G02 X158.719523 Y254.640886 Z-0.125000 I2.087818 J-9.530520
G02 X158.985267 Y254.688673 Z-0.125000 I2.340627 J-12.253441
G02 X159.252152 Y254.730503 Z-0.125000 I1.931771 J-11.452761
G02 X159.529191 Y254.768106 Z-0.125000 I2.242984 J-15.485866
G02 X159.807006 Y254.800548 Z-0.125000 I1.811608 J-14.308020
G02 X160.096140 Y254.829357 Z-0.125000 I2.134696 J-19.958712
G02 X160.385786 Y254.853790 Z-0.125000 I1.679525 J-18.181229
G02 X160.687456 Y254.875064 Z-0.125000 I1.987217 J-26.030047
G02 X160.989459 Y254.892662 Z-0.125000 I1.530368 J-23.662842
G02 X161.303808 Y254.907494 Z-0.125000 I1.742511 J-33.592157
G02 X161.618363 Y254.919229 Z-0.125000 I1.309503 J-30.878932
G02 X161.945247 Y254.928501 Z-0.125000 I1.371405 J-42.578733
G02 X162.272256 Y254.935124 Z-0.125000 I0.961513 J-39.398109
G02 X162.611282 Y254.939482 Z-0.125000 I0.839958 J-52.164163
G02 X162.950379 Y254.941512 Z-0.125000 I0.469888 J-50.158737
G02 X163.300923 Y254.941334 Z-0.125000 I0.146660 J-56.247179
G02 X163.651504 Y254.939159 Z-0.125000 I-0.212389 J-62.498963
G02 X164.012730 Y254.934931 Z-0.125000 I-0.603285 J-66.972233
G02 X164.373967 Y254.928778 Z-0.125000 I-0.989420 J-68.696712
G02 X164.744845 Y254.920564 Z-0.125000 I-1.468268 J-74.671914
G02 X165.115712 Y254.910534 Z-0.125000 I-1.893931 J-76.887823
G02 X165.495025 Y254.898471 Z-0.125000 I-2.389573 J-81.113243
G02 X165.874309 Y254.884647 Z-0.125000 I-2.812036 J-82.364192
G02 X166.260675 Y254.868838 Z-0.125000 I-3.462879 J-89.357787
G02 X166.646995 Y254.851335 Z-0.125000 I-3.753909 J-87.129224
G02 X167.038890 Y254.831937 Z-0.125000 I-4.733683 J-99.598171
G02 X167.430725 Y254.810944 Z-0.125000 I-4.887012 J-94.886907
G02 X167.826490 Y254.788251 Z-0.125000 I-6.520174 J-117.173782
G02 X168.222192 Y254.764126 Z-0.125000 I-6.064618 J-102.730274
G02 X168.620086 Y254.738589 Z-0.125000 I-9.815152 J-156.041344
G02 X169.017918 Y254.711874 Z-0.125000 I-7.986078 J-121.903333
G02 X169.416129 Y254.684183 Z-0.125000 I-18.358105 J-266.871177
G02 X169.814295 Y254.655687 Z-0.125000 I-10.659566 J-151.738479
G02 X170.210981 Y254.626768 Z-0.125000 I-1157.718150 J-15882.004096
G02 X170.607652 Y254.597546 Z-0.125000 I-19.500348 J-267.417747
G03 X171.000963 Y254.568618 Z-0.125000 I17.030881 J228.870909
G02 X171.394306 Y254.540025 Z-0.125000 I-254.456230 J-3503.151755
G03 X171.782395 Y254.512553 Z-0.125000 I7.236491 J99.472454
G03 X172.170573 Y254.486195 Z-0.125000 I14.975277 J217.671882
G03 X172.551607 Y254.461896 Z-0.125000 I3.962851 J59.141697
G03 X172.932781 Y254.439612 Z-0.125000 I5.468431 J90.266767
G03 X173.304896 Y254.420388 Z-0.125000 I2.244083 J39.828159
G03 X173.677192 Y254.404201 Z-0.125000 I2.505083 J53.324113
G03 X174.038450 Y254.392051 Z-0.125000 I1.137830 J28.456754
G03 X174.399886 Y254.384061 Z-0.125000 I0.953956 J34.971334
G03 X174.748175 Y254.380992 Z-0.125000 I0.362963 J21.427494
G03 X175.096574 Y254.383233 Z-0.125000 I0.017265 J24.400303
G03 X175.429489 Y254.391099 Z-0.125000 I-0.224786 J16.562312
G03 X175.762345 Y254.405423 Z-0.125000 I-0.601123 J17.843320
G03 X176.077024 Y254.425701 Z-0.125000 I-0.686527 J13.105326
G03 X176.387432 Y254.454656 Z-0.125000 I-0.715798 J9.351873
G02 X176.684295 Y254.487082 Z-0.125000 I19.531353 J-177.439297
G03 X176.976436 Y254.522621 Z-0.125000 I-1.209276 J11.159049
G02 X177.275337 Y254.555580 Z-0.125000 I0.826278 J-6.121626
G02 X177.582381 Y254.577392 Z-0.125000 I0.905962 J-10.580735
G02 X177.911672 Y254.592256 Z-0.125000 I0.821144 J-14.536559
G02 X178.241645 Y254.599586 Z-0.125000 I0.480561 J-14.202207
G02 X178.593674 Y254.600141 Z-0.125000 I0.206739 J-19.507964
G02 X178.945775 Y254.594248 Z-0.125000 I-0.157426 J-19.930409
G02 X179.318515 Y254.581673 Z-0.125000 I-0.584342 J-22.850065
G02 X179.691088 Y254.563214 Z-0.125000 I-1.008152 J-24.117474
G02 X180.082369 Y254.537826 Z-0.125000 I-1.483114 J-25.886102
G02 X180.473288 Y254.506752 Z-0.125000 I-2.027874 J-27.985802
G02 X180.880595 Y254.468445 Z-0.125000 I-2.362080 J-27.299271
G02 X181.287357 Y254.424360 Z-0.125000 I-3.072790 J-30.250478
G02 X181.707872 Y254.372703 Z-0.125000 I-3.213967 J-27.900826
G02 X182.127637 Y254.315026 Z-0.125000 I-4.046814 J-31.008951
G02 X182.558292 Y254.249497 Z-0.125000 I-4.048766 J-28.056023
G02 X182.987963 Y254.177653 Z-0.125000 I-4.927201 J-30.788531
G02 X183.425476 Y254.097835 Z-0.125000 I-4.903479 J-28.116901
G02 X183.861753 Y254.011436 Z-0.125000 I-5.734620 J-30.101962
G02 X184.302725 Y253.917178 Z-0.125000 I-5.808206 J-28.251418
G02 X184.742203 Y253.816171 Z-0.125000 I-6.504046 J-29.305525
G02 X185.183212 Y253.707723 Z-0.125000 I-6.819221 J-28.681697
G02 X185.622487 Y253.592509 Z-0.125000 I-7.281124 J-28.655481
G02 X186.060207 Y253.470615 Z-0.125000 I-8.008521 J-29.605376
G02 X186.496005 Y253.342130 Z-0.125000 I-8.120002 J-28.344931
G02 X186.927354 Y253.208080 Z-0.125000 I-9.498956 J-31.326910
G02 X187.356667 Y253.067828 Z-0.125000 I-9.085453 J-28.537938
G02 X187.778938 Y252.923449 Z-0.125000 I-11.524723 J-34.396585
G02 X188.199178 Y252.773494 Z-0.125000 I-10.279607 J-29.471783
G02 X188.610178 Y252.621121 Z-0.125000 I-14.638516 J-40.115347
G02 X189.019287 Y252.464024 Z-0.125000 I-11.925937 J-31.668518
G02 X189.417461 Y252.306399 Z-0.125000 I-20.386461 J-52.079771
G02 X189.814031 Y252.145123 Z-0.125000 I-14.513130 J-36.255286
G02 X190.198534 Y251.985291 Z-0.125000 I-35.735488 J-86.509924
G02 X190.581876 Y251.823077 Z-0.125000 I-19.452025 J-46.502895
G02 X190.952630 Y251.664240 Z-0.125000 I-246.260536 J-575.329937
G02 X191.322803 Y251.504460 Z-0.125000 I-32.977983 J-76.911040
G03 X191.680495 Y251.349844 Z-0.125000 I41.235541 J94.904199
G00 Z3.000000

(End cutting path id: path338527)


(Start cutting path id: path338525)
(Change tool to Default tool)

G00 Z3.000000
G00 X123.614404 Y252.999636

G00 Z4.875000 (Fast pre-penetrate)
G01 Z-0.125000 F400.0(Penetrate)
G02 X123.901944 Y253.049821 Z-0.125000 I1.950837 J-10.328529 F800.000000
G02 X124.201040 Y253.093579 Z-0.125000 I1.753240 J-10.939942
G02 X124.501391 Y253.129354 Z-0.125000 I1.517248 J-11.459208
G02 X124.816143 Y253.158745 Z-0.125000 I1.346099 J-12.715450
G02 X125.131726 Y253.180525 Z-0.125000 I1.074463 J-13.271453
G02 X125.463815 Y253.195771 Z-0.125000 I0.849773 J-14.885408
G02 X125.796369 Y253.203805 Z-0.125000 I0.547008 J-15.755335
G02 X126.146723 Y253.204979 Z-0.125000 I0.232382 J-17.081123
G02 X126.497233 Y253.199238 Z-0.125000 I-0.124239 J-18.289479
G02 X126.866007 Y253.186114 Z-0.125000 I-0.498163 J-19.185451
G02 X127.234665 Y253.166171 Z-0.125000 I-0.955512 J-21.080734
G02 X127.621228 Y253.138182 Z-0.125000 I-1.281701 J-20.385326
G02 X128.007404 Y253.103277 Z-0.125000 I-1.885751 J-23.016814
G02 X128.410312 Y253.059564 Z-0.125000 I-2.091000 J-21.151722
G02 X128.812543 Y253.008637 Z-0.125000 I-2.853205 J-24.149035
G02 X129.229548 Y252.948156 Z-0.125000 I-2.891737 J-21.405847
G02 X129.645531 Y252.880031 Z-0.125000 I-3.775812 J-24.360030
G02 X130.073600 Y252.801741 Z-0.125000 I-3.693897 J-21.406536
G02 X130.500250 Y252.715327 Z-0.125000 I-4.625571 J-23.934267
G02 X130.935635 Y252.618438 Z-0.125000 I-4.529977 J-21.382722
G02 X131.369157 Y252.513009 Z-0.125000 I-5.402930 J-23.160715
G02 X131.807542 Y252.397257 Z-0.125000 I-5.450284 J-21.529840
G02 X132.243607 Y252.272733 Z-0.125000 I-6.138875 J-22.323220
G02 X132.680332 Y252.138654 Z-0.125000 I-6.538014 J-22.074023
G02 X133.114334 Y251.995867 Z-0.125000 I-6.880192 J-21.643352
G02 X133.544699 Y251.845025 Z-0.125000 I-7.970706 J-23.430431
G02 X133.972067 Y251.685936 Z-0.125000 I-7.718498 J-21.388159
G02 X134.391719 Y251.521056 Z-0.125000 I-10.120124 J-26.374213
G02 X134.808330 Y251.348871 Z-0.125000 I-8.789771 J-21.857378
G02 X135.213675 Y251.173860 Z-0.125000 I-14.156815 J-33.345699
G02 X135.616272 Y250.993015 Z-0.125000 I-10.435511 J-23.770190
G02 X136.004895 Y250.812844 Z-0.125000 I-26.034914 J-56.665482
G02 X136.391417 Y250.628984 Z-0.125000 I-14.062675 J-30.061630
G02 X136.762472 Y250.449339 Z-0.125000 I-206.805561 J-427.628505
G03 X137.131605 Y250.271445 Z-0.125000 I39.959420 J82.444676
G02 X137.486850 Y250.094570 Z-0.125000 I-5.671950 J-11.837022
G02 X137.839666 Y249.907692 Z-0.125000 I-9.138563 J-17.679560
G02 X138.179486 Y249.716883 Z-0.125000 I-6.413470 J-11.820073
G02 X138.514341 Y249.515140 Z-0.125000 I-6.089023 J-10.485387
G02 X138.833411 Y249.312600 Z-0.125000 I-13.825622 J-22.132703
G02 X139.147923 Y249.104060 Z-0.125000 I-8.075492 J-12.520532
G02 X139.444392 Y248.901039 Z-0.125000 I-44.330504 J-65.053225
G02 X139.738196 Y248.695280 Z-0.125000 I-12.370288 J-17.976270
G03 X140.013996 Y248.500182 Z-0.125000 I28.037207 J39.342376
G02 X140.289452 Y248.305751 Z-0.125000 I-39.223803 J-55.861747
G03 X140.549026 Y248.125414 Z-0.125000 I9.217240 J12.990092
G03 X140.810644 Y247.949202 Z-0.125000 I19.629735 J28.861539
G03 X141.060298 Y247.788555 Z-0.125000 I5.005985 J7.505249
G03 X141.313990 Y247.635378 Z-0.125000 I6.444866 J10.387350
G03 X141.561138 Y247.497447 Z-0.125000 I3.251251 J5.535284
G03 X141.813462 Y247.369902 Z-0.125000 I3.488749 J6.588461
G03 X142.065790 Y247.256124 Z-0.125000 I2.361195 J4.899789
G03 X142.323359 Y247.154804 Z-0.125000 I2.292748 J5.450437
G03 X142.588021 Y247.065494 Z-0.125000 I1.854597 J5.059149
G03 X142.857100 Y246.989575 Z-0.125000 I1.681462 J5.444758
G03 X143.140053 Y246.924363 Z-0.125000 I1.502703 J5.873714
G03 X143.426170 Y246.872389 Z-0.125000 I1.279049 J6.227649
G03 X143.731829 Y246.830576 Z-0.125000 I1.154427 J7.300974
G03 X144.039415 Y246.801182 Z-0.125000 I0.895748 J7.749222
G03 X144.370583 Y246.782118 Z-0.125000 I0.696076 J9.205799
G03 X144.702668 Y246.774525 Z-0.125000 I0.393827 J9.958819
G03 X145.060592 Y246.778017 Z-0.125000 I0.069514 J11.220912
G03 X145.418661 Y246.792312 Z-0.125000 I-0.324406 J12.617583
G03 X145.803046 Y246.818874 Z-0.125000 I-0.699390 J12.915646
G03 X146.186922 Y246.856085 Z-0.125000 I-1.265184 J15.050395
G03 X146.595906 Y246.907096 Z-0.125000 I-1.532406 J13.951158
G03 X147.003707 Y246.969140 Z-0.125000 I-2.337690 J16.736282
G03 X147.433764 Y247.046635 Z-0.125000 I-2.352176 J14.285508
G03 X147.861847 Y247.136001 Z-0.125000 I-3.380555 J17.263630
G03 X148.307763 Y247.242312 Z-0.125000 I-3.138881 J14.154130
G03 X148.750709 Y247.361607 Z-0.125000 I-4.290277 J16.811958
G03 X149.205626 Y247.498799 Z-0.125000 I-3.903500 J13.766479
G03 X149.656348 Y247.650105 Z-0.125000 I-5.035877 J15.748217
G03 X150.111989 Y247.819267 Z-0.125000 I-4.679510 J13.302578
G03 X150.562032 Y248.003433 Z-0.125000 I-5.639010 J14.421932
G03 X151.009166 Y248.203982 Z-0.125000 I-5.508031 J12.879188
G03 X151.449264 Y248.419902 Z-0.125000 I-6.131913 J13.054820
G03 X151.878435 Y248.648976 Z-0.125000 I-6.451296 J12.603075
G03 X152.299319 Y248.893045 Z-0.125000 I-6.556485 J11.791233
G03 X152.701833 Y249.145183 Z-0.125000 I-7.641951 J12.647012
G03 X153.095297 Y249.411050 Z-0.125000 I-6.968798 J10.737383
G03 X153.464322 Y249.678241 Z-0.125000 I-9.429171 J13.411329
G03 X153.824364 Y249.956967 Z-0.125000 I-7.473788 J10.026089
G03 X154.156027 Y250.229185 Z-0.125000 I-13.060892 J16.251213
G03 X154.479900 Y250.509867 Z-0.125000 I-8.340064 J9.950598
G03 X154.774119 Y250.776041 Z-0.125000 I-27.522825 J30.718525
G03 X155.063081 Y251.046825 Z-0.125000 I-10.483378 J11.476714
G02 X155.324010 Y251.296089 Z-0.125000 I39.913521 J-41.520052
G03 X155.583514 Y251.545385 Z-0.125000 I-20.834622 J21.947495
G02 X155.819478 Y251.768412 Z-0.125000 I8.046800 J-8.277236
G02 X156.058708 Y251.986099 Z-0.125000 I22.502876 J-24.489510
G02 X156.281721 Y252.176116 Z-0.125000 I3.535349 J-3.923372
G02 X156.512828 Y252.354298 Z-0.125000 I4.328467 J-5.375167
G02 X156.737447 Y252.507617 Z-0.125000 I2.198851 J-2.980209
G02 X156.974626 Y252.643424 Z-0.125000 I1.727514 J-2.742008
G02 X157.211436 Y252.761863 Z-0.125000 I4.324519 J-8.350579
G02 X157.452753 Y252.871423 Z-0.125000 I2.449946 J-5.075687
G02 X157.695406 Y252.969997 Z-0.125000 I3.054393 J-7.170864
G02 X157.941404 Y253.059768 Z-0.125000 I2.465562 J-6.374436
G02 X158.191746 Y253.141037 Z-0.125000 I2.536659 J-7.387706
G02 X158.444946 Y253.213612 Z-0.125000 I2.154834 J-7.039804
G02 X158.705545 Y253.279202 Z-0.125000 I2.362537 J-8.836223
G02 X158.968211 Y253.336867 Z-0.125000 I1.959379 J-8.297939
G02 X159.240613 Y253.388702 Z-0.125000 I2.243435 J-11.047989
G02 X159.514431 Y253.433569 Z-0.125000 I1.819711 J-10.247658
G02 X159.799611 Y253.473483 Z-0.125000 I2.133473 J-14.204617
G02 X160.085719 Y253.507427 Z-0.125000 I1.688160 J-13.006236
G02 X160.384181 Y253.537081 Z-0.125000 I1.984672 J-18.458995
G02 X160.683229 Y253.561690 Z-0.125000 I1.536753 J-16.845232
G02 X160.995082 Y253.582525 Z-0.125000 I1.752943 J-23.892497
G02 X161.307288 Y253.599108 Z-0.125000 I1.315696 J-21.823351
G02 X161.632309 Y253.612286 Z-0.125000 I1.383941 J-30.120053
G02 X161.957533 Y253.621844 Z-0.125000 I0.991007 J-28.181082
G02 X162.295208 Y253.628293 Z-0.125000 I0.882588 J-37.370626
G02 X162.632993 Y253.631600 Z-0.125000 I0.514157 J-35.267883
G02 X162.982566 Y253.631997 Z-0.125000 I0.226228 J-45.241158
G02 X163.332184 Y253.629657 Z-0.125000 I-0.089837 J-39.541681
G02 X163.692672 Y253.624457 Z-0.125000 I-0.604950 J-54.429543
G02 X164.053159 Y253.616763 Z-0.125000 I-0.887885 J-50.053004
G02 X164.423390 Y253.606385 Z-0.125000 I-1.497784 J-60.043849
G02 X164.793581 Y253.593665 Z-0.125000 I-1.776423 J-57.089962
G02 X165.172207 Y253.578345 Z-0.125000 I-2.499750 J-66.466897
G02 X165.550763 Y253.560831 Z-0.125000 I-2.806310 J-64.755766
G02 X165.936286 Y253.540872 Z-0.125000 I-3.693763 J-75.082543
G02 X166.321722 Y253.518859 Z-0.125000 I-3.901981 J-71.705555
G02 X166.712533 Y253.494591 Z-0.125000 I-5.135222 J-85.858433
G02 X167.103237 Y253.468462 Z-0.125000 I-5.016845 J-77.948940
G02 X167.497635 Y253.440354 Z-0.125000 I-7.354629 J-105.980229
G02 X167.891925 Y253.410637 Z-0.125000 I-6.526538 J-89.224800
G02 X168.288159 Y253.379352 Z-0.125000 I-11.342863 J-146.185874
G02 X168.684294 Y253.346796 Z-0.125000 I-8.633473 J-107.475429
G02 X169.080595 Y253.313212 Z-0.125000 I-23.869676 J-284.024051
G02 X169.476826 Y253.278814 Z-0.125000 I-12.296854 J-143.946841
G03 X169.871447 Y253.244058 Z-0.125000 I139.661543 J1583.467943
G02 X170.266041 Y253.209078 Z-0.125000 I-23.340499 J-265.538122
G03 X170.657272 Y253.174546 Z-0.125000 I15.535810 J173.784737
G03 X171.048540 Y253.140507 Z-0.125000 I130.342898 J1495.981921
G03 X171.434731 Y253.107858 Z-0.125000 I7.269041 J83.681862
G03 X171.821033 Y253.076556 Z-0.125000 I13.824678 J168.209476
G03 X172.200590 Y253.047650 Z-0.125000 I4.099662 J51.325430
G03 X172.580325 Y253.021081 Z-0.125000 I5.635171 J77.813404
G03 X172.951664 Y252.997974 Z-0.125000 I2.378373 J35.226854
G03 X173.323229 Y252.978303 Z-0.125000 I2.674398 J46.998019
G03 X173.684734 Y252.963155 Z-0.125000 I1.253584 J25.594818
G03 X174.046452 Y252.952634 Z-0.125000 I1.096990 J31.492256
G03 X174.396356 Y252.947598 Z-0.125000 I0.456560 J19.561350
G03 X174.746385 Y252.948429 Z-0.125000 I0.123416 J21.735535
G03 X175.082645 Y252.955588 Z-0.125000 I-0.161413 J15.481307
G03 X175.418818 Y252.969846 Z-0.125000 I-0.536385 J16.616734
G03 X175.738951 Y252.990918 Z-0.125000 I-0.636923 J12.118960
G03 X176.058631 Y253.020308 Z-0.125000 I-0.990842 J12.530721
G03 X176.359507 Y253.056537 Z-0.125000 I-1.026835 J9.795191
G03 X176.655409 Y253.103469 Z-0.125000 I-0.915549 J6.728740
G02 X176.937059 Y253.153933 Z-0.125000 I12.342305 J-68.074443
G03 X177.213545 Y253.207670 Z-0.125000 I-1.466491 J8.283508
G02 X177.496351 Y253.257797 Z-0.125000 I0.894351 J-4.222836
G02 X177.788216 Y253.293543 Z-0.125000 I1.026032 J-7.168269
G02 X178.102942 Y253.320805 Z-0.125000 I1.056885 J-10.370678
G02 X178.418922 Y253.338339 Z-0.125000 I0.713854 J-10.008428
G02 X178.758327 Y253.347869 Z-0.125000 I0.580756 J-14.634381
G02 X179.098057 Y253.349423 Z-0.125000 I0.235058 J-14.252019
G02 X179.460107 Y253.343186 Z-0.125000 I-0.134544 J-18.321288
G02 X179.822086 Y253.329968 Z-0.125000 I-0.506565 J-18.835315
G02 X180.204488 Y253.308984 Z-0.125000 I-1.013603 J-21.965673
G02 X180.586553 Y253.281497 Z-0.125000 I-1.472850 J-23.141549
G02 X180.986608 Y253.246055 Z-0.125000 I-1.939598 J-24.169300
G02 X181.386095 Y253.204246 Z-0.125000 I-2.545607 J-26.252653
G02 X181.800746 Y253.154232 Z-0.125000 I-2.862703 J-25.477570
G02 X182.214599 Y253.097763 Z-0.125000 I-3.595480 J-27.895760
G02 X182.640498 Y253.032883 Z-0.125000 I-3.772017 J-26.191458
G02 X183.065351 Y252.961360 Z-0.125000 I-4.570085 J-28.444242
G02 X183.498930 Y252.881383 Z-0.125000 I-4.692028 J-26.652098
G02 X183.931201 Y252.794570 Z-0.125000 I-5.464581 J-28.329428
G02 X184.368773 Y252.699511 Z-0.125000 I-5.662911 J-27.122171
G02 X184.804775 Y252.597513 Z-0.125000 I-6.304098 J-27.930316
G02 X185.242653 Y252.487803 Z-0.125000 I-6.752085 J-27.877800
G02 X185.678722 Y252.371200 Z-0.125000 I-7.146072 J-27.598581
G02 X186.113356 Y252.247784 Z-0.125000 I-8.037766 J-29.133421
G02 X186.546002 Y252.117726 Z-0.125000 I-8.048492 J-27.558518
G02 X186.974140 Y251.982121 Z-0.125000 I-9.682131 J-31.312536
G02 X187.400203 Y251.840359 Z-0.125000 I-9.095225 J-28.046592
G02 X187.819038 Y251.694657 Z-0.125000 I-12.012971 J-35.207412
G02 X188.235844 Y251.543524 Z-0.125000 I-10.427245 J-29.407409
G02 X188.643172 Y251.390326 Z-0.125000 I-15.813036 J-42.662156
G02 X189.048667 Y251.232670 Z-0.125000 I-12.331021 J-32.316094
G02 X189.443004 Y251.074990 Z-0.125000 I-23.799299 J-60.090868
G02 X189.835866 Y250.914056 Z-0.125000 I-15.540909 J-38.497436
G02 X190.216523 Y250.755186 Z-0.125000 I-53.752670 J-129.328409
G02 X190.596224 Y250.594471 Z-0.125000 I-22.445257 J-53.557462
G03 X190.963348 Y250.437829 Z-0.125000 I117.785692 J275.548054
G02 X191.330162 Y250.280926 Z-0.125000 I-49.620266 J-116.510885
G03 X191.684720 Y250.129905 Z-0.125000 I24.503286 J57.035832
G00 Z3.000000

(End cutting path id: path338525)


(Start cutting path id: path338523)
(Change tool to Default tool)

G00 Z3.000000
G00 X123.262752 Y252.136037

G00 Z4.875000 (Fast pre-penetrate)
G01 Z-0.125000 F400.0(Penetrate)
G02 X123.549430 Y252.175755 Z-0.125000 I1.495198 J-9.737517 F800.000000
G02 X123.852431 Y252.209131 Z-0.125000 I1.408495 J-11.395086
G02 X124.156461 Y252.234607 Z-0.125000 I1.138684 J-11.762057
G02 X124.479492 Y252.253745 Z-0.125000 I0.992463 J-14.016211
G02 X124.803127 Y252.265606 Z-0.125000 I0.700221 J-14.684478
G02 X125.147488 Y252.270890 Z-0.125000 I0.429254 J-16.751713
G02 X125.492128 Y252.269303 Z-0.125000 I0.086192 J-18.714963
G02 X125.858256 Y252.260782 Z-0.125000 I-0.267338 J-19.357141
G02 X126.224390 Y252.245557 Z-0.125000 I-0.711803 J-21.527492
G02 X126.611846 Y252.222521 Z-0.125000 I-1.042221 J-20.799476
G02 X126.999048 Y252.192738 Z-0.125000 I-1.650963 J-23.995797
G02 X127.406474 Y252.154182 Z-0.125000 I-1.822676 J-21.432168
G02 X127.813357 Y252.108469 Z-0.125000 I-2.648950 J-25.411665
G02 X128.238460 Y252.052963 Z-0.125000 I-2.578166 J-21.400920
G02 X128.662661 Y251.989658 Z-0.125000 I-3.578082 J-25.429140
G02 X129.102194 Y251.915586 Z-0.125000 I-3.320161 J-21.042657
G02 X129.540381 Y251.832974 Z-0.125000 I-4.401653 J-24.550385
G02 X129.990195 Y251.738882 Z-0.125000 I-4.082075 J-20.636897
G02 X130.438131 Y251.635524 Z-0.125000 I-5.134323 J-23.273605
G02 X130.893289 Y251.520461 Z-0.125000 I-4.912159 J-20.388868
G02 X131.345981 Y251.395588 Z-0.125000 I-5.807473 J-21.936395
G02 X131.800986 Y251.259487 Z-0.125000 I-5.874975 J-20.469450
G02 X132.252953 Y251.113359 Z-0.125000 I-6.471312 J-20.787523
G02 X132.702108 Y250.957362 Z-0.125000 I-7.090666 J-21.140451
G02 X133.147757 Y250.791583 Z-0.125000 I-7.182929 J-19.991170
G02 X133.585606 Y250.618267 Z-0.125000 I-8.820166 J-22.922127
G02 X134.019723 Y250.435988 Z-0.125000 I-8.052818 J-19.786775
G02 X134.441587 Y250.249438 Z-0.125000 I-11.743728 J-27.127562
G02 X134.859875 Y250.055392 Z-0.125000 I-9.287280 J-20.567543
G02 X135.262395 Y249.861094 Z-0.125000 I-18.702948 J-39.260396
G02 X135.661983 Y249.661437 Z-0.125000 I-11.499525 J-23.514479
G02 X136.043593 Y249.465984 Z-0.125000 I-67.819577 J-132.883976
G02 X136.423419 Y249.268121 Z-0.125000 I-17.876261 J-34.779426
G03 X136.784703 Y249.078648 Z-0.125000 I35.027380 J66.350554
G03 X137.145017 Y248.893873 Z-0.125000 I14.518578 J27.867764
G02 X137.489523 Y248.712690 Z-0.125000 I-5.231051 J-10.364566
G02 X137.831713 Y248.521083 Z-0.125000 I-9.894511 J-18.071876
G02 X138.159547 Y248.325904 Z-0.125000 I-5.564545 J-9.719495
G02 X138.481597 Y248.118458 Z-0.125000 I-5.531373 J-8.940901
G02 X138.786437 Y247.910337 Z-0.125000 I-11.987569 J-17.885760
G02 X139.085897 Y247.695550 Z-0.125000 I-7.202365 J-10.357813
G02 X139.365837 Y247.487099 Z-0.125000 I-32.044900 J-43.327093
G02 X139.642466 Y247.275407 Z-0.125000 I-10.547098 J-14.069017
G03 X139.899712 Y247.075752 Z-0.125000 I32.452038 J41.547466
G02 X140.156256 Y246.876402 Z-0.125000 I-27.066334 J-35.096327
G03 X140.395771 Y246.692821 Z-0.125000 I9.025935 J11.527989
G03 X140.637330 Y246.513171 Z-0.125000 I21.545513 J28.717915
G03 X140.866128 Y246.350710 Z-0.125000 I4.670136 J6.334765
G03 X141.099307 Y246.195727 Z-0.125000 I6.073742 J8.885269
G03 X141.325616 Y246.057205 Z-0.125000 I2.957854 J4.578282
G03 X141.557653 Y245.929276 Z-0.125000 I3.153011 J5.444494
G03 X141.790010 Y245.815678 Z-0.125000 I2.138155 J4.079015
G03 X142.028161 Y245.714825 Z-0.125000 I2.053675 J4.517842
G03 X142.274501 Y245.625874 Z-0.125000 I1.710565 J4.351682
G03 X142.525643 Y245.550456 Z-0.125000 I1.533808 J4.651733
G03 X142.792541 Y245.485113 Z-0.125000 I1.447415 J5.334318
G03 X143.062800 Y245.432796 Z-0.125000 I1.223784 J5.597567
G03 X143.355114 Y245.389631 Z-0.125000 I1.194473 J7.077560
G03 X143.649457 Y245.358246 Z-0.125000 I0.939570 J7.415903
G03 X143.970356 Y245.335883 Z-0.125000 I0.824065 J9.511472
G03 X144.292300 Y245.323990 Z-0.125000 I0.538177 J10.204498
G03 X144.643421 Y245.321622 Z-0.125000 I0.257644 J12.172898
G03 X144.994895 Y245.328863 Z-0.125000 I-0.109431 J13.845959
G03 X145.376393 Y245.346652 Z-0.125000 I-0.477866 J14.347969
G03 X145.757705 Y245.373809 Z-0.125000 I-1.021325 J17.030768
G03 X146.168210 Y245.413139 Z-0.125000 I-1.283053 J15.553941
G03 X146.578000 Y245.462266 Z-0.125000 I-2.115603 J19.380760
G03 X147.014508 Y245.525465 Z-0.125000 I-2.057567 J15.750470
G03 X147.449643 Y245.599519 Z-0.125000 I-3.178581 J19.992506
G03 X147.907407 Y245.689647 Z-0.125000 I-2.789852 J15.377397
G03 X148.362911 Y245.792081 Z-0.125000 I-4.085907 J19.233126
G03 X148.835382 Y245.912293 Z-0.125000 I-3.503243 J14.757404
G03 X149.304430 Y246.046395 Z-0.125000 I-4.820844 J17.749224
G03 X149.783359 Y246.199178 Z-0.125000 I-4.235657 J14.104563
G03 X150.257438 Y246.367266 Z-0.125000 I-5.419969 J16.039206
G03 X150.733217 Y246.553611 Z-0.125000 I-5.021265 J13.520945
G03 X151.202563 Y246.756189 Z-0.125000 I-5.921095 J14.363373
G03 X151.664888 Y246.974811 Z-0.125000 I-5.909830 J13.095793
G03 X152.119236 Y247.209828 Z-0.125000 I-6.358187 J12.848718
G03 X152.558051 Y247.456619 Z-0.125000 I-6.990223 J12.942697
G03 X152.987706 Y247.718987 Z-0.125000 I-6.768981 J11.567896
G03 X153.394401 Y247.986846 Z-0.125000 I-8.481399 J13.320121
G03 X153.791475 Y248.268406 Z-0.125000 I-7.228731 J10.615210
G03 X154.160130 Y248.547588 Z-0.125000 I-11.067869 J14.997954
G03 X154.519808 Y248.837557 Z-0.125000 I-7.903765 J10.171868
G03 X154.848284 Y249.116539 Z-0.125000 I-18.045450 J21.579787
G03 X155.169817 Y249.402472 Z-0.125000 I-9.305685 J10.788035
G03 X155.460453 Y249.669237 Z-0.125000 I-209.032655 J228.028748
G03 X155.747652 Y249.938307 Z-0.125000 I-13.888223 J15.111819
G02 X156.007401 Y250.181806 Z-0.125000 I13.240401 J-13.863710
G03 X156.268432 Y250.422147 Z-0.125000 I-391.284501 J425.229704
G02 X156.508476 Y250.633592 Z-0.125000 I4.854785 J-5.269456
G02 X156.755112 Y250.835179 Z-0.125000 I7.038901 J-8.360223
G02 X156.989840 Y251.008977 Z-0.125000 I2.725104 J-3.435057
G02 X157.236223 Y251.166160 Z-0.125000 I2.295232 J-3.326068
G02 X157.478110 Y251.302701 Z-0.125000 I3.955694 J-6.725083
G02 X157.726208 Y251.429068 Z-0.125000 I2.648752 J-4.893604
G02 X157.974052 Y251.541686 Z-0.125000 I3.000121 J-6.273510
G02 X158.226509 Y251.643972 Z-0.125000 I2.452768 J-5.691083
G02 X158.482850 Y251.735725 Z-0.125000 I2.511799 J-6.613511
G02 X158.742906 Y251.817275 Z-0.125000 I2.108149 J-6.267331
G02 X159.010503 Y251.890321 Z-0.125000 I2.309896 J-7.935342
G02 X159.280745 Y251.954047 Z-0.125000 I1.892298 J-7.419765
G02 X159.561206 Y252.010733 Z-0.125000 I2.161681 J-9.973098
G02 X159.843437 Y252.059223 Z-0.125000 I1.731185 J-9.230688
G02 X160.137629 Y252.101715 Z-0.125000 I2.001990 J-12.820859
G02 X160.432940 Y252.137175 Z-0.125000 I1.564167 J-11.779111
G02 X160.741143 Y252.167385 Z-0.125000 I1.781733 J-16.590080
G02 X161.050020 Y252.191616 Z-0.125000 I1.355746 J-15.300848
G02 X161.372062 Y252.211160 Z-0.125000 I1.448058 J-21.198062
G02 X161.694477 Y252.225620 Z-0.125000 I1.039926 J-19.586078
G02 X162.029808 Y252.235766 Z-0.125000 I0.967717 J-26.435528
G02 X162.365324 Y252.241553 Z-0.125000 I0.594509 J-24.739502
G02 X162.713091 Y252.243333 Z-0.125000 I0.340340 J-32.517481
G02 X163.060916 Y252.241281 Z-0.125000 I-0.007002 J-30.657544
G02 X163.420014 Y252.235449 Z-0.125000 I-0.445529 J-38.491660
G02 X163.779088 Y252.226201 Z-0.125000 I-0.774962 J-37.067392
G02 X164.148194 Y252.213382 Z-0.125000 I-1.369866 J-44.764626
G02 X164.517217 Y252.197455 Z-0.125000 I-1.668914 J-42.949331
G02 X164.894842 Y252.178145 Z-0.125000 I-2.450719 J-51.629525
G02 X165.272337 Y252.155996 Z-0.125000 I-2.695577 J-49.169192
G02 X165.656857 Y252.130706 Z-0.125000 I-3.722634 J-59.535356
G02 X166.041212 Y252.102832 Z-0.125000 I-3.829260 J-55.466943
G02 X166.430902 Y252.072127 Z-0.125000 I-5.341306 J-70.276241
G02 X166.820409 Y252.039127 Z-0.125000 I-5.103180 J-62.549675
G02 X167.213499 Y252.003703 Z-0.125000 I-7.712157 J-87.778247
G02 X167.606407 Y251.966335 Z-0.125000 I-6.780733 J-73.379551
G02 X168.001118 Y251.927088 Z-0.125000 I-12.025976 J-122.951699
G02 X168.395667 Y251.886332 Z-0.125000 I-9.026677 J-89.316257
G02 X168.790261 Y251.844366 Z-0.125000 I-25.567823 J-242.280613
G02 X169.184739 Y251.801452 Z-0.125000 I-13.204783 J-123.218232
G03 X169.577556 Y251.758138 Z-0.125000 I155.999062 J1412.969060
G02 X169.970326 Y251.714562 Z-0.125000 I-26.287138 J-238.724842
G03 X170.359814 Y251.671527 Z-0.125000 I17.081951 J152.817181
G03 X170.749346 Y251.629048 Z-0.125000 I143.528065 J1314.354915
G03 X171.134077 Y251.588162 Z-0.125000 I8.059945 J74.011932
G03 X171.518952 Y251.548792 Z-0.125000 I14.924750 J144.000058
G03 X171.897616 Y251.512145 Z-0.125000 I4.632976 J45.896619
G03 X172.276512 Y251.478105 Z-0.125000 I6.408950 J69.211574
G03 X172.647878 Y251.447952 Z-0.125000 I2.764745 J31.748718
G03 X173.019537 Y251.421618 Z-0.125000 I3.183515 J42.293715
G03 X173.382382 Y251.400335 Z-0.125000 I1.553288 J23.377884
G03 X173.745520 Y251.384163 Z-0.125000 I1.457146 J28.634948
G03 X174.098526 Y251.374168 Z-0.125000 I0.683475 J17.899630
G03 X174.451724 Y251.370635 Z-0.125000 I0.385636 J20.899375
G03 X174.793334 Y251.374236 Z-0.125000 I0.021920 J14.124993
G03 X175.134888 Y251.385695 Z-0.125000 I-0.357076 J15.740259
G03 X175.463118 Y251.405036 Z-0.125000 I-0.504105 J11.349308
G03 X175.790861 Y251.433588 Z-0.125000 I-0.887499 J12.082873
G03 X176.103086 Y251.470407 Z-0.125000 I-0.932616 J9.250876
G03 X176.414168 Y251.517701 Z-0.125000 I-1.269831 J9.399151
G03 X176.706901 Y251.573076 Z-0.125000 I-1.274060 J7.536672
G03 X176.993865 Y251.641624 Z-0.125000 I-1.079444 J5.153843
G02 X177.266248 Y251.714011 Z-0.125000 I13.319220 J-49.569500
G03 X177.533123 Y251.790273 Z-0.125000 I-1.653684 J6.292098
G02 X177.804423 Y251.861521 Z-0.125000 I0.966449 J-3.127885
G02 X178.085536 Y251.914834 Z-0.125000 I1.144541 J-5.267277
G02 X178.387694 Y251.957695 Z-0.125000 I1.224095 J-7.543075
G02 X178.692072 Y251.988212 Z-0.125000 I0.878722 J-7.231124
G02 X179.019351 Y252.009185 Z-0.125000 I0.865837 J-10.947085
G02 X179.347435 Y252.020102 Z-0.125000 I0.510258 J-10.399435
G02 X179.698052 Y252.022018 Z-0.125000 I0.254889 J-14.565657
G02 X180.048793 Y252.015389 Z-0.125000 I-0.098548 J-14.496709
G02 X180.420522 Y252.000004 Z-0.125000 I-0.556181 J-17.937472
G02 X180.791967 Y251.977004 Z-0.125000 I-0.951347 J-18.374750
G02 X181.182077 Y251.945217 Z-0.125000 I-1.505249 J-20.883069
G02 X181.571604 Y251.906307 Z-0.125000 I-1.983611 J-21.826841
G02 X181.976945 Y251.858524 Z-0.125000 I-2.497087 J-22.925920
G02 X182.381447 Y251.803790 Z-0.125000 I-3.089239 J-24.352782
G02 X182.798552 Y251.740155 Z-0.125000 I-3.495594 J-24.310933
G02 X183.214561 Y251.669572 Z-0.125000 I-4.160760 J-25.784553
G02 X183.639738 Y251.590205 Z-0.125000 I-4.510483 J-25.341547
G02 X184.063558 Y251.503860 Z-0.125000 I-5.162728 J-26.424382
G02 X184.493002 Y251.409095 Z-0.125000 I-5.580166 J-26.307951
G02 X184.920845 Y251.307385 Z-0.125000 I-6.109230 J-26.649041
G02 X185.350783 Y251.197942 Z-0.125000 I-6.780905 J-27.537543
G02 X185.778905 Y251.081723 Z-0.125000 I-7.049591 J-26.815686
G02 X186.205746 Y250.958817 Z-0.125000 I-8.220493 J-29.351595
G02 X186.630626 Y250.829499 Z-0.125000 I-8.057278 J-27.235111
G02 X187.051120 Y250.694901 Z-0.125000 I-10.121175 J-32.343471
G02 X187.469620 Y250.554479 Z-0.125000 I-9.250388 J-28.262695
G02 X187.881033 Y250.410503 Z-0.125000 I-12.934774 J-37.621210
G02 X188.290551 Y250.261542 Z-0.125000 I-10.801927 J-30.333559
G02 X188.690797 Y250.110993 Z-0.125000 I-18.006713 J-48.479511
G02 X189.089408 Y249.956532 Z-0.125000 I-13.183001 J-34.612479
G02 X189.477180 Y249.802584 Z-0.125000 I-30.966706 J-78.565879
G02 X189.863735 Y249.646028 Z-0.125000 I-17.537975 J-43.858884
G02 X190.238549 Y249.492093 Z-0.125000 I-164.402770 J-400.835259
G02 X190.612721 Y249.337055 Z-0.125000 I-29.074121 J-70.696995
G03 X190.974960 Y249.186622 Z-0.125000 I40.842861 J97.837090
G02 X191.337235 Y249.036759 Z-0.125000 I-161.984750 J-392.090442
G03 X191.688099 Y248.893252 Z-0.125000 I16.300429 J39.352736
G00 Z3.000000

(End cutting path id: path338523)


(Start cutting path id: path338521)
(Change tool to Default tool)

G00 Z3.000000
G00 X122.936701 Y251.201136

G00 Z4.875000 (Fast pre-penetrate)
G01 Z-0.125000 F400.0(Penetrate)
G02 X123.222932 Y251.232953 Z-0.125000 I1.223772 J-9.705591 F800.000000
G02 X123.529801 Y251.258653 Z-0.125000 I1.186915 J-12.327441
G02 X123.837518 Y251.276836 Z-0.125000 I0.902858 J-12.666630
G02 X124.168324 Y251.288890 Z-0.125000 I0.741461 J-15.803476
G02 X124.499588 Y251.294202 Z-0.125000 I0.432635 J-16.646676
G02 X124.855301 Y251.293044 Z-0.125000 I0.115870 J-19.033649
G02 X125.211188 Y251.285549 Z-0.125000 I-0.265255 J-21.049066
G02 X125.591828 Y251.270898 Z-0.125000 I-0.627241 J-21.248172
G02 X125.972407 Y251.249918 Z-0.125000 I-1.182873 J-24.920144
G02 X126.377026 Y251.220773 Z-0.125000 I-1.381824 J-22.006606
G02 X126.781323 Y251.184870 Z-0.125000 I-2.187586 J-26.928733
G02 X127.207936 Y251.139541 Z-0.125000 I-2.104898 J-21.839982
G02 X127.633896 Y251.086672 Z-0.125000 I-3.158668 J-27.191882
G02 X128.079427 Y251.023029 Z-0.125000 I-2.789109 J-21.116185
G02 X128.523869 Y250.950839 Z-0.125000 I-3.990566 J-25.972455
G02 X128.984137 Y250.866636 Z-0.125000 I-3.478282 J-20.313024
G02 X129.442746 Y250.772814 Z-0.125000 I-4.701992 J-24.151225
G02 X129.912527 Y250.666133 Z-0.125000 I-4.213827 J-19.643787
G02 X130.379953 Y250.548865 Z-0.125000 I-5.337515 J-22.265399
G02 X130.853141 Y250.418592 Z-0.125000 I-5.048420 J-19.261705
G02 X131.323221 Y250.277065 Z-0.125000 I-5.940131 J-20.581545
G02 X131.793167 Y250.123351 Z-0.125000 I-6.053089 J-19.301273
G02 X132.259290 Y249.958200 Z-0.125000 I-6.557925 J-19.249496
G02 X132.719295 Y249.782838 Z-0.125000 I-7.364629 J-20.009701
G02 X133.174942 Y249.596491 Z-0.125000 I-7.246255 J-18.368391
G02 X133.618869 Y249.403119 Z-0.125000 I-9.327241 J-22.019017
G02 X134.058258 Y249.199956 Z-0.125000 I-8.132212 J-18.164580
G02 X134.481209 Y248.994048 Z-0.125000 I-12.983060 J-27.205440
G02 X134.899986 Y248.780327 Z-0.125000 I-9.488800 J-19.110139
G02 X135.298958 Y248.568908 Z-0.125000 I-23.914541 J-45.611469
G02 X135.694794 Y248.352456 Z-0.125000 I-12.197602 J-22.776523
G03 X136.069191 Y248.143625 Z-0.125000 I312.634317 J560.057725
G02 X136.442146 Y247.933475 Z-0.125000 I-22.316628 J-40.041619
G03 X136.794088 Y247.735614 Z-0.125000 I17.730597 J31.125990
G03 X137.146139 Y247.545091 Z-0.125000 I9.270888 J16.710336
G02 X137.480855 Y247.360430 Z-0.125000 I-4.804253 J-9.103879
G02 X137.813280 Y247.164821 Z-0.125000 I-10.513866 J-18.247915
G02 X138.130068 Y246.965871 Z-0.125000 I-4.878978 J-8.120454
G02 X138.440108 Y246.753302 Z-0.125000 I-5.031182 J-7.670578
G02 X138.731454 Y246.540157 Z-0.125000 I-10.390030 J-14.507717
G02 X139.016479 Y246.319622 Z-0.125000 I-6.422906 J-8.595586
G02 X139.280398 Y246.106301 Z-0.125000 I-23.809481 J-29.726848
G02 X139.540226 Y245.889155 Z-0.125000 I-8.965744 J-10.992034
G03 X139.779150 Y245.685580 Z-0.125000 I42.407081 J49.528800
G02 X140.016872 Y245.481852 Z-0.125000 I-19.239674 J-22.690485
G03 X140.236244 Y245.295831 Z-0.125000 I8.972989 J10.359363
G03 X140.457552 Y245.113430 Z-0.125000 I26.087041 J31.426085
G03 X140.665064 Y244.950180 Z-0.125000 I4.347839 J5.313154
G03 X140.877260 Y244.794310 Z-0.125000 I5.750786 J7.606555
G03 X141.081951 Y244.656447 Z-0.125000 I2.653721 J3.719235
G03 X141.292943 Y244.529337 Z-0.125000 I2.809092 J4.424176
G03 X141.504218 Y244.417365 Z-0.125000 I1.890122 J3.311067
G03 X141.721867 Y244.318438 Z-0.125000 I1.791036 J3.651580
G03 X141.948461 Y244.231448 Z-0.125000 I1.531542 J3.650761
G03 X142.180231 Y244.158156 Z-0.125000 I1.351805 J3.871705
G03 X142.429314 Y244.094381 Z-0.125000 I1.351835 J4.761448
G03 X142.681907 Y244.043394 Z-0.125000 I1.125513 J4.924740
G03 X142.958718 Y244.000562 Z-0.125000 I1.200965 J6.845612
G03 X143.237603 Y243.968777 Z-0.125000 I0.940880 J7.016093
G03 X143.545619 Y243.944627 Z-0.125000 I0.937776 J9.983960
G03 X143.854731 Y243.929772 Z-0.125000 I0.657311 J10.454592
G03 X144.195932 Y243.922693 Z-0.125000 I0.453753 J13.643189
G03 X144.537622 Y243.923707 Z-0.125000 I0.125153 J15.395384
G03 X144.912597 Y243.933329 Z-0.125000 I-0.227601 J16.180925
G03 X145.287653 Y243.950668 Z-0.125000 I-0.737072 J20.008117
G03 X145.695583 Y243.977993 Z-0.125000 I-1.004011 J18.047354
G03 X146.103213 Y244.013519 Z-0.125000 I-1.827009 J23.320045
G03 X146.541746 Y244.061040 Z-0.125000 I-1.717730 J17.898418
G03 X146.979492 Y244.117972 Z-0.125000 I-2.905138 J24.048756
G03 X147.444567 Y244.189260 Z-0.125000 I-2.377586 J17.063893
G03 X147.908142 Y244.271703 Z-0.125000 I-3.790718 J22.659821
G03 X148.393835 Y244.370872 Z-0.125000 I-3.026406 J16.061026
G03 X148.877011 Y244.483208 Z-0.125000 I-4.498140 J20.442636
G03 X149.375499 Y244.614127 Z-0.125000 I-3.706228 J15.126273
G03 X149.870117 Y244.760151 Z-0.125000 I-5.082682 J18.126975
G03 X150.371855 Y244.925502 Z-0.125000 I-4.451830 J14.352488
G03 X150.868099 Y245.107491 Z-0.125000 I-5.592740 J16.017745
G03 X151.362332 Y245.307848 Z-0.125000 I-5.298132 J13.778969
G03 X151.849350 Y245.525622 Z-0.125000 I-6.054032 J14.192404
G03 X152.324996 Y245.758666 Z-0.125000 I-6.306895 J13.474368
G03 X152.791893 Y246.008887 Z-0.125000 I-6.494748 J12.679477
G03 X153.238717 Y246.268983 Z-0.125000 I-7.616586 J13.598581
G03 X153.675836 Y246.544839 Z-0.125000 I-6.955403 J11.505724
G03 X154.085846 Y246.823128 Z-0.125000 I-9.640615 J14.644914
G03 X154.486181 Y247.114563 Z-0.125000 I-7.547040 J10.787828
G03 X154.854912 Y247.399644 Z-0.125000 I-13.949596 J18.423750
G03 X155.215375 Y247.694156 Z-0.125000 I-8.578415 J10.867263
G03 X155.542883 Y247.973286 Z-0.125000 I-35.036756 J41.440872
G03 X155.865102 Y248.257185 Z-0.125000 I-11.216880 J13.055731
G02 X156.156388 Y248.517817 Z-0.125000 I27.182810 J-30.086779
G03 X156.446833 Y248.777677 Z-0.125000 I-27.024526 J30.497505
G02 X156.711644 Y249.008949 Z-0.125000 I7.028619 J-7.780673
G02 X156.981031 Y249.232654 Z-0.125000 I13.918426 J-16.486576
G02 X157.232989 Y249.426712 Z-0.125000 I3.517673 J-4.306625
G02 X157.494991 Y249.605619 Z-0.125000 I3.259832 J-4.492577
G02 X157.747751 Y249.760751 Z-0.125000 I3.990234 J-6.217935
G02 X158.007879 Y249.904754 Z-0.125000 I3.033177 J-5.172193
G02 X158.265035 Y250.031946 Z-0.125000 I3.090270 J-5.924338
G02 X158.527953 Y250.147523 Z-0.125000 I2.569871 J-5.489159
G02 X158.793193 Y250.250190 Z-0.125000 I2.557944 J-6.214519
G02 X159.063014 Y250.341224 Z-0.125000 I2.135118 J-5.882982
G02 X159.339533 Y250.421912 Z-0.125000 I2.292215 J-7.341314
G02 X159.619318 Y250.491834 Z-0.125000 I1.864159 J-6.864483
G02 X159.908963 Y250.553203 Z-0.125000 I2.082451 J-9.114363
G02 X160.200762 Y250.605018 Z-0.125000 I1.651509 J-8.453153
G02 X160.504405 Y250.649504 Z-0.125000 I1.855191 J-11.604193
G02 X160.809371 Y250.685718 Z-0.125000 I1.426938 J-10.714181
G02 X161.127162 Y250.715451 Z-0.125000 I1.548211 J-14.834505
G02 X161.445705 Y250.738102 Z-0.125000 I1.132488 J-13.674959
G02 X161.777242 Y250.754871 Z-0.125000 I1.116779 J-18.793921
G02 X162.109155 Y250.765555 Z-0.125000 I0.724278 J-17.340544
G02 X162.453619 Y250.770799 Z-0.125000 I0.527273 J-23.317180
G02 X162.798208 Y250.770798 Z-0.125000 I0.172207 J-21.341902
G02 X163.154439 Y250.765693 Z-0.125000 I-0.230100 J-28.487918
G02 X163.510635 Y250.755959 Z-0.125000 I-0.548948 J-26.609414
G02 X163.877213 Y250.741457 Z-0.125000 I-1.129353 J-33.188585
G02 X164.243649 Y250.722821 Z-0.125000 I-1.407106 J-31.279786
G02 X164.618964 Y250.699745 Z-0.125000 I-2.249603 J-39.652419
G02 X164.994057 Y250.672954 Z-0.125000 I-2.433222 J-36.705892
G02 X165.376349 Y250.642085 Z-0.125000 I-3.520597 J-45.982141
G02 X165.758370 Y250.607891 Z-0.125000 I-3.585390 J-42.207982
G02 X166.145806 Y250.570065 Z-0.125000 I-5.170856 J-54.966462
G02 X166.532946 Y250.529326 Z-0.125000 I-4.864389 J-48.085918
G02 X166.923664 Y250.485499 Z-0.125000 I-7.542649 J-69.006176
G02 X167.314092 Y250.439223 Z-0.125000 I-6.527177 J-56.739337
G02 X167.706280 Y250.390551 Z-0.125000 I-11.649305 J-95.471608
G02 X168.098204 Y250.339972 Z-0.125000 I-8.818857 J-69.878803
G02 X168.490139 Y250.287821 Z-0.125000 I-22.815024 J-172.963895
G02 X168.881872 Y250.234425 Z-0.125000 I-12.792461 J-95.313841
G02 X169.271974 Y250.180419 Z-0.125000 I-695.785624 J-5027.291208
G02 X169.661976 Y250.125954 Z-0.125000 I-23.678158 J-171.006293
G03 X170.048855 Y250.071961 Z-0.125000 I22.091525 J156.909879
G02 X170.435757 Y250.018439 Z-0.125000 I-661.941898 J-4786.454267
G03 X170.818223 Y249.966570 Z-0.125000 I9.767484 J70.586213
G03 X171.200855 Y249.916235 Z-0.125000 I19.739513 J148.573119
G03 X171.577912 Y249.868804 Z-0.125000 I5.605580 J43.040026
G03 X171.955276 Y249.824100 Z-0.125000 I8.027009 J66.144311
G03 X172.326100 Y249.783587 Z-0.125000 I3.430420 J29.681917
G03 X172.697328 Y249.747112 Z-0.125000 I4.101837 J39.838988
G03 X173.061175 Y249.716111 Z-0.125000 I2.052445 J21.938026
G03 X173.425454 Y249.690553 Z-0.125000 I2.089368 J27.171266
G03 X173.781561 Y249.671713 Z-0.125000 I1.075921 J16.962401
G03 X174.138010 Y249.659794 Z-0.125000 I0.847566 J20.010799
G03 X174.485428 Y249.655733 Z-0.125000 I0.331944 J13.533292
G03 X174.832938 Y249.660093 Z-0.125000 I-0.017419 J15.238293
G03 X175.170351 Y249.673354 Z-0.125000 I-0.263746 J11.010076
G03 X175.507388 Y249.696523 Z-0.125000 I-0.657551 J12.028362
G03 X175.832862 Y249.729366 Z-0.125000 I-0.754007 J9.101255
G03 X176.157233 Y249.773550 Z-0.125000 I-1.144705 J9.616466
G03 X176.467962 Y249.827820 Z-0.125000 I-1.160009 J7.558446
G03 X176.776553 Y249.894747 Z-0.125000 I-1.514578 J7.728369
G03 X177.068589 Y249.971547 Z-0.125000 I-1.485284 J6.241560
G03 X177.354001 Y250.064148 Z-0.125000 I-1.257762 J4.362783
G02 X177.625110 Y250.161428 Z-0.125000 I21.576556 J-59.705388
G03 X177.890411 Y250.263777 Z-0.125000 I-1.839350 J5.162831
G02 X178.156948 Y250.359288 Z-0.125000 I1.086621 J-2.612702
G02 X178.433705 Y250.433694 Z-0.125000 I1.322358 J-4.366639
G02 X178.727125 Y250.495143 Z-0.125000 I1.385873 J-5.886297
G02 X179.024139 Y250.541673 Z-0.125000 I1.034807 J-5.634310
G02 X179.341373 Y250.576825 Z-0.125000 I1.093849 J-8.422393
G02 X179.660199 Y250.599640 Z-0.125000 I0.727058 J-7.921183
G02 X180.000068 Y250.612039 Z-0.125000 I0.586543 J-11.413829
G02 X180.340439 Y250.614088 Z-0.125000 I0.235948 J-10.923354
G02 X180.701023 Y250.606165 Z-0.125000 I-0.138877 J-14.530237
G02 X181.061462 Y250.589295 Z-0.125000 I-0.494527 J-14.424922
G02 X181.440193 Y250.562734 Z-0.125000 I-1.046251 J-17.631610
G02 X181.818365 Y250.528091 Z-0.125000 I-1.439294 J-17.793231
G02 X182.212180 Y250.483912 Z-0.125000 I-2.073885 J-20.264073
G02 X182.605126 Y250.432166 Z-0.125000 I-2.529406 J-20.725496
G02 X183.010610 Y250.371078 Z-0.125000 I-3.151799 J-22.296943
G02 X183.414957 Y250.302714 Z-0.125000 I-3.658793 J-22.870376
G02 X183.828460 Y250.225343 Z-0.125000 I-4.275168 J-23.991896
G02 X184.240580 Y250.140902 Z-0.125000 I-4.764788 J-24.302762
G02 X184.658356 Y250.048022 Z-0.125000 I-5.474510 J-25.610543
G02 X185.074534 Y249.948301 Z-0.125000 I-5.838035 J-25.282961
G02 X185.492901 Y249.841010 Z-0.125000 I-6.831135 J-27.506275
G02 X185.909499 Y249.727217 Z-0.125000 I-6.915258 J-26.136424
G02 X186.324988 Y249.607052 Z-0.125000 I-8.498108 J-30.161956
G02 X186.738623 Y249.480892 Z-0.125000 I-8.083168 J-27.242969
G02 X187.148154 Y249.349883 Z-0.125000 I-10.782361 J-34.410970
G02 X187.555859 Y249.213591 Z-0.125000 I-9.494066 J-29.078777
G02 X187.956902 Y249.074251 Z-0.125000 I-14.432146 J-42.184590
G02 X188.356284 Y248.930569 Z-0.125000 I-11.417962 J-32.364658
G02 X188.746986 Y248.785831 Z-0.125000 I-22.046804 J-60.112451
G02 X189.136344 Y248.637918 Z-0.125000 I-14.569835 J-38.939082
G02 X189.515637 Y248.491022 Z-0.125000 I-50.860618 J-131.888321
G02 X189.894052 Y248.342331 Z-0.125000 I-21.303401 J-54.772546
G03 X190.261700 Y248.196700 Z-0.125000 I103.733747 J261.340491
G02 X190.629059 Y248.050834 Z-0.125000 I-48.070247 J-121.599101
G03 X190.985657 Y247.909913 Z-0.125000 I22.613517 J56.701498
G03 X191.342640 Y247.770475 Z-0.125000 I84.718636 J216.364728
G03 X191.689557 Y247.637618 Z-0.125000 I11.586152 J29.734482
G00 Z3.000000

(End cutting path id: path338521)


(Start cutting path id: path338519)
(Change tool to Default tool)

G00 Z3.000000
G00 X122.661389 Y250.201734

G00 Z4.875000 (Fast pre-penetrate)
G01 Z-0.125000 F400.0(Penetrate)
G02 X122.946288 Y250.228354 Z-0.125000 I1.056499 J-9.769420 F800.000000
G02 X123.255436 Y250.249134 Z-0.125000 I1.059090 J-13.445932
G02 X123.565314 Y250.262883 Z-0.125000 I0.764427 J-13.729808
G02 X123.901704 Y250.270803 Z-0.125000 I0.584119 J-17.661175
G02 X124.238478 Y250.272557 Z-0.125000 I0.267892 J-19.107218
G02 X124.602846 Y250.268052 Z-0.125000 I-0.074977 J-20.799809
G02 X124.967358 Y250.257706 Z-0.125000 I-0.510228 J-24.402192
G02 X125.359437 Y250.240268 Z-0.125000 I-0.817900 J-22.806873
G02 X125.751442 Y250.216753 Z-0.125000 I-1.512867 J-28.499652
G02 X126.169903 Y250.184901 Z-0.125000 I-1.526283 J-22.816570
G02 X126.588029 Y250.146237 Z-0.125000 I-2.513894 J-29.466311
G02 X127.030401 Y250.097642 Z-0.125000 I-2.182990 J-21.909894
G02 X127.472068 Y250.041112 Z-0.125000 I-3.416247 J-28.444846
G02 X127.934645 Y249.972962 Z-0.125000 I-2.809996 J-20.677249
G02 X128.395996 Y249.895518 Z-0.125000 I-4.151240 J-26.142524
G02 X128.873798 Y249.804926 Z-0.125000 I-3.465764 J-19.584525
G02 X129.349682 Y249.703651 Z-0.125000 I-4.779779 J-23.628496
G02 X129.836528 Y249.588224 Z-0.125000 I-4.191303 J-18.762566
G02 X130.320605 Y249.460912 Z-0.125000 I-5.359311 J-21.361557
G02 X130.809342 Y249.319339 Z-0.125000 I-5.032397 J-18.287191
G02 X131.294378 Y249.165104 Z-0.125000 I-5.920463 J-19.458407
G02 X131.777300 Y248.997717 Z-0.125000 I-6.066710 J-18.283165
G02 X132.255652 Y248.817515 Z-0.125000 I-6.508023 J-18.000691
G02 X132.725134 Y248.626693 Z-0.125000 I-7.441206 J-18.980650
G02 X133.189434 Y248.423692 Z-0.125000 I-7.180613 J-17.055866
G02 X133.638716 Y248.214049 Z-0.125000 I-9.551438 J-21.055715
G02 X134.082676 Y247.993754 Z-0.125000 I-8.059165 J-16.799133
G02 X134.506683 Y247.772013 Z-0.125000 I-13.743179 J-26.795553
G02 X134.925924 Y247.542068 Z-0.125000 I-9.472238 J-17.767191
G02 X135.322011 Y247.316634 Z-0.125000 I-28.847202 J-51.145081
G02 X135.714737 Y247.086334 Z-0.125000 I-12.513753 J-21.789473
G03 X136.083230 Y246.866605 Z-0.125000 I63.328787 J105.785349
G02 X136.450560 Y246.646395 Z-0.125000 I-26.748910 J-45.036157
G03 X136.794979 Y246.441777 Z-0.125000 I12.860388 J21.254808
G03 X137.140509 Y246.246673 Z-0.125000 I7.149198 J12.257755
G02 X137.467539 Y246.059219 Z-0.125000 I-4.420652 J-8.091188
G02 X137.792221 Y245.860178 Z-0.125000 I-10.850740 J-18.064425
G02 X138.100130 Y245.657799 Z-0.125000 I-4.345775 J-6.947294
G02 X138.400268 Y245.440449 Z-0.125000 I-4.612246 J-6.684943
G02 X138.680268 Y245.222491 Z-0.125000 I-9.043501 J-11.906578
G02 X138.952905 Y244.996355 Z-0.125000 I-5.771825 J-7.236112
G02 X139.202819 Y244.778243 Z-0.125000 I-18.111928 J-21.005041
G02 X139.447707 Y244.555628 Z-0.125000 I-7.678652 J-8.692927
G03 X139.670081 Y244.348163 Z-0.125000 I78.086691 J83.475143
G02 X139.890567 Y244.139967 Z-0.125000 I-14.088441 J-15.140888
G03 X140.091231 Y243.951596 Z-0.125000 I9.279408 J9.683922
G03 X140.293546 Y243.766389 Z-0.125000 I40.897247 J44.471968
G03 X140.480798 Y243.602613 Z-0.125000 I4.109149 J4.509234
G03 X140.672926 Y243.445976 Z-0.125000 I5.599062 J6.671546
G03 X140.856564 Y243.309289 Z-0.125000 I2.377483 J3.002421
G03 X141.047070 Y243.183422 Z-0.125000 I2.503782 J3.582512
G03 X141.237354 Y243.073863 Z-0.125000 I1.645301 J2.637558
G03 X141.434652 Y242.977670 Z-0.125000 I1.535334 J2.898648
G03 X141.641150 Y242.893721 Z-0.125000 I1.335654 J2.989509
G03 X141.853240 Y242.823728 Z-0.125000 I1.156009 J3.146550
G03 X142.083718 Y242.762922 Z-0.125000 I1.220687 J4.159667
G03 X142.317843 Y242.714749 Z-0.125000 I0.991824 J4.227290
G03 X142.577867 Y242.673948 Z-0.125000 I1.162403 J6.559077
G03 X142.839953 Y242.643479 Z-0.125000 I0.886595 J6.483715
G03 X143.133213 Y242.619431 Z-0.125000 I1.020513 J10.644867
G03 X143.427553 Y242.603478 Z-0.125000 I0.720433 J10.568870
G03 X143.756282 Y242.593634 Z-0.125000 I0.642301 J15.955746
G03 X144.085555 Y242.590335 Z-0.125000 I0.334040 J16.904053
G03 X144.450709 Y242.593481 Z-0.125000 I0.005787 J20.521458
G03 X144.816105 Y242.602612 Z-0.125000 I-0.435424 J24.737986
G03 X145.217381 Y242.619277 Z-0.125000 I-0.711618 J21.974375
G03 X145.618660 Y242.642346 Z-0.125000 I-1.524606 J30.022252
G03 X146.054379 Y242.674853 Z-0.125000 I-1.351299 J21.048950
G03 X146.489785 Y242.715029 Z-0.125000 I-2.591128 J30.460484
G03 X146.956689 Y242.767179 Z-0.125000 I-1.927141 J19.370083
G03 X147.422767 Y242.828942 Z-0.125000 I-3.422238 J27.614831
G03 X147.915776 Y242.905538 Z-0.125000 I-2.501200 J17.723796
G03 X148.407150 Y242.994097 Z-0.125000 I-4.079242 J24.041196
G03 X148.919193 Y243.100160 Z-0.125000 I-3.122620 J16.364310
G03 X149.428419 Y243.220606 Z-0.125000 I-4.637022 J20.741181
G03 X149.950445 Y243.360417 Z-0.125000 I-3.823985 J15.322502
G03 X150.468116 Y243.516722 Z-0.125000 I-5.152348 J17.999611
G03 X150.989418 Y243.692759 Z-0.125000 I-4.631720 J14.575821
G03 X151.504587 Y243.886723 Z-0.125000 I-5.643942 J15.771507
G03 X152.013518 Y244.098699 Z-0.125000 I-5.588210 J14.133631
G03 X152.514559 Y244.329010 Z-0.125000 I-6.123389 J13.981586
G03 X152.999669 Y244.573170 Z-0.125000 I-6.787023 J14.088792
G03 X153.475517 Y244.834830 Z-0.125000 I-6.613713 J12.591042
G03 X153.926956 Y245.103762 Z-0.125000 I-8.491584 J14.767625
G03 X154.368593 Y245.388014 Z-0.125000 I-7.183318 J11.645807
G03 X154.779585 Y245.671057 Z-0.125000 I-11.575990 J17.248791
G03 X155.181510 Y245.965958 Z-0.125000 I-8.037607 J11.375898
G03 X155.549609 Y246.250240 Z-0.125000 I-20.965918 J27.527982
G03 X155.910962 Y246.541801 Z-0.125000 I-9.827579 J12.549718
G02 X156.238792 Y246.813743 Z-0.125000 I137.273348 J-165.151585
G03 X156.563822 Y247.087392 Z-0.125000 I-16.324070 J19.718972
G02 X156.859155 Y247.334329 Z-0.125000 I10.703762 J-12.501464
G02 X157.156888 Y247.576154 Z-0.125000 I47.733544 J-58.464938
G02 X157.431980 Y247.787920 Z-0.125000 I4.631803 J-5.732339
G02 X157.715042 Y247.986439 Z-0.125000 I4.896840 J-6.681161
G02 X157.983916 Y248.158706 Z-0.125000 I4.247299 J-6.333218
G02 X158.260604 Y248.319214 Z-0.125000 I3.595558 J-5.879424
G02 X158.530780 Y248.459889 Z-0.125000 I3.275500 J-5.961006
G02 X158.807567 Y248.587978 Z-0.125000 I2.779568 J-5.643245
G02 X159.084187 Y248.700638 Z-0.125000 I2.650419 J-6.111782
G02 X159.366128 Y248.800442 Z-0.125000 I2.211067 J-5.798033
G02 X159.653035 Y248.887870 Z-0.125000 I2.293067 J-7.010499
G02 X159.943776 Y248.963174 Z-0.125000 I1.855267 J-6.564148
G02 X160.243195 Y249.028216 Z-0.125000 I2.006295 J-8.514210
G02 X160.545129 Y249.082343 Z-0.125000 I1.573713 J-7.909409
G02 X160.858060 Y249.127625 Z-0.125000 I1.701184 J-10.652361
G02 X161.172494 Y249.163348 Z-0.125000 I1.278651 J-9.853060
G02 X161.499038 Y249.191186 Z-0.125000 I1.308398 J-13.418632
G02 X161.826381 Y249.210757 Z-0.125000 I0.903829 J-12.369698
G02 X162.165981 Y249.223124 Z-0.125000 I0.782014 J-16.806264
G02 X162.505907 Y249.228336 Z-0.125000 I0.407817 J-15.510445
G02 X162.857521 Y249.226881 Z-0.125000 I0.090363 J-20.651522
G02 X163.209148 Y249.219189 Z-0.125000 I-0.241251 J-19.069159
G02 X163.571366 Y249.205291 Z-0.125000 I-0.776463 J-24.963881
G02 X163.933395 Y249.185915 Z-0.125000 I-1.051067 J-23.030504
G02 X164.304547 Y249.160780 Z-0.125000 I-1.813722 J-29.535000
G02 X164.675371 Y249.130794 Z-0.125000 I-2.014776 J-27.223966
G02 X165.053608 Y249.095552 Z-0.125000 I-3.071260 J-35.009975
G02 X165.431435 Y249.056022 Z-0.125000 I-3.122601 J-31.670763
G02 X165.814824 Y249.011820 Z-0.125000 I-4.643249 J-41.958200
G02 X166.197758 Y248.963877 Z-0.125000 I-4.424375 J-36.892109
G02 X166.584350 Y248.911969 Z-0.125000 I-6.767020 J-51.863772
G02 X166.970485 Y248.856903 Z-0.125000 I-5.980642 J-43.319113
G02 X167.358406 Y248.798711 Z-0.125000 I-10.247990 J-69.637985
G02 X167.745914 Y248.738016 Z-0.125000 I-8.064055 J-52.751797
G02 X168.133439 Y248.675172 Z-0.125000 I-18.041911 J-112.481939
G02 X168.520633 Y248.610589 Z-0.125000 I-11.405865 J-69.574778
G02 X168.906243 Y248.544971 Z-0.125000 I-66.180815 J-390.080467
G02 X169.291653 Y248.478497 Z-0.125000 I-18.920705 J-110.850250
G03 X169.674095 Y248.412208 Z-0.125000 I36.524770 J209.589024
G02 X170.056502 Y248.346089 Z-0.125000 I-66.316773 J-384.688511
G03 X170.434808 Y248.281465 Z-0.125000 I13.039785 J75.194213
G03 X170.813277 Y248.218165 Z-0.125000 I33.184170 J197.244082
G03 X171.186774 Y248.157719 Z-0.125000 I7.191803 J43.254551
G03 X171.560627 Y248.099886 Z-0.125000 I11.134625 J70.740271
G03 X171.928903 Y248.046288 Z-0.125000 I4.428325 J29.135179
G03 X172.297697 Y247.996699 Z-0.125000 I5.620963 J40.407472
G03 X172.660525 Y247.952718 Z-0.125000 I2.777873 J21.397751
G03 X173.023956 Y247.914240 Z-0.125000 I3.061301 J27.179149
G03 X173.381188 Y247.882709 Z-0.125000 I1.643360 J16.579137
G03 X173.738990 Y247.858241 Z-0.125000 I1.545627 J19.973630
G03 X174.090395 Y247.842011 Z-0.125000 I0.791655 J13.328207
G03 X174.442160 Y247.834424 Z-0.125000 I0.508821 J15.433656
G03 X174.787225 Y247.836322 Z-0.125000 I0.111982 J11.009643
G03 X175.132208 Y247.848449 Z-0.125000 I-0.261641 J12.356431
G03 X175.469886 Y247.871194 Z-0.125000 I-0.457546 J9.310667
G03 X175.806769 Y247.905689 Z-0.125000 I-0.868676 J10.145940
G03 X176.135193 Y247.951789 Z-0.125000 I-0.944401 J7.921026
G03 X176.461789 Y248.011088 Z-0.125000 I-1.368325 J8.465245
G03 X176.777960 Y248.082628 Z-0.125000 I-1.360089 J6.745353
G03 X177.090896 Y248.168702 Z-0.125000 I-1.770258 J7.047961
G03 X177.390354 Y248.267056 Z-0.125000 I-1.699223 J5.678684
G03 X177.682498 Y248.383639 Z-0.125000 I-1.482835 J4.140141
G02 X177.961308 Y248.506453 Z-0.125000 I112.394539 J-254.778148
G03 X178.234038 Y248.636088 Z-0.125000 I-2.073481 J4.713948
G02 X178.504058 Y248.756915 Z-0.125000 I1.289437 J-2.519459
G02 X178.784029 Y248.854514 Z-0.125000 I1.616832 J-4.187647
G02 X179.074247 Y248.936154 Z-0.125000 I1.593149 J-5.106765
G02 X179.369581 Y249.000972 Z-0.125000 I1.228084 J-4.890361
G02 X179.680441 Y249.052335 Z-0.125000 I1.306320 J-6.939748
G02 X179.993945 Y249.089281 Z-0.125000 I0.922129 J-6.476105
G02 X180.325283 Y249.114290 Z-0.125000 I0.866468 J-9.272288
G02 X180.657710 Y249.127067 Z-0.125000 I0.501853 J-8.726297
G02 X181.008188 Y249.128736 Z-0.125000 I0.232323 J-11.983358
G02 X181.358804 Y249.119911 Z-0.125000 I-0.119496 J-11.717146
G02 X181.726234 Y249.100593 Z-0.125000 I-0.595267 J-14.825336
G02 X182.093212 Y249.072055 Z-0.125000 I-0.944860 J-14.524435
G02 X182.474816 Y249.033370 Z-0.125000 I-1.603560 J-17.719448
G02 X182.855571 Y248.986394 Z-0.125000 I-1.957476 J-17.432720
G02 X183.248160 Y248.929709 Z-0.125000 I-2.722904 J-20.245947
G02 X183.639605 Y248.865361 Z-0.125000 I-3.082871 J-19.976551
G02 X184.039742 Y248.791877 Z-0.125000 I-3.937782 J-22.568448
G02 X184.438501 Y248.711223 Z-0.125000 I-4.251556 J-22.045974
G02 X184.842659 Y248.622219 Z-0.125000 I-5.271242 J-24.898212
G02 X185.245263 Y248.526513 Z-0.125000 I-5.438423 J-23.772504
G02 X185.650000 Y248.423509 Z-0.125000 I-6.815828 J-27.628188
G02 X186.053070 Y248.314342 Z-0.125000 I-6.665203 J-25.408366
G02 X186.455189 Y248.199211 Z-0.125000 I-8.777755 J-31.417883
G02 X186.855617 Y248.078593 Z-0.125000 I-8.033630 J-27.395062
G02 X187.252328 Y247.953620 Z-0.125000 I-11.635504 J-37.627428
G02 X187.647442 Y247.824006 Z-0.125000 I-9.741092 J-30.361704
G02 X188.036517 Y247.691863 Z-0.125000 I-16.707043 J-49.830161
G02 X188.424221 Y247.556121 Z-0.125000 I-12.230879 J-35.555244
G02 X188.804112 Y247.419816 Z-0.125000 I-30.073711 J-84.414856
G02 X189.182993 Y247.281150 Z-0.125000 I-16.749955 J-46.353172
G02 X189.552909 Y247.143917 Z-0.125000 I-224.980515 J-607.009341
G02 X189.922304 Y247.005751 Z-0.125000 I-28.915919 J-77.871771
G03 X190.282256 Y246.870941 Z-0.125000 I34.900357 J92.637901
G02 X190.642263 Y246.736785 Z-0.125000 I-236.993470 J-636.519916
G03 X190.993026 Y246.607726 Z-0.125000 I14.753389 J39.556395
G03 X191.344470 Y246.481039 Z-0.125000 I29.683526 J81.794401
G03 X191.687525 Y246.360952 Z-0.125000 I8.615497 J24.062078
G00 Z3.000000

(End cutting path id: path338519)


(Start cutting path id: path338509)
(Change tool to Default tool)

G00 Z3.000000
G00 X122.567010 Y244.513573

G00 Z4.875000 (Fast pre-penetrate)
G01 Z-0.125000 F400.0(Penetrate)
G02 X122.801286 Y244.559719 Z-0.125000 I0.986575 J-4.390859 F800.000000
G02 X123.060854 Y244.598853 Z-0.125000 I1.197975 J-7.065582
G02 X123.322299 Y244.628310 Z-0.125000 I0.898922 J-6.803531
G02 X123.613515 Y244.651793 Z-0.125000 I1.080576 J-11.582474
G02 X123.905703 Y244.667827 Z-0.125000 I0.758475 J-11.151699
G02 X124.230226 Y244.678389 Z-0.125000 I0.736709 J-17.644441
G02 X124.555243 Y244.683041 Z-0.125000 I0.420736 J-18.039892
G02 X124.913604 Y244.682146 Z-0.125000 I0.121839 J-22.968310
G02 X125.272201 Y244.676057 Z-0.125000 I-0.254796 J-25.566207
G02 X125.663843 Y244.663652 Z-0.125000 I-0.612809 J-25.535808
G02 X126.055538 Y244.645898 Z-0.125000 I-1.292991 J-32.855625
G02 X126.478764 Y244.620549 Z-0.125000 I-1.268164 J-24.719041
G02 X126.901825 Y244.588937 Z-0.125000 I-2.335679 J-34.105076
G02 X127.353681 Y244.547871 Z-0.125000 I-1.859328 J-22.964739
G02 X127.805035 Y244.499120 Z-0.125000 I-3.197875 J-31.721150
G02 X128.281185 Y244.438831 Z-0.125000 I-2.444599 J-21.217173
G02 X128.756313 Y244.369133 Z-0.125000 I-3.873386 J-28.059161
G02 X129.250945 Y244.285952 Z-0.125000 I-3.085536 J-19.860232
G02 X129.743829 Y244.191615 Z-0.125000 I-4.462366 J-24.649259
G02 X130.249743 Y244.082458 Z-0.125000 I-3.827645 J-18.967260
G02 X130.752987 Y243.960686 Z-0.125000 I-5.023962 J-21.863072
G02 X131.261855 Y243.823858 Z-0.125000 I-4.730784 J-18.608573
G02 X131.767050 Y243.673520 Z-0.125000 I-5.603423 J-19.753776
G02 X132.269983 Y243.509398 Z-0.125000 I-5.889888 J-18.901505
G02 X132.768330 Y243.331718 Z-0.125000 I-6.237341 J-18.281817
G02 X133.256679 Y243.143266 Z-0.125000 I-7.539290 J-20.264050
G02 X133.739879 Y242.942231 Z-0.125000 I-7.004052 J-17.515945
G02 X134.206212 Y242.735159 Z-0.125000 I-10.382011 J-24.009289
G02 X134.667463 Y242.517608 Z-0.125000 I-8.093101 J-17.756639
G02 X135.106553 Y242.300135 Z-0.125000 I-17.663399 J-36.215473
G02 X135.541505 Y242.075429 Z-0.125000 I-10.075701 J-20.036381
G02 X135.951168 Y241.857673 Z-0.125000 I-136.307543 J-256.927987
G02 X136.358506 Y241.637268 Z-0.125000 I-16.504977 J-30.990087
G03 X136.740147 Y241.430120 Z-0.125000 I19.798467 J36.020648
G03 X137.119869 Y241.232213 Z-0.125000 I8.754741 J16.334372
G02 X137.480614 Y241.037939 Z-0.125000 I-3.689550 J-7.283168
G02 X137.838624 Y240.827559 Z-0.125000 I-8.449019 J-14.787777
G02 X138.182209 Y240.606192 Z-0.125000 I-3.659984 J-6.058008
G02 X138.515771 Y240.363842 Z-0.125000 I-4.305018 J-6.276002
G02 X138.829165 Y240.112912 Z-0.125000 I-6.196736 J-8.060429
G02 X139.130517 Y239.848421 Z-0.125000 I-5.043711 J-6.050569
G02 X139.405114 Y239.586773 Z-0.125000 I-8.325800 J-9.012750
G02 X139.668886 Y239.315182 Z-0.125000 I-5.699681 J-5.799471
G02 X139.903086 Y239.057485 Z-0.125000 I-12.969688 J-12.022377
G02 X140.129032 Y238.793663 Z-0.125000 I-6.620343 J-5.898541
G02 X140.326210 Y238.552983 Z-0.125000 I-53.242342 J-43.820187
G02 X140.519002 Y238.310102 Z-0.125000 I-9.107152 J-7.426961
G03 X140.686760 Y238.096512 Z-0.125000 I13.354463 J10.316139
G02 X140.854924 Y237.884770 Z-0.125000 I-40.219008 J-32.114566
G03 X141.003839 Y237.704362 Z-0.125000 I4.271494 J3.374159
G03 X141.158083 Y237.530182 Z-0.125000 I6.649061 J5.732670
G03 X141.300399 Y237.384799 Z-0.125000 I2.050250 J1.864644
G03 X141.451665 Y237.250322 Z-0.125000 I2.136061 J2.250424
G03 X141.600185 Y237.138314 Z-0.125000 I1.241881 J1.492226
G03 X141.758419 Y237.041032 Z-0.125000 I1.113119 J1.633225
