%
(Header)
(Generated by gcodetools from Inkscape.)
(Using default header. To add your own header create file "header" in the output dir.)
M3
(Header end.)
G21 (All units in mm)

(Start cutting path id: polyline1012670)
(Change tool to Default tool)

G00 Z3.000000
G00 X105.327333 Y147.502764

G00 Z4.875000 (Fast pre-penetrate)
G01 Z-0.125000 F400.0(Penetrate)
G01 X105.413733 Y147.369754 Z-0.125000 F800.000000
G01 X105.295843 Y147.066804 Z-0.125000
G01 X105.094333 Y146.890544 Z-0.125000
G01 X104.895973 Y146.906044 Z-0.125000
G01 X104.774163 Y147.115194 Z-0.125000
G01 X104.756863 Y147.452084 Z-0.125000
G01 X105.022073 Y148.291104 Z-0.125000
G01 X105.513493 Y148.869804 Z-0.125000
G01 X105.771673 Y148.978764 Z-0.125000
G01 X106.015403 Y148.951064 Z-0.125000
G01 X106.295913 Y148.633214 Z-0.125000
G01 X106.403333 Y148.013564 Z-0.125000
G01 X106.309233 Y147.284794 Z-0.125000
G01 X106.026843 Y146.503034 Z-0.125000
G01 X105.582153 Y145.804214 Z-0.125000
G01 X105.107363 Y145.366674 Z-0.125000
G01 X104.613463 Y145.159984 Z-0.125000
G01 X104.167903 Y145.231584 Z-0.125000
G01 X103.802543 Y145.676694 Z-0.125000
G01 X103.664823 Y146.476534 Z-0.125000
G01 X103.794603 Y147.541264 Z-0.125000
G01 X104.183173 Y148.709744 Z-0.125000
G01 X104.694823 Y149.650494 Z-0.125000
G01 X105.309163 Y150.363414 Z-0.125000
G01 X105.958183 Y150.745154 Z-0.125000
G01 X106.566563 Y150.739154 Z-0.125000
G01 X106.934363 Y150.485874 Z-0.125000
G01 X107.168603 Y150.140324 Z-0.125000
G01 X107.367273 Y149.548824 Z-0.125000
G01 X107.439373 Y148.968774 Z-0.125000
G01 X107.326983 Y147.601194 Z-0.125000
G01 X106.865683 Y146.129774 Z-0.125000
G01 X106.099893 Y144.797354 Z-0.125000
G01 X105.263363 Y143.933224 Z-0.125000
G01 X104.756453 Y143.612394 Z-0.125000
G01 X104.255333 Y143.431814 Z-0.125000
G01 X103.782653 Y143.404414 Z-0.125000
G01 X103.460203 Y143.489314 Z-0.125000
G01 X103.089783 Y143.745294 Z-0.125000
G01 X102.803983 Y144.161324 Z-0.125000
G01 X102.617293 Y144.727504 Z-0.125000
G01 X102.539293 Y145.427014 Z-0.125000
G01 X102.574793 Y146.241774 Z-0.125000
G01 X102.722503 Y147.147654 Z-0.125000
G01 X103.321893 Y149.074374 Z-0.125000
G01 X104.172133 Y150.749134 Z-0.125000
G01 X104.701273 Y151.482104 Z-0.125000
G01 X105.189293 Y151.990454 Z-0.125000
G01 X105.758553 Y152.399494 Z-0.125000
G01 X106.181753 Y152.581984 Z-0.125000
G01 X106.724993 Y152.649284 Z-0.125000
G01 X107.105653 Y152.565084 Z-0.125000
G01 X107.664683 Y152.172254 Z-0.125000
G01 X108.023113 Y151.644654 Z-0.125000
G01 X108.309263 Y150.851884 Z-0.125000
G01 X108.443993 Y150.000824 Z-0.125000
G01 X108.447993 Y148.913354 Z-0.125000
G01 X108.315223 Y147.862084 Z-0.125000
G01 X108.052543 Y146.773644 Z-0.125000
G01 X107.664453 Y145.692084 Z-0.125000
G01 X107.161533 Y144.663014 Z-0.125000
G01 X106.640413 Y143.841114 Z-0.125000
G01 X105.972493 Y143.029844 Z-0.125000
G01 X105.345563 Y142.460754 Z-0.125000
G01 X104.607803 Y141.987444 Z-0.125000
G01 X103.877583 Y141.709364 Z-0.125000
G01 X103.188343 Y141.644764 Z-0.125000
G01 X102.573023 Y141.805234 Z-0.125000
G01 X102.061983 Y142.194174 Z-0.125000
G01 X101.680713 Y142.805914 Z-0.125000
G01 X101.468653 Y143.512224 Z-0.125000
G01 X101.378153 Y144.361214 Z-0.125000
G01 X101.427453 Y145.485434 Z-0.125000
G01 X101.612873 Y146.638964 Z-0.125000
G01 X101.921693 Y147.867734 Z-0.125000
G01 X102.381673 Y149.236874 Z-0.125000
G01 X102.947883 Y150.568734 Z-0.125000
G01 X103.539883 Y151.696764 Z-0.125000
G01 X104.183323 Y152.682814 Z-0.125000
G01 X104.798533 Y153.417744 Z-0.125000
G01 X105.461343 Y153.994664 Z-0.125000
G01 X106.124443 Y154.371754 Z-0.125000
G01 X106.860833 Y154.548204 Z-0.125000
G01 X107.383803 Y154.497404 Z-0.125000
G01 X108.022033 Y154.187794 Z-0.125000
G01 X108.690183 Y153.433464 Z-0.125000
G01 X109.133443 Y152.445374 Z-0.125000
G01 X109.396783 Y151.218294 Z-0.125000
G01 X109.460183 Y149.863154 Z-0.125000
G01 X109.326723 Y148.375314 Z-0.125000
G01 X108.991423 Y146.819464 Z-0.125000
G01 X108.506363 Y145.385924 Z-0.125000
G01 X107.864983 Y144.016594 Z-0.125000
G01 X107.157543 Y142.869074 Z-0.125000
G01 X106.282903 Y141.787934 Z-0.125000
G01 X105.417723 Y140.995874 Z-0.125000
G01 X104.402303 Y140.350004 Z-0.125000
G01 X103.319313 Y139.957124 Z-0.125000
G01 X102.419143 Y139.899524 Z-0.125000
G01 X101.624173 Y140.131714 Z-0.125000
G01 X100.974963 Y140.657444 Z-0.125000
G01 X100.552906 Y141.352164 Z-0.125000
G01 X100.284226 Y142.252434 Z-0.125000
G01 X100.177146 Y143.393584 Z-0.125000
G01 X100.251546 Y144.716024 Z-0.125000
G01 X100.502086 Y146.200254 Z-0.125000
G01 X100.921816 Y147.829134 Z-0.125000
G01 X101.523133 Y149.611734 Z-0.125000
G01 X102.201363 Y151.243534 Z-0.125000
G01 X102.962993 Y152.756104 Z-0.125000
G01 X103.784533 Y154.074174 Z-0.125000
G01 X104.548643 Y155.029054 Z-0.125000
G01 X105.409833 Y155.800714 Z-0.125000
G01 X106.231683 Y156.269664 Z-0.125000
G01 X107.033053 Y156.472624 Z-0.125000
G01 X107.794663 Y156.403824 Z-0.125000
G01 X108.204393 Y156.243674 Z-0.125000
G01 X108.683443 Y155.923714 Z-0.125000
G01 X109.430763 Y155.032884 Z-0.125000
G01 X109.994803 Y153.783814 Z-0.125000
G01 X110.346253 Y152.184304 Z-0.125000
G01 X110.432953 Y150.490204 Z-0.125000
G01 X110.281793 Y148.672834 Z-0.125000
G01 X109.888863 Y146.775664 Z-0.125000
G01 X109.300483 Y144.993064 Z-0.125000
G01 X108.513453 Y143.289404 Z-0.125000
G01 X107.617383 Y141.830994 Z-0.125000
G01 X106.527883 Y140.491864 Z-0.125000
G01 X105.422803 Y139.495784 Z-0.125000
G01 X104.103033 Y138.683704 Z-0.125000
G01 X102.898223 Y138.248644 Z-0.125000
G01 X101.720883 Y138.149444 Z-0.125000
G01 X100.724806 Y138.413974 Z-0.125000
G01 X100.293136 Y138.680834 Z-0.125000
G01 X99.913676 Y139.036934 Z-0.125000
G01 X99.389906 Y139.869494 Z-0.125000
G01 X99.050996 Y141.012414 Z-0.125000
G01 X98.939506 Y142.268734 Z-0.125000
G01 X99.026406 Y143.789144 Z-0.125000
G01 X99.316656 Y145.506154 Z-0.125000
G01 X99.835106 Y147.527514 Z-0.125000
G01 X100.527236 Y149.623544 Z-0.125000
G01 X101.398243 Y151.797414 Z-0.125000
G01 X102.322423 Y153.719614 Z-0.125000
G01 X103.257893 Y155.317354 Z-0.125000
G01 X104.205463 Y156.588224 Z-0.125000
G01 X105.083833 Y157.450984 Z-0.125000
G01 X106.105973 Y158.110634 Z-0.125000
G01 X107.107763 Y158.415804 Z-0.125000
G01 X108.022743 Y158.368604 Z-0.125000
G01 X108.518753 Y158.194854 Z-0.125000
G01 X109.103063 Y157.832404 Z-0.125000
G01 X109.605353 Y157.355094 Z-0.125000
G01 X110.058683 Y156.752004 Z-0.125000
G01 X110.455803 Y156.033234 Z-0.125000
G01 X110.789863 Y155.210224 Z-0.125000
G01 X111.243783 Y153.302684 Z-0.125000
G01 X111.381573 Y151.208344 Z-0.125000
G01 X111.223143 Y149.015614 Z-0.125000
G01 X110.782713 Y146.777764 Z-0.125000
G01 X110.059773 Y144.541904 Z-0.125000
G01 X109.122593 Y142.508444 Z-0.125000
G01 X108.034173 Y140.747914 Z-0.125000
G01 X106.791793 Y139.231314 Z-0.125000
G01 X105.391943 Y137.986744 Z-0.125000
G01 X103.832803 Y137.050464 Z-0.125000
G01 X102.261623 Y136.506824 Z-0.125000
G01 X101.454753 Y136.402654 Z-0.125000
G01 X100.799226 Y136.424054 Z-0.125000
G01 X100.186346 Y136.550014 Z-0.125000
G01 X99.624606 Y136.781744 Z-0.125000
G01 X99.121846 Y137.119374 Z-0.125000
G01 X98.753066 Y137.480984 Z-0.125000
G01 X98.166676 Y138.417844 Z-0.125000
G01 X97.798906 Y139.625904 Z-0.125000
G01 X97.660126 Y141.160304 Z-0.125000
G01 X97.776996 Y142.943414 Z-0.125000
G01 X98.142726 Y144.973244 Z-0.125000
G01 X98.756586 Y147.292944 Z-0.125000
G01 X99.597646 Y149.822414 Z-0.125000
G01 X100.630866 Y152.435524 Z-0.125000
G01 X101.719813 Y154.771504 Z-0.125000
G01 X102.789363 Y156.678774 Z-0.125000
G01 X103.843963 Y158.170364 Z-0.125000
G01 X104.859863 Y159.224864 Z-0.125000
G01 X106.033843 Y160.014644 Z-0.125000
G01 X107.085113 Y160.368554 Z-0.125000
G01 X107.598933 Y160.412554 Z-0.125000
G01 X108.200383 Y160.348854 Z-0.125000
G01 X108.875203 Y160.116414 Z-0.125000
G01 X109.513463 Y159.719254 Z-0.125000
G01 X110.106763 Y159.165534 Z-0.125000
G01 X110.646353 Y158.465604 Z-0.125000
G01 X111.155043 Y157.567294 Z-0.125000
G01 X111.543003 Y156.641244 Z-0.125000
G01 X111.857373 Y155.617974 Z-0.125000
G01 X112.104393 Y154.435444 Z-0.125000
G01 X112.303123 Y151.958604 Z-0.125000
G01 X112.148683 Y149.399654 Z-0.125000
G01 X111.645123 Y146.720674 Z-0.125000
G01 X110.827463 Y144.143474 Z-0.125000
G01 X109.747983 Y141.777854 Z-0.125000
G01 X108.472403 Y139.711514 Z-0.125000
G01 X106.967373 Y137.894484 Z-0.125000
G01 X105.388233 Y136.515534 Z-0.125000
G01 X104.445263 Y135.902204 Z-0.125000
G01 X103.515753 Y135.413704 Z-0.125000
G01 X102.548033 Y135.027194 Z-0.125000
G01 X101.600383 Y134.776954 Z-0.125000
G01 X100.754406 Y134.673134 Z-0.125000
G01 X99.982696 Y134.693534 Z-0.125000
G01 X99.146986 Y134.869454 Z-0.125000
G01 X98.497876 Y135.152214 Z-0.125000
G01 X97.580406 Y135.893574 Z-0.125000
G01 X97.208486 Y136.388874 Z-0.125000
G01 X96.872226 Y137.026834 Z-0.125000
G01 X96.474236 Y138.387164 Z-0.125000
G01 X96.338536 Y140.127434 Z-0.125000
G01 X96.486726 Y142.056544 Z-0.125000
G01 X96.910376 Y144.294544 Z-0.125000
G01 X97.618326 Y146.907194 Z-0.125000
G01 X98.600006 Y149.846194 Z-0.125000
G01 X99.833676 Y153.008994 Z-0.125000
G01 X101.102063 Y155.812434 Z-0.125000
G01 X102.301133 Y158.043644 Z-0.125000
G01 X103.469343 Y159.780714 Z-0.125000
G01 X104.640703 Y161.050524 Z-0.125000
G01 X105.898433 Y161.925214 Z-0.125000
G01 X107.083313 Y162.345554 Z-0.125000
G01 X107.664893 Y162.402154 Z-0.125000
G01 X108.348263 Y162.335654 Z-0.125000
G01 X109.118943 Y162.076334 Z-0.125000
G01 X109.852413 Y161.628124 Z-0.125000
G01 X110.538873 Y161.001014 Z-0.125000
G01 X111.210633 Y160.144634 Z-0.125000
G01 X111.748473 Y159.225074 Z-0.125000
G01 X112.251073 Y158.081174 Z-0.125000
G01 X112.649093 Y156.835444 Z-0.125000
G01 X112.944073 Y155.486354 Z-0.125000
G01 X113.115183 Y154.197124 Z-0.125000
G01 X113.196383 Y152.736934 Z-0.125000
G01 X113.170083 Y151.201004 Z-0.125000
G01 X113.045333 Y149.722674 Z-0.125000
G01 X112.503493 Y146.711894 Z-0.125000
G01 X111.563613 Y143.695674 Z-0.125000
G01 X110.387753 Y141.095404 Z-0.125000
G01 X108.930343 Y138.719344 Z-0.125000
G01 X108.132653 Y137.675794 Z-0.125000
G01 X107.233763 Y136.667814 Z-0.125000
G01 X106.293723 Y135.778044 Z-0.125000
G01 X105.406543 Y135.076874 Z-0.125000
G01 X104.322893 Y134.378954 Z-0.125000
G01 X103.128033 Y133.763824 Z-0.125000
G01 X102.037633 Y133.343084 Z-0.125000
G01 X100.969143 Y133.069424 Z-0.125000
G01 X99.917106 Y132.950104 Z-0.125000
G01 X99.031546 Y132.985504 Z-0.125000
G01 X98.107856 Y133.188354 Z-0.125000
G01 X97.364966 Y133.515014 Z-0.125000
G01 X96.784516 Y133.913714 Z-0.125000
G01 X96.276126 Y134.416714 Z-0.125000
G01 X95.845676 Y135.022104 Z-0.125000
G01 X95.542406 Y135.620544 Z-0.125000
G01 X95.113066 Y137.106254 Z-0.125000
G01 X94.973576 Y138.951804 Z-0.125000
G01 X95.136876 Y141.016714 Z-0.125000
G01 X95.592126 Y143.378224 Z-0.125000
G01 X96.383676 Y146.265444 Z-0.125000
G01 X97.473526 Y149.528864 Z-0.125000
G01 X98.943226 Y153.359714 Z-0.125000
G01 X100.422986 Y156.741514 Z-0.125000
G01 X101.792183 Y159.406444 Z-0.125000
G01 X103.080493 Y161.417154 Z-0.125000
G01 X104.300143 Y162.813484 Z-0.125000
G01 X105.667083 Y163.818534 Z-0.125000
G01 X106.358673 Y164.140504 Z-0.125000
G01 X107.045453 Y164.334524 Z-0.125000
G01 X107.788693 Y164.399924 Z-0.125000
G01 X108.424123 Y164.332824 Z-0.125000
G01 X109.290233 Y164.049424 Z-0.125000
G01 X110.205983 Y163.487744 Z-0.125000
G01 X110.955253 Y162.798424 Z-0.125000
G01 X111.721333 Y161.830764 Z-0.125000
G01 X112.377393 Y160.720704 Z-0.125000
G01 X112.942353 Y159.453874 Z-0.125000
G01 X113.397993 Y158.072644 Z-0.125000
G01 X113.757933 Y156.495784 Z-0.125000
G01 X113.971933 Y154.938494 Z-0.125000
G01 X114.066133 Y153.334194 Z-0.125000
G01 X114.045733 Y151.650464 Z-0.125000
G01 X113.917783 Y150.015844 Z-0.125000
G01 X113.661023 Y148.230654 Z-0.125000
G01 X113.308363 Y146.550094 Z-0.125000
G01 X112.844493 Y144.867664 Z-0.125000
G01 X112.269713 Y143.202484 Z-0.125000
G01 X110.944423 Y140.277774 Z-0.125000
G01 X110.128973 Y138.859854 Z-0.125000
G01 X109.283103 Y137.597094 Z-0.125000
G01 X108.320173 Y136.363824 Z-0.125000
G01 X107.372283 Y135.326314 Z-0.125000
G01 X106.383713 Y134.405724 Z-0.125000
G01 X105.300543 Y133.567684 Z-0.125000
G01 X104.090543 Y132.810654 Z-0.125000
G01 X102.772363 Y132.148084 Z-0.125000
G01 X101.496303 Y131.668154 Z-0.125000
G01 X100.282376 Y131.368804 Z-0.125000
G01 X99.113206 Y131.242844 Z-0.125000
G01 X97.985206 Y131.300344 Z-0.125000
G01 X96.947116 Y131.550634 Z-0.125000
G01 X96.116426 Y131.936294 Z-0.125000
G01 X95.471486 Y132.399184 Z-0.125000
G01 X94.985706 Y132.888084 Z-0.125000
G01 X94.566446 Y133.460454 Z-0.125000
G01 X94.206746 Y134.137704 Z-0.125000
G01 X93.917236 Y134.925584 Z-0.125000
G01 X93.713116 Y135.800504 Z-0.125000
G01 X93.564336 Y137.662174 Z-0.125000
G01 X93.720286 Y139.795344 Z-0.125000
G01 X94.185846 Y142.239254 Z-0.125000
G01 X95.016156 Y145.269364 Z-0.125000
G01 X96.211976 Y148.859074 Z-0.125000
G01 X97.918216 Y153.373284 Z-0.125000
G01 X99.685926 Y157.551794 Z-0.125000
G01 X101.210983 Y160.668804 Z-0.125000
G01 X102.601363 Y162.970464 Z-0.125000
G01 X103.946563 Y164.602994 Z-0.125000
G01 X104.633843 Y165.201534 Z-0.125000
G01 X105.410733 Y165.727684 Z-0.125000
G01 X106.122383 Y166.078474 Z-0.125000
G01 X106.874493 Y166.311174 Z-0.125000
G01 X107.621123 Y166.400274 Z-0.125000
G01 X108.358853 Y166.347074 Z-0.125000
G01 X109.288023 Y166.074104 Z-0.125000
G01 X110.283573 Y165.511554 Z-0.125000
G01 X111.243713 Y164.673244 Z-0.125000
G01 X112.080223 Y163.659704 Z-0.125000
G01 X112.855553 Y162.413304 Z-0.125000
G01 X113.536723 Y160.963764 Z-0.125000
G01 X114.096113 Y159.354224 Z-0.125000
G01 X114.494893 Y157.733594 Z-0.125000
G01 X114.759763 Y156.059474 Z-0.125000
G01 X114.902193 Y154.193124 Z-0.125000
G01 X114.907193 Y152.345594 Z-0.125000
G01 X114.784403 Y150.458664 Z-0.125000
G01 X114.529373 Y148.523104 Z-0.125000
G01 X114.137893 Y146.559714 Z-0.125000
G01 X113.636853 Y144.688204 Z-0.125000
G01 X113.018473 Y142.857214 Z-0.125000
G01 X112.320393 Y141.157444 Z-0.125000
G01 X111.563733 Y139.601434 Z-0.125000
G01 X110.717253 Y138.111164 Z-0.125000
G01 X109.744803 Y136.644454 Z-0.125000
G01 X108.676473 Y135.270474 Z-0.125000
G01 X107.611313 Y134.103844 Z-0.125000
G01 X106.454443 Y133.034074 Z-0.125000
G01 X105.316763 Y132.162034 Z-0.125000
G01 X103.888543 Y131.278884 Z-0.125000
G01 X102.440823 Y130.562074 Z-0.125000
G01 X100.965873 Y130.016164 Z-0.125000
G01 X99.621986 Y129.691204 Z-0.125000
G01 X98.248136 Y129.549644 Z-0.125000
G01 X97.009596 Y129.617944 Z-0.125000
G01 X95.868736 Y129.889674 Z-0.125000
G01 X94.847626 Y130.366084 Z-0.125000
G01 X94.191836 Y130.840274 Z-0.125000
G01 X93.684256 Y131.342214 Z-0.125000
G01 X93.185116 Y132.013484 Z-0.125000
G01 X92.823086 Y132.684314 Z-0.125000
G01 X92.533586 Y133.430994 Z-0.125000
G01 X92.302046 Y134.332954 Z-0.125000
G01 X92.112626 Y136.305024 Z-0.125000
G01 X92.248096 Y138.474244 Z-0.125000
G01 X92.713976 Y140.989634 Z-0.125000
G01 X93.546226 Y144.040204 Z-0.125000
G01 X94.737646 Y147.633244 Z-0.125000
G01 X96.794486 Y153.130864 Z-0.125000
G01 X98.937476 Y158.337464 Z-0.125000
G01 X100.613406 Y161.921354 Z-0.125000
G01 X102.098853 Y164.523664 Z-0.125000
G01 X102.822063 Y165.542414 Z-0.125000
G01 X103.499183 Y166.335204 Z-0.125000
G01 X104.188533 Y166.980424 Z-0.125000
G01 X105.024533 Y167.585924 Z-0.125000
G01 X105.862393 Y168.025234 Z-0.125000
G01 X106.630263 Y168.280134 Z-0.125000
G01 X107.442053 Y168.395894 Z-0.125000
G01 X108.247903 Y168.354094 Z-0.125000
G01 X109.380423 Y168.028154 Z-0.125000
G01 X110.413113 Y167.447924 Z-0.125000
G01 X111.501663 Y166.516724 Z-0.125000
G01 X112.462873 Y165.375284 Z-0.125000
G01 X113.345413 Y163.988844 Z-0.125000
G01 X114.129003 Y162.367844 Z-0.125000
G01 X114.780593 Y160.551954 Z-0.125000
G01 X115.250543 Y158.702494 Z-0.125000
G01 X115.551353 Y156.870704 Z-0.125000
G01 X115.716663 Y154.879024 Z-0.125000
G01 X115.735963 Y152.784824 Z-0.125000
G01 X115.612403 Y150.725414 Z-0.125000
G01 X115.348723 Y148.638934 Z-0.125000
G01 X114.939173 Y146.521154 Z-0.125000
G01 X114.380023 Y144.395254 Z-0.125000
G01 X113.700813 Y142.370664 Z-0.125000
G01 X112.937973 Y140.509584 Z-0.125000
G01 X112.056033 Y138.706924 Z-0.125000
G01 X111.072473 Y137.004624 Z-0.125000
G01 X110.037423 Y135.474774 Z-0.125000
G01 X108.919213 Y134.059094 Z-0.125000
G01 X107.730493 Y132.776924 Z-0.125000
G01 X106.458433 Y131.623344 Z-0.125000
G01 X105.184963 Y130.671244 Z-0.125000
G01 X103.575583 Y129.704874 Z-0.125000
G01 X101.967473 Y128.934334 Z-0.125000
G01 X100.361636 Y128.361374 Z-0.125000
G01 X98.738046 Y127.995374 Z-0.125000
G01 X97.195526 Y127.871794 Z-0.125000
G01 X95.849566 Y127.977674 Z-0.125000
G01 X94.594836 Y128.306364 Z-0.125000
G01 X93.477916 Y128.858154 Z-0.125000
G01 X92.765296 Y129.398114 Z-0.125000
G01 X92.217526 Y129.964754 Z-0.125000
G01 X91.745136 Y130.617474 Z-0.125000
G01 X91.360436 Y131.335794 Z-0.125000
G01 X91.028306 Y132.213974 Z-0.125000
G01 X90.814466 Y133.070934 Z-0.125000
G01 X90.619786 Y135.027234 Z-0.125000
G01 X90.741366 Y137.203164 Z-0.125000
G01 X91.178166 Y139.642284 Z-0.125000
G01 X91.974456 Y142.596324 Z-0.125000
G01 X93.152936 Y146.162854 Z-0.125000
G01 X95.486826 Y152.416334 Z-0.125000
G01 X98.196106 Y159.139934 Z-0.125000
G01 X100.046386 Y163.256184 Z-0.125000
G01 X101.572293 Y166.071434 Z-0.125000
G01 X102.279733 Y167.134104 Z-0.125000
G01 X103.027973 Y168.071684 Z-0.125000
G01 X103.746023 Y168.787534 Z-0.125000
G01 X104.570943 Y169.420154 Z-0.125000
G01 X105.466563 Y169.926944 Z-0.125000
G01 X106.265363 Y170.222244 Z-0.125000
G01 X107.189893 Y170.381604 Z-0.125000
G01 X108.062123 Y170.354604 Z-0.125000
G01 X109.246663 Y170.044034 Z-0.125000
G01 X110.499543 Y169.366434 Z-0.125000
G01 X111.654553 Y168.402694 Z-0.125000
G01 X112.797763 Y167.080384 Z-0.125000
G01 X113.807493 Y165.526834 Z-0.125000
G01 X114.678903 Y163.771424 Z-0.125000
G01 X115.394733 Y161.857884 Z-0.125000
G01 X115.948183 Y159.798494 Z-0.125000
G01 X116.308073 Y157.740404 Z-0.125000
G01 X116.504843 Y155.589164 Z-0.125000
G01 X116.545443 Y153.369494 Z-0.125000
G01 X116.423713 Y151.030524 Z-0.125000
G01 X116.140293 Y148.694914 Z-0.125000
G01 X115.710583 Y146.425134 Z-0.125000
G01 X115.120743 Y144.144264 Z-0.125000
G01 X114.367763 Y141.878954 Z-0.125000
G01 X113.541343 Y139.858304 Z-0.125000
G01 X112.582283 Y137.899854 Z-0.125000
G01 X111.496293 Y136.029754 Z-0.125000
G01 X110.355653 Y134.359734 Z-0.125000
G01 X109.120393 Y132.817134 Z-0.125000
G01 X107.781603 Y131.401504 Z-0.125000
G01 X106.411583 Y130.189584 Z-0.125000
G01 X104.989823 Y129.158264 Z-0.125000
G01 X103.176743 Y128.106384 Z-0.125000
G01 X101.334973 Y127.263764 Z-0.125000
G01 X99.579806 Y126.677844 Z-0.125000
G01 X97.846736 Y126.322224 Z-0.125000
G01 X96.285326 Y126.215254 Z-0.125000
G01 X94.736056 Y126.348014 Z-0.125000
G01 X93.278676 Y126.752994 Z-0.125000
G01 X92.082446 Y127.371854 Z-0.125000
G01 X91.432446 Y127.867304 Z-0.125000
G01 X90.854276 Y128.448444 Z-0.125000
G01 X90.352306 Y129.113494 Z-0.125000
G01 X89.930246 Y129.860604 Z-0.125000
G01 X89.591236 Y130.687554 Z-0.125000
G01 X89.345096 Y131.558374 Z-0.125000
G01 X89.095616 Y133.507354 Z-0.125000
G01 X89.171616 Y135.729934 Z-0.125000
G01 X89.536816 Y138.005294 Z-0.125000
G01 X90.246956 Y140.769164 Z-0.125000
G01 X91.352676 Y144.177764 Z-0.125000
G01 X93.777346 Y150.684874 Z-0.125000
G01 X97.568536 Y160.221304 Z-0.125000
G01 X99.459246 Y164.575464 Z-0.125000
G01 X101.032113 Y167.627934 Z-0.125000
G01 X101.781253 Y168.815864 Z-0.125000
G01 X102.546643 Y169.826574 Z-0.125000
G01 X103.275933 Y170.594654 Z-0.125000
G01 X104.122553 Y171.275354 Z-0.125000
G01 X105.001973 Y171.804174 Z-0.125000
G01 X105.958523 Y172.181234 Z-0.125000
G01 X106.813203 Y172.347314 Z-0.125000
G01 X107.776843 Y172.346314 Z-0.125000
G01 X109.163313 Y172.003224 Z-0.125000
G01 X110.491103 Y171.299414 Z-0.125000
G01 X111.756893 Y170.272374 Z-0.125000
G01 X112.996963 Y168.888264 Z-0.125000
G01 X114.122423 Y167.232344 Z-0.125000
G01 X115.134983 Y165.289344 Z-0.125000
G01 X115.972683 Y163.157174 Z-0.125000
G01 X116.613023 Y160.897004 Z-0.125000
G01 X117.020933 Y158.728874 Z-0.125000
G01 X117.264193 Y156.361724 Z-0.125000
G01 X117.330593 Y153.872284 Z-0.125000
G01 X117.214203 Y151.329874 Z-0.125000
G01 X116.920433 Y148.794114 Z-0.125000
G01 X116.453393 Y146.274984 Z-0.125000
G01 X115.831063 Y143.841854 Z-0.125000
G01 X115.033793 Y141.422134 Z-0.125000
G01 X114.147783 Y139.242834 Z-0.125000
G01 X113.115033 Y137.128424 Z-0.125000
G01 X111.941053 Y135.108084 Z-0.125000
G01 X110.697723 Y133.295324 Z-0.125000
G01 X109.347373 Y131.622684 Z-0.125000
G01 X107.899703 Y130.109364 Z-0.125000
G01 X106.396283 Y128.799734 Z-0.125000
G01 X104.856333 Y127.706104 Z-0.125000
G01 X102.817133 Y126.549904 Z-0.125000
G01 X100.837076 Y125.669744 Z-0.125000
G01 X98.859796 Y125.035454 Z-0.125000
G01 X96.992076 Y124.677204 Z-0.125000
G01 X95.255266 Y124.580504 Z-0.125000
G01 X93.546246 Y124.751654 Z-0.125000
G01 X91.990756 Y125.204444 Z-0.125000
G01 X90.690046 Y125.891374 Z-0.125000
G01 X89.985666 Y126.436524 Z-0.125000
G01 X89.434806 Y126.988424 Z-0.125000
G01 X88.948526 Y127.608764 Z-0.125000
G01 X88.483176 Y128.384734 Z-0.125000
G01 X87.855906 Y130.039484 Z-0.125000
G01 X87.546316 Y131.961154 Z-0.125000
G01 X87.552316 Y134.043404 Z-0.125000
G01 X87.865956 Y136.393984 Z-0.125000
G01 X88.492006 Y138.981584 Z-0.125000
G01 X89.500126 Y142.161794 Z-0.125000
G01 X91.670426 Y147.996894 Z-0.125000
G01 X97.275226 Y162.145854 Z-0.125000
G01 X99.066396 Y166.350904 Z-0.125000
G01 X100.528886 Y169.283384 Z-0.125000
G01 X101.309483 Y170.572994 Z-0.125000
G01 X102.043193 Y171.585024 Z-0.125000
G01 X102.783973 Y172.405334 Z-0.125000
G01 X103.619563 Y173.108654 Z-0.125000
G01 X104.546313 Y173.692004 Z-0.125000
G01 X105.482703 Y174.088594 Z-0.125000
G01 X106.389983 Y174.293374 Z-0.125000
G01 X107.417863 Y174.320474 Z-0.125000
G01 X108.105333 Y174.221374 Z-0.125000
G01 X108.906753 Y173.990554 Z-0.125000
G01 X110.325553 Y173.282154 Z-0.125000
G01 X111.784813 Y172.146884 Z-0.125000
G01 X113.205783 Y170.606264 Z-0.125000
G01 X114.476863 Y168.784214 Z-0.125000
G01 X115.588433 Y166.715884 Z-0.125000
G01 X116.541943 Y164.375274 Z-0.125000
G01 X117.247213 Y161.993844 Z-0.125000
G01 X117.720663 Y159.616744 Z-0.125000
G01 X118.005513 Y157.039434 Z-0.125000
G01 X118.094113 Y154.399454 Z-0.125000
G01 X117.984973 Y151.631914 Z-0.125000
G01 X117.681283 Y148.887414 Z-0.125000
G01 X117.189973 Y146.172154 Z-0.125000
G01 X116.511903 Y143.490464 Z-0.125000
G01 X115.668673 Y140.919034 Z-0.125000
G01 X114.721703 Y138.584004 Z-0.125000
G01 X113.613573 Y136.316534 Z-0.125000
G01 X112.349453 Y134.148954 Z-0.125000
G01 X111.001053 Y132.196994 Z-0.125000
G01 X109.532853 Y130.398464 Z-0.125000
G01 X107.970223 Y128.788974 Z-0.125000
G01 X106.330863 Y127.388374 Z-0.125000
G01 X104.666293 Y126.236434 Z-0.125000
G01 X102.491343 Y125.029984 Z-0.125000
G01 X100.327636 Y124.091644 Z-0.125000
G01 X98.175006 Y123.424314 Z-0.125000
G01 X96.054746 Y123.045614 Z-0.125000
G01 X94.107856 Y122.972914 Z-0.125000
G01 X92.217946 Y123.206454 Z-0.125000
G01 X90.546276 Y123.739834 Z-0.125000
G01 X89.170846 Y124.509664 Z-0.125000
G01 X88.446866 Y125.093944 Z-0.125000
G01 X87.872586 Y125.688434 Z-0.125000
G01 X86.932966 Y127.083184 Z-0.125000
G01 X86.293048 Y128.727224 Z-0.125000
G01 X85.959223 Y130.601114 Z-0.125000
G01 X85.932793 Y132.744294 Z-0.125000
G01 X86.212352 Y135.055134 Z-0.125000
G01 X86.809486 Y137.596774 Z-0.125000
G01 X87.746536 Y140.566754 Z-0.125000
G01 X89.542846 Y145.382294 Z-0.125000
G01 X97.296906 Y164.909314 Z-0.125000
G01 X98.801936 Y168.469974 Z-0.125000
G01 X100.064826 Y171.051534 Z-0.125000
G01 X100.852676 Y172.393244 Z-0.125000
G01 X101.589583 Y173.436364 Z-0.125000
G01 X102.349363 Y174.294774 Z-0.125000
G01 X103.147343 Y174.978194 Z-0.125000
G01 X104.035603 Y175.555384 Z-0.125000
G01 X105.020413 Y175.993924 Z-0.125000
G01 X106.018763 Y176.231344 Z-0.125000
G01 X107.028783 Y176.270444 Z-0.125000
G01 X107.740833 Y176.182344 Z-0.125000
G01 X108.557173 Y175.968434 Z-0.125000
G01 X109.373283 Y175.637254 Z-0.125000
G01 X110.199813 Y175.184284 Z-0.125000
G01 X111.821793 Y173.948234 Z-0.125000
G01 X113.348253 Y172.333724 Z-0.125000
G01 X114.739033 Y170.405464 Z-0.125000
G01 X115.989133 Y168.165554 Z-0.125000
G01 X117.036803 Y165.705194 Z-0.125000
G01 X117.848363 Y163.103734 Z-0.125000
G01 X118.382083 Y160.585954 Z-0.125000
G01 X118.715353 Y157.833544 Z-0.125000
G01 X118.835923 Y155.025714 Z-0.125000
G01 X118.745223 Y152.065604 Z-0.125000
G01 X118.440033 Y149.096234 Z-0.125000
G01 X117.930733 Y146.169524 Z-0.125000
G01 X117.219853 Y143.287284 Z-0.125000
G01 X116.308493 Y140.468384 Z-0.125000
G01 X115.305963 Y137.978444 Z-0.125000
G01 X114.127423 Y135.557294 Z-0.125000
G01 X112.777363 Y133.240684 Z-0.125000
G01 X111.327153 Y131.147034 Z-0.125000
G01 X109.759713 Y129.237914 Z-0.125000
G01 X108.070293 Y127.513414 Z-0.125000
G01 X106.331163 Y126.045104 Z-0.125000
G01 X104.509663 Y124.804054 Z-0.125000
G01 X102.106243 Y123.500104 Z-0.125000
G01 X99.718376 Y122.497864 Z-0.125000
G01 X97.421266 Y121.818784 Z-0.125000
G01 X95.182126 Y121.445274 Z-0.125000
G01 X92.997826 Y121.390574 Z-0.125000
G01 X91.009756 Y121.661264 Z-0.125000
G01 X89.231066 Y122.242104 Z-0.125000
G01 X87.677136 Y123.127774 Z-0.125000
G01 X86.438656 Y124.245024 Z-0.125000
G01 X85.427257 Y125.680494 Z-0.125000
G01 X84.718147 Y127.394174 Z-0.125000
G01 X84.345720 Y129.271264 Z-0.125000
G01 X84.277720 Y131.336924 Z-0.125000
G01 X84.518332 Y133.683274 Z-0.125000
G01 X85.070385 Y136.160004 Z-0.125000
G01 X85.954543 Y138.997614 Z-0.125000
G01 X87.512486 Y143.162024 Z-0.125000
G01 X92.660356 Y155.799654 Z-0.125000
G01 X97.387136 Y167.929214 Z-0.125000
G01 X98.581806 Y170.757244 Z-0.125000
G01 X99.618926 Y172.900584 Z-0.125000
G01 X100.388336 Y174.241804 Z-0.125000
G01 X101.105693 Y175.280344 Z-0.125000
G01 X101.818873 Y176.109654 Z-0.125000
G01 X102.603633 Y176.806724 Z-0.125000
G01 X103.575053 Y177.448844 Z-0.125000
G01 X104.607743 Y177.909164 Z-0.125000
G01 X105.553263 Y178.139484 Z-0.125000
G01 X106.620193 Y178.194184 Z-0.125000
G01 X107.483823 Y178.088954 Z-0.125000
G01 X108.353533 Y177.855194 Z-0.125000
G01 X109.225733 Y177.497344 Z-0.125000
G01 X110.065203 Y177.039244 Z-0.125000
G01 X111.812483 Y175.729374 Z-0.125000
G01 X113.525313 Y173.949944 Z-0.125000
G01 X115.079263 Y171.829734 Z-0.125000
G01 X116.449943 Y169.414324 Z-0.125000
G01 X117.568063 Y166.846914 Z-0.125000
G01 X118.469133 Y164.035854 Z-0.125000
G01 X119.060313 Y161.314324 Z-0.125000
G01 X119.423223 Y158.389244 Z-0.125000
G01 X119.559643 Y155.317674 Z-0.125000
G01 X119.464243 Y152.175694 Z-0.125000
G01 X119.142693 Y149.033574 Z-0.125000
G01 X118.592513 Y145.873604 Z-0.125000
G01 X117.825623 Y142.781714 Z-0.125000
G01 X116.882513 Y139.877224 Z-0.125000
G01 X115.774683 Y137.144104 Z-0.125000
G01 X114.510633 Y134.578704 Z-0.125000
G01 X113.114483 Y132.210684 Z-0.125000
G01 X111.554313 Y129.984904 Z-0.125000
G01 X109.872303 Y127.967744 Z-0.125000
G01 X108.048843 Y126.143104 Z-0.125000
G01 X106.178343 Y124.603724 Z-0.125000
G01 X104.211913 Y123.306214 Z-0.125000
G01 X101.688293 Y121.974324 Z-0.125000
G01 X99.145486 Y120.938934 Z-0.125000
G01 X96.660386 Y120.234954 Z-0.125000
G01 X94.236226 Y119.862344 Z-0.125000
G01 X91.917546 Y119.832944 Z-0.125000
G01 X89.728226 Y120.159074 Z-0.125000
G01 X87.789176 Y120.825054 Z-0.125000
G01 X86.928296 Y121.274534 Z-0.125000
G01 X86.134152 Y121.802694 Z-0.125000
G01 X84.832111 Y123.008554 Z-0.125000
G01 X83.811031 Y124.475724 Z-0.125000
G01 X83.099355 Y126.166754 Z-0.125000
G01 X82.707613 Y127.992644 Z-0.125000
G01 X82.604267 Y130.098944 Z-0.125000
G01 X82.807837 Y132.392034 Z-0.125000
G01 X83.283135 Y134.684994 Z-0.125000
G01 X84.135755 Y137.484894 Z-0.125000
G01 X85.919972 Y142.173594 Z-0.125000
G01 X92.110536 Y157.055484 Z-0.125000
G01 X97.376326 Y170.789424 Z-0.125000
G01 X99.128766 Y174.712534 Z-0.125000
G01 X99.899836 Y176.089184 Z-0.125000
G01 X100.616706 Y177.145504 Z-0.125000
G01 X101.327083 Y177.981754 Z-0.125000
G01 X102.107623 Y178.678984 Z-0.125000
G01 X103.104423 Y179.336394 Z-0.125000
G01 X104.044273 Y179.762374 Z-0.125000
G01 X105.034633 Y180.019594 Z-0.125000
G01 X106.044023 Y180.094094 Z-0.125000
G01 X106.955353 Y180.010494 Z-0.125000
G01 X107.893593 Y179.784864 Z-0.125000
G01 X108.788783 Y179.444894 Z-0.125000
G01 X109.735933 Y178.957854 Z-0.125000
G01 X110.692273 Y178.336344 Z-0.125000
G01 X111.695733 Y177.543784 Z-0.125000
G01 X113.547183 Y175.683844 Z-0.125000
G01 X115.217363 Y173.494284 Z-0.125000
G01 X116.742953 Y170.924334 Z-0.125000
G01 X118.028343 Y168.098324 Z-0.125000
G01 X119.012223 Y165.166574 Z-0.125000
G01 X119.682443 Y162.249544 Z-0.125000
G01 X120.086033 Y159.243484 Z-0.125000
G01 X120.261453 Y155.987204 Z-0.125000
G01 X120.185453 Y152.600354 Z-0.125000
G01 X119.866333 Y149.256044 Z-0.125000
G01 X119.290423 Y145.830454 Z-0.125000
G01 X118.481033 Y142.505574 Z-0.125000
G01 X117.475753 Y139.379124 Z-0.125000
G01 X116.295733 Y136.457914 Z-0.125000
G01 X114.957893 Y133.744374 Z-0.125000
G01 X113.416563 Y131.148014 Z-0.125000
G01 X111.769743 Y128.827114 Z-0.125000
G01 X109.942983 Y126.671184 Z-0.125000
G01 X108.028513 Y124.793014 Z-0.125000
G01 X105.976693 Y123.147304 Z-0.125000
G01 X103.842033 Y121.788614 Z-0.125000
G01 X101.107093 Y120.394394 Z-0.125000
G01 X98.412836 Y119.348044 Z-0.125000
G01 X95.685246 Y118.631054 Z-0.125000
G01 X93.121386 Y118.293634 Z-0.125000
G01 X90.683016 Y118.314234 Z-0.125000
G01 X89.456326 Y118.470784 Z-0.125000
G01 X88.359626 Y118.707954 Z-0.125000
G01 X87.228296 Y119.064824 Z-0.125000
G01 X86.263253 Y119.476994 Z-0.125000
G01 X85.364278 Y119.970944 Z-0.125000
G01 X84.536450 Y120.544854 Z-0.125000
G01 X83.256501 Y121.753864 Z-0.125000
G01 X82.213276 Y123.239954 Z-0.125000
G01 X81.474453 Y124.934234 Z-0.125000
G01 X81.034292 Y126.865904 Z-0.125000
G01 X80.910309 Y128.981644 Z-0.125000
G01 X81.099406 Y131.313154 Z-0.125000
G01 X81.560734 Y133.594234 Z-0.125000
G01 X82.357394 Y136.217634 Z-0.125000
G01 X84.161667 Y140.888904 Z-0.125000
G01 X88.660986 Y151.284564 Z-0.125000
G01 X90.857456 Y156.561124 Z-0.125000
G01 X93.017036 Y162.093594 Z-0.125000
G01 X96.882336 Y172.519974 Z-0.125000
G01 X97.834536 Y174.842614 Z-0.125000
G01 X98.677106 Y176.643924 Z-0.125000
G01 X99.387746 Y177.931864 Z-0.125000
G01 X100.101466 Y178.999384 Z-0.125000
G01 X100.806316 Y179.836574 Z-0.125000
G01 X101.602073 Y180.547224 Z-0.125000
G01 X102.614343 Y181.208144 Z-0.125000
G01 X103.578823 Y181.636194 Z-0.125000
G01 X104.566093 Y181.885904 Z-0.125000
G01 X105.575553 Y181.960204 Z-0.125000
G01 X106.501303 Y181.880904 Z-0.125000
G01 X107.545693 Y181.635324 Z-0.125000
G01 X108.535793 Y181.259874 Z-0.125000
G01 X109.557753 Y180.734684 Z-0.125000
G01 X110.548033 Y180.096454 Z-0.125000
G01 X111.612533 Y179.269364 Z-0.125000
G01 X112.643423 Y178.325674 Z-0.125000
G01 X113.633203 Y177.279464 Z-0.125000
G01 X115.480103 Y174.906574 Z-0.125000
G01 X117.112293 Y172.218354 Z-0.125000
G01 X118.506963 Y169.233774 Z-0.125000
G01 X119.581093 Y166.124334 Z-0.125000
G01 X120.304333 Y163.079484 Z-0.125000
G01 X120.744623 Y159.940684 Z-0.125000
G01 X120.947933 Y156.451674 Z-0.125000
G01 X120.878733 Y152.864714 Z-0.125000
G01 X120.547213 Y149.292684 Z-0.125000
G01 X119.964123 Y145.755654 Z-0.125000
G01 X119.133013 Y142.276174 Z-0.125000
G01 X118.065233 Y138.912314 Z-0.125000
G01 X116.806773 Y135.780494 Z-0.125000
G01 X115.397233 Y132.919944 Z-0.125000
G01 X113.767083 Y130.181064 Z-0.125000
G01 X111.992233 Y127.697604 Z-0.125000
G01 X110.041883 Y125.424014 Z-0.125000
G01 X108.004293 Y123.457924 Z-0.125000
G01 X105.885773 Y121.789354 Z-0.125000
G01 X103.542553 Y120.331284 Z-0.125000
G01 X100.659946 Y118.896554 Z-0.125000
G01 X97.812236 Y117.823514 Z-0.125000
G01 X94.957356 Y117.102254 Z-0.125000
G01 X92.206506 Y116.765944 Z-0.125000
G01 X90.826116 Y116.742644 Z-0.125000
G01 X89.488206 Y116.823344 Z-0.125000
G01 X88.210956 Y117.005824 Z-0.125000
G01 X87.065706 Y117.268764 Z-0.125000
G01 X85.882143 Y117.655404 Z-0.125000
G01 X84.834102 Y118.114244 Z-0.125000
G01 X83.878533 Y118.650314 Z-0.125000
G01 X82.999614 Y119.269444 Z-0.125000
G01 X81.626267 Y120.585424 Z-0.125000
G01 X80.594604 Y122.055054 Z-0.125000
G01 X79.816756 Y123.795694 Z-0.125000
G01 X79.357042 Y125.688914 Z-0.125000
G01 X79.197101 Y127.854854 Z-0.125000
G01 X79.349898 Y130.117644 Z-0.125000
G01 X79.778365 Y132.399254 Z-0.125000
G01 X80.529490 Y134.924884 Z-0.125000
G01 X82.399062 Y139.707894 Z-0.125000
G01 X87.562146 Y151.295054 Z-0.125000
G01 X90.098756 Y157.310964 Z-0.125000
G01 X92.518186 Y163.560714 Z-0.125000
G01 X96.469176 Y174.516874 Z-0.125000
G01 X97.362366 Y176.746754 Z-0.125000
G01 X98.160266 Y178.488324 Z-0.125000
G01 X98.863346 Y179.784224 Z-0.125000
G01 X99.561156 Y180.838964 Z-0.125000
G01 X100.257936 Y181.672234 Z-0.125000
G01 X100.993813 Y182.339804 Z-0.125000
G01 X101.895253 Y182.944014 Z-0.125000
G01 X102.894373 Y183.415394 Z-0.125000
G01 X103.921303 Y183.698124 Z-0.125000
G01 X104.975853 Y183.795524 Z-0.125000
G01 X106.055983 Y183.712624 Z-0.125000
G01 X107.088703 Y183.476324 Z-0.125000
G01 X108.164313 Y183.080354 Z-0.125000
G01 X109.216673 Y182.554284 Z-0.125000
G01 X110.359593 Y181.834194 Z-0.125000
G01 X111.478833 Y180.981304 Z-0.125000
G01 X112.565713 Y180.010654 Z-0.125000
G01 X113.628073 Y178.919044 Z-0.125000
G01 X115.654093 Y176.390844 Z-0.125000
G01 X117.436083 Y173.540644 Z-0.125000
G01 X118.943703 Y170.413664 Z-0.125000
G01 X120.105463 Y167.169104 Z-0.125000
G01 X120.902653 Y163.946244 Z-0.125000
G01 X121.388453 Y160.629984 Z-0.125000
G01 X121.617793 Y156.952614 Z-0.125000
G01 X121.557093 Y153.162914 Z-0.125000
G01 X121.215493 Y149.364974 Z-0.125000
G01 X120.587613 Y145.516794 Z-0.125000
G01 X119.726783 Y141.895844 Z-0.125000
G01 X118.588023 Y138.301424 Z-0.125000
G01 X117.270893 Y135.029134 Z-0.125000
G01 X115.785293 Y132.025564 Z-0.125000
G01 X114.061603 Y129.148904 Z-0.125000
G01 X112.175503 Y126.536804 Z-0.125000
G01 X110.098573 Y124.150374 Z-0.125000
G01 X107.933333 Y122.100404 Z-0.125000
G01 X105.675163 Y120.365474 Z-0.125000
G01 X103.189113 Y118.862224 Z-0.125000
G01 X100.061236 Y117.353624 Z-0.125000
G01 X96.990696 Y116.253324 Z-0.125000
G01 X93.960766 Y115.549184 Z-0.125000
G01 X91.077046 Y115.255264 Z-0.125000
G01 X89.631046 Y115.259264 Z-0.125000
G01 X88.275266 Y115.365334 Z-0.125000
G01 X87.012936 Y115.562564 Z-0.125000
G01 X85.706718 Y115.879844 Z-0.125000
G01 X84.472384 Y116.302784 Z-0.125000
G01 X83.394948 Y116.789144 Z-0.125000
G01 X82.305155 Y117.418774 Z-0.125000
G01 X81.390597 Y118.083884 Z-0.125000
G01 X80.016007 Y119.422674 Z-0.125000
G01 X78.920341 Y120.989934 Z-0.125000
G01 X78.122172 Y122.772084 Z-0.125000
G01 X77.653198 Y124.647614 Z-0.125000
G01 X77.471165 Y126.728584 Z-0.125000
G01 X77.592424 Y129.016994 Z-0.125000
G01 X77.988240 Y131.283914 Z-0.125000
G01 X78.729550 Y133.823174 Z-0.125000
G01 X79.564786 Y136.076894 Z-0.125000
G01 X80.671062 Y138.711084 Z-0.125000
G01 X86.313249 Y150.995554 Z-0.125000
G01 X89.291216 Y157.948224 Z-0.125000
G01 X91.968556 Y164.918254 Z-0.125000
G01 X96.065156 Y176.604444 Z-0.125000
G01 X96.873936 Y178.663254 Z-0.125000
G01 X97.671756 Y180.426144 Z-0.125000
G01 X98.323666 Y181.635124 Z-0.125000
G01 X99.018466 Y182.688804 Z-0.125000
G01 X99.702596 Y183.504254 Z-0.125000
G01 X100.443666 Y184.166664 Z-0.125000
G01 X101.325463 Y184.751314 Z-0.125000
G01 X102.271323 Y185.196444 Z-0.125000
G01 X103.231283 Y185.473464 Z-0.125000
G01 X104.329623 Y185.596104 Z-0.125000
G01 X105.402433 Y185.536604 Z-0.125000
G01 X106.515263 Y185.307264 Z-0.125000
G01 X107.626073 Y184.924044 Z-0.125000
G01 X108.832913 Y184.346354 Z-0.125000
G01 X110.037723 Y183.611504 Z-0.125000
G01 X111.295813 Y182.679924 Z-0.125000
G01 X112.456513 Y181.670254 Z-0.125000
G01 X113.637213 Y180.487964 Z-0.125000
G01 X114.722083 Y179.251244 Z-0.125000
G01 X115.791113 Y177.873114 Z-0.125000
G01 X116.803983 Y176.395544 Z-0.125000
G01 X117.746673 Y174.836304 Z-0.125000
G01 X119.375443 Y171.555044 Z-0.125000
G01 X120.633643 Y168.145444 Z-0.125000
G01 X121.490583 Y164.794734 Z-0.125000
G01 X122.015303 Y161.354934 Z-0.125000
G01 X122.272713 Y157.478604 Z-0.125000
G01 X122.220413 Y153.481284 Z-0.125000
G01 X121.861723 Y149.397044 Z-0.125000
G01 X121.223383 Y145.424324 Z-0.125000
G01 X120.299403 Y141.497484 Z-0.125000
G01 X119.115003 Y137.743704 Z-0.125000
G01 X117.745303 Y134.331924 Z-0.125000
G01 X116.139603 Y131.094174 Z-0.125000
G01 X114.319853 Y128.082924 Z-0.125000
G01 X112.319683 Y125.346094 Z-0.125000
G01 X110.108773 Y122.847394 Z-0.125000
G01 X107.816023 Y120.722714 Z-0.125000
G01 X105.339413 Y118.878544 Z-0.125000
G01 X102.693163 Y117.336814 Z-0.125000
G01 X99.479856 Y115.840434 Z-0.125000
G01 X96.288446 Y114.743424 Z-0.125000
G01 X93.103126 Y114.047014 Z-0.125000
G01 X91.543146 Y113.858494 Z-0.125000
G01 X89.990146 Y113.776994 Z-0.125000
G01 X88.451436 Y113.807894 Z-0.125000
G01 X86.970906 Y113.952014 Z-0.125000
G01 X85.549354 Y114.207894 Z-0.125000
G01 X84.221357 Y114.565314 Z-0.125000
G01 X82.926354 Y115.042674 Z-0.125000
G01 X81.807352 Y115.578064 Z-0.125000
G01 X80.668426 Y116.268654 Z-0.125000
G01 X79.715106 Y116.992024 Z-0.125000
G01 X78.356074 Y118.353624 Z-0.125000
G01 X77.263662 Y119.924294 Z-0.125000
G01 X76.454619 Y121.691204 Z-0.125000
G01 X75.932861 Y123.694604 Z-0.125000
G01 X75.733498 Y125.811374 Z-0.125000
G01 X75.844252 Y128.137194 Z-0.125000
G01 X76.223506 Y130.376604 Z-0.125000
G01 X76.918910 Y132.787594 Z-0.125000
G01 X77.751369 Y135.023484 Z-0.125000
G01 X78.882648 Y137.672704 Z-0.125000
G01 X85.187060 Y151.003654 Z-0.125000
G01 X88.443556 Y158.496624 Z-0.125000
G01 X91.403416 Y166.260184 Z-0.125000
G01 X95.611646 Y178.623694 Z-0.125000
G01 X96.380756 Y180.615524 Z-0.125000
G01 X97.118046 Y182.264174 Z-0.125000
G01 X97.764876 Y183.473264 Z-0.125000
G01 X98.393126 Y184.434784 Z-0.125000
G01 X99.061226 Y185.244444 Z-0.125000
G01 X99.779436 Y185.901534 Z-0.125000
G01 X100.689716 Y186.506374 Z-0.125000
G01 X101.629083 Y186.948804 Z-0.125000
G01 X102.598073 Y187.231994 Z-0.125000
G01 X103.597243 Y187.358514 Z-0.125000
G01 X104.730003 Y187.321414 Z-0.125000
G01 X105.894833 Y187.105914 Z-0.125000
G01 X107.135433 Y186.699644 Z-0.125000
G01 X108.409903 Y186.110024 Z-0.125000
G01 X109.656963 Y185.375434 Z-0.125000
G01 X111.002563 Y184.414254 Z-0.125000
G01 X112.287983 Y183.332564 Z-0.125000
G01 X113.562193 Y182.095844 Z-0.125000
G01 X114.753953 Y180.778064 Z-0.125000
G01 X115.918513 Y179.320204 Z-0.125000
G01 X117.035803 Y177.735114 Z-0.125000
G01 X118.025923 Y176.143404 Z-0.125000
G01 X118.940353 Y174.474234 Z-0.125000
G01 X119.771163 Y172.737374 Z-0.125000
G01 X120.522773 Y170.913234 Z-0.125000
G01 X121.153693 Y169.105804 Z-0.125000
G01 X122.058463 Y165.684694 Z-0.125000
G01 X122.631053 Y162.080324 Z-0.125000
G01 X122.914713 Y158.015614 Z-0.125000
G01 X122.871113 Y153.847894 Z-0.125000
G01 X122.507783 Y149.563364 Z-0.125000
G01 X121.830163 Y145.271564 Z-0.125000
G01 X120.866073 Y141.136814 Z-0.125000
G01 X119.617233 Y137.158854 Z-0.125000
G01 X118.187293 Y133.593514 Z-0.125000
G01 X116.509783 Y130.216504 Z-0.125000
G01 X114.598913 Y127.069074 Z-0.125000
G01 X112.488493 Y124.205144 Z-0.125000
G01 X110.163193 Y121.608284 Z-0.125000
G01 X107.731093 Y119.391054 Z-0.125000
G01 X105.209143 Y117.547694 Z-0.125000
G01 X102.324383 Y115.899104 Z-0.125000
G01 X98.875966 Y114.340024 Z-0.125000
G01 X95.525316 Y113.239884 Z-0.125000
G01 X93.848676 Y112.846004 Z-0.125000
G01 X92.225746 Y112.567314 Z-0.125000
G01 X90.568426 Y112.390814 Z-0.125000
G01 X88.943006 Y112.329114 Z-0.125000
G01 X87.359456 Y112.382414 Z-0.125000
G01 X85.812750 Y112.551984 Z-0.125000
G01 X84.295497 Y112.843714 Z-0.125000
G01 X82.867620 Y113.247414 Z-0.125000
G01 X81.521050 Y113.762424 Z-0.125000
G01 X80.279757 Y114.376314 Z-0.125000
G01 X79.104187 Y115.111324 Z-0.125000
G01 X78.113640 Y115.880524 Z-0.125000
G01 X76.678778 Y117.346604 Z-0.125000
G01 X75.582662 Y118.940054 Z-0.125000
G01 X74.762295 Y120.716444 Z-0.125000
G01 X74.213390 Y122.754214 Z-0.125000
G01 X73.990373 Y124.901804 Z-0.125000
G01 X74.081283 Y127.244664 Z-0.125000
G01 X74.459505 Y129.562764 Z-0.125000
G01 X75.151232 Y131.963084 Z-0.125000
G01 X75.973557 Y134.146564 Z-0.125000
G01 X77.129733 Y136.798504 Z-0.125000
G01 X83.950956 Y150.802294 Z-0.125000
G01 X85.881885 Y155.032214 Z-0.125000
G01 X87.586756 Y159.032394 Z-0.125000
G01 X90.294816 Y166.089204 Z-0.125000
G01 X91.828186 Y170.546824 Z-0.125000
G01 X94.863956 Y179.868704 Z-0.125000
G01 X95.759366 Y182.292604 Z-0.125000
G01 X96.550816 Y184.100054 Z-0.125000
G01 X97.188506 Y185.295254 Z-0.125000
G01 X97.811416 Y186.243364 Z-0.125000
G01 X98.473356 Y187.035974 Z-0.125000
G01 X99.182466 Y187.673964 Z-0.125000
G01 X100.028836 Y188.228054 Z-0.125000
G01 X101.000893 Y188.682344 Z-0.125000
G01 X101.905103 Y188.948574 Z-0.125000
G01 X102.943113 Y189.088904 Z-0.125000
G01 X104.124293 Y189.059304 Z-0.125000
G01 X105.393683 Y188.830834 Z-0.125000
G01 X106.711023 Y188.404354 Z-0.125000
G01 X108.107783 Y187.763344 Z-0.125000
G01 X109.521953 Y186.931684 Z-0.125000
G01 X110.896863 Y185.954314 Z-0.125000
G01 X112.268543 Y184.813634 Z-0.125000
G01 X113.620243 Y183.520774 Z-0.125000
G01 X114.926333 Y182.098244 Z-0.125000
G01 X116.113623 Y180.637404 Z-0.125000
G01 X117.262633 Y179.044664 Z-0.125000
G01 X118.349643 Y177.339134 Z-0.125000
G01 X119.350723 Y175.549724 Z-0.125000
G01 X120.213793 Y173.782314 Z-0.125000
G01 X121.022123 Y171.861434 Z-0.125000
G01 X121.689193 Y169.988504 Z-0.125000
G01 X122.644813 Y166.448034 Z-0.125000
G01 X123.248063 Y162.724974 Z-0.125000
G01 X123.548173 Y158.487624 Z-0.125000
G01 X123.504073 Y154.132264 Z-0.125000
G01 X123.127683 Y149.648524 Z-0.125000
G01 X122.413223 Y145.083674 Z-0.125000
G01 X121.402653 Y140.725194 Z-0.125000
G01 X120.088383 Y136.529134 Z-0.125000
G01 X118.563163 Y132.738904 Z-0.125000
G01 X116.796993 Y129.213014 Z-0.125000
G01 X114.784833 Y125.937494 Z-0.125000
G01 X112.554453 Y122.957234 Z-0.125000
G01 X110.100703 Y120.270254 Z-0.125000
G01 X107.522023 Y117.977584 Z-0.125000
G01 X104.942253 Y116.146454 Z-0.125000
G01 X101.758813 Y114.381134 Z-0.125000
G01 X99.951976 Y113.540684 Z-0.125000
G01 X98.215016 Y112.839744 Z-0.125000
G01 X96.462336 Y112.239274 Z-0.125000
G01 X94.703306 Y111.745434 Z-0.125000
G01 X92.915386 Y111.357024 Z-0.125000
G01 X91.161176 Y111.090084 Z-0.125000
G01 X89.431676 Y110.941734 Z-0.125000
G01 X87.765506 Y110.912234 Z-0.125000
G01 X86.102101 Y111.001434 Z-0.125000
G01 X84.494784 Y111.210104 Z-0.125000
G01 X82.938637 Y111.539644 Z-0.125000
G01 X81.458637 Y111.985544 Z-0.125000
G01 X80.116168 Y112.520354 Z-0.125000
G01 X78.796532 Y113.191254 Z-0.125000
G01 X77.579687 Y113.968704 Z-0.125000
G01 X76.472802 Y114.847994 Z-0.125000
G01 X75.055350 Y116.319894 Z-0.125000
G01 X73.905153 Y117.995984 Z-0.125000
G01 X73.048062 Y119.848174 Z-0.125000
G01 X72.484367 Y121.908904 Z-0.125000
G01 X72.244285 Y124.078014 Z-0.125000
G01 X72.311175 Y126.358454 Z-0.125000
G01 X72.678946 Y128.753514 Z-0.125000
G01 X73.352363 Y131.121034 Z-0.125000
G01 X74.197813 Y133.346924 Z-0.125000
G01 X75.423257 Y136.099484 Z-0.125000
G01 X82.823494 Y150.860244 Z-0.125000
G01 X84.880471 Y155.283474 Z-0.125000
G01 X86.757606 Y159.644974 Z-0.125000
G01 X88.276556 Y163.476034 Z-0.125000
G01 X89.750496 Y167.512834 Z-0.125000
G01 X91.325716 Y172.220664 Z-0.125000
G01 X94.323286 Y181.737124 Z-0.125000
G01 X95.197866 Y184.149624 Z-0.125000
G01 X95.976036 Y185.938494 Z-0.125000
G01 X96.559736 Y187.035114 Z-0.125000
G01 X97.173066 Y187.972054 Z-0.125000
G01 X97.823536 Y188.751304 Z-0.125000
G01 X98.518336 Y189.374264 Z-0.125000
G01 X99.377886 Y189.934804 Z-0.125000
G01 X100.350656 Y190.381054 Z-0.125000
G01 X101.288863 Y190.651084 Z-0.125000
G01 X102.259513 Y190.783114 Z-0.125000
G01 X103.539803 Y190.757014 Z-0.125000
G01 X104.881063 Y190.518224 Z-0.125000
G01 X106.221363 Y190.091904 Z-0.125000
G01 X107.691783 Y189.432674 Z-0.125000
G01 X109.148473 Y188.598864 Z-0.125000
G01 X110.619133 Y187.583574 Z-0.125000
G01 X112.086323 Y186.398294 Z-0.125000
G01 X113.591383 Y184.996484 Z-0.125000
G01 X114.958643 Y183.545294 Z-0.125000
G01 X116.261553 Y181.983694 Z-0.125000
G01 X117.496313 Y180.313484 Z-0.125000
G01 X118.650713 Y178.546204 Z-0.125000
G01 X119.713313 Y176.693914 Z-0.125000
G01 X120.656363 Y174.807214 Z-0.125000
G01 X121.494563 Y172.860304 Z-0.125000
G01 X122.189463 Y170.960014 Z-0.125000
G01 X122.752183 Y169.121004 Z-0.125000
G01 X123.216653 Y167.257124 Z-0.125000
G01 X123.847293 Y163.478634 Z-0.125000
G01 X124.167573 Y159.159204 Z-0.125000
G01 X124.130573 Y154.538994 Z-0.125000
G01 X123.727763 Y149.697784 Z-0.125000
G01 X122.987203 Y144.935864 Z-0.125000
G01 X121.934233 Y140.354684 Z-0.125000
G01 X120.563353 Y135.952154 Z-0.125000
G01 X118.948073 Y131.935824 Z-0.125000
G01 X117.112653 Y128.285824 Z-0.125000
G01 X114.991353 Y124.857854 Z-0.125000
G01 X112.664983 Y121.783154 Z-0.125000
G01 X110.141603 Y119.053024 Z-0.125000
G01 X108.803153 Y117.814464 Z-0.125000
G01 X107.384163 Y116.640744 Z-0.125000
G01 X104.685653 Y114.769104 Z-0.125000
G01 X101.299193 Y112.937024 Z-0.125000
G01 X99.412646 Y112.085014 Z-0.125000
G01 X97.594476 Y111.376694 Z-0.125000
G01 X95.663816 Y110.746254 Z-0.125000
G01 X93.818236 Y110.261714 Z-0.125000
G01 X91.972086 Y109.894374 Z-0.125000
G01 X90.142326 Y109.649044 Z-0.125000
G01 X88.399576 Y109.529374 Z-0.125000
G01 X86.621226 Y109.527374 Z-0.125000
G01 X84.892126 Y109.650564 Z-0.125000
G01 X83.140214 Y109.912104 Z-0.125000
G01 X81.530727 Y110.287494 Z-0.125000
G01 X79.987227 Y110.786234 Z-0.125000
G01 X78.534453 Y111.400994 Z-0.125000
G01 X77.180766 Y112.127064 Z-0.125000
G01 X75.966990 Y112.934864 Z-0.125000
G01 X74.818698 Y113.876534 Z-0.125000
G01 X73.328644 Y115.471794 Z-0.125000
G01 X72.184639 Y117.181504 Z-0.125000
G01 X71.324028 Y119.063584 Z-0.125000
G01 X70.759460 Y121.106464 Z-0.125000
G01 X70.501333 Y123.283774 Z-0.125000
G01 X70.556893 Y125.675954 Z-0.125000
G01 X70.919320 Y128.079184 Z-0.125000
G01 X71.570274 Y130.386594 Z-0.125000
G01 X72.435435 Y132.644124 Z-0.125000
G01 X73.613466 Y135.245404 Z-0.125000
G01 X81.580123 Y150.703704 Z-0.125000
G01 X83.852894 Y155.491154 Z-0.125000
G01 X85.852906 Y160.084584 Z-0.125000
G01 X87.526446 Y164.299404 Z-0.125000
G01 X89.085926 Y168.617694 Z-0.125000
G01 X90.676686 Y173.475994 Z-0.125000
G01 X93.737726 Y183.516064 Z-0.125000
G01 X94.546956 Y185.806134 Z-0.125000
G01 X95.343006 Y187.667164 Z-0.125000
G01 X95.917466 Y188.751794 Z-0.125000
G01 X96.539086 Y189.698074 Z-0.125000
G01 X97.159296 Y190.436074 Z-0.125000
G01 X97.834826 Y191.044804 Z-0.125000
G01 X98.631616 Y191.562704 Z-0.125000
G01 X99.552606 Y191.995794 Z-0.125000
G01 X100.544766 Y192.294244 Z-0.125000
G01 X101.499623 Y192.436224 Z-0.125000
G01 X102.841263 Y192.427224 Z-0.125000
G01 X104.206253 Y192.204574 Z-0.125000
G01 X105.709063 Y191.745764 Z-0.125000
G01 X107.225683 Y191.084254 Z-0.125000
G01 X108.775103 Y190.222054 Z-0.125000
G01 X110.421553 Y189.111384 Z-0.125000
G01 X111.961083 Y187.893724 Z-0.125000
G01 X113.533133 Y186.464974 Z-0.125000
G01 X114.973443 Y184.977454 Z-0.125000
G01 X116.411163 Y183.298864 Z-0.125000
G01 X117.754423 Y181.523324 Z-0.125000
G01 X118.951963 Y179.731594 Z-0.125000
G01 X120.055613 Y177.856784 Z-0.125000
G01 X121.055743 Y175.910214 Z-0.125000
G01 X121.944233 Y173.903194 Z-0.125000
G01 X122.715043 Y171.845924 Z-0.125000
G01 X123.306653 Y169.950364 Z-0.125000
G01 X123.794543 Y168.030364 Z-0.125000
G01 X124.158403 Y166.196434 Z-0.125000
G01 X124.455103 Y164.142634 Z-0.125000
G01 X124.786573 Y159.666964 Z-0.125000
G01 X124.746073 Y154.935904 Z-0.125000
G01 X124.322873 Y149.829834 Z-0.125000
G01 X123.547223 Y144.801484 Z-0.125000
G01 X122.442803 Y139.957784 Z-0.125000
G01 X121.007253 Y135.328974 Z-0.125000
G01 X119.343233 Y131.185494 Z-0.125000
G01 X117.388493 Y127.310834 Z-0.125000
G01 X115.184083 Y123.778034 Z-0.125000
G01 X112.724603 Y120.566444 Z-0.125000
G01 X111.424783 Y119.110704 Z-0.125000
G01 X110.065853 Y117.739264 Z-0.125000
G01 X108.623113 Y116.434154 Z-0.125000
G01 X107.171653 Y115.263984 Z-0.125000
G01 X104.330853 Y113.350224 Z-0.125000
G01 X100.785886 Y111.485784 Z-0.125000
G01 X98.818106 Y110.625914 Z-0.125000
G01 X96.917756 Y109.914454 Z-0.125000
G01 X95.030276 Y109.323824 Z-0.125000
G01 X93.098686 Y108.839954 Z-0.125000
G01 X91.173766 Y108.480784 Z-0.125000
G01 X89.260766 Y108.248474 Z-0.125000
G01 X87.371436 Y108.145474 Z-0.125000
G01 X85.523426 Y108.172574 Z-0.125000
G01 X83.682006 Y108.333994 Z-0.125000
G01 X81.938455 Y108.621514 Z-0.125000
G01 X80.269066 Y109.033394 Z-0.125000
G01 X78.599307 Y109.597804 Z-0.125000
G01 X77.099067 Y110.257274 Z-0.125000
G01 X75.681905 Y111.040624 Z-0.125000
G01 X74.383965 Y111.929074 Z-0.125000
G01 X73.205405 Y112.920414 Z-0.125000
G01 X71.758161 Y114.483524 Z-0.125000
G01 X70.553302 Y116.269004 Z-0.125000
G01 X69.626493 Y118.274684 Z-0.125000
G01 X69.046288 Y120.330044 Z-0.125000
G01 X68.765724 Y122.527484 Z-0.125000
G01 X68.797054 Y124.925984 Z-0.125000
G01 X69.109792 Y127.222624 Z-0.125000
G01 X69.766620 Y129.637604 Z-0.125000
G01 X70.685729 Y132.021394 Z-0.125000
G01 X71.954142 Y134.760844 Z-0.125000
G01 X80.433085 Y150.767234 Z-0.125000
G01 X82.830951 Y155.727804 Z-0.125000
G01 X84.974288 Y160.597724 Z-0.125000
G01 X86.772296 Y165.124394 Z-0.125000
G01 X88.410806 Y169.709464 Z-0.125000
G01 X90.055646 Y174.848154 Z-0.125000
G01 X93.117506 Y185.225954 Z-0.125000
G01 X93.930386 Y187.571064 Z-0.125000
G01 X94.697786 Y189.376024 Z-0.125000
G01 X95.263306 Y190.444174 Z-0.125000
G01 X95.857006 Y191.346964 Z-0.125000
G01 X96.482636 Y192.089754 Z-0.125000
G01 X97.088746 Y192.637704 Z-0.125000
G01 X97.865326 Y193.155594 Z-0.125000
G01 X98.815626 Y193.603964 Z-0.125000
G01 X99.702956 Y193.881744 Z-0.125000
G01 X100.726766 Y194.052194 Z-0.125000
G01 X102.117143 Y194.062394 Z-0.125000
G01 X103.605743 Y193.834454 Z-0.125000
G01 X105.157813 Y193.375324 Z-0.125000
G01 X106.761933 Y192.695214 Z-0.125000
G01 X108.402563 Y191.806184 Z-0.125000
G01 X110.117913 Y190.680834 Z-0.125000
G01 X111.811743 Y189.376564 Z-0.125000
G01 X113.457583 Y187.919244 Z-0.125000
G01 X115.043123 Y186.322544 Z-0.125000
G01 X116.545963 Y184.610504 Z-0.125000
G01 X117.968173 Y182.778364 Z-0.125000
G01 X119.261513 Y180.890754 Z-0.125000
G01 X120.456843 Y178.903754 Z-0.125000
G01 X121.491073 Y176.931944 Z-0.125000
G01 X122.449903 Y174.807824 Z-0.125000
G01 X123.243463 Y172.727194 Z-0.125000
G01 X123.856263 Y170.802534 Z-0.125000
G01 X124.362733 Y168.854144 Z-0.125000
G01 X124.760583 Y166.889924 Z-0.125000
G01 X125.063243 Y164.814984 Z-0.125000
G01 X125.277663 Y162.609044 Z-0.125000
G01 X125.400403 Y160.261634 Z-0.125000
G01 X125.352703 Y155.323194 Z-0.125000
G01 X124.915423 Y150.059064 Z-0.125000
G01 X124.089293 Y144.658864 Z-0.125000
G01 X122.930973 Y139.545634 Z-0.125000
G01 X122.225033 Y137.086754 Z-0.125000
G01 X121.450543 Y134.746254 Z-0.125000
G01 X119.705913 Y130.394364 Z-0.125000
G01 X118.741823 Y128.376724 Z-0.125000
G01 X117.680763 Y126.389944 Z-0.125000
G01 X116.576603 Y124.533994 Z-0.125000
G01 X115.383913 Y122.729384 Z-0.125000
G01 X114.105023 Y120.988294 Z-0.125000
G01 X112.810603 Y119.400444 Z-0.125000
G01 X111.446683 Y117.891974 Z-0.125000
G01 X110.074283 Y116.524774 Z-0.125000
G01 X108.597753 Y115.205164 Z-0.125000
G01 X107.074993 Y113.993894 Z-0.125000
G01 X105.594543 Y112.951414 Z-0.125000
G01 X104.016143 Y111.978304 Z-0.125000
G01 X100.311956 Y110.073114 Z-0.125000
G01 X98.263266 Y109.204014 Z-0.125000
G01 X96.238826 Y108.474474 Z-0.125000
G01 X94.230746 Y107.877974 Z-0.125000
G01 X92.219466 Y107.408264 Z-0.125000
G01 X90.216996 Y107.069384 Z-0.125000
G01 X88.247006 Y106.864354 Z-0.125000
G01 X86.286760 Y106.791354 Z-0.125000
G01 X84.358900 Y106.853654 Z-0.125000
G01 X82.487819 Y107.049994 Z-0.125000
G01 X80.684340 Y107.377204 Z-0.125000
G01 X78.908748 Y107.846574 Z-0.125000
G01 X77.261134 Y108.430914 Z-0.125000
G01 X75.635693 Y109.172064 Z-0.125000
G01 X74.185353 Y110.000284 Z-0.125000
G01 X72.850477 Y110.936884 Z-0.125000
G01 X71.615879 Y111.996884 Z-0.125000
G01 X70.062457 Y113.713794 Z-0.125000
G01 X68.860428 Y115.533414 Z-0.125000
G01 X67.947246 Y117.515144 Z-0.125000
G01 X67.335132 Y119.647284 Z-0.125000
G01 X67.037952 Y121.872304 Z-0.125000
G01 X67.053692 Y124.311414 Z-0.125000
G01 X67.402465 Y126.860254 Z-0.125000
G01 X68.022887 Y129.099734 Z-0.125000
G01 X69.079712 Y131.770334 Z-0.125000
G01 X70.685918 Y135.079404 Z-0.125000
G01 X77.178793 Y146.866214 Z-0.125000
G01 X80.017190 Y152.289544 Z-0.125000
G01 X82.174629 Y156.765044 Z-0.125000
G01 X84.091429 Y161.111724 Z-0.125000
G01 X86.011960 Y165.944074 Z-0.125000
G01 X87.754716 Y170.877794 Z-0.125000
G01 X89.454006 Y176.320084 Z-0.125000
G01 X92.437706 Y186.778824 Z-0.125000
G01 X93.284666 Y189.272804 Z-0.125000
G01 X94.052516 Y191.084144 Z-0.125000
G01 X94.600226 Y192.111174 Z-0.125000
G01 X95.184906 Y192.991684 Z-0.125000
G01 X95.797916 Y193.712064 Z-0.125000
G01 X96.418046 Y194.266814 Z-0.125000
G01 X97.181136 Y194.763914 Z-0.125000
G01 X98.063546 Y195.175984 Z-0.125000
G01 X98.979986 Y195.464294 Z-0.125000
G01 X99.932216 Y195.630584 Z-0.125000
G01 X101.416363 Y195.658384 Z-0.125000
G01 X102.978573 Y195.432984 Z-0.125000
G01 X104.568773 Y194.979994 Z-0.125000
G01 X106.308353 Y194.264054 Z-0.125000
G01 X108.084553 Y193.322274 Z-0.125000
G01 X109.877793 Y192.170914 Z-0.125000
G01 X111.639313 Y190.847894 Z-0.125000
G01 X113.443323 Y189.288944 Z-0.125000
G01 X115.097473 Y187.662304 Z-0.125000
G01 X116.677003 Y185.907984 Z-0.125000
G01 X118.152133 Y184.059024 Z-0.125000
G01 X119.529003 Y182.105744 Z-0.125000
G01 X120.793423 Y180.061964 Z-0.125000
G01 X121.933823 Y177.941094 Z-0.125000
G01 X122.940803 Y175.756214 Z-0.125000
G01 X123.773103 Y173.617294 Z-0.125000
G01 X124.414773 Y171.640224 Z-0.125000
G01 X124.944463 Y169.639844 Z-0.125000
G01 X125.360043 Y167.623854 Z-0.125000
G01 X125.662363 Y165.597834 Z-0.125000
G01 X125.885773 Y163.343184 Z-0.125000
G01 X126.012243 Y160.947834 Z-0.125000
G01 X126.036243 Y158.403254 Z-0.125000
G01 X125.955543 Y155.756384 Z-0.125000
G01 X125.766413 Y152.957444 Z-0.125000
G01 X125.465243 Y150.036544 Z-0.125000
G01 X124.587983 Y144.371504 Z-0.125000
G01 X124.016353 Y141.629334 Z-0.125000
G01 X123.358543 Y138.965134 Z-0.125000
G01 X122.640073 Y136.468004 Z-0.125000
G01 X121.838943 Y134.048834 Z-0.125000
G01 X120.968803 Y131.745084 Z-0.125000
G01 X120.036733 Y129.562344 Z-0.125000
G01 X119.038773 Y127.481164 Z-0.125000
G01 X117.938633 Y125.431254 Z-0.125000
G01 X116.789523 Y123.512204 Z-0.125000
G01 X115.546383 Y121.646754 Z-0.125000
G01 X114.211633 Y119.847984 Z-0.125000
G01 X112.856093 Y118.205374 Z-0.125000
G01 X111.413273 Y116.633374 Z-0.125000
G01 X109.919673 Y115.174804 Z-0.125000
G01 X108.446873 Y113.887184 Z-0.125000
G01 X106.849553 Y112.644754 Z-0.125000
G01 X105.305763 Y111.585654 Z-0.125000
G01 X103.739583 Y110.645694 Z-0.125000
G01 X101.784983 Y109.601494 Z-0.125000
G01 X99.784626 Y108.654764 Z-0.125000
G01 X97.639226 Y107.775024 Z-0.125000
G01 X95.564466 Y107.057524 Z-0.125000
G01 X93.475586 Y106.467584 Z-0.125000
G01 X91.385006 Y106.010914 Z-0.125000
G01 X89.349166 Y105.696534 Z-0.125000
G01 X87.281686 Y105.511934 Z-0.125000
G01 X85.250324 Y105.467534 Z-0.125000
G01 X83.278623 Y105.560934 Z-0.125000
G01 X81.343540 Y105.792314 Z-0.125000
G01 X79.467538 Y106.160454 Z-0.125000
G01 X77.673769 Y106.659564 Z-0.125000
G01 X75.935139 Y107.299564 Z-0.125000
G01 X74.324700 Y108.052654 Z-0.125000
G01 X72.740163 Y108.975444 Z-0.125000
G01 X71.293871 Y110.015354 Z-0.125000
G01 X70.041519 Y111.115624 Z-0.125000
G01 X68.477382 Y112.866134 Z-0.125000
G01 X67.256330 Y114.711954 Z-0.125000
G01 X66.281843 Y116.805914 Z-0.125000
G01 X65.651447 Y118.953304 Z-0.125000
G01 X65.327173 Y121.225434 Z-0.125000
G01 X65.318473 Y123.674474 Z-0.125000
G01 X65.637560 Y126.201724 Z-0.125000
G01 X66.263035 Y128.535634 Z-0.125000
G01 X67.341768 Y131.246024 Z-0.125000
G01 X68.932919 Y134.472484 Z-0.125000
G01 X75.953506 Y146.905074 Z-0.125000
G01 X78.882734 Y152.387584 Z-0.125000
G01 X81.170904 Y157.057694 Z-0.125000
G01 X83.204015 Y161.625224 Z-0.125000
G01 X85.240645 Y166.745834 Z-0.125000
G01 X87.084396 Y172.026494 Z-0.125000
G01 X88.807016 Y177.675404 Z-0.125000
G01 X91.765376 Y188.374144 Z-0.125000
G01 X92.563676 Y190.780184 Z-0.125000
G01 X93.334016 Y192.630554 Z-0.125000
G01 X93.877146 Y193.660014 Z-0.125000
G01 X94.443356 Y194.521634 Z-0.125000
G01 X95.037906 Y195.230954 Z-0.125000
G01 X95.660546 Y195.797874 Z-0.125000
G01 X96.342196 Y196.256214 Z-0.125000
G01 X97.196136 Y196.670818 Z-0.125000
G01 X98.138316 Y196.983740 Z-0.125000
G01 X99.074806 Y197.165139 Z-0.125000
G01 X100.617536 Y197.223819 Z-0.125000
G01 X102.205623 Y197.025091 Z-0.125000
G01 X103.963223 Y196.553709 Z-0.125000
G01 X105.706213 Y195.866324 Z-0.125000
G01 X107.574123 Y194.916574 Z-0.125000
G01 X109.519523 Y193.711874 Z-0.125000
G01 X111.457353 Y192.299344 Z-0.125000
G01 X113.286683 Y190.765654 Z-0.125000
G01 X115.074903 Y189.062224 Z-0.125000
G01 X116.722773 Y187.289084 Z-0.125000
G01 X118.289433 Y185.388454 Z-0.125000
G01 X119.780723 Y183.337744 Z-0.125000
G01 X121.147433 Y181.190074 Z-0.125000
G01 X122.329353 Y179.051524 Z-0.125000
G01 X123.374933 Y176.850244 Z-0.125000
G01 X124.277323 Y174.598584 Z-0.125000
G01 X124.946003 Y172.595614 Z-0.125000
G01 X125.514403 Y170.509054 Z-0.125000
G01 X125.952633 Y168.442714 Z-0.125000
G01 X126.270953 Y166.367874 Z-0.125000
G01 X126.501433 Y164.065444 Z-0.125000
G01 X126.629143 Y161.617234 Z-0.125000
G01 X126.650043 Y159.078184 Z-0.125000
G01 X126.565243 Y156.387744 Z-0.125000
G01 X126.367443 Y153.484944 Z-0.125000
G01 X126.051103 Y150.412364 Z-0.125000
G01 X125.632163 Y147.346324 Z-0.125000
G01 X125.115883 Y144.321204 Z-0.125000
G01 X124.522263 Y141.440394 Z-0.125000
G01 X123.835993 Y138.630014 Z-0.125000
G01 X123.083403 Y135.989634 Z-0.125000
G01 X122.238993 Y133.424654 Z-0.125000
G01 X121.341263 Y131.040794 Z-0.125000
G01 X120.376933 Y128.780004 Z-0.125000
G01 X119.346193 Y126.631644 Z-0.125000
G01 X118.212053 Y124.522624 Z-0.125000
G01 X117.020853 Y122.540254 Z-0.125000
G01 X115.729953 Y120.613374 Z-0.125000
G01 X114.341813 Y118.756004 Z-0.125000
G01 X112.924253 Y117.054094 Z-0.125000
G01 X111.433883 Y115.448074 Z-0.125000
G01 X109.872713 Y113.942914 Z-0.125000
G01 X108.328683 Y112.613834 Z-0.125000
G01 X106.673423 Y111.349444 Z-0.125000
G01 X105.055153 Y110.263514 Z-0.125000
G01 X103.446083 Y109.315694 Z-0.125000
G01 X101.310603 Y108.200634 Z-0.125000
G01 X99.218386 Y107.238744 Z-0.125000
G01 X97.088546 Y106.393294 Z-0.125000
G01 X94.932826 Y105.674494 Z-0.125000
G01 X92.763726 Y105.090064 Z-0.125000
G01 X90.568526 Y104.640984 Z-0.125000
G01 X88.402226 Y104.340014 Z-0.125000
G01 X86.262592 Y104.184704 Z-0.125000
G01 X84.206515 Y104.173304 Z-0.125000
G01 X82.146469 Y104.304194 Z-0.125000
G01 X80.150373 Y104.576284 Z-0.125000
G01 X78.140863 Y105.007614 Z-0.125000
G01 X76.292616 Y105.559614 Z-0.125000
G01 X74.535174 Y106.241814 Z-0.125000
G01 X72.795062 Y107.094324 Z-0.125000
G01 X71.220209 Y108.049524 Z-0.125000
G01 X69.804133 Y109.095104 Z-0.125000
G01 X68.446847 Y110.314204 Z-0.125000
G01 X66.847097 Y112.144774 Z-0.125000
G01 X65.591649 Y114.076814 Z-0.125000
G01 X64.628063 Y116.161414 Z-0.125000
G01 X63.973722 Y118.364914 Z-0.125000
G01 X63.624207 Y120.761934 Z-0.125000
G01 X63.609897 Y123.245764 Z-0.125000
G01 X63.906945 Y125.722604 Z-0.125000
G01 X64.535780 Y128.079754 Z-0.125000
G01 X65.665339 Y130.880394 Z-0.125000
G01 X67.348354 Y134.215094 Z-0.125000
G01 X74.459057 Y146.485124 Z-0.125000
G01 X77.677899 Y152.365784 Z-0.125000
G01 X80.130427 Y157.285994 Z-0.125000
G01 X82.305276 Y162.122054 Z-0.125000
G01 X84.422392 Y167.434644 Z-0.125000
G01 X86.338026 Y172.958854 Z-0.125000
G01 X88.055536 Y178.686184 Z-0.125000
G01 X91.063746 Y189.886704 Z-0.125000
G01 X91.846486 Y192.296874 Z-0.125000
G01 X92.618836 Y194.171554 Z-0.125000
G01 X93.658646 Y195.967464 Z-0.125000
G01 X94.231156 Y196.670387 Z-0.125000
G01 X94.897876 Y197.293693 Z-0.125000
G01 X95.591906 Y197.767535 Z-0.125000
G01 X96.430446 Y198.173088 Z-0.125000
G01 X97.303416 Y198.470110 Z-0.125000
G01 X98.313726 Y198.676511 Z-0.125000
G01 X99.880036 Y198.750251 Z-0.125000
G01 X101.621413 Y198.543849 Z-0.125000
G01 X103.417383 Y198.073632 Z-0.125000
G01 X105.285313 Y197.353198 Z-0.125000
G01 X107.207083 Y196.397924 Z-0.125000
G01 X109.248503 Y195.165434 Z-0.125000
G01 X111.286533 Y193.718354 Z-0.125000
G01 X113.293483 Y192.075814 Z-0.125000
G01 X115.212903 Y190.285094 Z-0.125000
G01 X116.985213 Y188.413014 Z-0.125000
G01 X118.662163 Y186.410164 Z-0.125000
G01 X120.162703 Y184.380254 Z-0.125000
G01 X121.594443 Y182.170324 Z-0.125000
G01 X122.830153 Y179.971534 Z-0.125000
G01 X123.919993 Y177.710984 Z-0.125000
G01 X124.857783 Y175.400454 Z-0.125000
G01 X125.550303 Y173.346944 Z-0.125000
G01 X126.121643 Y171.271314 Z-0.125000
G01 X126.570903 Y169.180524 Z-0.125000
G01 X126.897163 Y167.082114 Z-0.125000
G01 X127.128963 Y164.769124 Z-0.125000
G01 X127.253483 Y162.326444 Z-0.125000
G01 X127.268983 Y159.745144 Z-0.125000
G01 X127.172483 Y156.948544 Z-0.125000
G01 X126.945743 Y153.802974 Z-0.125000
G01 X126.599503 Y150.557404 Z-0.125000
G01 X126.147863 Y147.309564 Z-0.125000
G01 X125.594613 Y144.090144 Z-0.125000
G01 X124.979093 Y141.103524 Z-0.125000
G01 X124.283183 Y138.237874 Z-0.125000
G01 X123.495993 Y135.459064 Z-0.125000
G01 X122.606493 Y132.748064 Z-0.125000
G01 X121.692543 Y130.317444 Z-0.125000
G01 X120.692413 Y127.971674 Z-0.125000
G01 X119.630543 Y125.761634 Z-0.125000
G01 X118.455313 Y123.583134 Z-0.125000
G01 X117.220923 Y121.539204 Z-0.125000
G01 X115.881023 Y119.552874 Z-0.125000
G01 X114.438223 Y117.639084 Z-0.125000
G01 X112.966343 Y115.890484 Z-0.125000
G01 X111.411203 Y114.235614 Z-0.125000
G01 X109.781213 Y112.687464 Z-0.125000
G01 X108.164983 Y111.320754 Z-0.125000
G01 X106.449423 Y110.037024 Z-0.125000
G01 X104.841653 Y108.981334 Z-0.125000
G01 X102.991763 Y107.915224 Z-0.125000
G01 X100.774696 Y106.788814 Z-0.125000
G01 X98.694486 Y105.860044 Z-0.125000
G01 X96.482706 Y105.010554 Z-0.125000
G01 X94.245566 Y104.295194 Z-0.125000
G01 X91.996586 Y103.721474 Z-0.125000
G01 X89.744746 Y103.293564 Z-0.125000
G01 X87.503956 Y103.015084 Z-0.125000
G01 X85.371529 Y102.889724 Z-0.125000
G01 X83.191389 Y102.907424 Z-0.125000
G01 X81.066864 Y103.073874 Z-0.125000
G01 X78.956442 Y103.395154 Z-0.125000
G01 X76.969950 Y103.852334 Z-0.125000
G01 X74.997270 Y104.471774 Z-0.125000
G01 X73.193790 Y105.202394 Z-0.125000
G01 X71.494107 Y106.058934 Z-0.125000
G01 X69.822496 Y107.093054 Z-0.125000
G01 X68.337310 Y108.211214 Z-0.125000
G01 X66.935336 Y109.491974 Z-0.125000
G01 X65.313414 Y111.366344 Z-0.125000
G01 X63.988090 Y113.414694 Z-0.125000
G01 X62.974312 Y115.619914 Z-0.125000
G01 X62.307430 Y117.867704 Z-0.125000
G01 X61.941987 Y120.342464 Z-0.125000
G01 X61.918417 Y122.824044 Z-0.125000
G01 X62.224328 Y125.412174 Z-0.125000
G01 X62.834775 Y127.696054 Z-0.125000
G01 X63.942982 Y130.431104 Z-0.125000
G01 X65.667272 Y133.797024 Z-0.125000
G01 X73.299839 Y146.675914 Z-0.125000
G01 X76.551568 Y152.512274 Z-0.125000
G01 X79.117101 Y157.583914 Z-0.125000
G01 X81.409292 Y162.636294 Z-0.125000
G01 X83.628273 Y168.198204 Z-0.125000
G01 X85.610690 Y173.966364 Z-0.125000
G01 X87.407316 Y180.090514 Z-0.125000
G01 X90.340436 Y191.337994 Z-0.125000
G01 X91.126616 Y193.797854 Z-0.125000
G01 X91.916826 Y195.721984 Z-0.125000
G01 X92.446046 Y196.720311 Z-0.125000
G01 X93.012306 Y197.573142 Z-0.125000
G01 X93.561316 Y198.224837 Z-0.125000
G01 X94.232406 Y198.833697 Z-0.125000
G01 X94.934636 Y199.294098 Z-0.125000
G01 X95.700926 Y199.659329 Z-0.125000
G01 X96.604716 Y199.959763 Z-0.125000
G01 X97.544326 Y200.152909 Z-0.125000
G01 X99.122226 Y200.242739 Z-0.125000
G01 X100.906836 Y200.054700 Z-0.125000
G01 X102.784633 Y199.589562 Z-0.125000
G01 X104.835583 Y198.824228 Z-0.125000
G01 X106.940473 Y197.798439 Z-0.125000
G01 X109.074043 Y196.533149 Z-0.125000
G01 X111.208653 Y195.047614 Z-0.125000
G01 X113.357543 Y193.323674 Z-0.125000
G01 X115.293843 Y191.556314 Z-0.125000
G01 X117.195903 Y189.593524 Z-0.125000
G01 X118.928163 Y187.571714 Z-0.125000
G01 X120.540983 Y185.437684 Z-0.125000
G01 X122.016293 Y183.208124 Z-0.125000
G01 X123.339323 Y180.899394 Z-0.125000
G01 X124.458323 Y178.618314 Z-0.125000
G01 X125.455903 Y176.196084 Z-0.125000
G01 X126.177033 Y174.076244 Z-0.125000
G01 X126.764293 Y171.951584 Z-0.125000
G01 X127.223693 Y169.812534 Z-0.125000
G01 X127.555273 Y167.666044 Z-0.125000
G01 X127.775403 Y165.408434 Z-0.125000
G01 X127.892933 Y162.921114 Z-0.125000
G01 X127.895933 Y160.326404 Z-0.125000
G01 X127.789703 Y157.607864 Z-0.125000
G01 X127.539783 Y154.317444 Z-0.125000
G01 X127.160523 Y150.870774 Z-0.125000
G01 X126.667713 Y147.380414 Z-0.125000
G01 X126.075493 Y143.946784 Z-0.125000
G01 X125.420913 Y140.768004 Z-0.125000
G01 X124.680983 Y137.714504 Z-0.125000
G01 X123.844713 Y134.765904 Z-0.125000
G01 X122.943833 Y132.024924 Z-0.125000
G01 X121.970253 Y129.443994 Z-0.125000
G01 X120.946843 Y127.057644 Z-0.125000
G01 X119.835033 Y124.760714 Z-0.125000
G01 X118.616893 Y122.524034 Z-0.125000
G01 X117.333483 Y120.422604 Z-0.125000
G01 X115.938723 Y118.381744 Z-0.125000
G01 X114.500243 Y116.497534 Z-0.125000
G01 X112.966823 Y114.698024 Z-0.125000
G01 X111.417663 Y113.069254 Z-0.125000
G01 X109.796033 Y111.543264 Z-0.125000
G01 X108.074433 Y110.102424 Z-0.125000
G01 X106.344883 Y108.824384 Z-0.125000
G01 X104.639453 Y107.718764 Z-0.125000
G01 X102.578643 Y106.557144 Z-0.125000
G01 X100.373136 Y105.458644 Z-0.125000
G01 X98.211806 Y104.516094 Z-0.125000
G01 X95.919056 Y103.661544 Z-0.125000
G01 X93.601466 Y102.948644 Z-0.125000
G01 X91.301096 Y102.390404 Z-0.125000
G01 X88.967796 Y101.976514 Z-0.125000
G01 X86.753126 Y101.727224 Z-0.125000
G01 X84.474452 Y101.619914 Z-0.125000
G01 X82.226975 Y101.667614 Z-0.125000
G01 X80.022996 Y101.870074 Z-0.125000
G01 X77.896037 Y102.221834 Z-0.125000
G01 X75.814904 Y102.727934 Z-0.125000
G01 X73.760177 Y103.402644 Z-0.125000
G01 X71.846340 Y104.209654 Z-0.125000
G01 X70.102259 Y105.120684 Z-0.125000
G01 X68.397734 Y106.206384 Z-0.125000
G01 X66.821770 Y107.425234 Z-0.125000
G01 X65.398364 Y108.758894 Z-0.125000
G01 X63.769457 Y110.674024 Z-0.125000
G01 X62.405980 Y112.800484 Z-0.125000
G01 X61.394981 Y114.989994 Z-0.125000
G01 X60.689496 Y117.309464 Z-0.125000
G01 X60.302860 Y119.734574 Z-0.125000
G01 X60.243960 Y122.334114 Z-0.125000
G01 X60.516983 Y124.901014 Z-0.125000
G01 X61.125816 Y127.279144 Z-0.125000
G01 X62.294957 Y130.146174 Z-0.125000
G01 X64.041974 Y133.500714 Z-0.125000
G01 X65.872123 Y136.619654 Z-0.125000
G01 X71.871365 Y146.421514 Z-0.125000
G01 X75.357515 Y152.546644 Z-0.125000
G01 X78.091852 Y157.869084 Z-0.125000
G01 X80.502629 Y163.135794 Z-0.125000
G01 X82.824639 Y168.950124 Z-0.125000
G01 X84.847484 Y174.881414 Z-0.125000
G01 X86.654026 Y181.140034 Z-0.125000
G01 X89.626466 Y192.824614 Z-0.125000
G01 X90.403436 Y195.282304 Z-0.125000
G01 X91.168566 Y197.152509 Z-0.125000
G01 X92.211916 Y198.940272 Z-0.125000
G01 X92.822076 Y199.672559 Z-0.125000
G01 X93.429106 Y200.230248 Z-0.125000
G01 X94.086786 Y200.684141 Z-0.125000
G01 X94.872256 Y201.068607 Z-0.125000
G01 X95.800276 Y201.387641 Z-0.125000
G01 X96.709066 Y201.585338 Z-0.125000
G01 X98.355996 Y201.702019 Z-0.125000
G01 X100.163866 Y201.537263 Z-0.125000
G01 X102.176203 Y201.067337 Z-0.125000
G01 X104.273393 Y200.315682 Z-0.125000
G01 X106.505393 Y199.266159 Z-0.125000
G01 X108.726153 Y197.991608 Z-0.125000
G01 X111.017173 Y196.445434 Z-0.125000
G01 X113.275003 Y194.685954 Z-0.125000
G01 X115.357033 Y192.837474 Z-0.125000
G01 X117.358153 Y190.826054 Z-0.125000
G01 X119.216563 Y188.710054 Z-0.125000
G01 X120.884153 Y186.556104 Z-0.125000
G01 X122.409953 Y184.308254 Z-0.125000
G01 X123.816523 Y181.914254 Z-0.125000
G01 X124.988523 Y179.578884 Z-0.125000
G01 X126.031093 Y177.100264 Z-0.125000
G01 X126.770203 Y174.972694 Z-0.125000
G01 X127.377633 Y172.824754 Z-0.125000
G01 X127.853753 Y170.662714 Z-0.125000
G01 X128.192023 Y168.545674 Z-0.125000
G01 X128.424773 Y166.243274 Z-0.125000
G01 X128.541373 Y163.831254 Z-0.125000
G01 X128.543373 Y161.217324 Z-0.125000
G01 X128.429633 Y158.465374 Z-0.125000
G01 X128.157003 Y155.035184 Z-0.125000
G01 X127.742693 Y151.381944 Z-0.125000
G01 X127.199553 Y147.590444 Z-0.125000
G01 X126.551223 Y143.846774 Z-0.125000
G01 X125.870763 Y140.530354 Z-0.125000
G01 X125.086723 Y137.274364 Z-0.125000
G01 X124.264563 Y134.348174 Z-0.125000
G01 X123.311663 Y131.423844 Z-0.125000
G01 X122.332653 Y128.811744 Z-0.125000
G01 X121.291353 Y126.368134 Z-0.125000
G01 X120.145443 Y123.989764 Z-0.125000
G01 X118.897193 Y121.691994 Z-0.125000
G01 X117.577133 Y119.528734 Z-0.125000
G01 X116.139703 Y117.427254 Z-0.125000
G01 X114.651933 Y115.483834 Z-0.125000
G01 X113.063453 Y113.628414 Z-0.125000
G01 X111.453543 Y111.947094 Z-0.125000
G01 X109.741503 Y110.351814 Z-0.125000
G01 X107.993503 Y108.906004 Z-0.125000
G01 X106.177563 Y107.582294 Z-0.125000
G01 X104.254813 Y106.362884 Z-0.125000
G01 X102.115333 Y105.189134 Z-0.125000
G01 X99.919296 Y104.119954 Z-0.125000
G01 X97.676136 Y103.167744 Z-0.125000
G01 X95.302236 Y102.312904 Z-0.125000
G01 X92.860906 Y101.596174 Z-0.125000
G01 X90.546616 Y101.067964 Z-0.125000
G01 X88.138276 Y100.674764 Z-0.125000
G01 X85.784625 Y100.446454 Z-0.125000
G01 X83.424595 Y100.375854 Z-0.125000
G01 X81.115020 Y100.465954 Z-0.125000
G01 X78.873761 Y100.711884 Z-0.125000
G01 X76.688541 Y101.112464 Z-0.125000
G01 X74.585792 Y101.661374 Z-0.125000
G01 X72.555035 Y102.360694 Z-0.125000
G01 X70.556373 Y103.234054 Z-0.125000
G01 X68.686430 Y104.246084 Z-0.125000
G01 X66.972300 Y105.374004 Z-0.125000
G01 X65.369957 Y106.645304 Z-0.125000
G01 X63.913241 Y108.038674 Z-0.125000
G01 X62.240439 Y110.038314 Z-0.125000
G01 X60.865453 Y112.202474 Z-0.125000
G01 X59.801404 Y114.514434 Z-0.125000
G01 X59.085336 Y116.858724 Z-0.125000
G01 X58.670019 Y119.419564 Z-0.125000
G01 X58.603269 Y122.048074 Z-0.125000
G01 X58.869466 Y124.673614 Z-0.125000
G01 X59.492322 Y127.059514 Z-0.125000
G01 X60.674480 Y129.917914 Z-0.125000
G01 X62.550852 Y133.445584 Z-0.125000
G01 X64.381293 Y136.496914 Z-0.125000
G01 X70.587095 Y146.424294 Z-0.125000
G01 X74.226280 Y152.708434 Z-0.125000
G01 X77.099099 Y158.230744 Z-0.125000
G01 X79.586024 Y163.621364 Z-0.125000
G01 X81.951663 Y169.524534 Z-0.125000
G01 X84.057429 Y175.720654 Z-0.125000
G01 X85.878344 Y182.114494 Z-0.125000
G01 X88.856046 Y194.108854 Z-0.125000
G01 X89.655296 Y196.678114 Z-0.125000
G01 X90.471116 Y198.663282 Z-0.125000
G01 X91.492086 Y200.381513 Z-0.125000
G01 X92.086296 Y201.088321 Z-0.125000
G01 X92.706686 Y201.655270 Z-0.125000
G01 X93.383116 Y202.115539 Z-0.125000
G01 X94.111546 Y202.477039 Z-0.125000
G01 X95.082166 Y202.805573 Z-0.125000
G01 X95.990826 Y203.003058 Z-0.125000
G01 X97.749776 Y203.127332 Z-0.125000
G01 X99.627576 Y202.955671 Z-0.125000
G01 X101.714423 Y202.474235 Z-0.125000
G01 X103.894563 Y201.706255 Z-0.125000
G01 X106.239543 Y200.624215 Z-0.125000
G01 X108.622433 Y199.280502 Z-0.125000
G01 X111.010693 Y197.696654 Z-0.125000
G01 X113.367413 Y195.894524 Z-0.125000
G01 X115.587743 Y193.959124 Z-0.125000
G01 X117.647683 Y191.925984 Z-0.125000
G01 X119.594223 Y189.751004 Z-0.125000
G01 X121.338353 Y187.538164 Z-0.125000
G01 X122.931493 Y185.230044 Z-0.125000
G01 X124.357203 Y182.844484 Z-0.125000
G01 X125.604653 Y180.396814 Z-0.125000
G01 X126.670823 Y177.891344 Z-0.125000
G01 X127.401813 Y175.815634 Z-0.125000
G01 X128.031783 Y173.621844 Z-0.125000
G01 X128.523963 Y171.414484 Z-0.125000
G01 X128.879963 Y169.199734 Z-0.125000
G01 X129.103243 Y166.982394 Z-0.125000
G01 X129.215563 Y164.552694 Z-0.125000
G01 X129.207563 Y162.002034 Z-0.125000
G01 X129.085353 Y159.319374 Z-0.125000
G01 X128.784923 Y155.770774 Z-0.125000
G01 X128.326213 Y151.908844 Z-0.125000
G01 X127.721003 Y147.793484 Z-0.125000
G01 X127.014333 Y143.751344 Z-0.125000
G01 X126.273603 Y140.145224 Z-0.125000
G01 X125.483843 Y136.856744 Z-0.125000
G01 X124.602813 Y133.707674 Z-0.125000
G01 X123.662933 Y130.812734 Z-0.125000
G01 X122.662353 Y128.129974 Z-0.125000
G01 X121.559703 Y125.538354 Z-0.125000
G01 X120.359693 Y123.055474 Z-0.125000
G01 X119.123103 Y120.787224 Z-0.125000
G01 X117.728093 Y118.511174 Z-0.125000
G01 X116.301063 Y116.436044 Z-0.125000
G01 X114.762453 Y114.436144 Z-0.125000
G01 X113.117433 Y112.527784 Z-0.125000
G01 X111.431003 Y110.783094 Z-0.125000
G01 X109.682563 Y109.172044 Z-0.125000
G01 X107.864373 Y107.687284 Z-0.125000
G01 X105.989823 Y106.341424 Z-0.125000
G01 X103.998123 Y105.103704 Z-0.125000
G01 X101.870423 Y103.948584 Z-0.125000
G01 X99.596676 Y102.856154 Z-0.125000
G01 X97.274556 Y101.888274 Z-0.125000
G01 X94.813746 Y101.023804 Z-0.125000
G01 X92.429266 Y100.342554 Z-0.125000
G01 X89.938116 Y99.794124 Z-0.125000
G01 X87.527336 Y99.422364 Z-0.125000
G01 X85.161191 Y99.211034 Z-0.125000
G01 X82.730146 Y99.155834 Z-0.125000
G01 X80.300715 Y99.270444 Z-0.125000
G01 X77.981166 Y99.546544 Z-0.125000
G01 X75.669026 Y99.995244 Z-0.125000
G01 X73.512513 Y100.583894 Z-0.125000
G01 X71.366160 Y101.351344 Z-0.125000
G01 X69.311776 Y102.279584 Z-0.125000
G01 X67.390478 Y103.348844 Z-0.125000
G01 X65.610546 Y104.549254 Z-0.125000
G01 X64.005531 Y105.847884 Z-0.125000
G01 X62.515345 Y107.292294 Z-0.125000
G01 X60.824551 Y109.325144 Z-0.125000
G01 X59.379133 Y111.598094 Z-0.125000
G01 X58.272936 Y113.987024 Z-0.125000
G01 X57.521705 Y116.403774 Z-0.125000
G01 X57.072019 Y119.081734 Z-0.125000
G01 X56.988379 Y121.755714 Z-0.125000
G01 X57.257169 Y124.489714 Z-0.125000
G01 X57.858382 Y126.802354 Z-0.125000
G01 X59.051177 Y129.676844 Z-0.125000
G01 X60.930115 Y133.166054 Z-0.125000
G01 X63.047681 Y136.628054 Z-0.125000
G01 X69.396993 Y146.594884 Z-0.125000
G01 X73.081607 Y152.859444 Z-0.125000
G01 X76.010386 Y158.408204 Z-0.125000
G01 X78.615817 Y163.995444 Z-0.125000
G01 X81.136873 Y170.269244 Z-0.125000
G01 X83.294524 Y176.668874 Z-0.125000
G01 X85.199312 Y183.489784 Z-0.125000
G01 X88.109246 Y195.477524 Z-0.125000
G01 X88.909246 Y198.062212 Z-0.125000
G01 X89.717226 Y200.027034 Z-0.125000
G01 X90.211976 Y200.949822 Z-0.125000
G01 X90.780346 Y201.799478 Z-0.125000
G01 X91.379576 Y202.498878 Z-0.125000
G01 X91.990606 Y203.048999 Z-0.125000
G01 X92.682996 Y203.517259 Z-0.125000
G01 X93.340516 Y203.839468 Z-0.125000
G01 X94.233346 Y204.155540 Z-0.125000
G01 X95.168646 Y204.371281 Z-0.125000
G01 X97.046106 Y204.524025 Z-0.125000
G01 X99.048396 Y204.353924 Z-0.125000
G01 X101.168233 Y203.881378 Z-0.125000
G01 X103.490563 Y203.086041 Z-0.125000
G01 X105.962933 Y201.970743 Z-0.125000
G01 X108.444563 Y200.602318 Z-0.125000
G01 X110.936283 Y198.987672 Z-0.125000
G01 X113.400163 Y197.147733 Z-0.125000
G01 X115.688483 Y195.202014 Z-0.125000
G01 X117.888473 Y193.083364 Z-0.125000
G01 X119.898303 Y190.890994 Z-0.125000
G01 X121.764883 Y188.577194 Z-0.125000
G01 X123.463983 Y186.162924 Z-0.125000
G01 X124.928843 Y183.754494 Z-0.125000
G01 X126.260103 Y181.179334 Z-0.125000
G01 X127.355683 Y178.626824 Z-0.125000
G01 X128.101043 Y176.521764 Z-0.125000
G01 X128.739533 Y174.303504 Z-0.125000
G01 X129.220573 Y172.153814 Z-0.125000
G01 X129.585433 Y169.894824 Z-0.125000
G01 X129.811313 Y167.633914 Z-0.125000
G01 X129.913593 Y165.265224 Z-0.125000
G01 X129.895693 Y162.780284 Z-0.125000
G01 X129.762633 Y160.169384 Z-0.125000
G01 X129.439423 Y156.614284 Z-0.125000
G01 X128.929803 Y152.550334 Z-0.125000
G01 X128.217703 Y147.884904 Z-0.125000
G01 X127.424373 Y143.439514 Z-0.125000
G01 X126.636843 Y139.642744 Z-0.125000
G01 X125.823803 Y136.268664 Z-0.125000
G01 X124.910573 Y133.008204 Z-0.125000
G01 X123.956673 Y130.071514 Z-0.125000
G01 X122.962763 Y127.403544 Z-0.125000
G01 X121.838023 Y124.755644 Z-0.125000
G01 X120.658113 Y122.307584 Z-0.125000
G01 X119.342283 Y119.890854 Z-0.125000
G01 X117.943353 Y117.611154 Z-0.125000
G01 X116.414823 Y115.396614 Z-0.125000
G01 X114.825473 Y113.346464 Z-0.125000
G01 X113.124333 Y111.391514 Z-0.125000
G01 X111.393693 Y109.620234 Z-0.125000
G01 X109.577543 Y107.967644 Z-0.125000
G01 X107.768243 Y106.508604 Z-0.125000
G01 X105.845813 Y105.144964 Z-0.125000
G01 X103.865643 Y103.927744 Z-0.125000
G01 X101.483963 Y102.649494 Z-0.125000
G01 X99.129576 Y101.542684 Z-0.125000
G01 X96.745656 Y100.575764 Z-0.125000
G01 X94.205466 Y99.713864 Z-0.125000
G01 X91.742536 Y99.041874 Z-0.125000
G01 X89.176376 Y98.511724 Z-0.125000
G01 X86.715426 Y98.166284 Z-0.125000
G01 X84.179218 Y97.978994 Z-0.125000
G01 X81.766773 Y97.963294 Z-0.125000
G01 X79.320251 Y98.115004 Z-0.125000
G01 X77.009459 Y98.421364 Z-0.125000
G01 X74.705229 Y98.895474 Z-0.125000
G01 X72.443597 Y99.539094 Z-0.125000
G01 X70.237793 Y100.356234 Z-0.125000
G01 X68.170577 Y101.315514 Z-0.125000
G01 X66.209141 Y102.428244 Z-0.125000
G01 X64.377431 Y103.682024 Z-0.125000
G01 X62.697829 Y105.058834 Z-0.125000
G01 X61.108398 Y106.622394 Z-0.125000
G01 X59.341193 Y108.783954 Z-0.125000
G01 X57.909771 Y111.059454 Z-0.125000
G01 X56.786958 Y113.473984 Z-0.125000
G01 X55.985297 Y116.012564 Z-0.125000
G01 X55.518996 Y118.662074 Z-0.125000
G01 X55.402579 Y121.437524 Z-0.125000
G01 X55.634142 Y124.107484 Z-0.125000
G01 X55.880972 Y125.331794 Z-0.125000
G01 X56.228370 Y126.516624 Z-0.125000
G01 X56.780158 Y127.983104 Z-0.125000
G01 X57.442913 Y129.448474 Z-0.125000
G01 X59.340875 Y132.944174 Z-0.125000
G01 X61.314349 Y136.131234 Z-0.125000
G01 X67.928933 Y146.324444 Z-0.125000
G01 X71.928480 Y153.002894 Z-0.125000
G01 X75.012755 Y158.780624 Z-0.125000
G01 X77.716717 Y164.542674 Z-0.125000
G01 X79.060350 Y167.746984 Z-0.125000
G01 X80.275608 Y170.902834 Z-0.125000
G01 X82.456436 Y177.387264 Z-0.125000
G01 X84.303360 Y184.034184 Z-0.125000
G01 X87.319576 Y196.677456 Z-0.125000
G01 X88.129786 Y199.331359 Z-0.125000
G01 X88.929176 Y201.289937 Z-0.125000
G01 X89.974856 Y203.055660 Z-0.125000
G01 X90.544906 Y203.739344 Z-0.125000
G01 X91.211156 Y204.355929 Z-0.125000
G01 X91.810436 Y204.778018 Z-0.125000
G01 X92.567726 Y205.173941 Z-0.125000
G01 X94.371886 Y205.711336 Z-0.125000
G01 X96.312186 Y205.891438 Z-0.125000
G01 X98.370326 Y205.741102 Z-0.125000
G01 X100.585026 Y205.275356 Z-0.125000
G01 X102.993073 Y204.482929 Z-0.125000
G01 X105.581963 Y203.353634 Z-0.125000
G01 X108.196953 Y201.953724 Z-0.125000
G01 X110.871963 Y200.264730 Z-0.125000
G01 X113.491733 Y198.352057 Z-0.125000
G01 X115.886773 Y196.358764 Z-0.125000
G01 X118.154333 Y194.222624 Z-0.125000
G01 X120.297113 Y191.934824 Z-0.125000
G01 X122.221003 Y189.598134 Z-0.125000
G01 X123.962043 Y187.178094 Z-0.125000
G01 X125.545733 Y184.624834 Z-0.125000
G01 X126.875133 Y182.099764 Z-0.125000
G01 X128.041443 Y179.429484 Z-0.125000
G01 X128.811063 Y177.280504 Z-0.125000
G01 X129.441513 Y175.116134 Z-0.125000
G01 X129.935243 Y172.941184 Z-0.125000
G01 X130.308783 Y170.660794 Z-0.125000
G01 X130.532413 Y168.483484 Z-0.125000
G01 X130.636633 Y166.178824 Z-0.125000
G01 X130.618333 Y163.763104 Z-0.125000
G01 X130.473683 Y161.104514 Z-0.125000
G01 X130.115673 Y157.453794 Z-0.125000
G01 X129.542933 Y153.186334 Z-0.125000
G01 X128.714553 Y148.009124 Z-0.125000
G01 X127.813483 Y143.080814 Z-0.125000
G01 X126.993803 Y139.169314 Z-0.125000
G01 X126.173043 Y135.762804 Z-0.125000
G01 X125.238343 Y132.414904 Z-0.125000
G01 X124.255473 Y129.378484 Z-0.125000
G01 X123.208783 Y126.569014 Z-0.125000
G01 X122.089353 Y123.937494 Z-0.125000
G01 X120.879683 Y121.431014 Z-0.125000
G01 X119.526023 Y118.952554 Z-0.125000
G01 X118.086233 Y116.617604 Z-0.125000
G01 X116.571393 Y114.432284 Z-0.125000
G01 X114.933173 Y112.327154 Z-0.125000
G01 X113.177213 Y110.320574 Z-0.125000
G01 X111.385933 Y108.501174 Z-0.125000
G01 X109.504503 Y106.805824 Z-0.125000
G01 X107.576833 Y105.272674 Z-0.125000
G01 X105.649923 Y103.928744 Z-0.125000
G01 X103.645753 Y102.710604 Z-0.125000
G01 X101.090173 Y101.362444 Z-0.125000
G01 X98.651586 Y100.240614 Z-0.125000
G01 X96.260386 Y99.296004 Z-0.125000
G01 X93.642256 Y98.435494 Z-0.125000
G01 X91.102286 Y97.771704 Z-0.125000
G01 X88.486746 Y97.262514 Z-0.125000
G01 X85.954291 Y96.937954 Z-0.125000
G01 X83.450618 Y96.781634 Z-0.125000
G01 X80.900961 Y96.794334 Z-0.125000
G01 X78.395383 Y96.981924 Z-0.125000
G01 X75.955792 Y97.340244 Z-0.125000
G01 X73.585126 Y97.866314 Z-0.125000
G01 X71.226842 Y98.579504 Z-0.125000
G01 X69.036938 Y99.430714 Z-0.125000
G01 X66.909159 Y100.456584 Z-0.125000
G01 X64.853294 Y101.665864 Z-0.125000
G01 X63.001184 Y102.976744 Z-0.125000
G01 X61.294674 Y104.416634 Z-0.125000
G01 X59.745698 Y105.973204 Z-0.125000
G01 X57.941954 Y108.207924 Z-0.125000
G01 X56.449042 Y110.604364 Z-0.125000
G01 X55.281674 Y113.138014 Z-0.125000
G01 X54.471229 Y115.710794 Z-0.125000
G01 X53.978681 Y118.483124 Z-0.125000
G01 X53.851945 Y121.252544 Z-0.125000
G01 X54.055913 Y123.908144 Z-0.125000
G01 X54.325179 Y125.212754 Z-0.125000
G01 X54.677154 Y126.411554 Z-0.125000
G01 X55.786446 Y129.102604 Z-0.125000
G01 X57.466233 Y132.230534 Z-0.125000
G01 X59.633038 Y135.725994 Z-0.125000
G01 X65.473371 Y144.547094 Z-0.125000
G01 X68.941159 Y150.046354 Z-0.125000
G01 X72.163493 Y155.638514 Z-0.125000
G01 X74.998530 Y161.149644 Z-0.125000
G01 X76.781213 Y165.017464 Z-0.125000
G01 X78.423508 Y168.953324 Z-0.125000
G01 X79.886204 Y172.853254 Z-0.125000
G01 X81.256878 Y176.952944 Z-0.125000
G01 X82.400619 Y180.801894 Z-0.125000
G01 X83.474695 Y184.856604 Z-0.125000
G01 X86.466626 Y197.633362 Z-0.125000
G01 X87.100176 Y199.827817 Z-0.125000
G01 X87.732606 Y201.590841 Z-0.125000
G01 X88.294476 Y202.830441 Z-0.125000
G01 X88.873116 Y203.842154 Z-0.125000
G01 X89.501896 Y204.700568 Z-0.125000
G01 X90.156876 Y205.387718 Z-0.125000
G01 X90.873126 Y205.953900 Z-0.125000
G01 X91.657386 Y206.402924 Z-0.125000
G01 X92.603956 Y206.774373 Z-0.125000
G01 X93.614526 Y207.027288 Z-0.125000
G01 X95.572476 Y207.229482 Z-0.125000
G01 X97.773036 Y207.091423 Z-0.125000
G01 X100.106876 Y206.619194 Z-0.125000
G01 X102.612023 Y205.817137 Z-0.125000
G01 X105.292283 Y204.677576 Z-0.125000
G01 X108.032203 Y203.246709 Z-0.125000
G01 X110.790643 Y201.547582 Z-0.125000
G01 X113.523633 Y199.602445 Z-0.125000
G01 X116.069003 Y197.534541 Z-0.125000
G01 X118.442683 Y195.348874 Z-0.125000
G01 X120.685823 Y193.006514 Z-0.125000
G01 X122.699643 Y190.612964 Z-0.125000
G01 X124.530903 Y188.118204 Z-0.125000
G01 X126.159443 Y185.543284 Z-0.125000
G01 X127.576813 Y182.895514 Z-0.125000
G01 X128.777603 Y180.177084 Z-0.125000
G01 X129.563893 Y177.998954 Z-0.125000
G01 X130.202383 Y175.817274 Z-0.125000
G01 X130.705193 Y173.601204 Z-0.125000
G01 X131.068313 Y171.379554 Z-0.125000
G01 X131.295933 Y169.156204 Z-0.125000
G01 X131.393233 Y166.934494 Z-0.125000
G01 X131.365733 Y164.510094 Z-0.125000
G01 X131.213063 Y161.975284 Z-0.125000
G01 X130.819813 Y158.288764 Z-0.125000
G01 X130.202783 Y154.017274 Z-0.125000
G01 X129.208903 Y148.136644 Z-0.125000
G01 X128.147683 Y142.504304 Z-0.125000
G01 X127.296303 Y138.507504 Z-0.125000
G01 X126.448263 Y135.016884 Z-0.125000
G01 X125.526163 Y131.725914 Z-0.125000
G01 X124.558373 Y128.729594 Z-0.125000
G01 X123.461753 Y125.779834 Z-0.125000
G01 X122.312003 Y123.080714 Z-0.125000
G01 X121.025973 Y120.430244 Z-0.125000
G01 X119.685993 Y117.993224 Z-0.125000
G01 X118.192233 Y115.586414 Z-0.125000
G01 X116.628143 Y113.349494 Z-0.125000
G01 X114.934733 Y111.196054 Z-0.125000
G01 X113.187453 Y109.219324 Z-0.125000
G01 X111.407363 Y107.424704 Z-0.125000
G01 X109.505353 Y105.720654 Z-0.125000
G01 X107.569313 Y104.187984 Z-0.125000
G01 X105.554143 Y102.790084 Z-0.125000
G01 X103.253933 Y101.414404 Z-0.125000
G01 X100.803186 Y100.141914 Z-0.125000
G01 X98.287316 Y99.001934 Z-0.125000
G01 X95.817746 Y98.046944 Z-0.125000
G01 X93.219956 Y97.214334 Z-0.125000
G01 X90.566056 Y96.542734 Z-0.125000
G01 X87.946606 Y96.055454 Z-0.125000
G01 X85.293311 Y95.739434 Z-0.125000
G01 X82.718069 Y95.605184 Z-0.125000
G01 X80.089169 Y95.647284 Z-0.125000
G01 X77.554937 Y95.865534 Z-0.125000
G01 X75.060366 Y96.259684 Z-0.125000
G01 X72.571007 Y96.843034 Z-0.125000
G01 X70.264237 Y97.568444 Z-0.125000
G01 X67.967443 Y98.487604 Z-0.125000
G01 X65.776058 Y99.573354 Z-0.125000
G01 X63.740009 Y100.795884 Z-0.125000
G01 X61.773758 Y102.212144 Z-0.125000
G01 X59.987292 Y103.749374 Z-0.125000
G01 X58.417069 Y105.355924 Z-0.125000
G01 X56.572288 Y107.672964 Z-0.125000
G01 X55.042150 Y110.151284 Z-0.125000
G01 X53.838931 Y112.770844 Z-0.125000
G01 X53.001578 Y115.413584 Z-0.125000
G01 X52.482809 Y118.261424 Z-0.125000
G01 X52.336627 Y121.178674 Z-0.125000
G01 X52.559723 Y123.985684 Z-0.125000
G01 X53.141833 Y126.288224 Z-0.125000
G01 X54.276763 Y129.031614 Z-0.125000
G01 X55.939484 Y132.103074 Z-0.125000
G01 X57.936136 Y135.298904 Z-0.125000
G01 X64.457639 Y145.020694 Z-0.125000
G01 X67.763369 Y150.206984 Z-0.125000
G01 X71.128181 Y155.981094 Z-0.125000
G01 X74.081540 Y161.688544 Z-0.125000
G01 X75.876500 Y165.571154 Z-0.125000
G01 X77.513477 Y169.484174 Z-0.125000
G01 X79.004086 Y173.452954 Z-0.125000
G01 X80.404473 Y177.648714 Z-0.125000
G01 X81.495059 Y181.324654 Z-0.125000
G01 X82.561356 Y185.354784 Z-0.125000
G01 X85.627004 Y198.617503 Z-0.125000
G01 X86.275789 Y200.904217 Z-0.125000
G01 X86.915656 Y202.713094 Z-0.125000
G01 X87.437066 Y203.888850 Z-0.125000
G01 X88.025266 Y204.949882 Z-0.125000
G01 X88.628276 Y205.804565 Z-0.125000
G01 X89.336436 Y206.576937 Z-0.125000
G01 X90.063556 Y207.171720 Z-0.125000
G01 X90.950126 Y207.693240 Z-0.125000
G01 X91.826396 Y208.041035 Z-0.125000
G01 X92.860996 Y208.314244 Z-0.125000
G01 X94.942106 Y208.542262 Z-0.125000
G01 X97.168706 Y208.418993 Z-0.125000
G01 X99.608056 Y207.949436 Z-0.125000
G01 X102.244123 Y207.131371 Z-0.125000
G01 X105.077813 Y205.955087 Z-0.125000
G01 X107.951293 Y204.485379 Z-0.125000
G01 X110.815543 Y202.757094 Z-0.125000
G01 X113.657543 Y200.776000 Z-0.125000
G01 X116.275113 Y198.695291 Z-0.125000
G01 X118.796033 Y196.422814 Z-0.125000
G01 X121.107143 Y194.058894 Z-0.125000
G01 X123.249003 Y191.562574 Z-0.125000
G01 X125.191443 Y188.958754 Z-0.125000
G01 X126.871383 Y186.337894 Z-0.125000
G01 X128.331173 Y183.642694 Z-0.125000
G01 X129.555243 Y180.898224 Z-0.125000
G01 X130.330363 Y178.773224 Z-0.125000
G01 X130.964803 Y176.637214 Z-0.125000
G01 X131.470263 Y174.452714 Z-0.125000
G01 X131.847823 Y172.191554 Z-0.125000
G01 X132.084283 Y169.928494 Z-0.125000
G01 X132.183883 Y167.667764 Z-0.125000
G01 X132.150883 Y165.308204 Z-0.125000
G01 X131.988853 Y162.843274 Z-0.125000
G01 X131.588353 Y159.343094 Z-0.125000
G01 X130.939383 Y155.147254 Z-0.125000
G01 X129.700533 Y148.251574 Z-0.125000
G01 X128.433223 Y141.748434 Z-0.125000
G01 X127.563803 Y137.743124 Z-0.125000
G01 X126.706983 Y134.250514 Z-0.125000
G01 X125.846763 Y131.179414 Z-0.125000
G01 X124.858703 Y128.103024 Z-0.125000
G01 X123.759763 Y125.129904 Z-0.125000
G01 X122.566123 Y122.316304 Z-0.125000
G01 X121.279453 Y119.658194 Z-0.125000
G01 X119.912113 Y117.166474 Z-0.125000
G01 X118.397423 Y114.723654 Z-0.125000
G01 X116.766583 Y112.393974 Z-0.125000
G01 X115.025703 Y110.188384 Z-0.125000
G01 X113.224473 Y108.161644 Z-0.125000
G01 X111.361123 Y106.298104 Z-0.125000
G01 X109.356553 Y104.523654 Z-0.125000
G01 X107.349133 Y102.959434 Z-0.125000
G01 X105.275913 Y101.546774 Z-0.125000
G01 X102.902603 Y100.157844 Z-0.125000
G01 X100.463176 Y98.908034 Z-0.125000
G01 X97.963076 Y97.792994 Z-0.125000
G01 X95.416586 Y96.826664 Z-0.125000
G01 X92.735936 Y95.990024 Z-0.125000
G01 X90.043166 Y95.332744 Z-0.125000
G01 X87.336396 Y94.854804 Z-0.125000
G01 X84.660620 Y94.562094 Z-0.125000
G01 X81.919193 Y94.449294 Z-0.125000
G01 X79.297595 Y94.522494 Z-0.125000
G01 X76.669727 Y94.780194 Z-0.125000
G01 X74.174733 Y95.204644 Z-0.125000
G01 X71.617667 Y95.834484 Z-0.125000
G01 X69.199878 Y96.628024 Z-0.125000
G01 X66.868317 Y97.596584 Z-0.125000
G01 X64.671058 Y98.717624 Z-0.125000
G01 X62.591671 Y99.995984 Z-0.125000
G01 X60.663917 Y101.407824 Z-0.125000
G01 X58.820168 Y103.011384 Z-0.125000
G01 X57.174248 Y104.712624 Z-0.125000
G01 X55.315497 Y107.061254 Z-0.125000
G01 X53.714054 Y109.654724 Z-0.125000
G01 X52.488716 Y112.298924 Z-0.125000
G01 X51.593286 Y115.060804 Z-0.125000
G01 X51.030809 Y118.025644 Z-0.125000
G01 X50.856660 Y120.984614 Z-0.125000
G01 X50.901690 Y122.440404 Z-0.125000
G01 X51.052211 Y123.785754 Z-0.125000
G01 X51.270784 Y124.925604 Z-0.125000
G01 X51.629876 Y126.169784 Z-0.125000
G01 X52.168885 Y127.603344 Z-0.125000
G01 X52.801425 Y128.995004 Z-0.125000
G01 X54.575668 Y132.229244 Z-0.125000
G01 X56.945937 Y135.940604 Z-0.125000
G01 X63.805419 Y146.036624 Z-0.125000
G01 X66.607859 Y150.404534 Z-0.125000
G01 X70.082976 Y156.313044 Z-0.125000
G01 X73.118514 Y162.138904 Z-0.125000
G01 X75.003723 Y166.207324 Z-0.125000
G01 X76.673932 Y170.206764 Z-0.125000
G01 X78.216426 Y174.337604 Z-0.125000
G01 X79.581200 Y178.458594 Z-0.125000
G01 X80.774338 Y182.534154 Z-0.125000
G01 X81.813833 Y186.537374 Z-0.125000
G01 X84.834290 Y199.776388 Z-0.125000
G01 X85.486065 Y202.072654 Z-0.125000
G01 X86.142919 Y203.918228 Z-0.125000
G01 X86.692986 Y205.141133 Z-0.125000
G01 X87.247076 Y206.130568 Z-0.125000
G01 X87.906706 Y207.058436 Z-0.125000
G01 X88.606216 Y207.813186 Z-0.125000
G01 X89.433776 Y208.477581 Z-0.125000
G01 X90.257636 Y208.953937 Z-0.125000
G01 X91.129146 Y209.308082 Z-0.125000
G01 X92.217086 Y209.592800 Z-0.125000
G01 X94.362626 Y209.830555 Z-0.125000
G01 X96.661116 Y209.712947 Z-0.125000
G01 X99.209336 Y209.237015 Z-0.125000
G01 X101.946903 Y208.407334 Z-0.125000
G01 X104.861473 Y207.225017 Z-0.125000
G01 X107.867773 Y205.721655 Z-0.125000
G01 X110.944353 Y203.899972 Z-0.125000
G01 X113.893423 Y201.878661 Z-0.125000
G01 X116.660803 Y199.713391 Z-0.125000
G01 X119.250223 Y197.414770 Z-0.125000
G01 X121.696323 Y194.948534 Z-0.125000
G01 X123.894303 Y192.420684 Z-0.125000
G01 X125.906243 Y189.758334 Z-0.125000
G01 X127.634533 Y187.094004 Z-0.125000
G01 X129.131643 Y184.358794 Z-0.125000
G01 X130.386963 Y181.565404 Z-0.125000
G01 X131.167113 Y179.435904 Z-0.125000
G01 X131.813383 Y177.260004 Z-0.125000
G01 X132.315013 Y175.078354 Z-0.125000
G01 X132.677543 Y172.893294 Z-0.125000
G01 X132.915503 Y170.591684 Z-0.125000
G01 X133.010403 Y168.396244 Z-0.125000
G01 X132.973803 Y166.103294 Z-0.125000
G01 X132.794893 Y163.605174 Z-0.125000
G01 X132.386273 Y160.297774 Z-0.125000
G01 X131.716823 Y156.275504 Z-0.125000
G01 X128.623283 Y140.598464 Z-0.125000
G01 X126.911833 Y133.318984 Z-0.125000
G01 X126.058153 Y130.301644 Z-0.125000
G01 X125.145713 Y127.464334 Z-0.125000
G01 X124.021573 Y124.412764 Z-0.125000
G01 X122.817433 Y121.567304 Z-0.125000
G01 X121.530943 Y118.902154 Z-0.125000
G01 X120.101723 Y116.295164 Z-0.125000
G01 X118.551713 Y113.800454 Z-0.125000
G01 X116.908673 Y111.459024 Z-0.125000
G01 X115.124223 Y109.204614 Z-0.125000
G01 X113.275413 Y107.133064 Z-0.125000
G01 X111.309903 Y105.181314 Z-0.125000
G01 X109.318313 Y103.432624 Z-0.125000
G01 X107.243973 Y101.829014 Z-0.125000
G01 X105.122603 Y100.399024 Z-0.125000
G01 X102.854083 Y99.075464 Z-0.125000
G01 X100.162216 Y97.705744 Z-0.125000
G01 X97.585336 Y96.575184 Z-0.125000
G01 X94.983076 Y95.609244 Z-0.125000
G01 X92.231516 Y94.775484 Z-0.125000
G01 X89.565126 Y94.147814 Z-0.125000
G01 X86.819446 Y93.684614 Z-0.125000
G01 X84.076428 Y93.406874 Z-0.125000
G01 X81.371592 Y93.315574 Z-0.125000
G01 X78.622995 Y93.412674 Z-0.125000
G01 X75.930860 Y93.700144 Z-0.125000
G01 X73.325190 Y94.169484 Z-0.125000
G01 X70.793154 Y94.818534 Z-0.125000
G01 X68.293635 Y95.662924 Z-0.125000
G01 X65.966493 Y96.651624 Z-0.125000
G01 X63.717270 Y97.818404 Z-0.125000
G01 X61.547157 Y99.173524 Z-0.125000
G01 X59.587812 Y100.628814 Z-0.125000
G01 X57.704084 Y102.284654 Z-0.125000
G01 X55.995617 Y104.066044 Z-0.125000
G01 X54.061936 Y106.528784 Z-0.125000
G01 X52.472902 Y109.101164 Z-0.125000
G01 X51.157949 Y111.912944 Z-0.125000
G01 X50.223890 Y114.748934 Z-0.125000
G01 X49.623207 Y117.788154 Z-0.125000
G01 X49.414027 Y120.852534 Z-0.125000
G01 X49.551108 Y123.497704 Z-0.125000
G01 X49.807648 Y124.856604 Z-0.125000
G01 X50.166529 Y126.120464 Z-0.125000
G01 X51.276720 Y128.821464 Z-0.125000
G01 X53.054747 Y132.069834 Z-0.125000
G01 X55.326856 Y135.617574 Z-0.125000
G01 X61.853333 Y145.097414 Z-0.125000
G01 X65.621132 Y150.877154 Z-0.125000
G01 X69.127919 Y156.809484 Z-0.125000
G01 X72.244605 Y162.780334 Z-0.125000
G01 X74.079067 Y166.735064 Z-0.125000
G01 X75.773618 Y170.786364 Z-0.125000
G01 X77.307037 Y174.888934 Z-0.125000
G01 X78.710625 Y179.130684 Z-0.125000
G01 X79.797692 Y182.834984 Z-0.125000
G01 X80.879044 Y186.982674 Z-0.125000
G01 X84.001101 Y200.762993 Z-0.125000
G01 X84.643165 Y203.046982 Z-0.125000
G01 X85.320022 Y204.967566 Z-0.125000
G01 X85.867842 Y206.197587 Z-0.125000
G01 X86.487996 Y207.307170 Z-0.125000
G01 X87.149456 Y208.231598 Z-0.125000
G01 X87.842216 Y208.981295 Z-0.125000
G01 X88.628056 Y209.626481 Z-0.125000
G01 X89.487076 Y210.142895 Z-0.125000
G01 X90.425896 Y210.535854 Z-0.125000
G01 X91.435896 Y210.816366 Z-0.125000
G01 X93.605366 Y211.088463 Z-0.125000
G01 X96.035196 Y210.999983 Z-0.125000
G01 X98.699256 Y210.536116 Z-0.125000
G01 X101.564693 Y209.701832 Z-0.125000
G01 X104.591103 Y208.511657 Z-0.125000
G01 X107.780473 Y206.956806 Z-0.125000
G01 X110.913533 Y205.145919 Z-0.125000
G01 X114.029133 Y203.060235 Z-0.125000
G01 X116.914493 Y200.851890 Z-0.125000
G01 X119.656183 Y198.467518 Z-0.125000
G01 X122.175683 Y195.977494 Z-0.125000
G01 X124.468403 Y193.393554 Z-0.125000
G01 X126.547713 Y190.698214 Z-0.125000
G01 X128.342193 Y187.989224 Z-0.125000
G01 X129.894473 Y185.211494 Z-0.125000
G01 X131.225043 Y182.300734 Z-0.125000
G01 X132.038293 Y180.101574 Z-0.125000
G01 X132.676123 Y177.967684 Z-0.125000
G01 X133.188223 Y175.748494 Z-0.125000
G01 X133.553793 Y173.527154 Z-0.125000
G01 X133.787453 Y171.203824 Z-0.125000
G01 X133.876653 Y168.881544 Z-0.125000
G01 X133.820353 Y166.568644 Z-0.125000
G01 X133.633053 Y164.262824 Z-0.125000
G01 X133.231023 Y161.251654 Z-0.125000
G01 X132.563083 Y157.504754 Z-0.125000
G01 X128.738553 Y139.174214 Z-0.125000
G01 X127.120973 Y132.440694 Z-0.125000
G01 X125.443273 Y126.883684 Z-0.125000
G01 X124.346813 Y123.878494 Z-0.125000
G01 X123.120263 Y120.952144 Z-0.125000
G01 X121.818513 Y118.234554 Z-0.125000
G01 X120.354253 Y115.548504 Z-0.125000
G01 X118.779083 Y113.003634 Z-0.125000
G01 X117.102133 Y110.607814 Z-0.125000
G01 X115.277353 Y108.299874 Z-0.125000
G01 X113.381003 Y106.175724 Z-0.125000
G01 X111.435973 Y104.243654 Z-0.125000
G01 X109.388383 Y102.443904 Z-0.125000
G01 X107.286303 Y100.817904 Z-0.125000
G01 X105.177143 Y99.393554 Z-0.125000
G01 X102.714563 Y97.954084 Z-0.125000
G01 X100.039286 Y96.599844 Z-0.125000
G01 X97.390226 Y95.443774 Z-0.125000
G01 X94.693956 Y94.453834 Z-0.125000
G01 X91.968016 Y93.639394 Z-0.125000
G01 X89.183006 Y92.996664 Z-0.125000
G01 X86.349796 Y92.536394 Z-0.125000
G01 X83.586939 Y92.274914 Z-0.125000
G01 X80.814687 Y92.199914 Z-0.125000
G01 X78.035266 Y92.317124 Z-0.125000
G01 X75.287198 Y92.629364 Z-0.125000
G01 X72.648879 Y93.122514 Z-0.125000
G01 X70.083108 Y93.796674 Z-0.125000
G01 X67.537182 Y94.672264 Z-0.125000
G01 X65.097591 Y95.726304 Z-0.125000
G01 X62.798838 Y96.938574 Z-0.125000
G01 X60.564882 Y98.354124 Z-0.125000
G01 X58.526082 Y99.890404 Z-0.125000
G01 X56.613806 Y101.593154 Z-0.125000
G01 X54.879991 Y103.417004 Z-0.125000
G01 X52.896754 Y105.953824 Z-0.125000
G01 X51.232393 Y108.651154 Z-0.125000
G01 X49.897041 Y111.486874 Z-0.125000
G01 X48.904033 Y114.440554 Z-0.125000
G01 X48.530494 Y116.005744 Z-0.125000
G01 X48.255089 Y117.595814 Z-0.125000
G01 X48.080967 Y119.209054 Z-0.125000
G01 X48.009137 Y120.843334 Z-0.125000
G01 X48.161642 Y123.682814 Z-0.125000
G01 X48.388390 Y124.861084 Z-0.125000
G01 X48.751505 Y126.128994 Z-0.125000
G01 X49.244423 Y127.452764 Z-0.125000
G01 X49.931705 Y128.971814 Z-0.125000
G01 X51.698778 Y132.163054 Z-0.125000
G01 X53.793325 Y135.413644 Z-0.125000
G01 X60.897784 Y145.643654 Z-0.125000
G01 X64.401397 Y150.977074 Z-0.125000
G01 X68.074131 Y157.132024 Z-0.125000
G01 X71.230187 Y163.139284 Z-0.125000
G01 X73.145109 Y167.250114 Z-0.125000
G01 X74.869134 Y171.367114 Z-0.125000
G01 X76.459597 Y175.631694 Z-0.125000
G01 X77.863503 Y179.895924 Z-0.125000
G01 X79.055345 Y184.006364 Z-0.125000
G01 X80.086532 Y188.024004 Z-0.125000
G01 X83.160911 Y201.719948 Z-0.125000
G01 X83.834540 Y204.116253 Z-0.125000
G01 X84.482398 Y205.955478 Z-0.125000
G01 X85.058714 Y207.255164 Z-0.125000
G01 X85.643813 Y208.313497 Z-0.125000
G01 X86.278893 Y209.227871 Z-0.125000
G01 X87.024776 Y210.062102 Z-0.125000
G01 X87.807886 Y210.727317 Z-0.125000
G01 X88.681486 Y211.277677 Z-0.125000
G01 X89.625656 Y211.700323 Z-0.125000
G01 X90.781166 Y212.034386 Z-0.125000
G01 X91.901626 Y212.230521 Z-0.125000
G01 X93.119026 Y212.332465 Z-0.125000
G01 X95.621726 Y212.244515 Z-0.125000
G01 X98.284146 Y211.797448 Z-0.125000
G01 X101.260443 Y210.959036 Z-0.125000
G01 X104.425733 Y209.745604 Z-0.125000
G01 X107.714523 Y208.178689 Z-0.125000
G01 X111.042883 Y206.293401 Z-0.125000
G01 X114.270053 Y204.172157 Z-0.125000
G01 X117.230583 Y201.948466 Z-0.125000
G01 X120.088033 Y199.510595 Z-0.125000
G01 X122.752863 Y196.922759 Z-0.125000
G01 X125.146703 Y194.267184 Z-0.125000
G01 X127.282603 Y191.541134 Z-0.125000
G01 X129.207663 Y188.671754 Z-0.125000
G01 X130.843423 Y185.759204 Z-0.125000
G01 X132.157053 Y182.888764 Z-0.125000
G01 X132.940673 Y180.780614 Z-0.125000
G01 X133.587103 Y178.633334 Z-0.125000
G01 X134.081813 Y176.508944 Z-0.125000
G01 X134.457123 Y174.252204 Z-0.125000
G01 X134.686283 Y171.995334 Z-0.125000
G01 X134.778883 Y169.636414 Z-0.125000
G01 X134.727283 Y167.386984 Z-0.125000
G01 X134.529133 Y165.048514 Z-0.125000
G01 X134.109983 Y162.104124 Z-0.125000
G01 X133.468683 Y158.735374 Z-0.125000
G01 X128.788763 Y137.534414 Z-0.125000
G01 X127.270183 Y131.372824 Z-0.125000
G01 X125.729673 Y126.296234 Z-0.125000
G01 X124.569633 Y123.106264 Z-0.125000
G01 X123.357553 Y120.211404 Z-0.125000
G01 X121.988703 Y117.355594 Z-0.125000
G01 X120.533633 Y114.692674 Z-0.125000
G01 X118.979653 Y112.181854 Z-0.125000
G01 X117.270023 Y109.737294 Z-0.125000
G01 X115.451963 Y107.435204 Z-0.125000
G01 X113.511483 Y105.258614 Z-0.125000
G01 X111.515443 Y103.275744 Z-0.125000
G01 X109.457223 Y101.466624 Z-0.125000
G01 X107.269533 Y99.776044 Z-0.125000
G01 X105.077543 Y98.299194 Z-0.125000
G01 X102.497173 Y96.805274 Z-0.125000
G01 X99.840706 Y95.468944 Z-0.125000
G01 X97.118696 Y94.292924 Z-0.125000
G01 X94.445346 Y93.323574 Z-0.125000
G01 X91.634116 Y92.496964 Z-0.125000
G01 X88.826046 Y91.863864 Z-0.125000
G01 X86.010778 Y91.419424 Z-0.125000
G01 X83.132878 Y91.161024 Z-0.125000
G01 X80.275696 Y91.101824 Z-0.125000
G01 X77.497915 Y91.236704 Z-0.125000
G01 X74.659677 Y91.577594 Z-0.125000
G01 X71.943094 Y92.106234 Z-0.125000
G01 X69.280036 Y92.830264 Z-0.125000
G01 X66.777739 Y93.712944 Z-0.125000
G01 X64.240861 Y94.830404 Z-0.125000
G01 X61.907951 Y96.082604 Z-0.125000
G01 X59.720482 Y97.483884 Z-0.125000
G01 X57.602624 Y99.090144 Z-0.125000
G01 X55.627510 Y100.860074 Z-0.125000
G01 X53.851071 Y102.737274 Z-0.125000
G01 X51.788115 Y105.381784 Z-0.125000
G01 X50.065386 Y108.170464 Z-0.125000
G01 X48.644468 Y111.175894 Z-0.125000
G01 X47.615080 Y114.206264 Z-0.125000
G01 X47.201589 Y115.910954 Z-0.125000
G01 X46.913987 Y117.540204 Z-0.125000
G01 X46.728038 Y119.191764 Z-0.125000
G01 X46.646418 Y120.848794 Z-0.125000
G01 X46.654818 Y122.255074 Z-0.125000
G01 X46.781950 Y123.645174 Z-0.125000
G01 X46.999199 Y124.851384 Z-0.125000
G01 X47.349402 Y126.090984 Z-0.125000
G01 X47.881849 Y127.526554 Z-0.125000
G01 X48.541720 Y128.978834 Z-0.125000
G01 X50.407720 Y132.330544 Z-0.125000
G01 X52.931951 Y136.182084 Z-0.125000
G01 X60.313958 Y146.727234 Z-0.125000
G01 X63.356720 Y151.351944 Z-0.125000
G01 X67.093033 Y157.588864 Z-0.125000
G01 X70.296820 Y163.671184 Z-0.125000
G01 X72.215181 Y167.785024 Z-0.125000
G01 X73.930925 Y171.876434 Z-0.125000
G01 X75.497787 Y176.065274 Z-0.125000
G01 X76.924156 Y180.383274 Z-0.125000
G01 X78.029003 Y184.164294 Z-0.125000
G01 X79.140650 Y188.462904 Z-0.125000
G01 X82.277656 Y202.495684 Z-0.125000
G01 X82.971261 Y204.989540 Z-0.125000
G01 X83.674523 Y206.990822 Z-0.125000
G01 X84.256368 Y208.297361 Z-0.125000
G01 X84.869726 Y209.400541 Z-0.125000
G01 X85.572750 Y210.396856 Z-0.125000
G01 X86.313133 Y211.210820 Z-0.125000
G01 X87.165326 Y211.922894 Z-0.125000
G01 X88.070256 Y212.481059 Z-0.125000
G01 X88.996456 Y212.892274 Z-0.125000
G01 X90.080296 Y213.217976 Z-0.125000
