%
(Header)
(Generated by gcodetools from Inkscape.)
(Using default header. To add your own header create file "header" in the output dir.)
M3
(Header end.)
G21 (All units in mm)

(Start cutting path id: polyline129835)
(Change tool to Default tool)

G00 Z3.000000
G00 X122.112242 Y245.197764

G00 Z4.875000 (Fast pre-penetrate)
G01 Z-0.125000 F400.0(Penetrate)
G01 X112.774888 Y209.845491 Z-0.125000 F800.000000
G01 X117.866500 Y191.199773 Z-0.125000
G01 X128.055199 Y157.810015 Z-0.125000
G01 X106.577647 Y124.442351 Z-0.125000
G01 X126.208731 Y118.909891 Z-0.125000
G01 X115.284735 Y76.354130 Z-0.125000
G01 X116.694469 Y47.033247 Z-0.125000
G00 Z3.000000

(End cutting path id: polyline129835)


(Start cutting path id: polyline129463)
(Change tool to Default tool)

G00 Z3.000000
G00 X144.662284 Y233.278699

G00 Z4.875000 (Fast pre-penetrate)
G01 Z-0.125000 F400.0(Penetrate)
G01 X145.126674 Y215.285351 Z-0.125000 F800.000000
G01 X141.411606 Y187.540006 Z-0.125000
G01 X146.519808 Y129.108276 Z-0.125000
G01 X144.662284 Y101.982113 Z-0.125000
G01 X133.517172 Y86.775071 Z-0.125000
G01 X144.662284 Y45.562718 Z-0.125000
G00 Z3.000000

(End cutting path id: polyline129463)


(Start cutting path id: polyline129465)
(Change tool to Default tool)

G00 Z3.000000
G00 X143.898017 Y233.704382

G00 Z4.875000 (Fast pre-penetrate)
G01 Z-0.125000 F400.0(Penetrate)
G01 X143.997506 Y215.102928 Z-0.125000 F800.000000
G01 X140.619688 Y187.672702 Z-0.125000
G01 X142.925010 Y164.947090 Z-0.125000
G01 X145.108710 Y128.925854 Z-0.125000
G01 X144.047270 Y102.612369 Z-0.125000
G01 X132.902158 Y86.415726 Z-0.125000
G01 X143.704538 Y45.601406 Z-0.125000
G00 Z3.000000

(End cutting path id: polyline129465)


(Start cutting path id: polyline129479)
(Change tool to Default tool)

G00 Z3.000000
G00 X145.852197 Y233.743071

G00 Z4.875000 (Fast pre-penetrate)
G01 Z-0.125000 F400.0(Penetrate)
G01 X146.333162 Y215.401434 Z-0.125000 F800.000000
G01 X142.419096 Y186.860005 Z-0.125000
G01 X144.508807 Y165.372792 Z-0.125000
G01 X147.079503 Y129.351538 Z-0.125000
G01 X145.487352 Y101.799691 Z-0.125000
G01 X135.138287 Y86.692119 Z-0.125000
G01 X145.620011 Y45.794922 Z-0.125000
G00 Z3.000000

(End cutting path id: polyline129479)


(Start cutting path id: polyline129481)
(Change tool to Default tool)

G00 Z3.000000
G00 X143.133806 Y234.130085

G00 Z4.875000 (Fast pre-penetrate)
G01 Z-0.125000 F400.0(Penetrate)
G01 X142.868432 Y214.920449 Z-0.125000 F800.000000
G01 X139.827846 Y187.805361 Z-0.125000
G01 X142.426154 Y164.681716 Z-0.125000
G01 X143.697667 Y128.743432 Z-0.125000
G01 X143.432350 Y103.242588 Z-0.125000
G01 X132.287219 Y86.056381 Z-0.125000
G01 X142.746792 Y45.640113 Z-0.125000
G00 Z3.000000

(End cutting path id: polyline129481)


(Start cutting path id: polyline129483)
(Change tool to Default tool)

G00 Z3.000000
G00 X147.042109 Y234.207461

G00 Z4.875000 (Fast pre-penetrate)
G01 Z-0.125000 F400.0(Penetrate)
G01 X147.539670 Y215.517555 Z-0.125000 F800.000000
G01 X143.426587 Y186.180079 Z-0.125000
G01 X145.593674 Y165.533102 Z-0.125000
G01 X147.639197 Y129.594761 Z-0.125000
G01 X146.312401 Y101.617249 Z-0.125000
G01 X136.759440 Y86.609167 Z-0.125000
G01 X146.577719 Y46.027108 Z-0.125000
G00 Z3.000000

(End cutting path id: polyline129483)


(Start cutting path id: polyline129485)
(Change tool to Default tool)

G00 Z3.000000
G00 X142.369539 Y234.555712

G00 Z4.875000 (Fast pre-penetrate)
G01 Z-0.125000 F400.0(Penetrate)
G01 X141.739320 Y214.738027 Z-0.125000 F800.000000
G01 X139.035966 Y187.938020 Z-0.125000
G01 X141.927299 Y164.416361 Z-0.125000
G01 X142.286644 Y128.560953 Z-0.125000
G01 X142.817317 Y103.872807 Z-0.125000
G01 X131.672205 Y85.697055 Z-0.125000
G01 X141.789084 Y45.678801 Z-0.125000
G00 Z3.000000

(End cutting path id: polyline129485)


(Start cutting path id: polyline129487)
(Change tool to Default tool)

G00 Z3.000000
G00 X148.232060 Y234.671833

G00 Z4.875000 (Fast pre-penetrate)
G01 Z-0.125000 F400.0(Penetrate)
G01 X148.746158 Y215.633620 Z-0.125000 F800.000000
G01 X144.434077 Y185.500040 Z-0.125000
G01 X146.678597 Y165.693430 Z-0.125000
G01 X148.198891 Y129.838022 Z-0.125000
G01 X147.137413 Y101.434827 Z-0.125000
G01 X138.380555 Y86.526291 Z-0.125000
G01 X147.535502 Y46.259257 Z-0.125000
G00 Z3.000000

(End cutting path id: polyline129487)


(Start cutting path id: polyline129489)
(Change tool to Default tool)

G00 Z3.000000
G00 X141.605310 Y234.981414

G00 Z4.875000 (Fast pre-penetrate)
G01 Z-0.125000 F400.0(Penetrate)
G01 X140.610190 Y214.555605 Z-0.125000 F800.000000
G01 X138.244086 Y188.070735 Z-0.125000
G01 X141.428406 Y164.150987 Z-0.125000
G01 X140.875564 Y128.378530 Z-0.125000
G01 X142.202359 Y104.503026 Z-0.125000
G01 X131.057229 Y85.337673 Z-0.125000
G01 X140.831300 Y45.717489 Z-0.125000
G00 Z3.000000

(End cutting path id: polyline129489)


(Start cutting path id: polyline129491)
(Change tool to Default tool)

G00 Z3.000000
G00 X149.421973 Y235.136224

G00 Z4.875000 (Fast pre-penetrate)
G01 Z-0.125000 F400.0(Penetrate)
G01 X149.952721 Y215.749741 Z-0.125000 F800.000000
G01 X145.441549 Y184.820057 Z-0.125000
G01 X147.763465 Y165.853758 Z-0.125000
G01 X148.758585 Y130.081246 Z-0.125000
G01 X147.962481 Y101.252405 Z-0.125000
G01 X140.001671 Y86.443339 Z-0.125000
G01 X148.493210 Y46.491443 Z-0.125000
G00 Z3.000000

(End cutting path id: polyline129491)


(Start cutting path id: polyline129493)
(Change tool to Default tool)

G00 Z3.000000
G00 X140.841043 Y235.407098

G00 Z4.875000 (Fast pre-penetrate)
G01 Z-0.125000 F400.0(Penetrate)
G01 X139.481078 Y214.373182 Z-0.125000 F800.000000
G01 X137.452187 Y188.203394 Z-0.125000
G01 X140.929495 Y163.885669 Z-0.125000
G01 X139.464484 Y128.196108 Z-0.125000
G01 X141.587383 Y105.133245 Z-0.125000
G01 X130.442271 Y84.978328 Z-0.125000
G01 X139.873592 Y45.756178 Z-0.125000
G00 Z3.000000

(End cutting path id: polyline129493)


(Start cutting path id: polyline129495)
(Change tool to Default tool)

G00 Z3.000000
G00 X140.076832 Y235.832800

G00 Z4.875000 (Fast pre-penetrate)
G01 Z-0.125000 F400.0(Penetrate)
G01 X138.351947 Y214.190704 Z-0.125000 F800.000000
G01 X136.660307 Y188.336110 Z-0.125000
G01 X140.430639 Y163.620295 Z-0.125000
G01 X138.053460 Y128.013667 Z-0.125000
G01 X140.972406 Y105.763520 Z-0.125000
G01 X129.827295 Y84.618984 Z-0.125000
G01 X138.915865 Y45.794922 Z-0.125000
G00 Z3.000000

(End cutting path id: polyline129495)


(Start cutting path id: polyline129497)
(Change tool to Default tool)

G00 Z3.000000
G00 X150.611886 Y235.600596

G00 Z4.875000 (Fast pre-penetrate)
G01 Z-0.125000 F400.0(Penetrate)
G01 X151.159209 Y215.865806 Z-0.125000 F800.000000
G01 X146.449096 Y184.140075 Z-0.125000
G01 X148.848388 Y166.014030 Z-0.125000
G01 X149.318279 Y130.324507 Z-0.125000
G01 X148.787530 Y101.069926 Z-0.125000
G01 X141.622842 Y86.360406 Z-0.125000
G01 X149.450938 Y46.723628 Z-0.125000
G00 Z3.000000

(End cutting path id: polyline129497)


(Start cutting path id: polyline129499)
(Change tool to Default tool)

G00 Z3.000000
G00 X151.801799 Y236.064930

G00 Z4.875000 (Fast pre-penetrate)
G01 Z-0.125000 F400.0(Penetrate)
G01 X152.365716 Y215.981927 Z-0.125000 F800.000000
G01 X147.456568 Y183.460093 Z-0.125000
G01 X149.933236 Y166.174396 Z-0.125000
G01 X149.878048 Y130.567768 Z-0.125000
G01 X149.612674 Y100.887503 Z-0.125000
G01 X143.244033 Y86.277511 Z-0.125000
G01 X150.408777 Y46.955814 Z-0.125000
G00 Z3.000000

(End cutting path id: polyline129499)


(Start cutting path id: polyline129501)
(Change tool to Default tool)

G00 Z3.000000
G00 X152.991768 Y236.529320

G00 Z4.875000 (Fast pre-penetrate)
G01 Z-0.125000 F400.0(Penetrate)
G01 X153.572205 Y216.097992 Z-0.125000 F800.000000
G01 X148.464058 Y182.780110 Z-0.125000
G01 X151.018160 Y166.334668 Z-0.125000
G01 X150.437667 Y130.810992 Z-0.125000
G01 X150.437667 Y100.705081 Z-0.125000
G01 X144.865073 Y86.194559 Z-0.125000
G01 X151.366429 Y47.188019 Z-0.125000
G00 Z3.000000

(End cutting path id: polyline129501)


(Start cutting path id: polyline129503)
(Change tool to Default tool)

G00 Z3.000000
G00 X139.312547 Y236.258446

G00 Z4.875000 (Fast pre-penetrate)
G01 Z-0.125000 F400.0(Penetrate)
G01 X137.222836 Y214.008281 Z-0.125000 F800.000000
G01 X135.868427 Y188.468768 Z-0.125000
G01 X139.931747 Y163.354939 Z-0.125000
G01 X136.642380 Y127.831244 Z-0.125000
G01 X140.357449 Y106.393739 Z-0.125000
G01 X129.212318 Y84.259658 Z-0.125000
G01 X137.958157 Y45.833611 Z-0.125000
G00 Z3.000000

(End cutting path id: polyline129503)


(Start cutting path id: polyline129505)
(Change tool to Default tool)

G00 Z3.000000
G00 X138.548336 Y236.684130

G00 Z4.875000 (Fast pre-penetrate)
G01 Z-0.125000 F400.0(Penetrate)
G01 X136.093762 Y213.825859 Z-0.125000 F800.000000
G01 X135.076547 Y188.601427 Z-0.125000
G01 X139.432891 Y163.089565 Z-0.125000
G01 X135.231300 Y127.648766 Z-0.125000
G01 X139.742472 Y107.023958 Z-0.125000
G01 X128.597342 Y83.900313 Z-0.125000
G01 X137.000373 Y45.872299 Z-0.125000
G00 Z3.000000

(End cutting path id: polyline129505)


(Start cutting path id: polyline129507)
(Change tool to Default tool)

G00 Z3.000000
G00 X137.784069 Y237.109813

G00 Z4.875000 (Fast pre-penetrate)
G01 Z-0.125000 F400.0(Penetrate)
G01 X134.964650 Y213.643436 Z-0.125000 F800.000000
G01 X134.284667 Y188.734124 Z-0.125000
G01 X138.933998 Y162.824191 Z-0.125000
G01 X133.820277 Y127.466343 Z-0.125000
G01 X139.127440 Y107.654177 Z-0.125000
G01 X127.982328 Y83.540968 Z-0.125000
G01 X136.042665 Y45.910987 Z-0.125000
G00 Z3.000000

(End cutting path id: polyline129507)


(Start cutting path id: polyline129509)
(Change tool to Default tool)

G00 Z3.000000
G00 X137.019858 Y237.535516

G00 Z4.875000 (Fast pre-penetrate)
G01 Z-0.125000 F400.0(Penetrate)
G01 X133.835538 Y213.461014 Z-0.125000 F800.000000
G01 X133.492787 Y188.866783 Z-0.125000
G01 X138.435106 Y162.558873 Z-0.125000
G01 X132.409216 Y127.283921 Z-0.125000
G01 X138.512482 Y108.284434 Z-0.125000
G01 X127.367408 Y83.181642 Z-0.125000
G01 X135.084882 Y45.949675 Z-0.125000
G00 Z3.000000

(End cutting path id: polyline129509)


(Start cutting path id: polyline129511)
(Change tool to Default tool)

G00 Z3.000000
G00 X154.181662 Y236.993692

G00 Z4.875000 (Fast pre-penetrate)
G01 Z-0.125000 F400.0(Penetrate)
G01 X154.778712 Y216.214113 Z-0.125000 F800.000000
G01 X149.471549 Y182.100128 Z-0.125000
G01 X152.103027 Y166.494996 Z-0.125000
G01 X150.997342 Y131.054253 Z-0.125000
G01 X151.262716 Y100.522659 Z-0.125000
G01 X146.486245 Y86.111626 Z-0.125000
G01 X152.324137 Y47.420205 Z-0.125000
G00 Z3.000000

(End cutting path id: polyline129511)


(Start cutting path id: polyline129513)
(Change tool to Default tool)

G00 Z3.000000
G00 X155.371575 Y237.458083

G00 Z4.875000 (Fast pre-penetrate)
G01 Z-0.125000 F400.0(Penetrate)
G01 X155.985256 Y216.330197 Z-0.125000 F800.000000
G01 X150.479039 Y181.420145 Z-0.125000
G01 X153.187894 Y166.655325 Z-0.125000
G01 X151.557036 Y131.297533 Z-0.125000
G01 X152.087784 Y100.340236 Z-0.125000
G01 X148.107360 Y86.028731 Z-0.125000
G01 X153.281864 Y47.652391 Z-0.125000
G00 Z3.000000

(End cutting path id: polyline129513)


(Start cutting path id: polyline129515)
(Change tool to Default tool)

G00 Z3.000000
G00 X156.561488 Y237.922474

G00 Z4.875000 (Fast pre-penetrate)
G01 Z-0.125000 F400.0(Penetrate)
G01 X157.191763 Y216.446318 Z-0.125000 F800.000000
G01 X151.486511 Y180.740163 Z-0.125000
G01 X154.272817 Y166.815653 Z-0.125000
G01 X152.116730 Y131.540738 Z-0.125000
G01 X152.912796 Y100.157757 Z-0.125000
G01 X149.728476 Y85.945779 Z-0.125000
G01 X154.239629 Y47.884577 Z-0.125000
G00 Z3.000000

(End cutting path id: polyline129515)


(Start cutting path id: polyline129517)
(Change tool to Default tool)

G00 Z3.000000
G00 X157.751457 Y238.386845

G00 Z4.875000 (Fast pre-penetrate)
G01 Z-0.125000 F400.0(Penetrate)
G01 X158.398252 Y216.562383 Z-0.125000 F800.000000
G01 X152.494002 Y180.060162 Z-0.125000
G01 X155.357722 Y166.975962 Z-0.125000
G01 X152.676424 Y131.784018 Z-0.125000
G01 X153.737845 Y99.975335 Z-0.125000
G01 X151.349629 Y85.862884 Z-0.125000
G01 X155.197356 Y48.116781 Z-0.125000
G00 Z3.000000

(End cutting path id: polyline129517)


(Start cutting path id: polyline129519)
(Change tool to Default tool)

G00 Z3.000000
G00 X158.941370 Y238.851236

G00 Z4.875000 (Fast pre-penetrate)
G01 Z-0.125000 F400.0(Penetrate)
G01 X159.604759 Y216.678504 Z-0.125000 F800.000000
G01 X153.501492 Y179.380179 Z-0.125000
G01 X156.442589 Y167.136290 Z-0.125000
G01 X153.236118 Y132.027223 Z-0.125000
G01 X154.562913 Y99.792913 Z-0.125000
G01 X152.970744 Y85.779951 Z-0.125000
G01 X156.155121 Y48.348967 Z-0.125000
G00 Z3.000000

(End cutting path id: polyline129519)


(Start cutting path id: polyline129521)
(Change tool to Default tool)

G00 Z3.000000
G00 X136.255573 Y237.961162

G00 Z4.875000 (Fast pre-penetrate)
G01 Z-0.125000 F400.0(Penetrate)
G01 X132.706408 Y213.278535 Z-0.125000 F800.000000
G01 X132.700776 Y188.999498 Z-0.125000
G01 X137.936063 Y162.293518 Z-0.125000
G01 X130.998042 Y127.101498 Z-0.125000
G01 X137.897374 Y108.914653 Z-0.125000
G01 X126.752262 Y82.822297 Z-0.125000
G01 X134.127042 Y45.988420 Z-0.125000
G00 Z3.000000

(End cutting path id: polyline129521)


(Start cutting path id: polyline129523)
(Change tool to Default tool)

G00 Z3.000000
G00 X135.491362 Y238.386845

G00 Z4.875000 (Fast pre-penetrate)
G01 Z-0.125000 F400.0(Penetrate)
G01 X131.577296 Y213.096113 Z-0.125000 F800.000000
G01 X131.909009 Y189.132157 Z-0.125000
G01 X137.437339 Y162.028144 Z-0.125000
G01 X129.587112 Y126.919076 Z-0.125000
G01 X137.282529 Y109.544871 Z-0.125000
G01 X126.137417 Y82.462972 Z-0.125000
G01 X133.169447 Y46.027108 Z-0.125000
G00 Z3.000000

(End cutting path id: polyline129523)


(Start cutting path id: polyline129525)
(Change tool to Default tool)

G00 Z3.000000
G00 X134.727095 Y238.812548

G00 Z4.875000 (Fast pre-penetrate)
G01 Z-0.125000 F400.0(Penetrate)
G01 X130.448165 Y212.913690 Z-0.125000 F800.000000
G01 X131.117129 Y189.264872 Z-0.125000
G01 X136.938446 Y161.762770 Z-0.125000
G01 X128.176032 Y126.736654 Z-0.125000
G01 X136.667572 Y110.175090 Z-0.125000
G01 X125.522441 Y82.103627 Z-0.125000
G01 X132.211738 Y46.065796 Z-0.125000
G00 Z3.000000

(End cutting path id: polyline129525)


(Start cutting path id: polyline129527)
(Change tool to Default tool)

G00 Z3.000000
G00 X133.962866 Y239.238231

G00 Z4.875000 (Fast pre-penetrate)
G01 Z-0.125000 F400.0(Penetrate)
G01 X129.319054 Y212.731249 Z-0.125000 F800.000000
G01 X130.325249 Y189.397531 Z-0.125000
G01 X136.439591 Y161.497396 Z-0.125000
G01 X126.765008 Y126.554175 Z-0.125000
G01 X136.052595 Y110.805366 Z-0.125000
G01 X124.907483 Y81.744282 Z-0.125000
G01 X131.253955 Y46.104485 Z-0.125000
G00 Z3.000000

(End cutting path id: polyline129527)


(Start cutting path id: polyline129529)
(Change tool to Default tool)

G00 Z3.000000
G00 X133.198599 Y239.663915

G00 Z4.875000 (Fast pre-penetrate)
G01 Z-0.125000 F400.0(Penetrate)
G01 X128.189979 Y212.548827 Z-0.125000 F800.000000
G01 X129.533369 Y189.530190 Z-0.125000
G01 X135.940698 Y161.232040 Z-0.125000
G01 X125.353928 Y126.371752 Z-0.125000
G01 X135.437619 Y111.435585 Z-0.125000
G01 X124.292507 Y81.384956 Z-0.125000
G01 X130.296247 Y46.143229 Z-0.125000
G00 Z3.000000

(End cutting path id: polyline129529)


(Start cutting path id: polyline129531)
(Change tool to Default tool)

G00 Z3.000000
G00 X132.434388 Y240.089617

G00 Z4.875000 (Fast pre-penetrate)
G01 Z-0.125000 F400.0(Penetrate)
G01 X127.060868 Y212.366348 Z-0.125000 F800.000000
G01 X128.741489 Y189.662886 Z-0.125000
G01 X135.441786 Y160.966666 Z-0.125000
G01 X123.942849 Y126.189330 Z-0.125000
G01 X134.822643 Y112.065803 Z-0.125000
G01 X123.677531 Y81.025611 Z-0.125000
G01 X129.338520 Y46.181918 Z-0.125000
G00 Z3.000000

(End cutting path id: polyline129531)


(Start cutting path id: polyline129533)
(Change tool to Default tool)

G00 Z3.000000
G00 X131.670178 Y240.515301

G00 Z4.875000 (Fast pre-penetrate)
G01 Z-0.125000 F400.0(Penetrate)
G01 X125.931756 Y212.183926 Z-0.125000 F800.000000
G01 X127.949553 Y189.795545 Z-0.125000
G01 X134.942893 Y160.701348 Z-0.125000
G01 X122.531825 Y126.006908 Z-0.125000
G01 X134.207629 Y112.696022 Z-0.125000
G01 X123.062517 Y80.666229 Z-0.125000
G01 X128.380811 Y46.220606 Z-0.125000
G00 Z3.000000

(End cutting path id: polyline129533)


(Start cutting path id: polyline129535)
(Change tool to Default tool)

G00 Z3.000000
G00 X130.905892 Y240.940947

G00 Z4.875000 (Fast pre-penetrate)
G01 Z-0.125000 F400.0(Penetrate)
G01 X124.802625 Y212.001503 Z-0.125000 F800.000000
G01 X127.157710 Y189.928260 Z-0.125000
G01 X134.444038 Y160.435974 Z-0.125000
G01 X121.120745 Y125.824466 Z-0.125000
G01 X133.592652 Y113.326241 Z-0.125000
G01 X122.447540 Y80.306884 Z-0.125000
G01 X127.423028 Y46.259294 Z-0.125000
G00 Z3.000000

(End cutting path id: polyline129535)


(Start cutting path id: polyline129537)
(Change tool to Default tool)

G00 Z3.000000
G00 X130.141625 Y241.366630

G00 Z4.875000 (Fast pre-penetrate)
G01 Z-0.125000 F400.0(Penetrate)
G01 X123.673514 Y211.819081 Z-0.125000 F800.000000
G01 X126.365793 Y190.060919 Z-0.125000
G01 X133.945145 Y160.170619 Z-0.125000
G01 X119.709684 Y125.642007 Z-0.125000
G01 X132.977695 Y113.956517 Z-0.125000
G01 X121.832564 Y79.947558 Z-0.125000
G01 X126.465320 Y46.297982 Z-0.125000
G00 Z3.000000

(End cutting path id: polyline129537)


(Start cutting path id: polyline129539)
(Change tool to Default tool)

G00 Z3.000000
G00 X129.377414 Y241.792333

G00 Z4.875000 (Fast pre-penetrate)
G01 Z-0.125000 F400.0(Penetrate)
G01 X122.544383 Y211.636658 Z-0.125000 F800.000000
G01 X125.573950 Y190.193634 Z-0.125000
G01 X133.446290 Y159.905245 Z-0.125000
G01 X118.298641 Y125.459565 Z-0.125000
G01 X132.362718 Y114.586736 Z-0.125000
G01 X121.217606 Y79.588214 Z-0.125000
G01 X125.507593 Y46.336671 Z-0.125000
G00 Z3.000000

(End cutting path id: polyline129539)


(Start cutting path id: polyline129541)
(Change tool to Default tool)

G00 Z3.000000
G00 X128.613148 Y242.218016

G00 Z4.875000 (Fast pre-penetrate)
G01 Z-0.125000 F400.0(Penetrate)
G01 X121.415271 Y211.454236 Z-0.125000 F800.000000
G01 X124.782014 Y190.326293 Z-0.125000
G01 X132.947397 Y159.639871 Z-0.125000
G01 X116.887573 Y125.277143 Z-0.125000
G01 X131.747742 Y115.216954 Z-0.125000
G01 X120.602630 Y79.228888 Z-0.125000
G01 X124.549828 Y46.375359 Z-0.125000
G00 Z3.000000

(End cutting path id: polyline129541)


(Start cutting path id: polyline129543)
(Change tool to Default tool)

G00 Z3.000000
G00 X160.131265 Y239.315608

G00 Z4.875000 (Fast pre-penetrate)
G01 Z-0.125000 F400.0(Penetrate)
G01 X160.811266 Y216.794568 Z-0.125000 F800.000000
G01 X154.508964 Y178.700197 Z-0.125000
G01 X157.527456 Y167.296619 Z-0.125000
G01 X153.795812 Y132.270484 Z-0.125000
G01 X155.387963 Y99.610490 Z-0.125000
G01 X154.591916 Y85.696999 Z-0.125000
G01 X157.112848 Y48.581153 Z-0.125000
G00 Z3.000000

(End cutting path id: polyline129543)


(Start cutting path id: polyline129545)
(Change tool to Default tool)

G00 Z3.000000
G00 X161.321234 Y239.779998

G00 Z4.875000 (Fast pre-penetrate)
G01 Z-0.125000 F400.0(Penetrate)
G01 X162.017810 Y216.910652 Z-0.125000 F800.000000
G01 X155.516454 Y178.020214 Z-0.125000
G01 X158.612379 Y167.456947 Z-0.125000
G01 X154.355506 Y132.513707 Z-0.125000
G01 X156.213031 Y99.428049 Z-0.125000
G01 X156.213031 Y85.614104 Z-0.125000
G01 X158.070556 Y48.813358 Z-0.125000
G00 Z3.000000

(End cutting path id: polyline129545)


(Start cutting path id: polyline129547)
(Change tool to Default tool)

G00 Z3.000000
G00 X162.511147 Y240.244370

G00 Z4.875000 (Fast pre-penetrate)
G01 Z-0.125000 F400.0(Penetrate)
G01 X163.224299 Y217.026773 Z-0.125000 F800.000000
G01 X156.523945 Y177.340232 Z-0.125000
G01 X159.697228 Y167.617256 Z-0.125000
G01 X154.915238 Y132.756969 Z-0.125000
G01 X157.834203 Y85.531171 Z-0.125000
G01 X159.028283 Y49.045544 Z-0.125000
G00 Z3.000000

(End cutting path id: polyline129547)


(Start cutting path id: polyline129549)
(Change tool to Default tool)

G00 Z3.000000
G00 X163.701060 Y240.708761

G00 Z4.875000 (Fast pre-penetrate)
G01 Z-0.125000 F400.0(Penetrate)
G01 X164.430806 Y217.142838 Z-0.125000 F800.000000
G01 X157.531436 Y176.660249 Z-0.125000
G01 X160.782095 Y167.777585 Z-0.125000
G01 X155.474894 Y133.000248 Z-0.125000
G01 X157.863148 Y99.063148 Z-0.125000
G01 X159.455318 Y85.448219 Z-0.125000
G01 X159.985991 Y49.277730 Z-0.125000
G00 Z3.000000

(End cutting path id: polyline129549)


(Start cutting path id: polyline129551)
(Change tool to Default tool)

G00 Z3.000000
G00 X164.890973 Y241.173133

G00 Z4.875000 (Fast pre-penetrate)
G01 Z-0.125000 F400.0(Penetrate)
G01 X165.637294 Y217.258959 Z-0.125000 F800.000000
G01 X158.538907 Y175.980267 Z-0.125000
G01 X161.867018 Y167.937913 Z-0.125000
G01 X156.034626 Y133.243453 Z-0.125000
G01 X158.688217 Y98.880726 Z-0.125000
G01 X161.076433 Y85.365324 Z-0.125000
G01 X160.943718 Y49.509916 Z-0.125000
G00 Z3.000000

(End cutting path id: polyline129551)


(Start cutting path id: polyline129553)
(Change tool to Default tool)

G00 Z3.000000
G00 X166.080923 Y241.637523

G00 Z4.875000 (Fast pre-penetrate)
G01 Z-0.125000 F400.0(Penetrate)
G01 X166.843801 Y217.375024 Z-0.125000 F800.000000
G01 X159.546398 Y175.300285 Z-0.125000
G01 X162.951885 Y168.098241 Z-0.125000
G01 X156.594320 Y133.486733 Z-0.125000
G01 X159.513266 Y98.698303 Z-0.125000
G01 X162.697586 Y85.282391 Z-0.125000
G01 X161.901483 Y49.742120 Z-0.125000
G00 Z3.000000

(End cutting path id: polyline129553)


(Start cutting path id: polyline129555)
(Change tool to Default tool)

G00 Z3.000000
G00 X167.270836 Y242.101895

G00 Z4.875000 (Fast pre-penetrate)
G01 Z-0.125000 F400.0(Penetrate)
G01 X168.050308 Y217.491145 Z-0.125000 F800.000000
G01 X160.553888 Y174.620302 Z-0.125000
G01 X164.036752 Y168.258551 Z-0.125000
G01 X157.154014 Y133.729994 Z-0.125000
G01 X160.338278 Y98.515881 Z-0.125000
G01 X164.318702 Y85.199495 Z-0.125000
G01 X162.859210 Y49.974306 Z-0.125000
G00 Z3.000000

(End cutting path id: polyline129555)


(Start cutting path id: polyline129557)
(Change tool to Default tool)

G00 Z3.000000
G00 X168.460749 Y242.566286

G00 Z4.875000 (Fast pre-penetrate)
G01 Z-0.125000 F400.0(Penetrate)
G01 X169.256853 Y217.607210 Z-0.125000 F800.000000
G01 X161.561416 Y173.940301 Z-0.125000
G01 X165.121657 Y168.418879 Z-0.125000
G01 X157.713708 Y133.973218 Z-0.125000
G01 X161.163346 Y98.333402 Z-0.125000
G01 X165.939817 Y85.116544 Z-0.125000
G01 X163.816974 Y50.206492 Z-0.125000
G00 Z3.000000

(End cutting path id: polyline129557)


(Start cutting path id: polyline129471)
(Change tool to Default tool)

G00 Z3.000000
G00 X198.295429 Y239.779998

G00 Z4.875000 (Fast pre-penetrate)
G01 Z-0.125000 F400.0(Penetrate)
G01 X185.292774 Y219.464753 Z-0.125000 F800.000000
G01 X201.546107 Y186.146853 Z-0.125000
G01 X187.459880 Y148.494759 Z-0.125000
G01 X203.713194 Y143.349257 Z-0.125000
G01 X198.295429 Y105.697163 Z-0.125000
G01 X204.796729 Y91.883217 Z-0.125000
G01 X198.295429 Y52.064017 Z-0.125000
G00 Z3.000000

(End cutting path id: polyline129471)


(Start cutting path id: polyline129473)
(Change tool to Default tool)

G00 Z3.000000
G00 X197.569850 Y240.012184

G00 Z4.875000 (Fast pre-penetrate)
G01 Z-0.125000 F400.0(Penetrate)
G01 X185.064811 Y219.431565 Z-0.125000 F800.000000
G01 X200.405901 Y185.516634 Z-0.125000
G01 X186.972062 Y149.252118 Z-0.125000
G01 X202.230257 Y143.083883 Z-0.125000
G01 X197.205006 Y105.382025 Z-0.125000
G01 X203.872190 Y91.617900 Z-0.125000
G01 X197.337665 Y52.064017 Z-0.125000
G00 Z3.000000

(End cutting path id: polyline129473)


(Start cutting path id: polyline129475)
(Change tool to Default tool)

G00 Z3.000000
G00 X196.844328 Y240.244370

G00 Z4.875000 (Fast pre-penetrate)
G01 Z-0.125000 F400.0(Penetrate)
G01 X184.836793 Y219.398433 Z-0.125000 F800.000000
G01 X199.265771 Y184.886415 Z-0.125000
G01 X186.484226 Y150.009533 Z-0.125000
G01 X200.747357 Y142.818565 Z-0.125000
G01 X196.114620 Y105.066944 Z-0.125000
G01 X202.947595 Y91.352526 Z-0.125000
G01 X196.379938 Y52.064017 Z-0.125000
G00 Z3.000000

(End cutting path id: polyline129475)


(Start cutting path id: polyline129477)
(Change tool to Default tool)

G00 Z3.000000
G00 X196.118787 Y240.476613

G00 Z4.875000 (Fast pre-penetrate)
G01 Z-0.125000 F400.0(Penetrate)
G01 X184.608774 Y219.365264 Z-0.125000 F800.000000
G01 X198.125565 Y184.256196 Z-0.125000
G01 X185.996408 Y150.766911 Z-0.125000
G01 X199.264419 Y142.553210 Z-0.125000
G01 X195.024196 Y104.751806 Z-0.125000
G01 X202.023056 Y91.087151 Z-0.125000
G01 X195.422210 Y52.064017 Z-0.125000
G00 Z3.000000

(End cutting path id: polyline129477)


(Start cutting path id: polyline129561)
(Change tool to Default tool)

G00 Z3.000000
G00 X195.393208 Y240.708798

G00 Z4.875000 (Fast pre-penetrate)
G01 Z-0.125000 F400.0(Penetrate)
G01 X184.380812 Y219.332095 Z-0.125000 F800.000000
G01 X196.985378 Y183.625977 Z-0.125000
G01 X185.508591 Y151.524326 Z-0.125000
G01 X197.781481 Y142.287835 Z-0.125000
G01 X193.933754 Y104.436725 Z-0.125000
G01 X201.098461 Y90.821796 Z-0.125000
G01 X194.464502 Y52.064017 Z-0.125000
G00 Z3.000000

(End cutting path id: polyline129561)


(Start cutting path id: polyline129563)
(Change tool to Default tool)

G00 Z3.000000
G00 X194.667686 Y240.941003

G00 Z4.875000 (Fast pre-penetrate)
G01 Z-0.125000 F400.0(Penetrate)
G01 X184.152793 Y219.298906 Z-0.125000 F800.000000
G01 X195.845228 Y182.995702 Z-0.125000
G01 X185.020754 Y152.281685 Z-0.125000
G01 X196.298544 Y142.022461 Z-0.125000
G01 X192.843331 Y104.121587 Z-0.125000
G01 X200.173922 Y90.556422 Z-0.125000
G01 X193.506738 Y52.064017 Z-0.125000
G00 Z3.000000

(End cutting path id: polyline129563)


(Start cutting path id: polyline129565)
(Change tool to Default tool)

G00 Z3.000000
G00 X193.942164 Y241.173189

G00 Z4.875000 (Fast pre-penetrate)
G01 Z-0.125000 F400.0(Penetrate)
G01 X183.924812 Y219.265737 Z-0.125000 F800.000000
G01 X194.705042 Y182.365483 Z-0.125000
G01 X184.532937 Y153.039044 Z-0.125000
G01 X194.815644 Y141.757106 Z-0.125000
G01 X191.752907 Y103.806450 Z-0.125000
G01 X199.249364 Y90.291048 Z-0.125000
G01 X192.549011 Y52.064017 Z-0.125000
G00 Z3.000000

(End cutting path id: polyline129565)


(Start cutting path id: polyline129567)
(Change tool to Default tool)

G00 Z3.000000
G00 X193.216623 Y241.405375

G00 Z4.875000 (Fast pre-penetrate)
G01 Z-0.125000 F400.0(Penetrate)
G01 X183.696793 Y219.232549 Z-0.125000 F800.000000
G01 X193.564892 Y181.735264 Z-0.125000
G01 X184.045100 Y153.796459 Z-0.125000
G01 X193.332706 Y141.491732 Z-0.125000
G01 X190.662521 Y103.491368 Z-0.125000
G01 X198.324788 Y90.025730 Z-0.125000
G01 X191.591284 Y52.064017 Z-0.125000
G00 Z3.000000

(End cutting path id: polyline129567)


(Start cutting path id: polyline129569)
(Change tool to Default tool)

G00 Z3.000000
G00 X192.491044 Y241.637580

G00 Z4.875000 (Fast pre-penetrate)
G01 Z-0.125000 F400.0(Penetrate)
G01 X183.468831 Y219.199436 Z-0.125000 F800.000000
G01 X192.424686 Y181.105045 Z-0.125000
G01 X183.557283 Y154.553818 Z-0.125000
G01 X191.849806 Y141.226358 Z-0.125000
G01 X189.572098 Y103.176250 Z-0.125000
G01 X197.400230 Y89.760375 Z-0.125000
G01 X190.633519 Y52.064017 Z-0.125000
G00 Z3.000000

(End cutting path id: polyline129569)


(Start cutting path id: polyline129571)
(Change tool to Default tool)

G00 Z3.000000
G00 X191.765522 Y241.869766

G00 Z4.875000 (Fast pre-penetrate)
G01 Z-0.125000 F400.0(Penetrate)
G01 X183.240812 Y219.166247 Z-0.125000 F800.000000
G01 X191.284556 Y180.474789 Z-0.125000
G01 X183.069465 Y155.311196 Z-0.125000
G01 X190.366868 Y140.961040 Z-0.125000
G01 X188.481674 Y102.861149 Z-0.125000
G01 X196.475691 Y89.495001 Z-0.125000
G01 X189.675811 Y52.064017 Z-0.125000
G00 Z3.000000

(End cutting path id: polyline129571)


(Start cutting path id: polyline129573)
(Change tool to Default tool)

G00 Z3.000000
G00 X191.039943 Y242.101952

G00 Z4.875000 (Fast pre-penetrate)
G01 Z-0.125000 F400.0(Penetrate)
G01 X183.012831 Y219.133078 Z-0.125000 F800.000000
G01 X190.144350 Y179.844570 Z-0.125000
G01 X182.581629 Y156.068611 Z-0.125000
G01 X188.883912 Y140.695666 Z-0.125000
G01 X187.391288 Y102.546031 Z-0.125000
G01 X195.551096 Y89.229626 Z-0.125000
G01 X188.718084 Y52.064017 Z-0.125000
G00 Z3.000000

(End cutting path id: polyline129573)


(Start cutting path id: polyline129575)
(Change tool to Default tool)

G00 Z3.000000
G00 X190.314421 Y242.334137

G00 Z4.875000 (Fast pre-penetrate)
G01 Z-0.125000 F400.0(Penetrate)
G01 X182.784813 Y219.099890 Z-0.125000 F800.000000
G01 X189.004219 Y179.214351 Z-0.125000
G01 X182.093811 Y156.825970 Z-0.125000
G01 X187.400974 Y140.430311 Z-0.125000
G01 X186.300865 Y102.230893 Z-0.125000
G01 X194.626557 Y88.964271 Z-0.125000
G01 X187.760357 Y52.064017 Z-0.125000
G00 Z3.000000

(End cutting path id: polyline129575)


(Start cutting path id: polyline129577)
(Change tool to Default tool)

G00 Z3.000000
G00 X189.588879 Y242.566342

G00 Z4.875000 (Fast pre-penetrate)
G01 Z-0.125000 F400.0(Penetrate)
G01 X182.556850 Y219.066720 Z-0.125000 F800.000000
G01 X187.864013 Y178.584132 Z-0.125000
G01 X181.605994 Y157.583329 Z-0.125000
G01 X185.918074 Y140.164936 Z-0.125000
G01 X185.210441 Y101.915812 Z-0.125000
G01 X193.701962 Y88.698953 Z-0.125000
G01 X186.802592 Y52.064017 Z-0.125000
G00 Z3.000000

(End cutting path id: polyline129577)


(Start cutting path id: polyline129579)
(Change tool to Default tool)

G00 Z3.000000
G00 X188.863301 Y242.798528

G00 Z4.875000 (Fast pre-penetrate)
G01 Z-0.125000 F400.0(Penetrate)
G01 X182.328832 Y219.033532 Z-0.125000 F800.000000
G01 X186.723864 Y177.953913 Z-0.125000
G01 X181.118120 Y158.340745 Z-0.125000
G01 X184.435137 Y139.899562 Z-0.125000
G01 X184.120055 Y101.600674 Z-0.125000
G01 X192.777423 Y88.433579 Z-0.125000
G01 X185.844865 Y52.064017 Z-0.125000
G00 Z3.000000

(End cutting path id: polyline129579)


(Start cutting path id: polyline129581)
(Change tool to Default tool)

G00 Z3.000000
G00 X188.137778 Y243.030714

G00 Z4.875000 (Fast pre-penetrate)
G01 Z-0.125000 F400.0(Penetrate)
G01 X182.100869 Y219.000363 Z-0.125000 F800.000000
G01 X185.583677 Y177.323638 Z-0.125000
G01 X180.630284 Y159.098122 Z-0.125000
G01 X182.952199 Y139.634245 Z-0.125000
G01 X183.029538 Y101.285536 Z-0.125000
G01 X191.852734 Y88.168205 Z-0.125000
G01 X184.887063 Y52.064017 Z-0.125000
G00 Z3.000000

(End cutting path id: polyline129581)


(Start cutting path id: polyline129583)
(Change tool to Default tool)

G00 Z3.000000
G00 X187.412256 Y243.262900

G00 Z4.875000 (Fast pre-penetrate)
G01 Z-0.125000 F400.0(Penetrate)
G01 X181.872851 Y218.967231 Z-0.125000 F800.000000
G01 X184.443528 Y176.693419 Z-0.125000
G01 X180.142466 Y159.855481 Z-0.125000
G01 X181.469299 Y139.368889 Z-0.125000
G01 X181.939190 Y100.970455 Z-0.125000
G01 X190.928289 Y87.902850 Z-0.125000
G01 X183.929392 Y52.064017 Z-0.125000
G00 Z3.000000

(End cutting path id: polyline129583)


(Start cutting path id: polyline129585)
(Change tool to Default tool)

G00 Z3.000000
G00 X186.686677 Y243.495105

G00 Z4.875000 (Fast pre-penetrate)
G01 Z-0.125000 F400.0(Penetrate)
G01 X181.644832 Y218.934062 Z-0.125000 F800.000000
G01 X183.303341 Y176.063200 Z-0.125000
G01 X179.654630 Y160.612897 Z-0.125000
G01 X179.986361 Y139.103515 Z-0.125000
G01 X180.848766 Y100.655317 Z-0.125000
G01 X190.003694 Y87.637476 Z-0.125000
G01 X182.971665 Y52.064017 Z-0.125000
G00 Z3.000000

(End cutting path id: polyline129585)


(Start cutting path id: polyline129559)
(Change tool to Default tool)

G00 Z3.000000
G00 X169.650700 Y243.030658

G00 Z4.875000 (Fast pre-penetrate)
G01 Z-0.125000 F400.0(Penetrate)
G01 X170.463341 Y217.723331 Z-0.125000 F800.000000
G01 X162.568907 Y173.260318 Z-0.125000
G01 X166.206580 Y168.579207 Z-0.125000
G01 X158.273402 Y134.216479 Z-0.125000
G01 X161.988395 Y98.150980 Z-0.125000
G01 X167.560989 Y85.033611 Z-0.125000
G01 X164.774701 Y50.438678 Z-0.125000
G00 Z3.000000

(End cutting path id: polyline129559)


(Start cutting path id: polyline129589)
(Change tool to Default tool)

G00 Z3.000000
G00 X170.840613 Y243.495048

G00 Z4.875000 (Fast pre-penetrate)
G01 Z-0.125000 F400.0(Penetrate)
G01 X171.669848 Y217.839414 Z-0.125000 F800.000000
G01 X163.576398 Y172.580336 Z-0.125000
G01 X167.291447 Y168.739535 Z-0.125000
G01 X158.833096 Y134.459703 Z-0.125000
G01 X162.813463 Y97.968557 Z-0.125000
G01 X169.182104 Y84.950715 Z-0.125000
G01 X165.732410 Y50.670883 Z-0.125000
G00 Z3.000000

(End cutting path id: polyline129589)


(Start cutting path id: polyline129591)
(Change tool to Default tool)

G00 Z3.000000
G00 X172.030526 Y243.959439

G00 Z4.875000 (Fast pre-penetrate)
G01 Z-0.125000 F400.0(Penetrate)
G01 X172.876393 Y217.955536 Z-0.125000 F800.000000
G01 X164.583869 Y171.900354 Z-0.125000
G01 X168.376314 Y168.899845 Z-0.125000
G01 X159.392790 Y134.702964 Z-0.125000
G01 X163.638532 Y97.786135 Z-0.125000
G01 X170.803276 Y84.867764 Z-0.125000
G01 X166.690193 Y50.903069 Z-0.125000
G00 Z3.000000

(End cutting path id: polyline129591)


(Start cutting path id: polyline129593)
(Change tool to Default tool)

G00 Z3.000000
G00 X173.220438 Y244.423811

G00 Z4.875000 (Fast pre-penetrate)
G01 Z-0.125000 F400.0(Penetrate)
G01 X174.082900 Y218.071600 Z-0.125000 F800.000000
G01 X165.591360 Y171.220371 Z-0.125000
G01 X169.461219 Y169.060173 Z-0.125000
G01 X159.952465 Y134.946169 Z-0.125000
G01 X164.463581 Y97.603712 Z-0.125000
G01 X172.424391 Y84.784868 Z-0.125000
G01 X167.647901 Y51.135255 Z-0.125000
G00 Z3.000000

(End cutting path id: polyline129593)


(Start cutting path id: polyline129587)
(Change tool to Default tool)

G00 Z3.000000
G00 X185.961136 Y243.727234

G00 Z4.875000 (Fast pre-penetrate)
G01 Z-0.125000 F400.0(Penetrate)
G01 X181.416851 Y218.900873 Z-0.125000 F800.000000
G01 X182.163191 Y175.432981 Z-0.125000
G01 X179.166812 Y161.370256 Z-0.125000
G01 X178.503424 Y138.838141 Z-0.125000
G01 X179.758399 Y100.340236 Z-0.125000
G01 X189.079155 Y87.372102 Z-0.125000
G01 X182.013938 Y52.064017 Z-0.125000
G00 Z3.000000

(End cutting path id: polyline129587)


(Start cutting path id: polyline129595)
(Change tool to Default tool)

G00 Z3.000000
G00 X185.235614 Y243.959439

G00 Z4.875000 (Fast pre-penetrate)
G01 Z-0.125000 F400.0(Penetrate)
G01 X181.188889 Y218.867704 Z-0.125000 F800.000000
G01 X181.022948 Y174.802762 Z-0.125000
G01 X178.678938 Y162.127615 Z-0.125000
G01 X177.020411 Y138.572786 Z-0.125000
G01 X178.667900 Y100.025099 Z-0.125000
G01 X188.154504 Y87.106727 Z-0.125000
G01 X181.056117 Y52.064017 Z-0.125000
G00 Z3.000000

(End cutting path id: polyline129595)


(Start cutting path id: polyline129597)
(Change tool to Default tool)

G00 Z3.000000
G00 X184.510035 Y244.191625

G00 Z4.875000 (Fast pre-penetrate)
G01 Z-0.125000 F400.0(Penetrate)
G01 X180.960870 Y218.834535 Z-0.125000 F800.000000
G01 X179.882855 Y174.172506 Z-0.125000
G01 X178.191158 Y162.885030 Z-0.125000
G01 X175.537586 Y138.307412 Z-0.125000
G01 X177.577533 Y99.709961 Z-0.125000
G01 X187.230021 Y86.841410 Z-0.125000
G01 X180.098465 Y52.064017 Z-0.125000
G00 Z3.000000

(End cutting path id: polyline129597)


(Start cutting path id: polyline129599)
(Change tool to Default tool)

G00 Z3.000000
G00 X183.784513 Y244.423811

G00 Z4.875000 (Fast pre-penetrate)
G01 Z-0.125000 F400.0(Penetrate)
G01 X180.732889 Y218.801346 Z-0.125000 F800.000000
G01 X178.742668 Y173.542287 Z-0.125000
G01 X177.703341 Y163.642408 Z-0.125000
G01 X174.054630 Y138.042037 Z-0.125000
G01 X176.487110 Y99.394880 Z-0.125000
G01 X186.305426 Y86.576054 Z-0.125000
G01 X179.140738 Y52.064017 Z-0.125000
G00 Z3.000000

(End cutting path id: polyline129599)


(Start cutting path id: polyline129601)
(Change tool to Default tool)

G00 Z3.000000
G00 X183.058972 Y244.655997

G00 Z4.875000 (Fast pre-penetrate)
G01 Z-0.125000 F400.0(Penetrate)
G01 X180.504870 Y218.768214 Z-0.125000 F800.000000
G01 X177.602518 Y172.912068 Z-0.125000
G01 X177.215523 Y164.399767 Z-0.125000
G01 X172.571748 Y137.776720 Z-0.125000
G01 X175.396724 Y99.079742 Z-0.125000
G01 X185.380887 Y86.310680 Z-0.125000
G01 X178.183011 Y52.064017 Z-0.125000
G00 Z3.000000

(End cutting path id: polyline129601)


(Start cutting path id: polyline129603)
(Change tool to Default tool)

G00 Z3.000000
G00 X174.410389 Y244.888201

G00 Z4.875000 (Fast pre-penetrate)
G01 Z-0.125000 F400.0(Penetrate)
G01 X175.289388 Y218.187722 Z-0.125000 F800.000000
G01 X166.598850 Y170.540389 Z-0.125000
G01 X170.546086 Y169.220501 Z-0.125000
G01 X160.512159 Y135.189449 Z-0.125000
G01 X165.288649 Y97.421234 Z-0.125000
G01 X174.045507 Y84.701935 Z-0.125000
G01 X168.605628 Y51.367441 Z-0.125000
G00 Z3.000000

(End cutting path id: polyline129603)


(Start cutting path id: polyline129605)
(Change tool to Default tool)

G00 Z3.000000
G00 X182.333450 Y244.888201

G00 Z4.875000 (Fast pre-penetrate)
G01 Z-0.125000 F400.0(Penetrate)
G01 X176.462313 Y172.281849 Z-0.125000 F800.000000
G01 X176.727687 Y165.157182 Z-0.125000
G01 X171.088792 Y137.511346 Z-0.125000
G01 X174.306300 Y98.764604 Z-0.125000
G01 X184.456292 Y86.045306 Z-0.125000
G01 X177.225247 Y52.064017 Z-0.125000
G00 Z3.000000

(End cutting path id: polyline129605)


(Start cutting path id: polyline129607)
(Change tool to Default tool)

G00 Z3.000000
G00 X181.607871 Y245.120387

G00 Z4.875000 (Fast pre-penetrate)
G01 Z-0.125000 F400.0(Penetrate)
G01 X180.048890 Y218.701876 Z-0.125000 F800.000000
G01 X175.322182 Y171.651574 Z-0.125000
G01 X176.239869 Y165.914541 Z-0.125000
G01 X169.605854 Y137.245990 Z-0.125000
G01 X173.215877 Y98.449523 Z-0.125000
G01 X183.531753 Y85.779951 Z-0.125000
G01 X176.267520 Y52.064017 Z-0.125000
G00 Z3.000000

(End cutting path id: polyline129607)


(Start cutting path id: polyline129609)
(Change tool to Default tool)

G00 Z3.000000
G00 X175.600302 Y245.352573

G00 Z4.875000 (Fast pre-penetrate)
G01 Z-0.125000 F400.0(Penetrate)
G01 X176.495895 Y218.303843 Z-0.125000 F800.000000
G01 X167.606341 Y169.860406 Z-0.125000
G01 X171.630953 Y169.380829 Z-0.125000
G01 X161.071853 Y135.432654 Z-0.125000
G01 X166.113698 Y97.238811 Z-0.125000
G01 X175.666660 Y84.618984 Z-0.125000
G01 X169.563337 Y51.599645 Z-0.125000
G00 Z3.000000

(End cutting path id: polyline129609)


(Start cutting path id: polyline129611)
(Change tool to Default tool)

G00 Z3.000000
G00 X180.882349 Y245.352573

G00 Z4.875000 (Fast pre-penetrate)
G01 Z-0.125000 F400.0(Penetrate)
G01 X179.820927 Y218.668687 Z-0.125000 F800.000000
G01 X174.182032 Y171.021355 Z-0.125000
G01 X175.752033 Y166.671919 Z-0.125000
G01 X168.122973 Y136.980616 Z-0.125000
G01 X172.125435 Y98.134385 Z-0.125000
G01 X182.607158 Y85.514577 Z-0.125000
G01 X175.309755 Y52.064017 Z-0.125000
G00 Z3.000000

(End cutting path id: polyline129611)


(Start cutting path id: polyline129613)
(Change tool to Default tool)

G00 Z3.000000
G00 X180.156807 Y245.584759

G00 Z4.875000 (Fast pre-penetrate)
G01 Z-0.125000 F400.0(Penetrate)
G01 X179.592909 Y218.635518 Z-0.125000 F800.000000
G01 X173.041845 Y170.391136 Z-0.125000
G01 X175.264215 Y167.429334 Z-0.125000
G01 X166.640017 Y136.715242 Z-0.125000
G01 X171.035068 Y97.819304 Z-0.125000
G01 X181.682619 Y85.249203 Z-0.125000
G01 X174.352047 Y52.064017 Z-0.125000
G00 Z3.000000

(End cutting path id: polyline129613)


(Start cutting path id: polyline129615)
(Change tool to Default tool)

G00 Z3.000000
G00 X176.790215 Y245.816964

G00 Z4.875000 (Fast pre-penetrate)
G01 Z-0.125000 F400.0(Penetrate)
G01 X177.702402 Y218.419907 Z-0.125000 F800.000000
G01 X168.613869 Y169.180424 Z-0.125000
G01 X172.715877 Y169.541139 Z-0.125000
G01 X161.631547 Y135.675934 Z-0.125000
G01 X166.938767 Y97.056389 Z-0.125000
G01 X177.287775 Y84.536088 Z-0.125000
G01 X170.521120 Y51.831831 Z-0.125000
G00 Z3.000000

(End cutting path id: polyline129615)


(Start cutting path id: polyline129617)
(Change tool to Default tool)

G00 Z3.000000
G00 X179.431285 Y245.816964

G00 Z4.875000 (Fast pre-penetrate)
G01 Z-0.125000 F400.0(Penetrate)
G01 X179.365021 Y218.602330 Z-0.125000 F800.000000
G01 X171.901790 Y169.760917 Z-0.125000
G01 X174.776491 Y168.186693 Z-0.125000
G01 X165.157173 Y136.449924 Z-0.125000
G01 X169.944719 Y97.504167 Z-0.125000
G01 X180.758174 Y84.983885 Z-0.125000
G01 X173.394414 Y52.064017 Z-0.125000
G00 Z3.000000

(End cutting path id: polyline129617)


(Start cutting path id: polyline129469)
(Change tool to Default tool)

G00 Z3.000000
G00 X178.705706 Y246.049150

G00 Z4.875000 (Fast pre-penetrate)
G01 Z-0.125000 F400.0(Penetrate)
G01 X179.136909 Y218.569160 Z-0.125000 F800.000000
G01 X170.761490 Y169.130660 Z-0.125000
G01 X174.288561 Y168.944071 Z-0.125000
G01 X163.674179 Y136.184588 Z-0.125000
G01 X168.854258 Y97.189066 Z-0.125000
G01 X179.833485 Y84.718548 Z-0.125000
G01 X172.436593 Y52.064036 Z-0.125000
G00 Z3.000000

(End cutting path id: polyline129469)


(Start cutting path id: polyline129467)
(Change tool to Default tool)

G00 Z3.000000
G00 X177.980184 Y246.281336

G00 Z4.875000 (Fast pre-penetrate)
G01 Z-0.125000 F400.0(Penetrate)
G01 X178.908947 Y218.536029 Z-0.125000 F800.000000
G01 X169.621360 Y168.500441 Z-0.125000
G01 X173.800744 Y169.701467 Z-0.125000
G01 X162.191241 Y135.919195 Z-0.125000
G01 X167.763816 Y96.873948 Z-0.125000
G01 X178.908947 Y84.453155 Z-0.125000
G01 X171.478828 Y52.064017 Z-0.125000
G00 Z3.000000

(End cutting path id: polyline129467)


(Start cutting path id: polyline129619)
(Change tool to Default tool)

G00 Z3.000000
G00 X127.848918 Y242.643719

G00 Z4.875000 (Fast pre-penetrate)
G01 Z-0.125000 F400.0(Penetrate)
G01 X120.286160 Y211.271757 Z-0.125000 F800.000000
G01 X123.990134 Y190.458952 Z-0.125000
G01 X132.448486 Y159.374515 Z-0.125000
G01 X115.476498 Y125.094721 Z-0.125000
G01 X131.132784 Y115.847173 Z-0.125000
G01 X119.987654 Y78.869543 Z-0.125000
G01 X123.592101 Y46.414066 Z-0.125000
G00 Z3.000000

(End cutting path id: polyline129619)


(Start cutting path id: polyline129621)
(Change tool to Default tool)

G00 Z3.000000
G00 X127.084708 Y243.069365

G00 Z4.875000 (Fast pre-penetrate)
G01 Z-0.125000 F400.0(Penetrate)
G01 X119.157085 Y211.089335 Z-0.125000 F800.000000
G01 X123.198254 Y190.591649 Z-0.125000
G01 X131.949649 Y159.109141 Z-0.125000
G01 X114.065471 Y124.912298 Z-0.125000
G01 X130.517752 Y116.477430 Z-0.125000
G01 X119.372640 Y78.510198 Z-0.125000
G01 X122.634393 Y46.452792 Z-0.125000
G00 Z3.000000

(End cutting path id: polyline129621)


(Start cutting path id: polyline129623)
(Change tool to Default tool)

G00 Z3.000000
G00 X126.320441 Y243.495048

G00 Z4.875000 (Fast pre-penetrate)
G01 Z-0.125000 F400.0(Penetrate)
G01 X118.027974 Y210.906912 Z-0.125000 F800.000000
G01 X122.406374 Y190.724308 Z-0.125000
G01 X131.450738 Y158.843824 Z-0.125000
G01 X112.654397 Y124.729819 Z-0.125000
G01 X129.902794 Y117.107649 Z-0.125000
G01 X118.757663 Y78.150872 Z-0.125000
G01 X121.676666 Y46.491480 Z-0.125000
G00 Z3.000000

(End cutting path id: polyline129623)


(Start cutting path id: polyline129625)
(Change tool to Default tool)

G00 Z3.000000
G00 X125.556211 Y243.920732

G00 Z4.875000 (Fast pre-penetrate)
G01 Z-0.125000 F400.0(Penetrate)
G01 X116.898847 Y210.724471 Z-0.125000 F800.000000
G01 X121.614494 Y190.857023 Z-0.125000
G01 X130.951845 Y158.578449 Z-0.125000
G01 X111.243369 Y124.547397 Z-0.125000
G01 X129.287818 Y117.737868 Z-0.125000
G01 X118.142687 Y77.791527 Z-0.125000
G01 X120.718901 Y46.530187 Z-0.125000
G00 Z3.000000

(End cutting path id: polyline129625)


(Start cutting path id: polyline129627)
(Change tool to Default tool)

G00 Z3.000000
G00 X124.791944 Y244.346434

G00 Z4.875000 (Fast pre-penetrate)
G01 Z-0.125000 F400.0(Penetrate)
G01 X115.769730 Y210.542049 Z-0.125000 F800.000000
G01 X120.822596 Y190.989682 Z-0.125000
G01 X130.452990 Y158.313094 Z-0.125000
G01 X109.832295 Y124.364975 Z-0.125000
G01 X128.672841 Y118.368087 Z-0.125000
G01 X117.527729 Y77.432145 Z-0.125000
G01 X119.761174 Y46.568875 Z-0.125000
G00 Z3.000000

(End cutting path id: polyline129627)


(Start cutting path id: polyline129461)
(Change tool to Default tool)

G00 Z3.000000
G00 X124.027734 Y244.772080

G00 Z4.875000 (Fast pre-penetrate)
G01 Z-0.125000 F400.0(Penetrate)
G01 X114.640610 Y210.359589 Z-0.125000 F800.000000
G01 X120.030716 Y191.122341 Z-0.125000
G01 X129.954097 Y158.047720 Z-0.125000
G01 X108.421219 Y124.182552 Z-0.125000
G01 X128.057865 Y118.998362 Z-0.125000
G01 X116.912755 Y77.072800 Z-0.125000
G01 X118.803466 Y46.607564 Z-0.125000
G00 Z3.000000

(End cutting path id: polyline129461)


(Start cutting path id: polyline129831)
(Change tool to Default tool)

G00 Z3.000000
G00 X118.658587 Y245.197764

G00 Z4.875000 (Fast pre-penetrate)
G01 Z-0.125000 F400.0(Penetrate)
G01 X110.565074 Y208.850371 Z-0.125000 F800.000000
G01 X113.749395 Y191.033945 Z-0.125000
G01 X123.855185 Y157.892948 Z-0.125000
G01 X105.280009 Y125.769203 Z-0.125000
G01 X122.506296 Y116.753823 Z-0.125000
G01 X112.245690 Y75.276114 Z-0.125000
G01 X113.240808 Y48.194214 Z-0.125000
G00 Z3.000000

(End cutting path id: polyline129831)


(Start cutting path id: polyline129823)
(Change tool to Default tool)

G00 Z3.000000
G00 X112.902431 Y245.197764

G00 Z4.875000 (Fast pre-penetrate)
G01 Z-0.125000 F400.0(Penetrate)
G01 X106.882103 Y207.191900 Z-0.125000 F800.000000
G01 X106.887547 Y190.757496 Z-0.125000
G01 X116.855122 Y158.031126 Z-0.125000
G01 X103.117211 Y127.980497 Z-0.125000
G01 X116.335461 Y113.160413 Z-0.125000
G01 X107.180529 Y73.479391 Z-0.125000
G01 X107.484587 Y50.129116 Z-0.125000
G00 Z3.000000

(End cutting path id: polyline129823)


(Start cutting path id: polyline129447)
(Change tool to Default tool)

G00 Z3.000000
G00 X43.897302 Y233.278699

G00 Z4.875000 (Fast pre-penetrate)
G01 Z-0.125000 F400.0(Penetrate)
G01 X36.467239 Y224.108566 Z-0.125000 F800.000000
G01 X29.965940 Y171.751101 Z-0.125000
G01 X42.194584 Y155.924877 Z-0.125000
G01 X35.228903 Y128.334323 Z-0.125000
G01 X32.752184 Y121.950478 Z-0.125000
G01 X27.179649 Y88.168205 Z-0.125000
G01 X37.396004 Y58.565317 Z-0.125000
G00 Z3.000000

(End cutting path id: polyline129447)


(Start cutting path id: polyline129635)
(Change tool to Default tool)

G00 Z3.000000
G00 X42.707390 Y233.510885

G00 Z4.875000 (Fast pre-penetrate)
G01 Z-0.125000 F400.0(Penetrate)
G01 X35.310456 Y223.710533 Z-0.125000 F800.000000
G01 X29.389659 Y172.149134 Z-0.125000
G01 X41.452468 Y156.046461 Z-0.125000
G01 X34.348564 Y128.677074 Z-0.125000
G01 X31.844230 Y121.137799 Z-0.125000
G01 X26.818971 Y87.836492 Z-0.125000
G01 X36.438234 Y58.333131 Z-0.125000
G00 Z3.000000

(End cutting path id: polyline129635)


(Start cutting path id: polyline129637)
(Change tool to Default tool)

G00 Z3.000000
G00 X41.517479 Y233.743071

G00 Z4.875000 (Fast pre-penetrate)
G01 Z-0.125000 F400.0(Penetrate)
G01 X34.153722 Y223.312518 Z-0.125000 F800.000000
G01 X28.813330 Y172.547167 Z-0.125000
G01 X40.710349 Y156.168082 Z-0.125000
G01 X33.468225 Y129.019825 Z-0.125000
G01 X30.936225 Y120.325101 Z-0.125000
G01 X26.458292 Y87.504817 Z-0.125000
G01 X35.480514 Y58.100945 Z-0.125000
G00 Z3.000000

(End cutting path id: polyline129637)


(Start cutting path id: polyline129449)
(Change tool to Default tool)

G00 Z3.000000
G00 X44.738951 Y233.627006

G00 Z4.875000 (Fast pre-penetrate)
G01 Z-0.125000 F400.0(Penetrate)
G01 X37.391782 Y223.660769 Z-0.125000 F800.000000
G01 X31.454347 Y172.530573 Z-0.125000
G01 X43.152304 Y156.345004 Z-0.125000
G01 X35.965508 Y128.478057 Z-0.125000
G01 X33.975270 Y121.486106 Z-0.125000
G01 X28.833941 Y87.571118 Z-0.125000
G01 X38.237653 Y58.217066 Z-0.125000
G00 Z3.000000

(End cutting path id: polyline129449)


(Start cutting path id: polyline129639)
(Change tool to Default tool)

G00 Z3.000000
G00 X40.327570 Y233.975275

G00 Z4.875000 (Fast pre-penetrate)
G01 Z-0.125000 F400.0(Penetrate)
G01 X32.996990 Y222.914485 Z-0.125000 F800.000000
G01 X28.237098 Y172.945237 Z-0.125000
G01 X39.968182 Y156.289722 Z-0.125000
G01 X32.587886 Y129.362575 Z-0.125000
G01 X30.028273 Y119.512460 Z-0.125000
G01 X26.097614 Y87.173085 Z-0.125000
G01 X34.522795 Y57.868740 Z-0.125000
G00 Z3.000000

(End cutting path id: polyline129639)


(Start cutting path id: polyline129641)
(Change tool to Default tool)

G00 Z3.000000
G00 X39.137610 Y234.207499

G00 Z4.875000 (Fast pre-penetrate)
G01 Z-0.125000 F400.0(Penetrate)
G01 X31.840207 Y222.516396 Z-0.125000 F800.000000
G01 X27.660817 Y173.343270 Z-0.125000
G01 X39.226066 Y156.411362 Z-0.125000
G01 X31.707546 Y129.705307 Z-0.125000
G01 X29.120268 Y118.699818 Z-0.125000
G01 X25.736935 Y86.841410 Z-0.125000
G01 X33.565075 Y57.636554 Z-0.125000
G00 Z3.000000

(End cutting path id: polyline129641)


(Start cutting path id: polyline129633)
(Change tool to Default tool)

G00 Z3.000000
G00 X45.580600 Y233.975275

G00 Z4.875000 (Fast pre-penetrate)
G01 Z-0.125000 F400.0(Penetrate)
G01 X38.316373 Y223.212973 Z-0.125000 F800.000000
G01 X32.942804 Y173.310082 Z-0.125000
G01 X44.110072 Y156.765169 Z-0.125000
G01 X36.702063 Y128.621792 Z-0.125000
G01 X35.198409 Y121.021715 Z-0.125000
G01 X30.488233 Y86.974069 Z-0.125000
G01 X39.079251 Y57.868740 Z-0.125000
G00 Z3.000000

(End cutting path id: polyline129633)


(Start cutting path id: polyline129643)
(Change tool to Default tool)

G00 Z3.000000
G00 X37.947699 Y234.439647

G00 Z4.875000 (Fast pre-penetrate)
G01 Z-0.125000 F400.0(Penetrate)
G01 X30.683473 Y222.118382 Z-0.125000 F800.000000
G01 X27.084537 Y173.741303 Z-0.125000
G01 X38.483948 Y156.532946 Z-0.125000
G01 X30.827207 Y130.048058 Z-0.125000
G01 X28.212316 Y117.887121 Z-0.125000
G01 X25.376257 Y86.509697 Z-0.125000
G01 X32.607307 Y57.404368 Z-0.125000
G00 Z3.000000

(End cutting path id: polyline129643)


(Start cutting path id: polyline129645)
(Change tool to Default tool)

G00 Z3.000000
G00 X36.757788 Y234.671833

G00 Z4.875000 (Fast pre-penetrate)
G01 Z-0.125000 F400.0(Penetrate)
G01 X29.526690 Y221.720349 Z-0.125000 F800.000000
G01 X26.508256 Y174.139317 Z-0.125000
G01 X37.741782 Y156.654567 Z-0.125000
G01 X29.946868 Y130.390865 Z-0.125000
G01 X27.304311 Y117.074479 Z-0.125000
G01 X25.015580 Y86.177965 Z-0.125000
G01 X31.649587 Y57.172183 Z-0.125000
G00 Z3.000000

(End cutting path id: polyline129645)


(Start cutting path id: polyline129647)
(Change tool to Default tool)

G00 Z3.000000
G00 X46.422249 Y234.323582

G00 Z4.875000 (Fast pre-penetrate)
G01 Z-0.125000 F400.0(Penetrate)
G01 X39.240916 Y222.765176 Z-0.125000 F800.000000
G01 X34.431259 Y174.089610 Z-0.125000
G01 X45.067793 Y157.185315 Z-0.125000
G01 X37.438666 Y128.765526 Z-0.125000
G01 X32.142526 Y86.377038 Z-0.125000
G01 X39.920900 Y57.520490 Z-0.125000
G00 Z3.000000

(End cutting path id: polyline129647)


(Start cutting path id: polyline129649)
(Change tool to Default tool)

G00 Z3.000000
G00 X47.263847 Y234.671833

G00 Z4.875000 (Fast pre-penetrate)
G01 Z-0.125000 F400.0(Penetrate)
G01 X40.165507 Y222.317398 Z-0.125000 F800.000000
G01 X35.919715 Y174.869082 Z-0.125000
G01 X46.025513 Y157.605480 Z-0.125000
G01 X38.175271 Y128.909260 Z-0.125000
G01 X37.644585 Y120.092953 Z-0.125000
G01 X33.796869 Y85.779951 Z-0.125000
G01 X40.762549 Y57.172220 Z-0.125000
G00 Z3.000000

(End cutting path id: polyline129649)


(Start cutting path id: polyline129651)
(Change tool to Default tool)

G00 Z3.000000
G00 X35.567877 Y234.904038

G00 Z4.875000 (Fast pre-penetrate)
G01 Z-0.125000 F400.0(Penetrate)
G01 X28.369956 Y221.322278 Z-0.125000 F800.000000
G01 X25.931976 Y174.537407 Z-0.125000
G01 X36.999664 Y156.776207 Z-0.125000
G01 X29.066531 Y130.733615 Z-0.125000
G01 X26.396359 Y116.261838 Z-0.125000
G01 X24.654900 Y85.846290 Z-0.125000
G01 X30.691866 Y56.939978 Z-0.125000
G00 Z3.000000

(End cutting path id: polyline129651)


(Start cutting path id: polyline129653)
(Change tool to Default tool)

G00 Z3.000000
G00 X34.377917 Y235.136224

G00 Z4.875000 (Fast pre-penetrate)
G01 Z-0.125000 F400.0(Penetrate)
G01 X27.213224 Y220.924245 Z-0.125000 F800.000000
G01 X25.355695 Y174.935421 Z-0.125000
G01 X36.257548 Y156.897847 Z-0.125000
G01 X28.186191 Y131.076366 Z-0.125000
G01 X25.488354 Y115.449140 Z-0.125000
G01 X24.294223 Y85.514577 Z-0.125000
G01 X29.734146 Y56.707792 Z-0.125000
G00 Z3.000000

(End cutting path id: polyline129653)


(Start cutting path id: polyline129655)
(Change tool to Default tool)

G00 Z3.000000
G00 X33.188006 Y235.368410

G00 Z4.875000 (Fast pre-penetrate)
G01 Z-0.125000 F400.0(Penetrate)
G01 X26.056441 Y220.526212 Z-0.125000 F800.000000
G01 X24.779414 Y175.333454 Z-0.125000
G01 X35.515429 Y157.019468 Z-0.125000
G01 X27.305852 Y131.419117 Z-0.125000
G01 X24.580402 Y114.636499 Z-0.125000
G01 X23.933543 Y85.182901 Z-0.125000
G01 X28.776378 Y56.475606 Z-0.125000
G00 Z3.000000

(End cutting path id: polyline129655)


(Start cutting path id: polyline129657)
(Change tool to Default tool)

G00 Z3.000000
G00 X31.998097 Y235.600596

G00 Z4.875000 (Fast pre-penetrate)
G01 Z-0.125000 F400.0(Penetrate)
G01 X24.899706 Y220.128198 Z-0.125000 F800.000000
G01 X24.203134 Y175.731487 Z-0.125000
G01 X34.773262 Y157.141108 Z-0.125000
G01 X26.425513 Y131.761867 Z-0.125000
G01 X23.672397 Y113.823801 Z-0.125000
G01 X23.572870 Y84.851188 Z-0.125000
G01 X27.818662 Y56.243420 Z-0.125000
G00 Z3.000000

(End cutting path id: polyline129657)


(Start cutting path id: polyline129659)
(Change tool to Default tool)

G00 Z3.000000
G00 X30.808186 Y235.832800

G00 Z4.875000 (Fast pre-penetrate)
G01 Z-0.125000 F400.0(Penetrate)
G01 X23.742924 Y219.730165 Z-0.125000 F800.000000
G01 X23.626859 Y176.129558 Z-0.125000
G01 X34.031151 Y157.262729 Z-0.125000
G01 X25.545179 Y132.104655 Z-0.125000
G01 X22.764450 Y113.011160 Z-0.125000
G01 X23.212192 Y84.519513 Z-0.125000
G01 X26.860944 Y56.011215 Z-0.125000
G00 Z3.000000

(End cutting path id: polyline129659)


(Start cutting path id: polyline129661)
(Change tool to Default tool)

G00 Z3.000000
G00 X29.618226 Y236.064986

G00 Z4.875000 (Fast pre-penetrate)
G01 Z-0.125000 F400.0(Penetrate)
G01 X22.586191 Y219.332095 Z-0.125000 F800.000000
G01 X23.050572 Y176.527591 Z-0.125000
G01 X33.289029 Y157.384313 Z-0.125000
G01 X24.664834 Y132.447406 Z-0.125000
G01 X21.856440 Y112.198519 Z-0.125000
G01 X22.851509 Y84.187781 Z-0.125000
G01 X25.903169 Y55.779029 Z-0.125000
G00 Z3.000000

(End cutting path id: polyline129661)


(Start cutting path id: polyline129663)
(Change tool to Default tool)

G00 Z3.000000
G00 X28.428315 Y236.297172

G00 Z4.875000 (Fast pre-penetrate)
G01 Z-0.125000 F400.0(Penetrate)
G01 X21.429457 Y218.934062 Z-0.125000 F800.000000
G01 X22.474292 Y176.925624 Z-0.125000
G01 X32.546862 Y157.505953 Z-0.125000
G01 X23.784495 Y132.790157 Z-0.125000
G01 X20.948437 Y111.385821 Z-0.125000
G01 X22.490832 Y83.856106 Z-0.125000
G01 X24.945449 Y55.546844 Z-0.125000
G00 Z3.000000

(End cutting path id: polyline129663)


(Start cutting path id: polyline129665)
(Change tool to Default tool)

G00 Z3.000000
G00 X48.105496 Y235.020159

G00 Z4.875000 (Fast pre-penetrate)
G01 Z-0.125000 F400.0(Penetrate)
G01 X41.090050 Y221.869602 Z-0.125000 F800.000000
G01 X37.408172 Y175.648592 Z-0.125000
G01 X46.983281 Y158.025607 Z-0.125000
G01 X38.911874 Y129.052994 Z-0.125000
G01 X38.867667 Y119.628581 Z-0.125000
G01 X35.451155 Y85.182901 Z-0.125000
G01 X41.604193 Y56.823913 Z-0.125000
G00 Z3.000000

(End cutting path id: polyline129665)


(Start cutting path id: polyline129667)
(Change tool to Default tool)

G00 Z3.000000
G00 X48.947145 Y235.368410

G00 Z4.875000 (Fast pre-penetrate)
G01 Z-0.125000 F400.0(Penetrate)
G01 X42.014641 Y221.421805 Z-0.125000 F800.000000
G01 X38.896628 Y176.428064 Z-0.125000
G01 X47.941001 Y158.445753 Z-0.125000
G01 X39.648479 Y129.196728 Z-0.125000
G01 X40.090759 Y119.164190 Z-0.125000
G01 X37.105453 Y84.585814 Z-0.125000
G01 X42.445848 Y56.475644 Z-0.125000
G00 Z3.000000

(End cutting path id: polyline129667)


(Start cutting path id: polyline129669)
(Change tool to Default tool)

G00 Z3.000000
G00 X49.788794 Y235.716679

G00 Z4.875000 (Fast pre-penetrate)
G01 Z-0.125000 F400.0(Penetrate)
G01 X42.939184 Y220.974009 Z-0.125000 F800.000000
G01 X40.385084 Y177.207573 Z-0.125000
G01 X48.898720 Y158.865918 Z-0.125000
G01 X40.385084 Y129.340462 Z-0.125000
G01 X41.313847 Y118.699818 Z-0.125000
G01 X38.759747 Y83.988765 Z-0.125000
G01 X43.287497 Y56.127337 Z-0.125000
G00 Z3.000000

(End cutting path id: polyline129669)


(Start cutting path id: polyline129671)
(Change tool to Default tool)

G00 Z3.000000
G00 X50.630444 Y236.064930

G00 Z4.875000 (Fast pre-penetrate)
G01 Z-0.125000 F400.0(Penetrate)
G01 X43.863777 Y220.526212 Z-0.125000 F800.000000
G01 X41.873539 Y177.987082 Z-0.125000
G01 X49.856440 Y159.286045 Z-0.125000
G01 X41.121688 Y129.484196 Z-0.125000
G01 X42.536935 Y118.235428 Z-0.125000
G01 X40.414088 Y83.391734 Z-0.125000
G01 X44.129095 Y55.779086 Z-0.125000
G00 Z3.000000

(End cutting path id: polyline129671)


(Start cutting path id: polyline129673)
(Change tool to Default tool)

G00 Z3.000000
G00 X51.472042 Y236.413256

G00 Z4.875000 (Fast pre-penetrate)
G01 Z-0.125000 F400.0(Penetrate)
G01 X44.788318 Y220.078416 Z-0.125000 F800.000000
G01 X43.361996 Y178.766554 Z-0.125000
G01 X50.814210 Y159.706228 Z-0.125000
G01 X41.858293 Y129.627931 Z-0.125000
G01 X43.760074 Y117.771056 Z-0.125000
G01 X42.068381 Y82.794647 Z-0.125000
G01 X44.970744 Y55.430760 Z-0.125000
G00 Z3.000000

(End cutting path id: polyline129673)


(Start cutting path id: polyline129675)
(Change tool to Default tool)

G00 Z3.000000
G00 X52.313691 Y236.761506

G00 Z4.875000 (Fast pre-penetrate)
G01 Z-0.125000 F400.0(Penetrate)
G01 X45.712911 Y219.630638 Z-0.125000 F800.000000
G01 X44.850452 Y179.546026 Z-0.125000
G01 X51.771930 Y160.126412 Z-0.125000
G01 X42.594896 Y129.771665 Z-0.125000
G01 X44.983162 Y117.306665 Z-0.125000
G01 X43.722673 Y82.197597 Z-0.125000
G01 X45.812393 Y55.082509 Z-0.125000
G00 Z3.000000

(End cutting path id: polyline129675)


(Start cutting path id: polyline129677)
(Change tool to Default tool)

G00 Z3.000000
G00 X53.155340 Y237.109813

G00 Z4.875000 (Fast pre-penetrate)
G01 Z-0.125000 F400.0(Penetrate)
G01 X46.637454 Y219.182842 Z-0.125000 F800.000000
G01 X46.338909 Y180.325536 Z-0.125000
G01 X52.729649 Y160.546539 Z-0.125000
G01 X43.331501 Y129.915399 Z-0.125000
G01 X46.206248 Y116.842275 Z-0.125000
G01 X45.377016 Y81.600548 Z-0.125000
G01 X46.654042 Y54.734202 Z-0.125000
G00 Z3.000000

(End cutting path id: polyline129677)


(Start cutting path id: polyline129679)
(Change tool to Default tool)

G00 Z3.000000
G00 X27.238404 Y236.529377

G00 Z4.875000 (Fast pre-penetrate)
G01 Z-0.125000 F400.0(Penetrate)
G01 X20.272674 Y218.536029 Z-0.125000 F800.000000
G01 X21.898011 Y177.323638 Z-0.125000
G01 X31.804744 Y157.627593 Z-0.125000
G01 X22.904156 Y133.132907 Z-0.125000
G01 X20.040483 Y110.573180 Z-0.125000
G01 X22.130152 Y83.524393 Z-0.125000
G01 X23.987730 Y55.314639 Z-0.125000
G00 Z3.000000

(End cutting path id: polyline129679)


(Start cutting path id: polyline129681)
(Change tool to Default tool)

G00 Z3.000000
G00 X26.048444 Y236.761563

G00 Z4.875000 (Fast pre-penetrate)
G01 Z-0.125000 F400.0(Penetrate)
G01 X19.115940 Y218.137958 Z-0.125000 F800.000000
G01 X21.321731 Y177.721727 Z-0.125000
G01 X31.062627 Y157.749214 Z-0.125000
G01 X22.023817 Y133.475658 Z-0.125000
G01 X19.132480 Y109.760482 Z-0.125000
G01 X21.769475 Y83.192717 Z-0.125000
G01 X23.029961 Y55.082453 Z-0.125000
G00 Z3.000000

(End cutting path id: polyline129681)


(Start cutting path id: polyline129683)
(Change tool to Default tool)

G00 Z3.000000
G00 X24.858533 Y236.993749

G00 Z4.875000 (Fast pre-penetrate)
G01 Z-0.125000 F400.0(Penetrate)
G01 X17.959157 Y217.739925 Z-0.125000 F800.000000
G01 X20.745450 Y178.119741 Z-0.125000
G01 X30.320460 Y157.870798 Z-0.125000
G01 X21.143477 Y133.818409 Z-0.125000
G01 X18.224526 Y108.947841 Z-0.125000
G01 X21.408795 Y82.860986 Z-0.125000
G01 X22.072242 Y54.850267 Z-0.125000
G00 Z3.000000

(End cutting path id: polyline129683)


(Start cutting path id: polyline129685)
(Change tool to Default tool)

G00 Z3.000000
G00 X23.668624 Y237.225935

G00 Z4.875000 (Fast pre-penetrate)
G01 Z-0.125000 F400.0(Penetrate)
G01 X16.802425 Y217.341892 Z-0.125000 F800.000000
G01 X20.169169 Y178.517774 Z-0.125000
G01 X29.578344 Y157.992438 Z-0.125000
G01 X20.263138 Y134.161197 Z-0.125000
G01 X17.316523 Y108.135143 Z-0.125000
G01 X21.048166 Y82.529329 Z-0.125000
G01 X21.114524 Y54.618081 Z-0.125000
G00 Z3.000000

(End cutting path id: polyline129685)


(Start cutting path id: polyline129687)
(Change tool to Default tool)

G00 Z3.000000
G00 X22.478713 Y237.458139

G00 Z4.875000 (Fast pre-penetrate)
G01 Z-0.125000 F400.0(Penetrate)
G01 X15.645642 Y216.943878 Z-0.125000 F800.000000
G01 X19.592889 Y178.915807 Z-0.125000
G01 X28.836226 Y158.114078 Z-0.125000
G01 X19.382799 Y134.503947 Z-0.125000
G01 X16.408568 Y107.322502 Z-0.125000
G01 X20.687489 Y82.197597 Z-0.125000
G01 X20.156752 Y54.385876 Z-0.125000
G00 Z3.000000

(End cutting path id: polyline129687)


(Start cutting path id: polyline129689)
(Change tool to Default tool)

G00 Z3.000000
G00 X21.288753 Y237.690325

G00 Z4.875000 (Fast pre-penetrate)
G01 Z-0.125000 F400.0(Penetrate)
G01 X14.488908 Y216.545788 Z-0.125000 F800.000000
G01 X19.016608 Y179.313822 Z-0.125000
G01 X28.094109 Y158.235699 Z-0.125000
G01 X18.502460 Y134.846698 Z-0.125000
G01 X15.500565 Y106.509804 Z-0.125000
G01 X20.326811 Y81.865922 Z-0.125000
G01 X19.199032 Y54.153747 Z-0.125000
G00 Z3.000000

(End cutting path id: polyline129689)


(Start cutting path id: polyline129691)
(Change tool to Default tool)

G00 Z3.000000
G00 X20.098842 Y237.922511

G00 Z4.875000 (Fast pre-penetrate)
G01 Z-0.125000 F400.0(Penetrate)
G01 X13.332125 Y216.147774 Z-0.125000 F800.000000
G01 X18.440328 Y179.711911 Z-0.125000
G01 X27.351991 Y158.357339 Z-0.125000
G01 X17.622120 Y135.189449 Z-0.125000
G01 X14.592611 Y105.697163 Z-0.125000
G01 X19.966132 Y81.534209 Z-0.125000
G01 X18.241313 Y53.921542 Z-0.125000
G00 Z3.000000

(End cutting path id: polyline129691)


(Start cutting path id: polyline129693)
(Change tool to Default tool)

G00 Z3.000000
G00 X18.908931 Y238.154697

G00 Z4.875000 (Fast pre-penetrate)
G01 Z-0.125000 F400.0(Penetrate)
G01 X12.175392 Y215.749741 Z-0.125000 F800.000000
G01 X17.864047 Y180.109944 Z-0.125000
G01 X26.609826 Y158.478922 Z-0.125000
G01 X16.741781 Y135.532199 Z-0.125000
G01 X13.684608 Y104.884521 Z-0.125000
G01 X19.605455 Y81.202477 Z-0.125000
G01 X17.283593 Y53.689356 Z-0.125000
G00 Z3.000000

(End cutting path id: polyline129693)


(Start cutting path id: polyline129695)
(Change tool to Default tool)

G00 Z3.000000
G00 X17.718971 Y238.386902

G00 Z4.875000 (Fast pre-penetrate)
G01 Z-0.125000 F400.0(Penetrate)
G01 X11.018658 Y215.351708 Z-0.125000 F800.000000
G01 X17.287766 Y180.508014 Z-0.125000
G01 X25.867707 Y158.600562 Z-0.125000
G01 X15.861442 Y135.874950 Z-0.125000
G01 X12.776654 Y104.071824 Z-0.125000
G01 X19.244775 Y80.870802 Z-0.125000
G01 X16.325825 Y53.457170 Z-0.125000
G00 Z3.000000

(End cutting path id: polyline129695)


(Start cutting path id: polyline129697)
(Change tool to Default tool)

G00 Z3.000000
G00 X16.529060 Y238.619088

G00 Z4.875000 (Fast pre-penetrate)
G01 Z-0.125000 F400.0(Penetrate)
G01 X9.861875 Y214.953638 Z-0.125000 F800.000000
G01 X16.711486 Y180.906047 Z-0.125000
G01 X25.125591 Y158.722184 Z-0.125000
G01 X14.981103 Y136.217682 Z-0.125000
G01 X11.868651 Y103.259182 Z-0.125000
G01 X18.884098 Y80.539089 Z-0.125000
G01 X15.368106 Y53.224984 Z-0.125000
G00 Z3.000000

(End cutting path id: polyline129697)


(Start cutting path id: polyline129699)
(Change tool to Default tool)

G00 Z3.000000
G00 X15.339149 Y238.851274

G00 Z4.875000 (Fast pre-penetrate)
G01 Z-0.125000 F400.0(Penetrate)
G01 X8.705141 Y214.555605 Z-0.125000 F800.000000
G01 X16.135205 Y181.304062 Z-0.125000
G01 X24.383472 Y158.843824 Z-0.125000
G01 X14.100764 Y136.560489 Z-0.125000
G01 X10.960697 Y102.446485 Z-0.125000
G01 X18.523420 Y80.207414 Z-0.125000
G01 X14.410386 Y52.992780 Z-0.125000
G00 Z3.000000

(End cutting path id: polyline129699)


(Start cutting path id: polyline129701)
(Change tool to Default tool)

G00 Z3.000000
G00 X14.149189 Y239.083478

G00 Z4.875000 (Fast pre-penetrate)
G01 Z-0.125000 F400.0(Penetrate)
G01 X7.548358 Y214.157572 Z-0.125000 F800.000000
G01 X15.558925 Y181.702095 Z-0.125000
G01 X23.641356 Y158.965407 Z-0.125000
G01 X13.220424 Y136.903240 Z-0.125000
G01 X10.052694 Y101.633843 Z-0.125000
G01 X18.162741 Y79.875682 Z-0.125000
G01 X13.452616 Y52.760594 Z-0.125000
G00 Z3.000000

(End cutting path id: polyline129701)


(Start cutting path id: polyline129703)
(Change tool to Default tool)

G00 Z3.000000
G00 X12.959278 Y239.315664

G00 Z4.875000 (Fast pre-penetrate)
G01 Z-0.125000 F400.0(Penetrate)
G01 X6.391626 Y213.759501 Z-0.125000 F800.000000
G01 X14.982644 Y182.100128 Z-0.125000
G01 X22.899189 Y159.087047 Z-0.125000
G01 X12.340085 Y137.245990 Z-0.125000
G01 X9.144740 Y100.821146 Z-0.125000
G01 X17.802063 Y79.544006 Z-0.125000
G01 X12.494896 Y52.528408 Z-0.125000
G00 Z3.000000

(End cutting path id: polyline129703)


(Start cutting path id: polyline129445)
(Change tool to Default tool)

G00 Z3.000000
G00 X11.769368 Y239.547850

G00 Z4.875000 (Fast pre-penetrate)
G01 Z-0.125000 F400.0(Penetrate)
G01 X5.234843 Y213.361468 Z-0.125000 F800.000000
G01 X14.406361 Y182.498142 Z-0.125000
G01 X22.157072 Y159.208668 Z-0.125000
G01 X11.459746 Y137.588741 Z-0.125000
G01 X8.236737 Y100.008504 Z-0.125000
G01 X17.441384 Y79.212294 Z-0.125000
G01 X11.537177 Y52.296222 Z-0.125000
G00 Z3.000000

(End cutting path id: polyline129445)


(Start cutting path id: polyline129443)
(Change tool to Default tool)

G00 Z3.000000
G00 X10.579408 Y239.779998

G00 Z4.875000 (Fast pre-penetrate)
G01 Z-0.125000 F400.0(Penetrate)
G01 X4.078109 Y212.963454 Z-0.125000 F800.000000
G01 X21.414954 Y159.330308 Z-0.125000
G01 X10.579408 Y137.931491 Z-0.125000
G01 X7.328783 Y99.195863 Z-0.125000
G01 X17.080755 Y78.880618 Z-0.125000
G01 X10.579408 Y52.064017 Z-0.125000
G00 Z3.000000

(End cutting path id: polyline129443)


(Start cutting path id: polyline129705)
(Change tool to Default tool)

G00 Z3.000000
G00 X53.996989 Y237.458083

G00 Z4.875000 (Fast pre-penetrate)
G01 Z-0.125000 F400.0(Penetrate)
G01 X47.561997 Y218.735045 Z-0.125000 F800.000000
G01 X47.827363 Y181.105045 Z-0.125000
G01 X53.687417 Y160.966666 Z-0.125000
G01 X44.068104 Y130.059133 Z-0.125000
G01 X47.429336 Y116.377903 Z-0.125000
G01 X47.031308 Y81.003461 Z-0.125000
G01 X47.495691 Y54.385933 Z-0.125000
G00 Z3.000000

(End cutting path id: polyline129705)


(Start cutting path id: polyline129707)
(Change tool to Default tool)

G00 Z3.000000
G00 X54.838638 Y237.806390

G00 Z4.875000 (Fast pre-penetrate)
G01 Z-0.125000 F400.0(Penetrate)
G01 X48.486588 Y218.287249 Z-0.125000 F800.000000
G01 X49.315820 Y181.884517 Z-0.125000
G01 X54.645137 Y161.386850 Z-0.125000
G01 X44.804709 Y130.202867 Z-0.125000
G01 X48.652424 Y115.913512 Z-0.125000
G01 X48.685593 Y80.406430 Z-0.125000
G01 X48.337282 Y54.037663 Z-0.125000
G00 Z3.000000

(End cutting path id: polyline129707)


(Start cutting path id: polyline129709)
(Change tool to Default tool)

G00 Z3.000000
G00 X55.680287 Y238.154659

G00 Z4.875000 (Fast pre-penetrate)
G01 Z-0.125000 F400.0(Penetrate)
G01 X49.411131 Y217.839452 Z-0.125000 F800.000000
G01 X50.804276 Y182.664045 Z-0.125000
G01 X55.602856 Y161.806977 Z-0.125000
G01 X45.541313 Y130.346601 Z-0.125000
G01 X49.875512 Y115.449140 Z-0.125000
G01 X50.339895 Y79.809381 Z-0.125000
G01 X49.178939 Y53.689356 Z-0.125000
G00 Z3.000000

(End cutting path id: polyline129709)


(Start cutting path id: polyline129711)
(Change tool to Default tool)

G00 Z3.000000
G00 X56.521936 Y238.502967

G00 Z4.875000 (Fast pre-penetrate)
G01 Z-0.125000 F400.0(Penetrate)
G01 X50.335722 Y217.391656 Z-0.125000 F800.000000
G01 X52.292733 Y183.443498 Z-0.125000
G01 X56.560576 Y162.227160 Z-0.125000
G01 X46.277918 Y130.490354 Z-0.125000
G01 X51.098650 Y114.984750 Z-0.125000
G01 X51.994236 Y79.212294 Z-0.125000
G01 X50.020588 Y53.341105 Z-0.125000
G00 Z3.000000

(End cutting path id: polyline129711)


(Start cutting path id: polyline129713)
(Change tool to Default tool)

G00 Z3.000000
G00 X57.363535 Y238.851236

G00 Z4.875000 (Fast pre-penetrate)
G01 Z-0.125000 F400.0(Penetrate)
G01 X51.260265 Y216.943878 Z-0.125000 F800.000000
G01 X53.781189 Y184.223027 Z-0.125000
G01 X57.518346 Y162.647288 Z-0.125000
G01 X47.014521 Y130.634088 Z-0.125000
G01 X52.321737 Y114.520378 Z-0.125000
G01 X53.648528 Y78.615244 Z-0.125000
G01 X50.862237 Y52.992780 Z-0.125000
G00 Z3.000000

(End cutting path id: polyline129713)


(Start cutting path id: polyline129715)
(Change tool to Default tool)

G00 Z3.000000
G00 X58.205184 Y239.199543

G00 Z4.875000 (Fast pre-penetrate)
G01 Z-0.125000 F400.0(Penetrate)
G01 X52.184856 Y216.496081 Z-0.125000 F800.000000
G01 X55.269644 Y185.002536 Z-0.125000
G01 X58.476066 Y163.067471 Z-0.125000
G01 X47.751075 Y130.777822 Z-0.125000
G01 X53.544825 Y114.055987 Z-0.125000
G01 X55.302821 Y78.018157 Z-0.125000
G01 X51.703886 Y52.644529 Z-0.125000
G00 Z3.000000

(End cutting path id: polyline129715)


(Start cutting path id: polyline129717)
(Change tool to Default tool)

G00 Z3.000000
G00 X59.046833 Y239.547794

G00 Z4.875000 (Fast pre-penetrate)
G01 Z-0.125000 F400.0(Penetrate)
G01 X53.109399 Y216.048285 Z-0.125000 F800.000000
G01 X59.433785 Y163.487598 Z-0.125000
G01 X48.487680 Y130.921594 Z-0.125000
G01 X54.767913 Y113.591615 Z-0.125000
G01 X56.957115 Y77.421126 Z-0.125000
G01 X52.545485 Y52.296222 Z-0.125000
G00 Z3.000000

(End cutting path id: polyline129717)


(Start cutting path id: polyline129719)
(Change tool to Default tool)

G00 Z3.000000
G00 X59.888482 Y239.896120

G00 Z4.875000 (Fast pre-penetrate)
G01 Z-0.125000 F400.0(Penetrate)
G01 X54.033941 Y215.600488 Z-0.125000 F800.000000
G01 X58.246557 Y186.561518 Z-0.125000
G01 X60.391554 Y163.907763 Z-0.125000
G01 X49.224284 Y131.065328 Z-0.125000
G01 X55.991001 Y113.127225 Z-0.125000
G01 X58.611456 Y76.824077 Z-0.125000
G01 X53.387134 Y51.947952 Z-0.125000
G00 Z3.000000

(End cutting path id: polyline129719)


(Start cutting path id: polyline129721)
(Change tool to Default tool)

G00 Z3.000000
G00 X60.730131 Y240.244370

G00 Z4.875000 (Fast pre-penetrate)
G01 Z-0.125000 F400.0(Penetrate)
G01 X54.958533 Y215.152692 Z-0.125000 F800.000000
G01 X59.735013 Y187.340989 Z-0.125000
G01 X61.349273 Y164.327909 Z-0.125000
G01 X49.960889 Y131.209062 Z-0.125000
G01 X57.214089 Y112.662853 Z-0.125000
G01 X60.265748 Y76.226990 Z-0.125000
G01 X54.228783 Y51.599645 Z-0.125000
G00 Z3.000000

(End cutting path id: polyline129721)


(Start cutting path id: polyline129723)
(Change tool to Default tool)

G00 Z3.000000
G00 X61.571730 Y240.592640

G00 Z4.875000 (Fast pre-penetrate)
G01 Z-0.125000 F400.0(Penetrate)
G01 X55.883075 Y214.704858 Z-0.125000 F800.000000
G01 X61.223468 Y188.120499 Z-0.125000
G01 X62.306993 Y164.748074 Z-0.125000
G01 X50.697494 Y131.352797 Z-0.125000
G01 X58.437177 Y112.198462 Z-0.125000
G01 X61.920042 Y75.629940 Z-0.125000
G01 X55.070432 Y51.251376 Z-0.125000
G00 Z3.000000

(End cutting path id: polyline129723)


(Start cutting path id: polyline129725)
(Change tool to Default tool)

G00 Z3.000000
G00 X62.413379 Y240.940947

G00 Z4.875000 (Fast pre-penetrate)
G01 Z-0.125000 F400.0(Penetrate)
G01 X56.807668 Y214.257061 Z-0.125000 F800.000000
G01 X62.711924 Y188.899971 Z-0.125000
G01 X63.264712 Y165.168201 Z-0.125000
G01 X51.434097 Y131.496531 Z-0.125000
G01 X59.660265 Y111.734072 Z-0.125000
G01 X63.574335 Y75.032853 Z-0.125000
G01 X55.912081 Y50.903069 Z-0.125000
G00 Z3.000000

(End cutting path id: polyline129725)


(Start cutting path id: polyline129727)
(Change tool to Default tool)

G00 Z3.000000
G00 X63.255028 Y241.289254

G00 Z4.875000 (Fast pre-penetrate)
G01 Z-0.125000 F400.0(Penetrate)
G01 X57.732209 Y213.809265 Z-0.125000 F800.000000
G01 X64.200381 Y189.679480 Z-0.125000
G01 X64.222475 Y165.588384 Z-0.125000
G01 X52.170695 Y131.640284 Z-0.125000
G01 X60.883345 Y111.269700 Z-0.125000
G01 X65.228619 Y74.435804 Z-0.125000
G01 X56.753723 Y50.554799 Z-0.125000
G00 Z3.000000

(End cutting path id: polyline129727)


(Start cutting path id: polyline129729)
(Change tool to Default tool)

G00 Z3.000000
G00 X64.096677 Y241.637523

G00 Z4.875000 (Fast pre-penetrate)
G01 Z-0.125000 F400.0(Penetrate)
G01 X58.656802 Y213.361468 Z-0.125000 F800.000000
G01 X65.688837 Y190.458952 Z-0.125000
G01 X65.180202 Y166.008511 Z-0.125000
G01 X52.907305 Y131.784018 Z-0.125000
G01 X62.106489 Y110.805366 Z-0.125000
G01 X66.882968 Y73.838773 Z-0.125000
G01 X57.595328 Y50.206492 Z-0.125000
G00 Z3.000000

(End cutting path id: polyline129729)


(Start cutting path id: polyline129731)
(Change tool to Default tool)

G00 Z3.000000
G00 X64.938326 Y241.985830

G00 Z4.875000 (Fast pre-penetrate)
G01 Z-0.125000 F400.0(Penetrate)
G01 X59.581345 Y212.913690 Z-0.125000 F800.000000
G01 X67.177294 Y191.238462 Z-0.125000
G01 X66.137970 Y166.428695 Z-0.125000
G01 X53.643910 Y131.927752 Z-0.125000
G01 X63.329577 Y110.340975 Z-0.125000
G01 X68.537262 Y73.241686 Z-0.125000
G01 X58.436978 Y49.858242 Z-0.125000
G00 Z3.000000

(End cutting path id: polyline129731)


(Start cutting path id: polyline129733)
(Change tool to Default tool)

G00 Z3.000000
G00 X65.779924 Y242.334100

G00 Z4.875000 (Fast pre-penetrate)
G01 Z-0.125000 F400.0(Penetrate)
G01 X60.505936 Y212.465894 Z-0.125000 F800.000000
G01 X68.665748 Y192.017990 Z-0.125000
G01 X67.095692 Y166.848822 Z-0.125000
G01 X54.380514 Y132.071486 Z-0.125000
G01 X64.552665 Y109.876547 Z-0.125000
G01 X70.191555 Y72.644636 Z-0.125000
G01 X59.278627 Y49.509916 Z-0.125000
G00 Z3.000000

(End cutting path id: polyline129733)


(Start cutting path id: polyline129735)
(Change tool to Default tool)

G00 Z3.000000
G00 X66.621574 Y242.682407

G00 Z4.875000 (Fast pre-penetrate)
G01 Z-0.125000 F400.0(Penetrate)
G01 X61.430479 Y212.018097 Z-0.125000 F800.000000
G01 X70.154205 Y192.797443 Z-0.125000
G01 X68.053411 Y167.269006 Z-0.125000
G01 X55.117119 Y132.215220 Z-0.125000
G01 X65.775753 Y109.412175 Z-0.125000
G01 X71.845847 Y72.047606 Z-0.125000
G01 X60.120276 Y49.161665 Z-0.125000
G00 Z3.000000

(End cutting path id: polyline129735)


(Start cutting path id: polyline129451)
(Change tool to Default tool)

G00 Z3.000000
G00 X67.463223 Y243.030658

G00 Z4.875000 (Fast pre-penetrate)
G01 Z-0.125000 F400.0(Penetrate)
G01 X62.355022 Y211.570301 Z-0.125000 F800.000000
G01 X71.642661 Y193.576971 Z-0.125000
G01 X69.011179 Y167.689133 Z-0.125000
G01 X55.853722 Y132.358954 Z-0.125000
G01 X66.998841 Y108.947841 Z-0.125000
G01 X73.500139 Y71.450500 Z-0.125000
G01 X60.961925 Y48.813358 Z-0.125000
G00 Z3.000000

(End cutting path id: polyline129451)


(Start cutting path id: polyline129453)
(Change tool to Default tool)

G00 Z3.000000
G00 X68.304872 Y243.108053

G00 Z4.875000 (Fast pre-penetrate)
G01 Z-0.125000 F400.0(Penetrate)
G01 X63.445449 Y211.188862 Z-0.125000 F800.000000
G01 X71.970162 Y193.438737 Z-0.125000
G01 X69.769886 Y167.362976 Z-0.125000
G01 X57.248210 Y132.502688 Z-0.125000
G01 X67.923384 Y108.610609 Z-0.125000
G01 X74.015628 Y71.279115 Z-0.125000
G01 X61.842264 Y49.122977 Z-0.125000
G00 Z3.000000

(End cutting path id: polyline129453)


(Start cutting path id: polyline129737)
(Change tool to Default tool)

G00 Z3.000000
G00 X69.146521 Y243.185486

G00 Z4.875000 (Fast pre-penetrate)
G01 Z-0.125000 F400.0(Penetrate)
G01 X64.535878 Y210.807367 Z-0.125000 F800.000000
G01 X72.297662 Y193.300522 Z-0.125000
G01 X70.528591 Y167.036820 Z-0.125000
G01 X58.642697 Y132.646423 Z-0.125000
G01 X68.847975 Y108.273358 Z-0.125000
G01 X74.531117 Y71.107749 Z-0.125000
G01 X62.722603 Y49.432539 Z-0.125000
G00 Z3.000000

(End cutting path id: polyline129737)


(Start cutting path id: polyline129739)
(Change tool to Default tool)

G00 Z3.000000
G00 X69.988119 Y243.262900

G00 Z4.875000 (Fast pre-penetrate)
G01 Z-0.125000 F400.0(Penetrate)
G01 X65.626307 Y210.425928 Z-0.125000 F800.000000
G01 X72.625165 Y193.162344 Z-0.125000
G01 X71.287298 Y166.710644 Z-0.125000
G01 X60.037134 Y132.790157 Z-0.125000
G01 X69.772518 Y107.936127 Z-0.125000
G01 X75.046557 Y70.936364 Z-0.125000
G01 X63.602943 Y49.742120 Z-0.125000
G00 Z3.000000

(End cutting path id: polyline129739)


(Start cutting path id: polyline129741)
(Change tool to Default tool)

G00 Z3.000000
G00 X70.829768 Y243.340295

G00 Z4.875000 (Fast pre-penetrate)
G01 Z-0.125000 F400.0(Penetrate)
G01 X66.716685 Y210.044489 Z-0.125000 F800.000000
G01 X72.952665 Y193.024129 Z-0.125000
G01 X72.046003 Y166.384450 Z-0.125000
G01 X61.431620 Y132.933891 Z-0.125000
G01 X70.697109 Y107.598895 Z-0.125000
G01 X75.562045 Y70.765017 Z-0.125000
G01 X64.483282 Y50.051739 Z-0.125000
G00 Z3.000000

(End cutting path id: polyline129741)


(Start cutting path id: polyline129743)
(Change tool to Default tool)

G00 Z3.000000
G00 X71.671417 Y243.417672

G00 Z4.875000 (Fast pre-penetrate)
G01 Z-0.125000 F400.0(Penetrate)
G01 X67.807115 Y209.663012 Z-0.125000 F800.000000
G01 X73.280166 Y192.885895 Z-0.125000
G01 X72.804710 Y166.058275 Z-0.125000
G01 X62.826057 Y133.077625 Z-0.125000
G01 X71.621652 Y107.261663 Z-0.125000
G01 X76.077484 Y70.593614 Z-0.125000
G01 X65.363621 Y50.361302 Z-0.125000
G00 Z3.000000

(End cutting path id: polyline129743)


(Start cutting path id: polyline129745)
(Change tool to Default tool)

G00 Z3.000000
G00 X72.513066 Y243.495105

G00 Z4.875000 (Fast pre-penetrate)
G01 Z-0.125000 F400.0(Penetrate)
G01 X68.897542 Y209.281573 Z-0.125000 F800.000000
G01 X73.607667 Y192.747680 Z-0.125000
G01 X73.563459 Y165.732118 Z-0.125000
G01 X64.220541 Y133.221359 Z-0.125000
G01 X72.546240 Y106.924431 Z-0.125000
G01 X76.592969 Y70.422267 Z-0.125000
G01 X66.243956 Y50.670883 Z-0.125000
G00 Z3.000000

(End cutting path id: polyline129745)


(Start cutting path id: polyline129747)
(Change tool to Default tool)

G00 Z3.000000
G00 X73.354716 Y243.572481

G00 Z4.875000 (Fast pre-penetrate)
G01 Z-0.125000 F400.0(Penetrate)
G01 X69.987971 Y208.900135 Z-0.125000 F800.000000
G01 X73.935169 Y192.609502 Z-0.125000
G01 X74.322170 Y165.405962 Z-0.125000
G01 X65.615033 Y133.365093 Z-0.125000
G01 X73.470786 Y106.587237 Z-0.125000
G01 X77.108412 Y70.250863 Z-0.125000
G01 X67.124299 Y50.980502 Z-0.125000
G00 Z3.000000

(End cutting path id: polyline129747)


(Start cutting path id: polyline129749)
(Change tool to Default tool)

G00 Z3.000000
G00 X74.196316 Y243.649858

G00 Z4.875000 (Fast pre-penetrate)
G01 Z-0.125000 F400.0(Penetrate)
G01 X71.078349 Y208.518639 Z-0.125000 F800.000000
G01 X74.262670 Y192.471287 Z-0.125000
G01 X75.080875 Y165.079749 Z-0.125000
G01 X67.009519 Y133.508827 Z-0.125000
G01 X74.395329 Y106.250005 Z-0.125000
G01 X77.623901 Y70.079516 Z-0.125000
G01 X68.004588 Y51.290064 Z-0.125000
G00 Z3.000000

(End cutting path id: polyline129749)


(Start cutting path id: polyline129751)
(Change tool to Default tool)

G00 Z3.000000
G00 X75.037963 Y243.727234

G00 Z4.875000 (Fast pre-penetrate)
G01 Z-0.125000 F400.0(Penetrate)
G01 X72.168778 Y208.137200 Z-0.125000 F800.000000
G01 X74.590170 Y192.333071 Z-0.125000
G01 X75.839582 Y164.753592 Z-0.125000
G01 X68.403956 Y133.652562 Z-0.125000
G01 X75.319920 Y105.912773 Z-0.125000
G01 X78.139390 Y69.908112 Z-0.125000
G01 X68.884927 Y51.599645 Z-0.125000
G00 Z3.000000

(End cutting path id: polyline129751)


(Start cutting path id: polyline129753)
(Change tool to Default tool)

G00 Z3.000000
G00 X75.879612 Y243.804667

G00 Z4.875000 (Fast pre-penetrate)
G01 Z-0.125000 F400.0(Penetrate)
G01 X73.259208 Y207.755761 Z-0.125000 F800.000000
G01 X74.917671 Y192.194893 Z-0.125000
G01 X76.598287 Y164.427436 Z-0.125000
G01 X69.798443 Y133.796296 Z-0.125000
G01 X76.244463 Y105.575523 Z-0.125000
G01 X78.654830 Y69.736765 Z-0.125000
G01 X69.765267 Y51.909264 Z-0.125000
G00 Z3.000000

(End cutting path id: polyline129753)


(Start cutting path id: polyline129755)
(Change tool to Default tool)

G00 Z3.000000
G00 X76.721261 Y243.882100

G00 Z4.875000 (Fast pre-penetrate)
G01 Z-0.125000 F400.0(Penetrate)
G01 X74.349635 Y207.374266 Z-0.125000 F800.000000
G01 X75.245173 Y192.056678 Z-0.125000
G01 X77.357042 Y164.101279 Z-0.125000
G01 X71.192931 Y133.940030 Z-0.125000
G01 X77.169056 Y105.238291 Z-0.125000
G01 X79.170319 Y69.565362 Z-0.125000
G01 X70.645606 Y52.218827 Z-0.125000
G00 Z3.000000

(End cutting path id: polyline129755)


(Start cutting path id: polyline129757)
(Change tool to Default tool)

G00 Z3.000000
G00 X77.562910 Y243.959476

G00 Z4.875000 (Fast pre-penetrate)
G01 Z-0.125000 F400.0(Penetrate)
G01 X75.440015 Y206.992827 Z-0.125000 F800.000000
G01 X75.572730 Y191.918444 Z-0.125000
G01 X78.115756 Y163.775067 Z-0.125000
G01 X72.587425 Y134.083764 Z-0.125000
G01 X78.093606 Y104.901059 Z-0.125000
G01 X79.685764 Y69.394015 Z-0.125000
G01 X71.525952 Y52.528408 Z-0.125000
G00 Z3.000000

(End cutting path id: polyline129757)


(Start cutting path id: polyline129759)
(Change tool to Default tool)

G00 Z3.000000
G00 X78.404559 Y244.036853

G00 Z4.875000 (Fast pre-penetrate)
G01 Z-0.125000 F400.0(Penetrate)
G01 X75.900225 Y191.780229 Z-0.125000 F800.000000
G01 X78.874454 Y163.448910 Z-0.125000
G01 X73.981854 Y134.227498 Z-0.125000
G01 X79.018190 Y104.563865 Z-0.125000
G01 X80.201246 Y69.222611 Z-0.125000
G01 X72.406284 Y52.838027 Z-0.125000
G00 Z3.000000

(End cutting path id: polyline129759)


(Start cutting path id: polyline129761)
(Change tool to Default tool)

G00 Z3.000000
G00 X79.246160 Y244.114286

G00 Z4.875000 (Fast pre-penetrate)
G01 Z-0.125000 F400.0(Penetrate)
G01 X77.620871 Y206.229912 Z-0.125000 F800.000000
G01 X76.227726 Y191.642051 Z-0.125000
G01 X79.633161 Y163.122735 Z-0.125000
G01 X75.376342 Y134.371232 Z-0.125000
G01 X79.942732 Y104.226596 Z-0.125000
G01 X80.716686 Y69.051208 Z-0.125000
G01 X73.286623 Y53.147589 Z-0.125000
G00 Z3.000000

(End cutting path id: polyline129761)


(Start cutting path id: polyline129763)
(Change tool to Default tool)

G00 Z3.000000
G00 X80.087807 Y244.191662

G00 Z4.875000 (Fast pre-penetrate)
G01 Z-0.125000 F400.0(Penetrate)
G01 X78.711250 Y205.848473 Z-0.125000 F800.000000
G01 X76.555226 Y191.503836 Z-0.125000
G01 X80.391866 Y162.796578 Z-0.125000
G01 X76.770830 Y134.514966 Z-0.125000
G01 X80.867324 Y103.889401 Z-0.125000
G01 X81.232174 Y68.879861 Z-0.125000
G01 X74.166963 Y53.457170 Z-0.125000
G00 Z3.000000

(End cutting path id: polyline129763)


(Start cutting path id: polyline129765)
(Change tool to Default tool)

G00 Z3.000000
G00 X80.929456 Y244.269058

G00 Z4.875000 (Fast pre-penetrate)
G01 Z-0.125000 F400.0(Penetrate)
G01 X79.801679 Y205.467034 Z-0.125000 F800.000000
G01 X76.882727 Y191.365602 Z-0.125000
G01 X81.150621 Y162.470365 Z-0.125000
G01 X78.165267 Y134.658701 Z-0.125000
G01 X81.791866 Y103.552170 Z-0.125000
G01 X81.747659 Y68.708476 Z-0.125000
G01 X75.047298 Y53.766789 Z-0.125000
G00 Z3.000000

(End cutting path id: polyline129765)


(Start cutting path id: polyline129767)
(Change tool to Default tool)

G00 Z3.000000
G00 X81.771105 Y244.346434

G00 Z4.875000 (Fast pre-penetrate)
G01 Z-0.125000 F400.0(Penetrate)
G01 X80.892108 Y205.085539 Z-0.125000 F800.000000
G01 X77.210229 Y191.227443 Z-0.125000
G01 X81.909328 Y162.144209 Z-0.125000
G01 X79.559752 Y134.802435 Z-0.125000
G01 X82.716409 Y103.214938 Z-0.125000
G01 X82.263103 Y68.537110 Z-0.125000
G01 X75.927641 Y54.076370 Z-0.125000
G00 Z3.000000

(End cutting path id: polyline129767)


(Start cutting path id: polyline129769)
(Change tool to Default tool)

G00 Z3.000000
G00 X82.612754 Y244.423811

G00 Z4.875000 (Fast pre-penetrate)
G01 Z-0.125000 F400.0(Penetrate)
G01 X81.982535 Y204.704100 Z-0.125000 F800.000000
G01 X77.537730 Y191.089209 Z-0.125000
G01 X82.668033 Y161.818052 Z-0.125000
G01 X80.954240 Y134.946169 Z-0.125000
G01 X83.641000 Y102.877687 Z-0.125000
G01 X82.778592 Y68.365725 Z-0.125000
G01 X76.807980 Y54.385933 Z-0.125000
G00 Z3.000000

(End cutting path id: polyline129769)


(Start cutting path id: polyline129771)
(Change tool to Default tool)

G00 Z3.000000
G00 X83.454354 Y244.501244

G00 Z4.875000 (Fast pre-penetrate)
G01 Z-0.125000 F400.0(Penetrate)
G01 X83.072916 Y204.322661 Z-0.125000 F800.000000
G01 X77.865231 Y190.950993 Z-0.125000
G01 X83.426740 Y161.491896 Z-0.125000
G01 X82.348728 Y135.089922 Z-0.125000
G01 X84.565543 Y102.540455 Z-0.125000
G01 X83.294030 Y68.194322 Z-0.125000
G01 X77.688320 Y54.695552 Z-0.125000
G00 Z3.000000

(End cutting path id: polyline129771)


(Start cutting path id: polyline129773)
(Change tool to Default tool)

G00 Z3.000000
G00 X84.296004 Y244.578620

G00 Z4.875000 (Fast pre-penetrate)
G01 Z-0.125000 F400.0(Penetrate)
G01 X84.163345 Y203.941166 Z-0.125000 F800.000000
G01 X78.192733 Y190.812816 Z-0.125000
G01 X84.185446 Y161.165739 Z-0.125000
G01 X83.743167 Y135.233656 Z-0.125000
G01 X85.490136 Y102.203224 Z-0.125000
G01 X83.809521 Y68.022975 Z-0.125000
G01 X78.568659 Y55.005133 Z-0.125000
G00 Z3.000000

(End cutting path id: polyline129773)


(Start cutting path id: polyline129775)
(Change tool to Default tool)

G00 Z3.000000
G00 X85.137651 Y244.655997

G00 Z4.875000 (Fast pre-penetrate)
G01 Z-0.125000 F400.0(Penetrate)
G01 X85.253772 Y203.559727 Z-0.125000 F800.000000
G01 X78.520234 Y190.674600 Z-0.125000
G01 X84.944151 Y160.839526 Z-0.125000
G01 X85.137651 Y135.377390 Z-0.125000
G01 X86.414677 Y101.866029 Z-0.125000
G01 X84.325008 Y67.851571 Z-0.125000
G01 X79.448996 Y55.314695 Z-0.125000
G00 Z3.000000

(End cutting path id: polyline129775)


(Start cutting path id: polyline129777)
(Change tool to Default tool)

G00 Z3.000000
G00 X85.979300 Y244.733429

G00 Z4.875000 (Fast pre-penetrate)
G01 Z-0.125000 F400.0(Penetrate)
G01 X86.344150 Y203.178288 Z-0.125000 F800.000000
G01 X78.847734 Y190.536385 Z-0.125000
G01 X85.702907 Y160.513370 Z-0.125000
G01 X86.532138 Y135.521124 Z-0.125000
G01 X87.339268 Y101.528798 Z-0.125000
G01 X84.840448 Y67.680224 Z-0.125000
G01 X80.329335 Y55.624276 Z-0.125000
G00 Z3.000000

(End cutting path id: polyline129777)


(Start cutting path id: polyline129779)
(Change tool to Default tool)

G00 Z3.000000
G00 X86.820949 Y244.810806

G00 Z4.875000 (Fast pre-penetrate)
G01 Z-0.125000 F400.0(Penetrate)
G01 X87.434579 Y202.796812 Z-0.125000 F800.000000
G01 X79.175235 Y190.398151 Z-0.125000
G01 X86.461612 Y160.187194 Z-0.125000
G01 X87.926576 Y135.664858 Z-0.125000
G01 X88.263811 Y101.191566 Z-0.125000
G01 X85.355936 Y67.508820 Z-0.125000
G01 X81.209675 Y55.933895 Z-0.125000
G00 Z3.000000

(End cutting path id: polyline129779)


(Start cutting path id: polyline129781)
(Change tool to Default tool)

G00 Z3.000000
G00 X87.662549 Y244.888201

G00 Z4.875000 (Fast pre-penetrate)
G01 Z-0.125000 F400.0(Penetrate)
G01 X88.525008 Y202.415373 Z-0.125000 F800.000000
G01 X79.502736 Y190.259936 Z-0.125000
G01 X87.220318 Y159.861038 Z-0.125000
G01 X89.321063 Y135.808592 Z-0.125000
G01 X89.188404 Y100.854334 Z-0.125000
G01 X85.871374 Y67.337417 Z-0.125000
G01 X82.090014 Y56.243458 Z-0.125000
G00 Z3.000000

(End cutting path id: polyline129781)


(Start cutting path id: polyline129783)
(Change tool to Default tool)

G00 Z3.000000
G00 X88.504198 Y244.965578

G00 Z4.875000 (Fast pre-penetrate)
G01 Z-0.125000 F400.0(Penetrate)
G01 X89.615387 Y202.033934 Z-0.125000 F800.000000
G01 X79.830287 Y190.121758 Z-0.125000
G01 X87.979023 Y159.534825 Z-0.125000
G01 X90.715551 Y135.952364 Z-0.125000
G01 X90.112947 Y100.517102 Z-0.125000
G01 X86.386863 Y67.166070 Z-0.125000
G01 X82.970353 Y56.553039 Z-0.125000
G00 Z3.000000

(End cutting path id: polyline129783)


(Start cutting path id: polyline129785)
(Change tool to Default tool)

G00 Z3.000000
G00 X89.345847 Y245.043011

G00 Z4.875000 (Fast pre-penetrate)
G01 Z-0.125000 F400.0(Penetrate)
G01 X90.705816 Y201.652495 Z-0.125000 F800.000000
G01 X80.157787 Y189.983543 Z-0.125000
G01 X88.737730 Y159.208668 Z-0.125000
G01 X92.110037 Y136.096098 Z-0.125000
G01 X91.037538 Y100.179908 Z-0.125000
G01 X86.902354 Y66.994666 Z-0.125000
G01 X83.850692 Y56.862601 Z-0.125000
G00 Z3.000000

(End cutting path id: polyline129785)


(Start cutting path id: polyline129457)
(Change tool to Default tool)

G00 Z3.000000
G00 X90.187496 Y245.120387

G00 Z4.875000 (Fast pre-penetrate)
G01 Z-0.125000 F400.0(Penetrate)
G01 X91.796243 Y201.271000 Z-0.125000 F800.000000
G01 X80.485290 Y189.845327 Z-0.125000
G01 X89.496435 Y158.882512 Z-0.125000
G01 X93.504474 Y136.239832 Z-0.125000
G01 X91.962081 Y99.842676 Z-0.125000
G01 X87.417792 Y66.823282 Z-0.125000
G01 X84.731032 Y57.172220 Z-0.125000
G00 Z3.000000

(End cutting path id: polyline129457)


(Start cutting path id: polyline129455)
(Change tool to Default tool)

G00 Z3.000000
G00 X91.029144 Y245.197764

G00 Z4.875000 (Fast pre-penetrate)
G01 Z-0.125000 F400.0(Penetrate)
G01 X92.886672 Y200.889561 Z-0.125000 F800.000000
G01 X80.812790 Y189.707150 Z-0.125000
G01 X90.255142 Y158.556355 Z-0.125000
G01 X94.898962 Y136.383585 Z-0.125000
G01 X92.886672 Y99.505444 Z-0.125000
G01 X87.933281 Y66.651934 Z-0.125000
G01 X85.611371 Y57.481801 Z-0.125000
G00 Z3.000000

(End cutting path id: polyline129455)


(Start cutting path id: polyline129787)
(Change tool to Default tool)

G00 Z3.000000
G00 X92.180365 Y245.197764

G00 Z4.875000 (Fast pre-penetrate)
G01 Z-0.125000 F400.0(Penetrate)
G01 X93.623277 Y201.221292 Z-0.125000 F800.000000
G01 X82.185126 Y189.762432 Z-0.125000
G01 X91.655192 Y158.528686 Z-0.125000
G01 X95.331508 Y135.941289 Z-0.125000
G01 X94.120787 Y100.224115 Z-0.125000
G01 X88.946279 Y67.011260 Z-0.125000
G01 X86.762592 Y57.094787 Z-0.125000
G00 Z3.000000

(End cutting path id: polyline129787)


(Start cutting path id: polyline129789)
(Change tool to Default tool)

G00 Z3.000000
G00 X93.331586 Y245.197764

G00 Z4.875000 (Fast pre-penetrate)
G01 Z-0.125000 F400.0(Penetrate)
G01 X94.359832 Y201.552968 Z-0.125000 F800.000000
G01 X83.557512 Y189.817696 Z-0.125000
G01 X93.055191 Y158.501073 Z-0.125000
G01 X95.764053 Y135.499011 Z-0.125000
G01 X95.354950 Y100.942786 Z-0.125000
G01 X89.959328 Y67.370605 Z-0.125000
G01 X87.913811 Y56.707792 Z-0.125000
G00 Z3.000000

(End cutting path id: polyline129789)


(Start cutting path id: polyline129791)
(Change tool to Default tool)

G00 Z3.000000
G00 X94.482806 Y245.197764

G00 Z4.875000 (Fast pre-penetrate)
G01 Z-0.125000 F400.0(Penetrate)
G01 X95.096435 Y201.884681 Z-0.125000 F800.000000
G01 X84.929847 Y189.872978 Z-0.125000
G01 X94.455192 Y158.473404 Z-0.125000
G01 X96.196599 Y135.056790 Z-0.125000
G01 X96.589113 Y101.661456 Z-0.125000
G01 X89.065032 Y56.320834 Z-0.125000
G00 Z3.000000

(End cutting path id: polyline129791)


(Start cutting path id: polyline129793)
(Change tool to Default tool)

G00 Z3.000000
G00 X95.634026 Y245.197764

G00 Z4.875000 (Fast pre-penetrate)
G01 Z-0.125000 F400.0(Penetrate)
G01 X95.833040 Y202.216356 Z-0.125000 F800.000000
G01 X86.302231 Y189.928260 Z-0.125000
G01 X95.855191 Y158.445753 Z-0.125000
G01 X97.823277 Y102.380184 Z-0.125000
G01 X91.985324 Y68.089276 Z-0.125000
G01 X90.216253 Y55.933839 Z-0.125000
G00 Z3.000000

(End cutting path id: polyline129793)


(Start cutting path id: polyline129795)
(Change tool to Default tool)

G00 Z3.000000
G00 X96.785246 Y245.197764

G00 Z4.875000 (Fast pre-penetrate)
G01 Z-0.125000 F400.0(Penetrate)
G01 X96.569643 Y202.548088 Z-0.125000 F800.000000
G01 X87.674569 Y189.983543 Z-0.125000
G01 X97.255192 Y158.418121 Z-0.125000
G01 X97.061690 Y134.172216 Z-0.125000
G01 X99.057391 Y103.098854 Z-0.125000
G01 X92.998373 Y68.448621 Z-0.125000
G01 X91.367474 Y55.546844 Z-0.125000
G00 Z3.000000

(End cutting path id: polyline129795)


(Start cutting path id: polyline129797)
(Change tool to Default tool)

G00 Z3.000000
G00 X97.936467 Y245.197764

G00 Z4.875000 (Fast pre-penetrate)
G01 Z-0.125000 F400.0(Penetrate)
G01 X97.306248 Y202.879801 Z-0.125000 F800.000000
G01 X89.046953 Y190.038825 Z-0.125000
G01 X98.655191 Y158.390471 Z-0.125000
G01 X97.494237 Y133.729994 Z-0.125000
G01 X100.291554 Y103.817544 Z-0.125000
G01 X94.011371 Y68.807947 Z-0.125000
G01 X92.518743 Y55.159886 Z-0.125000
G00 Z3.000000

(End cutting path id: polyline129797)


(Start cutting path id: polyline129799)
(Change tool to Default tool)

G00 Z3.000000
G00 X99.087737 Y245.197764

G00 Z4.875000 (Fast pre-penetrate)
G01 Z-0.125000 F400.0(Penetrate)
G01 X98.042852 Y203.211476 Z-0.125000 F800.000000
G01 X90.419290 Y190.094107 Z-0.125000
G01 X100.055192 Y158.362858 Z-0.125000
G01 X97.926781 Y133.287717 Z-0.125000
G01 X101.525717 Y104.536214 Z-0.125000
G01 X95.024369 Y69.167291 Z-0.125000
G01 X93.669962 Y54.772891 Z-0.125000
G00 Z3.000000

(End cutting path id: polyline129799)


(Start cutting path id: polyline129801)
(Change tool to Default tool)

G00 Z3.000000
G00 X100.238956 Y245.197764

G00 Z4.875000 (Fast pre-penetrate)
G01 Z-0.125000 F400.0(Penetrate)
G01 X98.779457 Y203.543189 Z-0.125000 F800.000000
G01 X91.791674 Y190.149371 Z-0.125000
G01 X101.455191 Y158.335188 Z-0.125000
G01 X98.359328 Y132.845439 Z-0.125000
G01 X102.759881 Y105.254885 Z-0.125000
G01 X96.037418 Y69.526617 Z-0.125000
G01 X94.821183 Y54.385876 Z-0.125000
G00 Z3.000000

(End cutting path id: polyline129801)


(Start cutting path id: polyline129803)
(Change tool to Default tool)

G00 Z3.000000
G00 X101.390177 Y245.197764

G00 Z4.875000 (Fast pre-penetrate)
G01 Z-0.125000 F400.0(Penetrate)
G01 X99.516060 Y203.874865 Z-0.125000 F800.000000
G01 X93.164010 Y190.204653 Z-0.125000
G01 X102.855192 Y158.307575 Z-0.125000
G01 X98.791872 Y132.403161 Z-0.125000
G01 X103.993995 Y105.973612 Z-0.125000
G01 X97.050416 Y69.885962 Z-0.125000
G01 X95.972404 Y53.998937 Z-0.125000
G00 Z3.000000

(End cutting path id: polyline129803)


(Start cutting path id: polyline129805)
(Change tool to Default tool)

G00 Z3.000000
G00 X102.541398 Y245.197764

G00 Z4.875000 (Fast pre-penetrate)
G01 Z-0.125000 F400.0(Penetrate)
G01 X100.252665 Y204.206596 Z-0.125000 F800.000000
G01 X94.536396 Y190.259936 Z-0.125000
G01 X104.255191 Y158.279906 Z-0.125000
G01 X99.224419 Y131.960921 Z-0.125000
G01 X105.228158 Y106.692283 Z-0.125000
G01 X98.063465 Y70.245307 Z-0.125000
G01 X97.123625 Y53.611923 Z-0.125000
G00 Z3.000000

(End cutting path id: polyline129805)


(Start cutting path id: polyline129807)
(Change tool to Default tool)

G00 Z3.000000
G00 X103.692619 Y245.197764

G00 Z4.875000 (Fast pre-penetrate)
G01 Z-0.125000 F400.0(Penetrate)
G01 X100.989270 Y204.538272 Z-0.125000 F800.000000
G01 X95.908731 Y190.315218 Z-0.125000
G01 X105.655192 Y158.252293 Z-0.125000
G01 X99.656965 Y131.518644 Z-0.125000
G01 X106.462322 Y107.410954 Z-0.125000
G01 X99.076463 Y70.604689 Z-0.125000
G01 X98.274844 Y53.224984 Z-0.125000
G00 Z3.000000

(End cutting path id: polyline129807)


(Start cutting path id: polyline129809)
(Change tool to Default tool)

G00 Z3.000000
G00 X104.843838 Y245.197764

G00 Z4.875000 (Fast pre-penetrate)
G01 Z-0.125000 F400.0(Penetrate)
G01 X101.725873 Y204.869985 Z-0.125000 F800.000000
G01 X97.281117 Y190.370500 Z-0.125000
G01 X107.055191 Y158.224624 Z-0.125000
G01 X100.089461 Y131.076366 Z-0.125000
G01 X107.696485 Y108.129624 Z-0.125000
G01 X100.089461 Y70.964015 Z-0.125000
G01 X99.426065 Y52.837970 Z-0.125000
G00 Z3.000000

(End cutting path id: polyline129809)


(Start cutting path id: polyline129811)
(Change tool to Default tool)

G00 Z3.000000
G00 X105.995059 Y245.197764

G00 Z4.875000 (Fast pre-penetrate)
G01 Z-0.125000 F400.0(Penetrate)
G01 X102.462478 Y205.201660 Z-0.125000 F800.000000
G01 X98.653452 Y190.425820 Z-0.125000
G01 X108.455192 Y158.196973 Z-0.125000
G01 X100.522007 Y130.634088 Z-0.125000
G01 X108.930599 Y108.848314 Z-0.125000
G01 X101.102510 Y71.323360 Z-0.125000
G01 X100.577335 Y52.450975 Z-0.125000
G00 Z3.000000

(End cutting path id: polyline129811)


(Start cutting path id: polyline129813)
(Change tool to Default tool)

G00 Z3.000000
G00 X107.146280 Y245.197764

G00 Z4.875000 (Fast pre-penetrate)
G01 Z-0.125000 F400.0(Penetrate)
G01 X103.199082 Y205.533392 Z-0.125000 F800.000000
G01 X100.025838 Y190.481103 Z-0.125000
G01 X109.855191 Y158.169341 Z-0.125000
G01 X100.954552 Y130.191848 Z-0.125000
G01 X110.164763 Y109.567022 Z-0.125000
G01 X102.115508 Y71.682704 Z-0.125000
G01 X101.728556 Y52.064017 Z-0.125000
G00 Z3.000000

(End cutting path id: polyline129813)


(Start cutting path id: polyline129815)
(Change tool to Default tool)

G00 Z3.000000
G00 X108.297550 Y245.197764

G00 Z4.875000 (Fast pre-penetrate)
G01 Z-0.125000 F400.0(Penetrate)
G01 X103.935687 Y205.865105 Z-0.125000 F800.000000
G01 X101.398174 Y190.536385 Z-0.125000
G01 X111.255192 Y158.141691 Z-0.125000
G01 X101.387099 Y129.749571 Z-0.125000
G01 X111.398926 Y110.285711 Z-0.125000
G01 X103.128555 Y72.042030 Z-0.125000
G01 X102.879777 Y51.677022 Z-0.125000
G00 Z3.000000

(End cutting path id: polyline129815)


(Start cutting path id: polyline129817)
(Change tool to Default tool)

G00 Z3.000000
G00 X109.448771 Y245.197764

G00 Z4.875000 (Fast pre-penetrate)
G01 Z-0.125000 F400.0(Penetrate)
G01 X102.770509 Y190.591649 Z-0.125000 F800.000000
G01 X112.655191 Y158.114078 Z-0.125000
G01 X101.819643 Y129.307293 Z-0.125000
G01 X112.633089 Y111.004382 Z-0.125000
G01 X104.141553 Y72.401375 Z-0.125000
G01 X104.030988 Y51.290027 Z-0.125000
G00 Z3.000000

(End cutting path id: polyline129817)


(Start cutting path id: polyline129819)
(Change tool to Default tool)

G00 Z3.000000
G00 X110.599990 Y245.197764

G00 Z4.875000 (Fast pre-penetrate)
G01 Z-0.125000 F400.0(Penetrate)
G01 X105.408895 Y206.528456 Z-0.125000 F800.000000
G01 X104.142895 Y190.646931 Z-0.125000
G01 X114.055192 Y158.086408 Z-0.125000
G01 X102.252190 Y128.865053 Z-0.125000
G01 X113.867203 Y111.723053 Z-0.125000
G01 X105.154553 Y72.760701 Z-0.125000
G01 X105.182222 Y50.903069 Z-0.125000
G00 Z3.000000

(End cutting path id: polyline129819)


(Start cutting path id: polyline129821)
(Change tool to Default tool)

G00 Z3.000000
G00 X111.751211 Y245.197764

G00 Z4.875000 (Fast pre-penetrate)
G01 Z-0.125000 F400.0(Penetrate)
G01 X106.145498 Y206.860168 Z-0.125000 F800.000000
G01 X105.515231 Y190.702213 Z-0.125000
G01 X115.455191 Y158.058795 Z-0.125000
G01 X102.684736 Y128.422775 Z-0.125000
G01 X115.101367 Y112.441724 Z-0.125000
G01 X106.167600 Y73.120046 Z-0.125000
G01 X106.333447 Y50.516074 Z-0.125000
G00 Z3.000000

(End cutting path id: polyline129821)


(Start cutting path id: polyline129631)
(Change tool to Default tool)

G00 Z3.000000
G00 X114.053651 Y245.197764

G00 Z4.875000 (Fast pre-penetrate)
G01 Z-0.125000 F400.0(Penetrate)
G01 X107.618658 Y207.523576 Z-0.125000 F800.000000
G01 X108.260001 Y190.812778 Z-0.125000
G01 X118.255185 Y158.003513 Z-0.125000
G01 X103.549827 Y127.538220 Z-0.125000
G01 X117.569703 Y113.879084 Z-0.125000
G01 X108.193647 Y73.838773 Z-0.125000
G01 X108.635878 Y49.742120 Z-0.125000
G00 Z3.000000

(End cutting path id: polyline129631)


(Start cutting path id: polyline129825)
(Change tool to Default tool)

G00 Z3.000000
G00 X115.204871 Y245.197764

G00 Z4.875000 (Fast pre-penetrate)
G01 Z-0.125000 F400.0(Penetrate)
G01 X108.355312 Y207.855251 Z-0.125000 F800.000000
G01 X109.632338 Y190.868060 Z-0.125000
G01 X119.655190 Y157.975844 Z-0.125000
G01 X103.982372 Y127.095942 Z-0.125000
G01 X118.803804 Y114.597754 Z-0.125000
G01 X109.206645 Y74.198099 Z-0.125000
G01 X109.787147 Y49.355106 Z-0.125000
G00 Z3.000000

(End cutting path id: polyline129825)


(Start cutting path id: polyline129827)
(Change tool to Default tool)

G00 Z3.000000
G00 X116.356141 Y245.197764

G00 Z4.875000 (Fast pre-penetrate)
G01 Z-0.125000 F400.0(Penetrate)
G01 X109.091866 Y208.186964 Z-0.125000 F800.000000
G01 X111.004673 Y190.923324 Z-0.125000
G01 X121.055195 Y157.948230 Z-0.125000
G01 X104.414918 Y126.653702 Z-0.125000
G01 X120.037962 Y115.316481 Z-0.125000
G01 X110.219643 Y74.557444 Z-0.125000
G01 X110.938368 Y48.968167 Z-0.125000
G00 Z3.000000

(End cutting path id: polyline129827)


(Start cutting path id: polyline129829)
(Change tool to Default tool)

G00 Z3.000000
G00 X117.507362 Y245.197764

G00 Z4.875000 (Fast pre-penetrate)
G01 Z-0.125000 F400.0(Penetrate)
G01 X109.828469 Y208.518639 Z-0.125000 F800.000000
G01 X112.377058 Y190.978663 Z-0.125000
G01 X122.455199 Y157.920580 Z-0.125000
G01 X104.847465 Y126.211424 Z-0.125000
G01 X121.272138 Y116.035152 Z-0.125000
G01 X111.232692 Y74.916788 Z-0.125000
G01 X112.089589 Y48.581153 Z-0.125000
G00 Z3.000000

(End cutting path id: polyline129829)


(Start cutting path id: polyline129629)
(Change tool to Default tool)

G00 Z3.000000
G00 X119.809811 Y245.197764

