%
(Header)
(Generated by gcodetools from Inkscape.)
(Using default header. To add your own header create file "header" in the output dir.)
M3
(Header end.)
G21 (All units in mm)

(Start cutting path id: path478)
(Change tool to Default tool)

G00 Z3.000000
G00 X10.198233 Y101.840061

G00 Z4.875000 (Fast pre-penetrate)
G01 Z-0.125000 F400.0(Penetrate)
G03 X10.665425 Y101.251207 Z-0.125000 I333.360196 J264.005820 F800.000000
G02 X11.598957 Y100.071363 Z-0.125000 I-266.393094 J-211.738252
G02 X12.296166 Y99.183152 Z-0.125000 I-267.222404 J-210.476288
G02 X12.992417 Y98.292545 Z-0.125000 I-1412.071577 J-1104.635240
G02 X13.687471 Y97.400952 Z-0.125000 I-421.851043 J-329.576478
G03 X14.382287 Y96.508766 Z-0.125000 I787.552356 J612.610632
G02 X15.077323 Y95.616637 Z-0.125000 I-1169.155709 J-911.577913
G03 X15.773045 Y94.726213 Z-0.125000 I249.439220 J194.179237
G03 X16.471160 Y93.837952 Z-0.125000 I418.970409 J328.564847
G03 X17.170658 Y92.953168 Z-0.125000 I245.043368 J193.008945
G03 X17.873099 Y92.070841 Z-0.125000 I277.688863 J220.353929
G03 X18.577116 Y91.192537 Z-0.125000 I254.169875 J203.012077
G03 X19.283747 Y90.315646 Z-0.125000 I506.819968 J407.690874
G03 X19.992723 Y89.444927 Z-0.125000 I103.769398 J83.769442
G03 X20.707245 Y88.577945 Z-0.125000 I252.715073 J207.546642
G03 X21.426249 Y87.723346 Z-0.125000 I51.034436 J42.207335
G03 X22.156898 Y86.878464 Z-0.125000 I82.490493 J70.598953
G03 X22.894514 Y86.054359 Z-0.125000 I34.965136 J30.553427
G03 X23.649187 Y85.245777 Z-0.125000 I45.585041 J41.789357
G03 X24.412450 Y84.465917 Z-0.125000 I26.774120 J25.440843
G03 X25.196691 Y83.707274 Z-0.125000 I30.561436 J30.807978
G03 X25.989951 Y82.983691 Z-0.125000 I22.005020 J23.327386
G03 X26.806112 Y82.286822 Z-0.125000 I22.139939 J25.103514
G03 X27.630445 Y81.627809 Z-0.125000 I20.648647 J24.983518
G03 X28.476144 Y80.997728 Z-0.125000 I18.115996 J23.432830
G03 X29.328181 Y80.402895 Z-0.125000 I23.222086 J32.355609
G03 X30.196876 Y79.833185 Z-0.125000 I18.278007 J26.923163
G03 X31.069955 Y79.292729 Z-0.125000 I26.912855 J42.500916
G03 X31.955237 Y78.771559 Z-0.125000 I22.138106 J36.592252
G03 X32.843696 Y78.276029 Z-0.125000 I22.376323 J39.075368
G03 X33.743325 Y77.800804 Z-0.125000 I21.137444 J38.925267
G03 X34.645599 Y77.351063 Z-0.125000 I19.044119 J37.076515
G03 X35.558423 Y76.923050 Z-0.125000 I18.491553 J38.249622
G03 X36.473500 Y76.521225 Z-0.125000 I16.131579 J35.493542
G03 X37.398464 Y76.142695 Z-0.125000 I15.593830 J36.785257
G03 X38.325316 Y75.791177 Z-0.125000 I13.543878 J34.313615
G03 X39.261185 Y75.464472 Z-0.125000 I12.839154 J35.274865
G03 X40.198588 Y75.165401 Z-0.125000 I11.281238 J33.741087
G03 X41.143859 Y74.892340 Z-0.125000 I10.372660 J34.135014
G03 X42.090319 Y74.647096 Z-0.125000 I9.304778 J33.960571
G03 X43.043237 Y74.429094 Z-0.125000 I7.864049 J32.183191
G03 X43.997034 Y74.237244 Z-0.125000 I8.707284 J40.822030
G03 X44.955278 Y74.069378 Z-0.125000 I6.731345 J35.606236
G03 X45.914096 Y73.924226 Z-0.125000 I7.921471 J49.086884
G03 X46.875767 Y73.799193 Z-0.125000 I6.059924 J42.847879
G03 X47.837784 Y73.694055 Z-0.125000 I6.176221 J52.059044
G03 X48.801657 Y73.607099 Z-0.125000 I4.985089 J49.872063
G03 X49.765729 Y73.539226 Z-0.125000 I3.864971 J48.017861
G03 X50.730974 Y73.489999 Z-0.125000 I3.129578 J51.876336
G03 X51.696296 Y73.461280 Z-0.125000 I1.687654 J40.489323
G03 X52.662045 Y73.454290 Z-0.125000 I0.812610 J45.550360
G03 X53.627739 Y73.470382 Z-0.125000 I-0.122047 J36.308007
G03 X54.592651 Y73.513638 Z-0.125000 I-0.975197 J32.537055
G03 X55.557530 Y73.577003 Z-0.125000 I-4.850318 J81.235237
G03 X56.521183 Y73.656225 Z-0.125000 I-3.289472 J45.913715
G03 X57.484766 Y73.746707 Z-0.125000 I-40.690495 J438.507787
G03 X58.447694 Y73.842651 Z-0.125000 I-9.991092 J105.154064
G03 X59.410570 Y73.943091 Z-0.125000 I-1101.343788 J10562.787119
G03 X60.373227 Y74.044337 Z-0.125000 I-62.298434 J596.966016
G03 X61.335835 Y74.148598 Z-0.125000 I-22.229440 J209.733465
G03 X62.298076 Y74.255191 Z-0.125000 I-389.258465 J3518.328400
G03 X63.260171 Y74.368985 Z-0.125000 I-7.347536 J66.245227
G03 X64.221029 Y74.492538 Z-0.125000 I-20.955550 J166.767351
G03 X65.181491 Y74.631827 Z-0.125000 I-4.774389 J36.302587
G03 X66.138842 Y74.791982 Z-0.125000 I-8.961857 J56.512191
G03 X67.095410 Y74.977192 Z-0.125000 I-4.963559 J28.198484
G03 X68.046165 Y75.191027 Z-0.125000 I-7.773403 J36.782738
G03 X68.995555 Y75.437861 Z-0.125000 I-5.643373 J23.655230
G03 X69.935389 Y75.719789 Z-0.125000 I-7.867611 J27.934897
G03 X70.872997 Y76.041120 Z-0.125000 I-6.890258 J21.633525
G03 X71.796747 Y76.401236 Z-0.125000 I-8.665513 J23.593154
G03 X72.717137 Y76.804765 Z-0.125000 I-8.814967 J21.357058
G03 X73.619737 Y77.247332 Z-0.125000 I-10.117293 J21.775574
G03 X74.517654 Y77.734491 Z-0.125000 I-11.554835 J22.368582
G03 X75.395082 Y78.258036 Z-0.125000 I-12.273673 J21.566923
G03 X76.266532 Y78.824724 Z-0.125000 I-15.296531 J24.476329
G03 X77.116432 Y79.423302 Z-0.125000 I-15.307659 J22.637479
G03 X77.959291 Y80.061761 Z-0.125000 I-19.966553 J27.234366
G03 X78.780857 Y80.727185 Z-0.125000 I-19.342393 J24.720953
G03 X79.594592 Y81.428694 Z-0.125000 I-24.915985 J29.724679
G03 X80.387738 Y82.153159 Z-0.125000 I-23.988844 J27.059459
G03 X81.172432 Y82.910285 Z-0.125000 I-29.907177 J31.781359
G03 X81.937286 Y83.687225 Z-0.125000 I-28.985771 J29.299809
G03 X82.693134 Y84.494039 Z-0.125000 I-34.584199 J33.156970
G03 X83.430170 Y85.317169 Z-0.125000 I-37.104995 J33.965618
G03 X84.156674 Y86.170350 Z-0.125000 I-30.300723 J26.537724
G03 X84.861207 Y87.041485 Z-0.125000 I-37.794304 J31.286690
G03 X85.551617 Y87.947109 Z-0.125000 I-25.866089 J20.435200
G03 X86.213305 Y88.874847 Z-0.125000 I-31.564981 J23.212837
G03 X86.856292 Y89.841299 Z-0.125000 I-26.603237 J18.396434
G03 X87.465527 Y90.830545 Z-0.125000 I-28.593921 J18.292016
G03 X88.053157 Y91.857482 Z-0.125000 I-33.608368 J19.912843
G03 X88.607440 Y92.903544 Z-0.125000 I-29.900598 J16.513510
G03 X89.141728 Y93.979459 Z-0.125000 I-59.389705 J30.162888
G03 X89.651252 Y95.067224 Z-0.125000 I-39.040560 J18.950345
G03 X90.147622 Y96.172429 Z-0.125000 I-263.123357 J118.838232
G03 X90.633094 Y97.281762 Z-0.125000 I-73.623366 J32.880323
G02 X91.114324 Y98.396357 Z-0.125000 I217.094936 J-93.070153
G03 X91.596347 Y99.510044 Z-0.125000 I-332.647688 J144.636913
G02 X92.081438 Y100.619968 Z-0.125000 I106.332812 J-45.811670
G02 X92.575475 Y101.725131 Z-0.125000 I177.540081 J-78.702061
G02 X93.076148 Y102.821942 Z-0.125000 I116.048520 J-52.311308
G02 X93.587502 Y103.912810 Z-0.125000 I101.704712 J-47.009594
G02 X94.104355 Y104.996528 Z-0.125000 I417.278088 J-198.345718
G02 X94.626988 Y106.076734 Z-0.125000 I125.764470 J-60.181735
G03 X95.150191 Y107.156190 Z-0.125000 I-149.509882 J73.132631
G03 X95.669252 Y108.238248 Z-0.125000 I-1211.634171 J581.883636
G03 X96.183723 Y109.326307 Z-0.125000 I-105.419469 J50.511596
G03 X96.688847 Y110.419415 Z-0.125000 I-148.922923 J69.480322
G03 X97.186845 Y111.521518 Z-0.125000 I-114.442205 J52.375600
G03 X97.674234 Y112.628857 Z-0.125000 I-111.122980 J49.571078
G03 X98.154674 Y113.744582 Z-0.125000 I-182.952581 J79.442135
G03 X98.626218 Y114.864754 Z-0.125000 I-109.127440 J46.597333
G02 X99.094409 Y115.988864 Z-0.125000 I423.552532 J-175.749493
G03 X99.561149 Y117.114200 Z-0.125000 I-199.989814 J83.606548
G02 X100.031853 Y118.234838 Z-0.125000 I76.960499 J-31.666688
G02 X100.514328 Y119.349960 Z-0.125000 I164.777453 J-70.631552
G02 X101.007474 Y120.451869 Z-0.125000 I60.985020 J-26.631808
G02 X101.518477 Y121.545041 Z-0.125000 I74.180226 J-34.009541
G02 X102.042610 Y122.620632 Z-0.125000 I61.584064 J-29.344244
G02 X102.584761 Y123.687530 Z-0.125000 I67.362669 J-33.559587
G02 X103.140743 Y124.733878 Z-0.125000 I51.004147 J-26.430420
G00 Z3.000000

(End cutting path id: path478)


(Start cutting path id: path454)
(Change tool to Default tool)

G00 Z3.000000
G00 X10.198233 Y125.652531

G00 Z4.875000 (Fast pre-penetrate)
G01 Z-0.125000 F400.0(Penetrate)
G03 X10.799238 Y125.345552 Z-0.125000 I1087.905186 J2129.289151 F800.000000
G02 X12.001216 Y124.731295 Z-0.125000 I-878.196981 J-1719.979037
G02 X12.902401 Y124.269194 Z-0.125000 I-224.662743 J-439.244782
G03 X13.803721 Y123.808409 Z-0.125000 I103.120437 J200.597049
G03 X14.706395 Y123.350574 Z-0.125000 I239.744420 J471.564514
G03 X15.609480 Y122.896843 Z-0.125000 I80.059255 J158.220905
G03 X16.514723 Y122.447457 Z-0.125000 I115.480178 J231.486767
G03 X17.420552 Y122.004117 Z-0.125000 I60.784920 J123.048035
G03 X18.329238 Y121.566517 Z-0.125000 I82.081693 J169.282339
G03 X19.238675 Y121.137113 Z-0.125000 I43.524084 J91.001986
G03 X20.151992 Y120.717201 Z-0.125000 I40.807184 J87.553369
G03 X21.066001 Y120.305036 Z-0.125000 I98.367942 J216.919323
G03 X21.982417 Y119.898855 Z-0.125000 I47.464751 J105.851860
G02 X22.899102 Y119.495740 Z-0.125000 I-142.300120 J-324.835067
G03 X23.815747 Y119.092038 Z-0.125000 I236.472915 J535.691963
G02 X24.732246 Y118.686622 Z-0.125000 I-81.310864 J-185.053034
G02 X25.647315 Y118.277118 Z-0.125000 I-111.860554 J-251.188692
G02 X26.562121 Y117.864512 Z-0.125000 I-186.062470 J-413.747185
G02 X27.475744 Y117.448175 Z-0.125000 I-74.712271 J-165.161440
G03 X28.389404 Y117.032269 Z-0.125000 I65.947250 J143.660940
G02 X29.304404 Y116.618397 Z-0.125000 I-264.074959 J-585.043030
G03 X30.220094 Y116.213379 Z-0.125000 I22.653429 J49.978706
G03 X31.141230 Y115.821588 Z-0.125000 I38.441024 J89.099484
G03 X32.063608 Y115.447065 Z-0.125000 I17.041787 J40.647543
G03 X32.993261 Y115.091981 Z-0.125000 I19.047427 J48.474068
G03 X33.924251 Y114.757860 Z-0.125000 I16.038306 J43.224783
G03 X34.862058 Y114.443698 Z-0.125000 I15.291917 J44.091144
G03 X35.801007 Y114.150841 Z-0.125000 I14.667430 J45.374583
G03 X36.745859 Y113.877980 Z-0.125000 I13.005362 J43.262183
G03 X37.691616 Y113.625326 Z-0.125000 I14.198165 J51.251382
G03 X38.642058 Y113.391204 Z-0.125000 I11.808506 J45.891528
G03 X39.593171 Y113.175080 Z-0.125000 I14.411119 J61.219222
G03 X40.547769 Y112.975027 Z-0.125000 I11.462497 J52.318358
G03 X41.502839 Y112.790313 Z-0.125000 I14.846585 J74.203135
G03 X42.460418 Y112.618681 Z-0.125000 I12.296367 J65.847705
G03 X43.418335 Y112.460767 Z-0.125000 I12.250437 J71.327357
G03 X44.378324 Y112.315494 Z-0.125000 I11.675804 J73.911583
G03 X45.338581 Y112.184378 Z-0.125000 I8.678980 J59.980312
G03 X46.300735 Y112.067819 Z-0.125000 I8.625154 J67.168317
G03 X47.263112 Y111.967065 Z-0.125000 I6.024394 J52.897121
G03 X48.227097 Y111.882763 Z-0.125000 I5.751347 J60.212118
G03 X49.191243 Y111.816383 Z-0.125000 I3.645777 J45.918243
G03 X50.156533 Y111.768925 Z-0.125000 I3.083036 J52.867922
G03 X51.121889 Y111.742040 Z-0.125000 I1.588267 J39.685474
G03 X52.087639 Y111.737100 Z-0.125000 I0.716213 J45.612803
G03 X53.053318 Y111.755798 Z-0.125000 I-0.190185 J34.767656
G03 X54.018212 Y111.799822 Z-0.125000 I-1.300819 J39.106563
G03 X54.982848 Y111.870434 Z-0.125000 I-1.850565 J31.905104
G03 X55.945085 Y111.968888 Z-0.125000 I-3.097188 J35.021722
G03 X56.906806 Y112.096581 Z-0.125000 I-3.439485 J29.589920
G03 X57.864120 Y112.254134 Z-0.125000 I-4.832452 J32.349945
G03 X58.820545 Y112.443719 Z-0.125000 I-4.864670 J27.048649
G03 X59.770064 Y112.665503 Z-0.125000 I-6.441032 J29.719385
G03 X60.718142 Y112.922601 Z-0.125000 I-6.180172 J24.666664
G03 X61.656210 Y113.214402 Z-0.125000 I-7.892238 J27.025331
G03 X62.592030 Y113.545107 Z-0.125000 I-7.533795 J22.808378
G03 X63.514176 Y113.912627 Z-0.125000 I-9.259613 J24.573984
G03 X64.432954 Y114.322354 Z-0.125000 I-9.146745 J21.745786
G03 X65.334355 Y114.768944 Z-0.125000 I-11.185843 J23.710603
G03 X66.230652 Y115.261677 Z-0.125000 I-10.048810 J19.340690
G03 X67.104423 Y115.793970 Z-0.125000 I-12.213181 J21.031474
G03 X67.970664 Y116.376727 Z-0.125000 I-11.700229 J18.327042
G03 X68.809130 Y116.999949 Z-0.125000 I-13.138664 J18.552032
G03 X69.637542 Y117.674441 Z-0.125000 I-15.516274 J19.903109
G03 X70.436091 Y118.384791 Z-0.125000 I-15.380312 J18.093996
G03 X71.223103 Y119.141374 Z-0.125000 I-22.998366 J24.710976
G03 X71.982591 Y119.925851 Z-0.125000 I-19.497931 J19.636683
G03 X72.731219 Y120.746278 Z-0.125000 I-41.427774 J38.554019
G03 X73.459211 Y121.584904 Z-0.125000 I-27.660696 J24.746952
G03 X74.179506 Y122.445859 Z-0.125000 I-131.730783 J110.940758
G03 X74.889237 Y123.314794 Z-0.125000 I-50.594270 J42.048827
G02 X75.595599 Y124.192774 Z-0.125000 I387.264291 J-310.843244
G03 X76.300187 Y125.071202 Z-0.125000 I-167.746274 J135.271515
G02 X77.004835 Y125.949475 Z-0.125000 I160.590942 J-128.122287
G02 X77.712235 Y126.825043 Z-0.125000 I654.486258 J-528.058078
G02 X78.421616 Y127.695403 Z-0.125000 I120.675209 J-97.631147
G02 X79.136136 Y128.561366 Z-0.125000 I180.258584 J-148.006516
G02 X79.853690 Y129.419116 Z-0.125000 I98.731073 J-81.864804
G02 X80.577766 Y130.271694 Z-0.125000 I138.676046 J-117.040828
G02 X81.305872 Y131.112812 Z-0.125000 I66.620805 J-56.933972
G02 X82.043214 Y131.946189 Z-0.125000 I93.288811 J-81.795713
G02 X82.785899 Y132.763321 Z-0.125000 I46.333662 J-41.366263
G02 X83.541544 Y133.568168 Z-0.125000 I55.648263 J-51.489246
G02 X84.303410 Y134.352483 Z-0.125000 I40.727110 J-38.799156
G02 X85.079801 Y135.121809 Z-0.125000 I41.427988 J-41.032030
G02 X85.862203 Y135.869314 Z-0.125000 I42.561202 J-43.764972
G02 X86.658230 Y136.601467 Z-0.125000 I36.628690 J-39.025383
G02 X87.459091 Y137.314352 Z-0.125000 I58.110955 J-64.476047
G02 X88.270377 Y138.014147 Z-0.125000 I37.529328 J-42.688309
G02 X89.084440 Y138.702124 Z-0.125000 I511.374281 J-604.268627
G02 X89.902476 Y139.384988 Z-0.125000 I63.655305 J-75.424397
G03 X90.720698 Y140.067031 Z-0.125000 I-72.223286 J87.475420
G03 X91.535784 Y140.753507 Z-0.125000 I-900.353439 J1069.861070
G03 X92.348733 Y141.449224 Z-0.125000 I-45.901213 J54.458637
G03 X93.153105 Y142.156729 Z-0.125000 I-58.017079 J66.771350
G03 X93.954463 Y142.876821 Z-0.125000 I-78.483727 J88.147040
G03 X94.748272 Y143.606325 Z-0.125000 I-54.759241 J60.382820
G02 X95.540183 Y144.343455 Z-0.125000 I1558.954398 J-1674.017962
G03 X96.329779 Y145.083382 Z-0.125000 I-102.753421 J110.442150
G02 X97.119762 Y145.821759 Z-0.125000 I76.086906 J-80.612898
G02 X97.914009 Y146.555188 Z-0.125000 I317.455278 J-342.982416
G02 X98.710824 Y147.278122 Z-0.125000 I47.768503 J-51.849738
G02 X99.516812 Y147.989403 Z-0.125000 I58.408877 J-65.373651
G02 X100.326117 Y148.686513 Z-0.125000 I59.763472 J-68.563661
G02 X101.143890 Y149.372837 Z-0.125000 I49.711397 J-58.402143
G02 X101.964259 Y150.047417 Z-0.125000 I109.929089 J-132.850479
G02 X102.790092 Y150.715078 Z-0.125000 I64.353799 J-78.754885
G02 X103.617363 Y151.375931 Z-0.125000 I521.472379 J-651.943800
G02 X104.446898 Y152.034173 Z-0.125000 I125.870693 J-157.774064
G03 X105.276888 Y152.690210 Z-0.125000 I-452.722503 J573.618077
G03 X106.106789 Y153.347215 Z-0.125000 I-6684.779488 J8444.996809
G02 X106.936818 Y154.003584 Z-0.125000 I550.425906 J-695.205246
G03 X107.767294 Y154.659864 Z-0.125000 I-1217.618535 J1541.664493
G02 X108.598299 Y155.313484 Z-0.125000 I128.412280 J-162.406728
G02 X109.431801 Y155.963622 Z-0.125000 I216.849464 J-277.150101
G02 X110.266302 Y156.608639 Z-0.125000 I111.298934 J-143.132344
G02 X111.104270 Y157.248446 Z-0.125000 I106.502200 J-138.619374
G02 X111.943176 Y157.883371 Z-0.125000 I261.904991 J-345.175213
G02 X112.784460 Y158.514030 Z-0.125000 I93.506345 J-123.859371
G03 X113.625723 Y159.144810 Z-0.125000 I-89.928837 J120.814055
G00 Z3.000000

(End cutting path id: path454)


(Start cutting path id: path412)
(Change tool to Default tool)

G00 Z3.000000
G00 X10.198233 Y158.063949

G00 Z4.875000 (Fast pre-penetrate)
G01 Z-0.125000 F400.0(Penetrate)
G03 X10.821107 Y158.281044 Z-0.125000 I-113.815311 J327.551439 F800.000000
G02 X12.066966 Y158.713285 Z-0.125000 I91.581562 J-261.956199
G02 X13.002418 Y159.032394 Z-0.125000 I57.053167 J-165.715652
G03 X13.937875 Y159.351436 Z-0.125000 I-57.438908 J169.943698
G03 X14.872438 Y159.673461 Z-0.125000 I-408.821904 J1187.976351
G03 X15.806708 Y160.000257 Z-0.125000 I-37.891318 J109.825694
G03 X16.738741 Y160.334308 Z-0.125000 I-48.607942 J137.087841
G03 X17.670368 Y160.674885 Z-0.125000 I-57.690820 J159.253984
G03 X18.599817 Y161.022379 Z-0.125000 I-39.273599 J106.462610
G02 X19.529046 Y161.373408 Z-0.125000 I183.075472 J-483.223930
G03 X20.457996 Y161.725363 Z-0.125000 I-90.627741 J240.604950
G02 X21.387100 Y162.074857 Z-0.125000 I41.059269 J-107.743215
G02 X22.318150 Y162.418834 Z-0.125000 I108.972027 J-293.525260
G02 X23.249687 Y162.754711 Z-0.125000 I27.302991 J-74.263575
G02 X24.184675 Y163.079895 Z-0.125000 I32.448278 J-91.790608
G02 X25.120269 Y163.394552 Z-0.125000 I30.783958 J-89.983898
G02 X26.059141 Y163.697853 Z-0.125000 I22.837488 J-69.088923
G02 X26.998426 Y163.993865 Z-0.125000 I377.122989 J-1195.025410
G02 X27.938954 Y164.284660 Z-0.125000 I29.317695 J-93.156798
G03 X28.879356 Y164.577585 Z-0.125000 I-20.030586 J65.961833
G03 X29.817442 Y164.877533 Z-0.125000 I-411.698650 J1289.200119
G03 X30.754503 Y165.193344 Z-0.125000 I-9.897982 J30.917050
G03 X31.684106 Y165.532072 Z-0.125000 I-18.094804 J51.104231
G03 X32.611638 Y165.899085 Z-0.125000 I-9.600777 J25.619105
G03 X33.527128 Y166.296353 Z-0.125000 I-13.329867 J31.971599
G03 X34.439351 Y166.729661 Z-0.125000 I-10.582819 J23.456444
G03 X35.335279 Y167.196560 Z-0.125000 I-13.012901 J26.063345
G03 X36.226506 Y167.703922 Z-0.125000 I-12.381440 J22.785589
G03 X37.097846 Y168.245356 Z-0.125000 I-14.048151 J23.579774
G03 X37.962906 Y168.828884 Z-0.125000 I-15.118709 J23.345968
G03 X38.805784 Y169.444201 Z-0.125000 I-16.310730 J23.227803
G03 X39.640730 Y170.101401 Z-0.125000 I-17.980188 J23.702111
G03 X40.451961 Y170.787453 Z-0.125000 I-19.430527 J23.798509
G03 X41.253282 Y171.515338 Z-0.125000 I-19.667926 J22.457244
G03 X42.028495 Y172.271021 Z-0.125000 I-21.714447 J23.051099
G03 X42.791281 Y173.069260 Z-0.125000 I-21.343024 J21.158683
G03 X43.525003 Y173.894858 Z-0.125000 I-22.853680 J21.049266
G03 X44.243890 Y174.762308 Z-0.125000 I-25.529019 J21.888397
G03 X44.933061 Y175.653791 Z-0.125000 I-25.611699 J20.511549
G03 X45.605884 Y176.583727 Z-0.125000 I-31.524984 J23.517177
G03 X46.250326 Y177.533431 Z-0.125000 I-30.220748 J21.200434
G03 X46.877808 Y178.516913 Z-0.125000 I-38.267094 J25.107137
G03 X47.478996 Y179.516375 Z-0.125000 I-36.356617 J22.549442
G03 X48.062971 Y180.545288 Z-0.125000 I-43.792655 J25.535360
G03 X48.621731 Y181.588151 Z-0.125000 I-40.798693 J22.530818
G03 X49.163676 Y182.656166 Z-0.125000 I-55.339698 J28.752663
G03 X49.682794 Y183.735710 Z-0.125000 I-45.672688 J22.627140
G03 X50.187765 Y184.834187 Z-0.125000 I-98.130856 J45.776172
G03 X50.676521 Y185.940001 Z-0.125000 I-60.251052 J27.291079
G03 X51.156766 Y187.056345 Z-0.125000 I-726.495177 J313.196059
G03 X51.632156 Y188.173433 Z-0.125000 I-177.330086 J76.124532
G03 X52.103045 Y189.295757 Z-0.125000 I-288.794840 J121.828433
G03 X52.568840 Y190.420223 Z-0.125000 I-216.276608 J90.248559
G03 X53.031268 Y191.548496 Z-0.125000 I-490.247413 J201.588885
G03 X53.489434 Y192.679087 Z-0.125000 I-201.253309 J82.215065
G02 X53.947215 Y193.810109 Z-0.125000 I237.836272 J-95.606023
G03 X54.406418 Y194.941427 Z-0.125000 I-407.828861 J166.197198
G02 X54.871977 Y196.065367 Z-0.125000 I66.285507 J-26.798421
G02 X55.350939 Y197.184459 Z-0.125000 I175.542082 J-74.468435
G02 X55.845238 Y198.284229 Z-0.125000 I37.377005 J-16.138381
G02 X56.366462 Y199.372147 Z-0.125000 I57.043742 J-26.660968
G02 X56.910518 Y200.427018 Z-0.125000 I26.902164 J-13.207216
G02 X57.492730 Y201.460544 Z-0.125000 I30.610437 J-16.562922
G02 X58.099861 Y202.451059 Z-0.125000 I25.284125 J-14.816420
G02 X58.746083 Y203.414787 Z-0.125000 I23.288400 J-14.917372
G02 X59.413388 Y204.334390 Z-0.125000 I28.943938 J-20.301120
G02 X60.112581 Y205.228804 Z-0.125000 I23.048003 J-17.296877
G02 X60.826957 Y206.084916 Z-0.125000 I35.469423 J-28.871093
G02 X61.564909 Y206.920872 Z-0.125000 I27.109038 J-23.187199
G02 X62.313509 Y207.725021 Z-0.125000 I37.609545 J-34.261004
G02 X63.080949 Y208.511876 Z-0.125000 I31.927149 J-30.371722
G02 X63.856700 Y209.269818 Z-0.125000 I32.974874 J-32.973676
G02 X64.650410 Y210.008513 Z-0.125000 I29.588927 J-30.996870
G02 X65.450974 Y210.719953 Z-0.125000 I34.808121 J-38.362462
G02 X66.267015 Y211.413188 Z-0.125000 I29.340363 J-33.711046
G02 X67.088356 Y212.082473 Z-0.125000 I39.831831 J-48.042702
G02 X67.921929 Y212.737170 Z-0.125000 I34.970138 J-43.666634
G02 X68.759785 Y213.369791 Z-0.125000 I33.419311 J-43.390083
G02 X69.609542 Y213.987013 Z-0.125000 I34.922028 J-47.185188
G02 X70.463345 Y214.580314 Z-0.125000 I25.234876 J-35.403799
G02 X71.330389 Y215.154072 Z-0.125000 I27.111283 J-40.027625
G02 X72.201373 Y215.700820 Z-0.125000 I21.039664 J-32.549598
G02 X73.086142 Y216.224070 Z-0.125000 I20.216793 J-33.175148
G02 X73.974343 Y216.719894 Z-0.125000 I21.635843 J-37.714277
G02 X74.874425 Y217.192505 Z-0.125000 I17.410255 J-32.064173
G02 X75.776982 Y217.642320 Z-0.125000 I31.578774 J-62.232645
G02 X76.687438 Y218.074933 Z-0.125000 I19.193767 J-39.219888
G02 X77.599228 Y218.493872 Z-0.125000 I157.181088 J-340.891388
G02 X78.514212 Y218.905627 Z-0.125000 I32.116771 J-70.146099
G03 X79.429452 Y219.314609 Z-0.125000 I-52.297538 J118.262522
G02 X80.343542 Y219.727073 Z-0.125000 I854.492616 J-1892.477965
G03 X81.257094 Y220.145460 Z-0.125000 I-35.399278 J78.501219
G03 X82.166848 Y220.573467 Z-0.125000 I-47.788034 J102.757314
G03 X83.075781 Y221.010364 Z-0.125000 I-55.737193 J117.121302
G03 X83.980998 Y221.456211 Z-0.125000 I-38.610861 J79.534581
G02 X84.885749 Y221.907041 Z-0.125000 I208.877420 J-418.053911
G03 X85.789859 Y222.359878 Z-0.125000 I-71.632408 J144.146358
G02 X86.694351 Y222.808583 Z-0.125000 I32.644457 J-64.668073
G02 X87.602946 Y223.248004 Z-0.125000 I71.797282 J-147.297189
G02 X88.512655 Y223.674913 Z-0.125000 I25.242334 J-52.606657
G02 X89.428601 Y224.087100 Z-0.125000 I28.705028 J-62.563328
G02 X90.345824 Y224.483936 Z-0.125000 I27.875718 J-63.171851
G02 X91.268721 Y224.867423 Z-0.125000 I26.810097 J-63.218759
G02 X92.192748 Y225.235585 Z-0.125000 I25.380426 J-62.357154
G02 X93.122116 Y225.589970 Z-0.125000 I24.191904 J-62.046944
G02 X94.052476 Y225.929141 Z-0.125000 I23.872623 J-64.037875
G02 X94.987711 Y226.254379 Z-0.125000 I21.687637 J-60.856510
G02 X95.923784 Y226.565225 Z-0.125000 I24.763834 J-73.008158
G02 X96.863957 Y226.863065 Z-0.125000 I20.507708 J-63.102796
G02 X97.804776 Y227.148591 Z-0.125000 I30.813757 J-99.839443
G02 X98.748614 Y227.423718 Z-0.125000 I22.285419 J-74.694975
G02 X99.692888 Y227.689753 Z-0.125000 I49.476543 J-173.804439
G02 X100.639047 Y227.948905 Z-0.125000 I28.853970 J-103.488847
G02 X101.585447 Y228.202685 Z-0.125000 I161.802822 J-601.506155
G02 X102.532708 Y228.453365 Z-0.125000 I50.687142 J-189.619346
G03 X103.480049 Y228.702104 Z-0.125000 I-222.287322 J848.528266
G02 X104.427462 Y228.951250 Z-0.125000 I719.717259 J-2734.852817
G02 X105.374892 Y229.199924 Z-0.125000 I419.263201 J-1595.444913
G03 X106.322412 Y229.449214 Z-0.125000 I-141.280436 J538.916205
G02 X107.270039 Y229.695668 Z-0.125000 I33.717193 J-127.698783
G02 X108.218904 Y229.938274 Z-0.125000 I293.041662 J-1144.149592
G02 X109.168081 Y230.171436 Z-0.125000 I13.390916 J-52.464356
G02 X110.120432 Y230.391664 Z-0.125000 I24.412721 J-103.400689
G02 X111.073275 Y230.593605 Z-0.125000 I7.788683 J-34.401439
G02 X112.030607 Y230.772616 Z-0.125000 I9.265592 J-46.901917
G02 X112.988477 Y230.926156 Z-0.125000 I5.359611 J-30.371638
G02 X113.950410 Y231.051062 Z-0.125000 I4.915300 J-34.087587
G02 X114.912765 Y231.147253 Z-0.125000 I3.599799 J-31.152715
G00 Z3.000000

(End cutting path id: path412)


(Start cutting path id: path358)
(Change tool to Default tool)

G00 Z3.000000
G00 X10.198233 Y209.657634

G00 Z4.875000 (Fast pre-penetrate)
G01 Z-0.125000 F400.0(Penetrate)
G03 X10.774379 Y210.041500 Z-0.125000 I-51.667123 J78.171590 F800.000000
G02 X11.927885 Y210.800836 Z-0.125000 I41.657181 J-62.025547
G02 X12.799807 Y211.357311 Z-0.125000 I57.352094 J-88.901674
G02 X13.673700 Y211.899718 Z-0.125000 I35.781255 J-56.673425
G02 X14.555322 Y212.428134 Z-0.125000 I34.062752 J-55.831477
G02 X15.438753 Y212.942820 Z-0.125000 I56.758143 J-96.406692
G02 X16.327837 Y213.446466 Z-0.125000 I33.775518 J-58.587252
G03 X17.217830 Y213.942896 Z-0.125000 I-259.330802 J465.969940
G02 X18.109066 Y214.436502 Z-0.125000 I62.590530 J-111.959669
G03 X18.999855 Y214.933641 Z-0.125000 I-34.017372 J62.000140
G03 X19.886203 Y215.439290 Z-0.125000 I-115.074362 J202.742353
G03 X20.770637 Y215.959426 Z-0.125000 I-23.200113 J40.461243
G03 X21.645820 Y216.495764 Z-0.125000 I-36.932895 J61.248400
G03 X22.517667 Y217.054890 Z-0.125000 I-20.633523 J33.133231
G03 X23.376206 Y217.635019 Z-0.125000 I-26.601287 J40.292890
G03 X24.230007 Y218.243296 Z-0.125000 I-21.217517 J30.685051
G03 X25.067364 Y218.875045 Z-0.125000 I-23.382897 J31.863871
G03 X25.898987 Y219.536223 Z-0.125000 I-26.914123 J34.705878
G03 X26.713797 Y220.218797 Z-0.125000 I-24.866267 J30.511329
G03 X27.522909 Y220.926948 Z-0.125000 I-43.102322 J50.063655
G03 X28.318433 Y221.650223 Z-0.125000 I-33.176842 J37.290036
G03 X29.109251 Y222.392389 Z-0.125000 I-73.287176 J78.883957
G03 X29.890240 Y223.145089 Z-0.125000 I-45.239764 J47.721519
G03 X30.668300 Y223.908759 Z-0.125000 I-442.589432 J451.707140
G03 X31.442337 Y224.676024 Z-0.125000 I-93.706983 J95.308189
G02 X32.215498 Y225.446447 Z-0.125000 I264.804891 J-264.972793
G03 X32.988560 Y226.217553 Z-0.125000 I-195.946170 J197.216307
G02 X33.763024 Y226.983552 Z-0.125000 I62.241819 J-62.155116
G02 X34.543752 Y227.743840 Z-0.125000 I241.132374 J-246.834219
G02 X35.328723 Y228.487752 Z-0.125000 I31.369238 J-32.314532
G02 X36.127934 Y229.216340 Z-0.125000 I50.060695 J-54.110458
G02 X36.933673 Y229.916902 Z-0.125000 I22.044299 J-24.540233
G02 X37.759325 Y230.593047 Z-0.125000 I25.769492 J-30.625369
G02 X38.592085 Y231.233668 Z-0.125000 I19.126487 J-24.001438
G02 X39.445609 Y231.845258 Z-0.125000 I18.562454 J-25.004079
G02 X40.305275 Y232.419905 Z-0.125000 I18.792343 J-27.182810
G02 X41.183023 Y232.965880 Z-0.125000 I16.365326 J-25.331464
G02 X42.065409 Y233.477607 Z-0.125000 I19.010027 J-31.762927
G02 X42.962390 Y233.963518 Z-0.125000 I16.333357 J-29.080220
G02 X43.862782 Y234.418041 Z-0.125000 I17.058450 J-32.672978
G02 X44.775689 Y234.846460 Z-0.125000 I14.716575 J-30.172287
G02 X45.691146 Y235.246072 Z-0.125000 I16.867342 J-37.392423
G02 X46.616628 Y235.621195 Z-0.125000 I13.559867 J-32.124904
G02 X47.543912 Y235.971839 Z-0.125000 I19.418098 J-49.950096
G02 X48.478340 Y236.302564 Z-0.125000 I14.134258 J-38.449392
G02 X49.413929 Y236.614590 Z-0.125000 I25.761381 J-75.685022
G02 X50.354145 Y236.912325 Z-0.125000 I16.897103 J-51.725858
G02 X51.295053 Y237.197210 Z-0.125000 I39.902414 J-130.092220
G02 X52.238713 Y237.473037 Z-0.125000 I23.378539 J-78.230634
G02 X53.182760 Y237.740867 Z-0.125000 I70.525266 J-246.789344
G02 X54.128314 Y238.004124 Z-0.125000 I44.419626 J-157.714648
G02 X55.074121 Y238.261559 Z-0.125000 I46.503681 J-168.987023
G02 X56.021351 Y238.514475 Z-0.125000 I62.708741 J-232.958787
G02 X56.968866 Y238.760023 Z-0.125000 I23.568425 J-88.994465
G02 X57.918568 Y238.997028 Z-0.125000 I32.569504 J-128.487444
G02 X58.868638 Y239.223408 Z-0.125000 I16.748163 J-68.181897
G02 X59.821450 Y239.437372 Z-0.125000 I18.109537 J-78.415782
G02 X60.774657 Y239.638933 Z-0.125000 I16.116931 J-73.864341
G02 X61.730371 Y239.827317 Z-0.125000 I13.339853 J-65.157633
G02 X62.686399 Y240.005028 Z-0.125000 I25.812608 J-136.202533
G02 X63.643981 Y240.173358 Z-0.125000 I13.897713 J-76.252701
G03 X64.601713 Y240.336453 Z-0.125000 I-86.313755 J509.746490
G02 X65.559763 Y240.496675 Z-0.125000 I20.987504 J-122.550752
G03 X66.517675 Y240.661170 Z-0.125000 I-9.470335 J58.020254
G03 X67.473857 Y240.836063 Z-0.125000 I-33.506432 J185.889695
G03 X68.429512 Y241.026401 Z-0.125000 I-6.777012 J36.520488
G03 X69.380956 Y241.238469 Z-0.125000 I-10.575428 J49.686974
G03 X70.331562 Y241.472930 Z-0.125000 I-8.600636 J36.915101
G03 X71.276126 Y241.732424 Z-0.125000 I-9.225289 J35.428996
G03 X72.219793 Y242.013354 Z-0.125000 I-17.407468 J60.198706
G03 X73.157944 Y242.313674 Z-0.125000 I-11.434268 J37.334223
G02 X74.095565 Y242.625736 Z-0.125000 I138.061784 J-413.255212
G03 X75.031659 Y242.943337 Z-0.125000 I-22.417166 J67.610589
G02 X75.967963 Y243.256111 Z-0.125000 I13.905998 J-40.070472
G02 X76.908714 Y243.554429 Z-0.125000 I40.979595 J-127.597151
G02 X77.850323 Y243.831632 Z-0.125000 I8.580124 J-27.407361
G02 X78.799388 Y244.081525 Z-0.125000 I11.104605 J-40.246842
G02 X79.749476 Y244.299478 Z-0.125000 I5.867645 J-23.398113
G02 X80.706962 Y244.481695 Z-0.125000 I5.765262 J-27.687638
G02 X81.665266 Y244.626005 Z-0.125000 I3.856513 J-22.355547
G02 X82.628671 Y244.729888 Z-0.125000 I2.991159 J-23.220621
G02 X83.592560 Y244.794515 Z-0.125000 I2.116179 J-24.341630
G02 X84.558194 Y244.819366 Z-0.125000 I1.062157 J-22.499211
G02 X85.523989 Y244.808194 Z-0.125000 I0.130554 J-30.465540
G02 X86.488714 Y244.763042 Z-0.125000 I-0.686697 J-25.000712
G02 X87.453350 Y244.688555 Z-0.125000 I-2.907475 J-43.936487
G02 X88.415700 Y244.590773 Z-0.125000 I-3.221184 J-36.486812
G02 X89.377672 Y244.467983 Z-0.125000 I-4.432918 J-38.558207
G02 X90.336224 Y244.320866 Z-0.125000 I-5.248225 J-37.391611
G02 X91.294222 Y244.149443 Z-0.125000 I-6.703539 J-40.225373
G02 X92.247712 Y243.953821 Z-0.125000 I-6.844743 J-35.783819
G02 X93.200587 Y243.736739 Z-0.125000 I-12.631065 J-57.643414
G02 X94.149062 Y243.500673 Z-0.125000 I-9.647040 J-40.783740
G02 X95.097041 Y243.249909 Z-0.125000 I-41.219015 J-157.739879
G02 X96.042314 Y242.988841 Z-0.125000 I-16.142796 J-60.291578
G03 X96.987405 Y242.722836 Z-0.125000 I45.417168 J159.550847
G02 X97.932632 Y242.457227 Z-0.125000 I-51.955812 J-186.710735
G03 X98.878083 Y242.197765 Z-0.125000 I15.502007 J54.635481
G03 X99.826579 Y241.950345 Z-0.125000 I31.083704 J117.218936
G03 X100.775598 Y241.718307 Z-0.125000 I10.715301 J41.768000
G03 X101.728933 Y241.505346 Z-0.125000 I12.729501 J54.744392
G03 X102.682866 Y241.313039 Z-0.125000 I8.384769 J39.130283
G03 X103.640937 Y241.143378 Z-0.125000 I7.855986 J41.572402
G03 X104.599527 Y240.995693 Z-0.125000 I7.248221 J43.861905
G03 X105.561139 Y240.870293 Z-0.125000 I5.587143 J39.094328
G03 X106.523124 Y240.764207 Z-0.125000 I7.494735 J63.547617
G03 X107.486781 Y240.675743 Z-0.125000 I4.604765 J44.867838
G03 X108.450651 Y240.600451 Z-0.125000 I13.644945 J168.472418
G03 X109.415175 Y240.534706 Z-0.125000 I5.156152 J68.535893
G02 X110.379768 Y240.474055 Z-0.125000 I-16.653559 J-272.557881
G03 X111.344398 Y240.413434 Z-0.125000 I17.247021 J266.740024
G02 X112.309007 Y240.350981 Z-0.125000 I-7.954019 J-130.333280
G02 X113.273314 Y240.283496 Z-0.125000 I-21.862005 J-319.310364
G02 X114.237550 Y240.209932 Z-0.125000 I-7.237741 J-101.225171
G02 X115.201171 Y240.128150 Z-0.125000 I-10.386784 J-128.102436
G02 X116.164690 Y240.038345 Z-0.125000 I-9.481156 J-106.937485
G02 X117.127388 Y239.939534 Z-0.125000 I-9.729197 J-99.528836
G02 X118.089987 Y239.833346 Z-0.125000 I-18.830794 J-175.118294
G02 X119.051853 Y239.720225 Z-0.125000 I-12.242867 J-108.246820
G03 X120.013664 Y239.603024 Z-0.125000 I229.009202 J1875.358961
G02 X120.975251 Y239.483924 Z-0.125000 I-26.280707 J-216.126839
G03 X121.936851 Y239.365582 Z-0.125000 I20.189291 J160.083549
G03 X122.898864 Y239.251736 Z-0.125000 I34.926654 J291.013013
G03 X123.860931 Y239.141279 Z-0.125000 I30.668379 J262.873066
G03 X124.823385 Y239.034389 Z-0.125000 I28.959212 J256.368527
G03 X125.785891 Y238.930795 Z-0.125000 I34.740127 J318.250771
G03 X126.748722 Y238.830193 Z-0.125000 I32.042772 J302.015121
G03 X127.711598 Y238.732726 Z-0.125000 I30.353348 J295.052779
G03 X128.674782 Y238.638240 Z-0.125000 I32.676621 J328.149663
G03 X129.638011 Y238.547208 Z-0.125000 I22.273521 J230.538010
G03 X130.601583 Y238.459775 Z-0.125000 I26.997771 J292.181375
G03 X131.565204 Y238.376647 Z-0.125000 I15.386871 J172.738254
G03 X132.529232 Y238.298402 Z-0.125000 I17.693557 J212.017132
G03 X133.493313 Y238.225459 Z-0.125000 I11.886616 J150.697385
G03 X134.457810 Y238.158527 Z-0.125000 I11.526782 J159.119495
G03 X135.422359 Y238.097224 Z-0.125000 I11.495120 J173.245376
G03 X136.387242 Y238.041549 Z-0.125000 I9.606885 J158.105785
G03 X137.352163 Y237.990991 Z-0.125000 I11.778549 J215.564921
G03 X138.317320 Y237.945403 Z-0.125000 I8.298989 J165.461944
G03 X139.282500 Y237.903615 Z-0.125000 I21.099795 J476.173304
G03 X140.247803 Y237.865019 Z-0.125000 I8.899990 J210.499666
G02 X141.213115 Y237.827748 Z-0.125000 I-19.764685 J-524.434914
G03 X142.178421 Y237.790513 Z-0.125000 I20.376831 J515.731347
G02 X143.143708 Y237.750985 Z-0.125000 I-5.490856 J-145.893212
G02 X144.108808 Y237.706666 Z-0.125000 I-12.914934 J-291.767113
G02 X145.073868 Y237.656854 Z-0.125000 I-5.704455 J-119.893056
G02 X146.038552 Y237.599591 Z-0.125000 I-7.265977 J-130.560425
G02 X147.003191 Y237.536199 Z-0.125000 I-11.541930 J-183.005744
G00 Z3.000000

(End cutting path id: path358)


(Start cutting path id: path360)
(Change tool to Default tool)

G00 Z3.000000
G00 X10.198233 Y207.011804

G00 Z4.875000 (Fast pre-penetrate)
G01 Z-0.125000 F400.0(Penetrate)
G03 X10.781577 Y207.375250 Z-0.125000 I-74.056743 J119.513244 F800.000000
G02 X11.948995 Y208.096676 Z-0.125000 I59.640443 J-95.205498
G02 X12.828718 Y208.629885 Z-0.125000 I106.313890 J-174.411439
G02 X13.709825 Y209.152328 Z-0.125000 I36.872634 J-61.181969
G02 X14.597389 Y209.662333 Z-0.125000 I39.660960 J-67.994790
G02 X15.486460 Y210.160053 Z-0.125000 I53.513329 J-94.547294
G02 X16.380773 Y210.646952 Z-0.125000 I34.744412 J-62.752079
G03 X17.275921 Y211.126799 Z-0.125000 I-394.920114 J737.792394
G02 X18.172442 Y211.603258 Z-0.125000 I57.341830 J-106.814650
G03 X19.068566 Y212.083058 Z-0.125000 I-32.535520 J61.843438
G03 X19.960380 Y212.571626 Z-0.125000 I-104.271907 J191.392283
G03 X20.850453 Y213.074241 Z-0.125000 I-23.401897 J42.481466
G03 X21.731883 Y213.592658 Z-0.125000 I-36.194583 J62.547732
G03 X22.610367 Y214.132595 Z-0.125000 I-21.397257 J35.798273
G03 X23.476820 Y214.692115 Z-0.125000 I-27.756258 J43.932971
G03 X24.339079 Y215.278310 Z-0.125000 I-20.879597 J31.639916
G03 X25.186096 Y215.887060 Z-0.125000 I-24.220381 J34.594009
G03 X26.027740 Y216.525211 Z-0.125000 I-23.703989 J32.136810
G03 X26.852398 Y217.186012 Z-0.125000 I-23.934911 J30.714938
G03 X27.671144 Y217.874849 Z-0.125000 I-32.914079 J39.952399
G03 X28.474065 Y218.582808 Z-0.125000 I-27.130713 J31.579168
G03 X29.271869 Y219.312354 Z-0.125000 I-69.048086 J76.309363
G03 X30.058937 Y220.053716 Z-0.125000 I-38.582921 J41.750141
G02 X30.843154 Y220.806217 Z-0.125000 I1505.002911 J-1567.649244
G03 X31.624632 Y221.559867 Z-0.125000 I-135.976046 J141.778786
G03 X32.405079 Y222.317337 Z-0.125000 I-896.050127 J924.012047
G03 X33.183886 Y223.076772 Z-0.125000 I-196.914728 J202.717722
G02 X33.962636 Y223.836417 Z-0.125000 I217.400869 J-222.090873
G03 X34.742345 Y224.595970 Z-0.125000 I-353.404014 J363.562212
G02 X35.523808 Y225.348916 Z-0.125000 I57.759212 J-59.164762
G02 X36.312213 Y226.095173 Z-0.125000 I161.794149 J-170.142463
G02 X37.104850 Y226.824456 Z-0.125000 I31.203791 J-33.119165
G02 X37.911516 Y227.538068 Z-0.125000 I46.771248 J-52.057425
G02 X38.724289 Y228.224394 Z-0.125000 I22.801375 J-26.177812
G02 X39.555767 Y228.887010 Z-0.125000 I25.755424 J-31.465992
G02 X40.393673 Y229.516403 Z-0.125000 I20.661655 J-26.634236
G02 X41.250418 Y230.118643 Z-0.125000 I19.255355 J-26.482084
G02 X42.112536 Y230.688029 Z-0.125000 I22.300458 J-32.828180
G02 X42.990035 Y231.233492 Z-0.125000 I19.230876 J-29.958606
G02 X43.871584 Y231.748925 Z-0.125000 I20.957857 J-34.832822
G02 X44.766322 Y232.241286 Z-0.125000 I18.739396 J-32.994769
G02 X45.664216 Y232.705223 Z-0.125000 I18.725265 J-35.139669
G02 X46.573865 Y233.145130 Z-0.125000 I16.422418 J-32.798162
G02 X47.485958 Y233.558691 Z-0.125000 I19.297942 J-41.348281
G02 X48.407495 Y233.950112 Z-0.125000 I15.441539 J-35.074100
G02 X49.330773 Y234.319439 Z-0.125000 I23.335931 J-56.998678
G02 X50.260758 Y234.671149 Z-0.125000 I16.620359 J-42.541901
G02 X51.191860 Y235.006526 Z-0.125000 I34.337575 J-93.870458
G02 X52.127162 Y235.329939 Z-0.125000 I21.029296 J-59.302101
G02 X53.063097 Y235.642973 Z-0.125000 I68.975912 J-204.674295
G02 X54.001271 Y235.949480 Z-0.125000 I33.056265 J-99.591479
G02 X54.939753 Y236.250537 Z-0.125000 I232.236636 J-722.333471
G02 X55.879177 Y236.549432 Z-0.125000 I87.021814 J-271.883125
G02 X56.818771 Y236.845066 Z-0.125000 I100.308777 J-317.164114
G02 X57.759235 Y237.138590 Z-0.125000 I177.514850 J-567.113265
G02 X58.699922 Y237.427522 Z-0.125000 I39.598379 J-127.246028
G02 X59.642319 Y237.710911 Z-0.125000 I64.895838 J-214.099774
G02 X60.585068 Y237.986676 Z-0.125000 I26.310321 J-88.196817
G02 X61.530321 Y238.253174 Z-0.125000 I30.526349 J-106.465570
G02 X62.475984 Y238.510222 Z-0.125000 I26.378760 J-95.177668
G02 X63.424117 Y238.757160 Z-0.125000 I22.310865 J-83.720221
G02 X64.372586 Y238.996031 Z-0.125000 I49.945093 J-196.311390
G02 X65.322622 Y239.227266 Z-0.125000 I21.323294 J-85.539956
G03 X66.272734 Y239.456672 Z-0.125000 I-30.452956 J128.206609
G02 X67.222235 Y239.688392 Z-0.125000 I92.351912 J-376.362587
G03 X68.171377 Y239.928172 Z-0.125000 I-12.350943 J50.888097
G03 X69.117210 Y240.181912 Z-0.125000 I-23.462981 J89.349847
G03 X70.062283 Y240.451798 Z-0.125000 I-12.058049 J44.013824
G03 X71.002032 Y240.741290 Z-0.125000 I-14.158643 J47.631911
G03 X71.940877 Y241.048665 Z-0.125000 I-19.549453 J61.299134
G03 X72.874378 Y241.373528 Z-0.125000 I-14.549291 J43.311339
G03 X73.807267 Y241.709813 Z-0.125000 I-635.511253 J1764.435705
G03 X74.738072 Y242.053140 Z-0.125000 I-23.625680 J65.485791
G02 X75.669024 Y242.393684 Z-0.125000 I17.819603 J-47.271132
G02 X76.603839 Y242.723114 Z-0.125000 I80.441836 J-226.776798
G02 X77.539567 Y243.033726 Z-0.125000 I10.024169 J-28.633334
G02 X78.483096 Y243.319147 Z-0.125000 I14.056644 J-44.765388
G02 X79.427828 Y243.573959 Z-0.125000 I6.906985 J-23.729316
G02 X80.381058 Y243.794467 Z-0.125000 I7.231882 J-29.092029
G02 X81.335325 Y243.977314 Z-0.125000 I4.690760 J-21.899298
G02 X82.296312 Y244.119736 Z-0.125000 I3.955860 J-23.378672
G02 X83.257997 Y244.222055 Z-0.125000 I2.958208 J-23.233128
G02 X84.223029 Y244.283345 Z-0.125000 I1.879712 J-21.969014
G02 X85.188395 Y244.306984 Z-0.125000 I1.177374 J-28.357355
G02 X86.153867 Y244.294500 Z-0.125000 I0.176975 J-23.652221
G02 X87.119390 Y244.250900 Z-0.125000 I-1.367227 J-40.990456
G02 X88.083287 Y244.182007 Z-0.125000 I-1.901354 J-33.379515
G02 X89.046922 Y244.087192 Z-0.125000 I-3.381038 J-39.307012
G02 X90.007819 Y243.968262 Z-0.125000 I-4.165511 J-37.596598
G02 X90.968247 Y243.824459 Z-0.125000 I-5.188818 J-37.933928
G02 X91.924669 Y243.655338 Z-0.125000 I-5.686894 J-34.949781
G02 X92.880532 Y243.463401 Z-0.125000 I-9.696913 J-50.767577
G02 X93.832074 Y243.250556 Z-0.125000 I-8.061087 J-38.271211
G02 X94.783119 Y243.020933 Z-0.125000 I-25.730424 J-108.653962
G02 X95.731077 Y242.778559 Z-0.125000 I-12.947629 J-52.614944
G03 X96.678787 Y242.528711 Z-0.125000 I79.646030 J300.186484
G02 X97.625941 Y242.276611 Z-0.125000 I-31.491220 J-120.219427
G03 X98.573215 Y242.028128 Z-0.125000 I16.941081 J62.653456
G03 X99.522839 Y241.789373 Z-0.125000 I45.057413 J177.203829
G03 X100.472884 Y241.563994 Z-0.125000 I10.994277 J44.229214
G03 X101.426786 Y241.356206 Z-0.125000 I13.905802 J61.544574
G03 X102.381220 Y241.167728 Z-0.125000 I8.480160 J40.431899
G03 X103.339535 Y241.000857 Z-0.125000 I8.211017 J44.319446
G03 X104.298336 Y240.855250 Z-0.125000 I7.159261 J43.913166
G03 X105.260068 Y240.731585 Z-0.125000 I5.661984 J40.231167
G03 X106.222164 Y240.627179 Z-0.125000 I7.126564 J61.186358
G03 X107.185924 Y240.540706 Z-0.125000 I4.501788 J44.759229
G03 X108.149902 Y240.467866 Z-0.125000 I11.478697 J145.496406
G03 X109.114546 Y240.405366 Z-0.125000 I4.701802 J65.093029
G02 X110.079273 Y240.348576 Z-0.125000 I-18.406328 J-320.905403
G03 X111.044063 Y240.292481 Z-0.125000 I13.117832 J217.289362
G02 X112.008837 Y240.234893 Z-0.125000 I-7.171226 J-128.250483
G02 X112.973337 Y240.172330 Z-0.125000 I-22.040141 J-347.246165
G02 X113.937772 Y240.103681 Z-0.125000 I-6.527605 J-98.513915
G02 X114.901620 Y240.026693 Z-0.125000 I-9.798148 J-128.740005
G02 X115.865370 Y239.941394 Z-0.125000 I-8.352987 J-99.862563
G02 X116.828290 Y239.846627 Z-0.125000 I-9.012726 J-96.517204
G02 X117.791106 Y239.743864 Z-0.125000 I-15.386130 J-148.719018
G02 X118.753123 Y239.633372 Z-0.125000 I-11.062171 J-100.558476
G02 X119.715077 Y239.517899 Z-0.125000 I-174.553249 J-1458.187837
G01 X121.638285 Y239.280764 Z-0.125000
G03 X122.600239 Y239.166152 Z-0.125000 I46.625867 J387.242811
G03 X123.562246 Y239.054686 Z-0.125000 I28.486701 J241.646773
G03 X124.524650 Y238.946967 Z-0.125000 I28.757571 J252.577812
G03 X125.487106 Y238.842557 Z-0.125000 I35.329391 J321.179087
G03 X126.449887 Y238.741132 Z-0.125000 I32.082727 J299.928062
G03 X127.412712 Y238.642802 Z-0.125000 I31.614729 J304.799713
G03 X128.375845 Y238.547379 Z-0.125000 I33.582420 J334.049635
G03 X129.339016 Y238.455316 Z-0.125000 I23.294026 J238.619025
G03 X130.302529 Y238.366723 Z-0.125000 I28.412699 J303.725714
G03 X131.266088 Y238.282326 Z-0.125000 I15.892976 J175.907345
G03 X132.230055 Y238.202646 Z-0.125000 I18.953136 J223.425260
G03 X133.194070 Y238.128296 Z-0.125000 I11.610958 J144.259399
G03 X134.158523 Y238.060089 Z-0.125000 I11.755073 J159.364842
G03 X135.123033 Y237.997817 Z-0.125000 I10.512373 J155.321916
G03 X136.087907 Y237.941655 Z-0.125000 I9.179649 J149.391159
G03 X137.052822 Y237.891188 Z-0.125000 I9.977271 J181.511535
G03 X138.018006 Y237.846410 Z-0.125000 I7.398130 J149.042588
G03 X138.983222 Y237.806206 Z-0.125000 I13.942564 J323.127245
G03 X139.948582 Y237.770079 Z-0.125000 I7.070206 J176.010504
G02 X140.913959 Y237.736137 Z-0.125000 I-34.716792 J-1001.135309
G00 Z3.000000

(End cutting path id: path360)


(Start cutting path id: path362)
(Change tool to Default tool)

G00 Z3.000000
G00 X10.198233 Y200.397229

G00 Z4.875000 (Fast pre-penetrate)
G01 Z-0.125000 F400.0(Penetrate)
G02 X10.806404 Y200.676249 Z-0.125000 I31.631743 J-68.144095 F800.000000
G03 X12.021812 Y201.243719 Z-0.125000 I-24.880229 J54.873849
G03 X12.927047 Y201.687084 Z-0.125000 I-29.161771 J60.686582
G03 X13.831075 Y202.142913 Z-0.125000 I-55.193118 J110.586705
G03 X14.730483 Y202.608152 Z-0.125000 I-36.732772 J72.114438
G03 X15.629094 Y203.081153 Z-0.125000 I-264.070337 J502.772569
G03 X16.525652 Y203.557402 Z-0.125000 I-82.170861 J155.771895
G03 X17.421839 Y204.037076 Z-0.125000 I-908.570187 J1698.584038
G03 X18.317330 Y204.516740 Z-0.125000 I-4994.308579 J9325.010536
G03 X19.212378 Y205.000285 Z-0.125000 I-68.234867 J127.373855
G03 X20.104908 Y205.488247 Z-0.125000 I-164.262223 J301.511223
G03 X20.996443 Y205.984515 Z-0.125000 I-40.047795 J72.994072
G03 X21.883072 Y206.489485 Z-0.125000 I-68.418821 J121.161078
G03 X22.767946 Y207.008097 Z-0.125000 I-29.229135 J50.885951
G03 X23.645027 Y207.540077 Z-0.125000 I-41.478717 J69.375470
G03 X24.519440 Y208.090876 Z-0.125000 I-25.628693 J41.655895
G03 X25.383142 Y208.659241 Z-0.125000 I-30.019080 J46.558209
G03 X26.243473 Y209.248993 Z-0.125000 I-30.368581 J45.224110
G03 X27.092389 Y209.855500 Z-0.125000 I-30.341206 J43.365323
G03 X27.937688 Y210.482497 Z-0.125000 I-38.846146 J53.254527
G03 X28.772278 Y211.123743 Z-0.125000 I-35.392592 J46.927634
G03 X29.603340 Y211.782994 Z-0.125000 I-50.044925 J63.940907
G03 X30.424938 Y212.453924 Z-0.125000 I-43.503581 J54.111577
G03 X31.243280 Y213.140062 Z-0.125000 I-64.068145 J77.243752
G03 X32.053718 Y213.834812 Z-0.125000 I-61.422431 J72.470480
G03 X32.860821 Y214.543878 Z-0.125000 I-53.967925 J62.243429
G03 X33.658815 Y215.263652 Z-0.125000 I-54.491058 J61.214980
G03 X34.453305 Y215.997487 Z-0.125000 I-69.268916 J75.791450
G03 X35.239344 Y216.740899 Z-0.125000 I-56.442335 J60.465950
G03 X36.022518 Y217.495196 Z-0.125000 I-147.890407 J154.335861
G03 X36.800143 Y218.255589 Z-0.125000 I-75.148754 J77.629550
G02 X37.576451 Y219.020824 Z-0.125000 I378.035235 J-382.729295
G03 X38.351908 Y219.787135 Z-0.125000 I-168.647790 J171.436212
G02 X39.128204 Y220.550373 Z-0.125000 I79.633733 J-80.219696
G02 X39.909179 Y221.308946 Z-0.125000 I303.163513 J-311.334879
G02 X40.693231 Y222.055808 Z-0.125000 I44.395811 J-45.821567
G02 X41.487355 Y222.792095 Z-0.125000 I74.071791 J-79.093904
G02 X42.286417 Y223.508056 Z-0.125000 I30.166037 J-32.863498
G02 X43.100278 Y224.207365 Z-0.125000 I40.424482 J-46.223088
G02 X43.920284 Y224.878025 Z-0.125000 I21.962905 J-26.017066
G02 X44.759079 Y225.524205 Z-0.125000 I24.209419 J-30.558308
G02 X45.604108 Y226.136442 Z-0.125000 I19.748353 J-26.368029
G02 X46.467829 Y226.720871 Z-0.125000 I18.386793 J-26.243208
G02 X47.336717 Y227.271696 Z-0.125000 I20.688350 J-31.673643
G02 X48.221117 Y227.796348 Z-0.125000 I16.860239 J-27.413393
G02 X49.109214 Y228.292225 Z-0.125000 I24.723505 J-43.235686
G02 X50.008632 Y228.766784 Z-0.125000 I17.995773 J-33.017281
G02 X50.910442 Y229.219517 Z-0.125000 I34.160142 J-66.919883
G02 X51.819698 Y229.656973 Z-0.125000 I22.043054 J-44.653022
G02 X52.730368 Y230.079806 Z-0.125000 I59.125135 J-126.147723
G02 X53.645403 Y230.492800 Z-0.125000 I29.457302 J-64.045798
G03 X54.561084 Y230.898590 Z-0.125000 I-678.214896 J1531.655164
G02 X55.478035 Y231.301287 Z-0.125000 I55.915627 J-126.075868
G03 X56.394890 Y231.705057 Z-0.125000 I-42.959692 J98.792927
G03 X57.309577 Y232.114568 Z-0.125000 I-138.998963 J311.695544
G03 X58.223569 Y232.531855 Z-0.125000 I-35.034917 J77.947221
G03 X59.133391 Y232.959505 Z-0.125000 I-40.495397 J87.335210
G03 X60.042376 Y233.396314 Z-0.125000 I-64.740633 J135.887469
G03 X60.947851 Y233.841456 Z-0.125000 I-39.304738 J81.094220
G02 X61.852926 Y234.290922 Z-0.125000 I142.334541 J-285.478458
G03 X62.757771 Y234.741146 Z-0.125000 I-95.147114 J192.358060
G02 X63.663001 Y235.187210 Z-0.125000 I36.340676 J-72.607166
G02 X64.571969 Y235.624754 Z-0.125000 I73.477635 J-151.481854
G02 X65.481933 Y236.051214 Z-0.125000 I29.377530 J-61.500601
G02 X66.397371 Y236.463993 Z-0.125000 I28.810092 J-62.671903
G02 X67.313792 Y236.865463 Z-0.125000 I58.997212 J-133.424147
G02 X68.233754 Y237.257986 Z-0.125000 I32.209899 J-74.216492
G03 X69.154175 Y237.644969 Z-0.125000 I-215.080530 J512.846870
G02 X70.075232 Y238.030747 Z-0.125000 I85.910180 J-203.820977
G03 X70.996202 Y238.417586 Z-0.125000 I-58.670910 J140.970930
G03 X71.915587 Y238.809389 Z-0.125000 I-101.624368 J239.741104
G03 X72.834660 Y239.205091 Z-0.125000 I-110.218163 J257.262290
G03 X73.752122 Y239.606187 Z-0.125000 I-52.406339 J121.123269
G02 X74.669607 Y240.006952 Z-0.125000 I49.252757 J-111.505548
G03 X75.588726 Y240.405342 Z-0.125000 I-155.236126 J359.402155
G02 X76.508662 Y240.791991 Z-0.125000 I16.048749 J-36.896368
G02 X77.435585 Y241.161196 Z-0.125000 I29.144561 J-71.821958
G02 X78.363992 Y241.506082 Z-0.125000 I10.647780 J-27.240962
G02 X79.302100 Y241.823489 Z-0.125000 I13.175133 J-37.394556
G02 X80.241804 Y242.107294 Z-0.125000 I7.403502 J-22.816051
G02 X81.191524 Y242.355002 Z-0.125000 I7.470302 J-26.696826
G02 X82.142571 Y242.563403 Z-0.125000 I5.272844 J-21.788598
G02 X83.101490 Y242.730721 Z-0.125000 I4.415037 J-22.471566
G02 X84.061308 Y242.857717 Z-0.125000 I3.663172 J-23.995175
G02 X85.025419 Y242.944323 Z-0.125000 I2.448771 J-21.850598
G02 X85.990023 Y242.994581 Z-0.125000 I2.101360 J-31.049507
G02 X86.955672 Y243.011426 Z-0.125000 I0.923707 J-25.265322
G02 X87.921476 Y242.998814 Z-0.125000 I-0.070288 J-42.369465
G02 X88.886586 Y242.962549 Z-0.125000 I-0.901275 J-36.845165
G02 X89.851506 Y242.900154 Z-0.125000 I-1.759863 J-34.708085
G02 X90.814340 Y242.810800 Z-0.125000 I-2.698695 J-34.312175
G02 X91.776829 Y242.695597 Z-0.125000 I-4.111476 J-38.428302
G02 X92.735957 Y242.554585 Z-0.125000 I-4.448368 J-33.589123
G02 X93.694675 Y242.391181 Z-0.125000 I-9.090992 J-56.232408
G02 X94.649857 Y242.207842 Z-0.125000 I-6.984877 J-38.970695
G02 X95.604694 Y242.009509 Z-0.125000 I-33.906298 J-165.632983
G02 X96.557343 Y241.800712 Z-0.125000 I-12.442058 J-59.045110
G03 X97.509874 Y241.587235 Z-0.125000 I32.119772 J141.086251
G02 X98.462632 Y241.374932 Z-0.125000 I-48.920522 J-221.785969
G03 X99.415552 Y241.168937 Z-0.125000 I12.592679 J55.945912
G03 X100.370876 Y240.975250 Z-0.125000 I22.679145 J109.407521
G03 X101.326553 Y240.796071 Z-0.125000 I9.146532 J46.146166
G03 X102.285296 Y240.634717 Z-0.125000 I10.232433 J57.870618
G03 X103.244425 Y240.491943 Z-0.125000 I7.156578 J44.783716
G03 X104.206251 Y240.369591 Z-0.125000 I6.277743 J45.508369
G03 X105.168401 Y240.266098 Z-0.125000 I6.345550 J54.468885
G03 X106.132280 Y240.181416 Z-0.125000 I4.439371 J45.002601
G03 X107.096378 Y240.111962 Z-0.125000 I7.405736 J96.074038
G03 X108.061255 Y240.055574 Z-0.125000 I3.787531 J56.526400
G03 X109.026238 Y240.007619 Z-0.125000 I127.162400 J2549.092087
G03 X109.991413 Y239.963964 Z-0.125000 I5.598871 J113.095392
G02 X110.956593 Y239.920859 Z-0.125000 I-5.346714 J-130.548491
G02 X111.921616 Y239.873607 Z-0.125000 I-38.985374 J-806.066814
G02 X112.886586 Y239.820916 Z-0.125000 I-4.760018 J-96.035774
G02 X113.851118 Y239.760141 Z-0.125000 I-8.586439 J-143.957136
G02 X114.815558 Y239.690683 Z-0.125000 I-5.698558 J-85.855331
G02 X115.779243 Y239.610828 Z-0.125000 I-7.254894 J-93.406904
G02 X116.742817 Y239.521402 Z-0.125000 I-9.020311 J-102.431208
G02 X117.705466 Y239.421998 Z-0.125000 I-8.314670 J-85.231163
G02 X118.668018 Y239.314864 Z-0.125000 I-22.828894 J-209.485500
G02 X119.629863 Y239.201089 Z-0.125000 I-11.902825 J-104.748312
G03 X120.591664 Y239.084055 Z-0.125000 I47.387474 J385.425054
G02 X121.553419 Y238.967025 Z-0.125000 I-46.222095 J-383.864568
G03 X122.515196 Y238.851603 Z-0.125000 I20.358415 J165.575567
G03 X123.477412 Y238.740895 Z-0.125000 I28.389847 J242.513272
G03 X124.439682 Y238.633589 Z-0.125000 I35.931292 J317.847150
G03 X125.402297 Y238.529377 Z-0.125000 I31.103887 J282.810846
G03 X126.364955 Y238.428204 Z-0.125000 I35.989858 J337.811651
G03 X127.327909 Y238.329766 Z-0.125000 I35.198835 J339.568631
G03 X128.290905 Y238.234383 Z-0.125000 I28.087901 J278.670618
G03 X129.254209 Y238.142005 Z-0.125000 I33.627937 J345.598494
G03 X130.217559 Y238.053335 Z-0.125000 I18.760997 J198.548218
G03 X131.181284 Y237.968716 Z-0.125000 I24.229613 J270.423119
G03 X132.145062 Y237.889055 Z-0.125000 I12.445769 J144.704413
G03 X133.109293 Y237.815171 Z-0.125000 I14.352609 J180.980860
G03 X134.073583 Y237.747540 Z-0.125000 I9.400182 J127.121279
G03 X135.038328 Y237.686882 Z-0.125000 I9.306707 J140.318286
G03 X136.003124 Y237.633169 Z-0.125000 I7.665793 J129.000328
G03 X136.968289 Y237.586817 Z-0.125000 I6.447191 J124.176347
G03 X137.933497 Y237.547121 Z-0.125000 I7.102795 J160.949347
G03 X138.898935 Y237.514089 Z-0.125000 I4.725985 J124.002310
G03 X139.864406 Y237.485960 Z-0.125000 I12.377036 J408.235770
G03 X140.829967 Y237.461851 Z-0.125000 I4.527011 J161.959009
G02 X141.795541 Y237.439179 Z-0.125000 I-7.109902 J-323.374819
G03 X142.761098 Y237.416010 Z-0.125000 I12.131107 J485.423750
G02 X143.726635 Y237.389491 Z-0.125000 I-2.488446 J-108.190680
G02 X144.691987 Y237.356019 Z-0.125000 I-5.649918 J-176.886063
G02 X145.657297 Y237.315868 Z-0.125000 I-4.317797 J-115.431954
G02 X146.622272 Y237.267993 Z-0.125000 I-5.791361 J-126.481552
G02 X147.587197 Y237.212725 Z-0.125000 I-6.737798 J-126.086766
G02 X148.551677 Y237.150599 Z-0.125000 I-8.966170 J-146.713213
G02 X149.516073 Y237.080034 Z-0.125000 I-6.019188 J-88.888488
G00 Z3.000000

(End cutting path id: path362)


(Start cutting path id: path364)
(Change tool to Default tool)

G00 Z3.000000
G00 X10.198233 Y199.735771

G00 Z4.875000 (Fast pre-penetrate)
G01 Z-0.125000 F400.0(Penetrate)
G02 X10.808161 Y200.007754 Z-0.125000 I27.670142 J-61.230913 F800.000000
G03 X12.027008 Y200.562199 Z-0.125000 I-21.705439 J49.332476
G03 X12.934294 Y200.997385 Z-0.125000 I-27.064210 J57.587424
G03 X13.840174 Y201.447374 Z-0.125000 I-37.746030 J77.123869
G03 X14.740131 Y201.909684 Z-0.125000 I-29.884464 J59.281880
G03 X15.638958 Y202.383014 Z-0.125000 I-92.771567 J177.257956
G03 X16.534178 Y202.862784 Z-0.125000 I-50.344800 J95.015212
G03 X17.428714 Y203.348792 Z-0.125000 I-243.814650 J449.826625
G03 X18.321536 Y203.836797 Z-0.125000 I-158.562547 J291.156314
G03 X19.213770 Y204.329842 Z-0.125000 I-79.577974 J145.061252
G03 X20.103402 Y204.827246 Z-0.125000 I-130.868661 J235.109325
G03 X20.992099 Y205.332265 Z-0.125000 I-49.515962 J88.169288
G03 X21.876547 Y205.844444 Z-0.125000 I-82.396068 J143.304034
G03 X22.759435 Y206.368510 Z-0.125000 I-33.636701 J57.673118
G03 X23.635477 Y206.904012 Z-0.125000 I-50.176799 J83.069829
G03 X24.509064 Y207.456610 Z-0.125000 I-27.026832 J43.692797
G03 X25.372657 Y208.025533 Z-0.125000 I-33.238284 J51.393714
G03 X26.232995 Y208.614997 Z-0.125000 I-29.902220 J44.565701
G03 X27.081978 Y209.221498 Z-0.125000 I-30.181228 J43.145184
G03 X27.927465 Y209.847879 Z-0.125000 I-41.924435 J57.473353
G03 X28.762822 Y210.487646 Z-0.125000 I-36.966931 J49.133685
G03 X29.594875 Y211.144386 Z-0.125000 I-53.853367 J69.084729
G03 X30.418137 Y211.811951 Z-0.125000 I-46.540699 J58.236830
G03 X31.238364 Y212.493836 Z-0.125000 I-66.301638 J80.587360
G03 X32.051155 Y213.183821 Z-0.125000 I-66.082999 J78.668335
G03 X32.860732 Y213.887768 Z-0.125000 I-52.355340 J61.028999
G03 X33.661274 Y214.602433 Z-0.125000 I-55.510476 J62.986537
G03 X34.458258 Y215.331555 Z-0.125000 I-62.600215 J69.226818
G03 X35.246335 Y216.070854 Z-0.125000 I-54.543071 J58.931373
G03 X36.031265 Y216.822210 Z-0.125000 I-111.911174 J117.697601
G03 X36.809669 Y217.580738 Z-0.125000 I-67.656894 J70.208471
G02 X37.586275 Y218.345894 Z-0.125000 I5641.658333 J-5725.303239
G03 X38.360701 Y219.113513 Z-0.125000 I-124.327090 J126.203973
G02 X39.135393 Y219.880163 Z-0.125000 I99.162451 J-99.427864
G02 X39.913373 Y220.643612 Z-0.125000 I1160.868635 J-1182.186475
G02 X40.693913 Y221.397491 Z-0.125000 I49.870005 J-50.852680
G02 X41.483266 Y222.142307 Z-0.125000 I92.810859 J-97.569796
G02 X42.277213 Y222.868742 Z-0.125000 I32.469378 J-34.689873
G02 X43.085032 Y223.580057 Z-0.125000 I46.335426 J-51.807392
G02 X43.898940 Y224.263991 Z-0.125000 I22.649180 J-26.127130
G02 X44.731519 Y224.924310 Z-0.125000 I25.919092 J-31.825687
G02 X45.570557 Y225.550875 Z-0.125000 I19.821524 J-25.668061
G02 X46.428865 Y226.149595 Z-0.125000 I18.902607 J-26.183685
G02 X47.292682 Y226.714003 Z-0.125000 I20.405524 J-30.287072
G02 X48.172848 Y227.251547 Z-0.125000 I16.874089 J-26.639979
G02 X49.057017 Y227.759249 Z-0.125000 I24.217209 J-41.150863
G02 X49.953228 Y228.244804 Z-0.125000 I17.729026 J-31.653359
G02 X50.852035 Y228.707599 Z-0.125000 I33.634023 J-64.217478
G02 X51.758748 Y229.154544 Z-0.125000 I21.640419 J-42.758486
G02 X52.666985 Y229.586284 Z-0.125000 I59.034361 J-123.017317
G02 X53.579812 Y230.007990 Z-0.125000 I29.387367 J-62.413291
G03 X54.493346 Y230.422107 Z-0.125000 I-1664.503701 J3673.073583
G02 X55.408311 Y230.832806 Z-0.125000 I54.219304 J-119.566513
G03 X56.323212 Y231.244243 Z-0.125000 I-45.086110 J101.479657
G03 X57.236037 Y231.660978 Z-0.125000 I-182.158690 J400.213000
G03 X58.148136 Y232.085588 Z-0.125000 I-33.348692 J72.827729
G03 X59.055811 Y232.520884 Z-0.125000 I-41.391399 J87.472993
G03 X59.962522 Y232.966337 Z-0.125000 I-51.609992 J106.196534
G03 X60.865008 Y233.421499 Z-0.125000 I-36.351428 J73.199299
G02 X61.766907 Y233.882700 Z-0.125000 I385.388362 J-752.531513
G03 X62.667725 Y234.346494 Z-0.125000 I-68.486074 J134.125693
G02 X63.568789 Y234.807737 Z-0.125000 I40.796397 J-78.587234
G02 X64.473131 Y235.261861 Z-0.125000 I112.804693 J-223.511823
G02 X65.378470 Y235.705438 Z-0.125000 I28.990809 J-58.024430
G02 X66.289577 Y236.135273 Z-0.125000 I31.175294 J-64.900648
G02 X67.201802 Y236.552876 Z-0.125000 I46.788318 J-101.000680
G02 X68.118335 Y236.959994 Z-0.125000 I30.419592 J-67.247657
G02 X69.035518 Y237.359701 Z-0.125000 I839.652694 J-1925.445016
G02 X69.954167 Y237.756128 Z-0.125000 I59.574495 J-136.790716
G03 X70.872885 Y238.151691 Z-0.125000 I-77.650243 J181.612167
G03 X71.790655 Y238.550535 Z-0.125000 I-233.345602 J538.200438
G03 X72.708202 Y238.952054 Z-0.125000 I-118.684947 J272.466679
G03 X73.624396 Y239.358283 Z-0.125000 I-63.723791 J144.956738
G02 X74.540625 Y239.764059 Z-0.125000 I56.962223 J-127.381197
G03 X75.458306 Y240.168040 Z-0.125000 I-146.795282 J334.703614
G02 X76.376775 Y240.561034 Z-0.125000 I17.172653 J-38.864644
G02 X77.301949 Y240.937731 Z-0.125000 I32.499258 J-78.494092
G02 X78.228605 Y241.291021 Z-0.125000 I11.137482 J-27.820980
G02 X79.164924 Y241.617693 Z-0.125000 I14.069421 J-38.821115
G02 X80.102885 Y241.911436 Z-0.125000 I7.746378 J-23.090780
G02 X81.051062 Y242.169817 Z-0.125000 I7.952586 J-27.314619
G02 X82.000635 Y242.389241 Z-0.125000 I5.534975 J-21.788546
G02 X82.958503 Y242.567907 Z-0.125000 I4.730642 J-22.705059
G02 X83.917335 Y242.706180 Z-0.125000 I3.905824 J-23.690737
G02 X84.880949 Y242.803848 Z-0.125000 I2.697869 J-21.815367
G02 X85.845111 Y242.864692 Z-0.125000 I2.388517 J-30.179890
G02 X86.810698 Y242.891289 Z-0.125000 I1.163878 J-24.712549
G02 X87.776487 Y242.887949 Z-0.125000 I0.337326 J-42.085617
G02 X88.741812 Y242.860617 Z-0.125000 I-0.541374 J-36.181006
G02 X89.706983 Y242.806968 Z-0.125000 I-1.450306 J-34.800539
G02 X90.670303 Y242.726430 Z-0.125000 I-2.394181 J-34.438360
G02 X91.633306 Y242.619823 Z-0.125000 I-3.669228 J-37.547763
G02 X92.593120 Y242.486973 Z-0.125000 I-4.119955 J-33.299456
G02 X93.552530 Y242.331184 Z-0.125000 I-8.178296 J-53.397370
G02 X94.508428 Y242.154697 Z-0.125000 I-6.521231 J-37.997551
G02 X95.463978 Y241.962384 Z-0.125000 I-27.599440 J-139.604407
G02 X96.417202 Y241.758639 Z-0.125000 I-11.439511 J-55.851486
G03 X97.370288 Y241.549219 Z-0.125000 I37.432048 J168.083063
G02 X98.323372 Y241.339901 Z-0.125000 I-37.824787 J-174.501326
G03 X99.276588 Y241.135967 Z-0.125000 I12.978112 J58.331753
G03 X100.232025 Y240.943557 Z-0.125000 I25.249114 J122.909520
G03 X101.187798 Y240.764998 Z-0.125000 I9.274009 J46.993646
G03 X102.146544 Y240.603776 Z-0.125000 I10.633228 J60.301795
G03 X103.105659 Y240.460765 Z-0.125000 I7.196870 J44.978583
G03 X104.067455 Y240.337940 Z-0.125000 I6.410684 J46.372691
G03 X105.029569 Y240.233901 Z-0.125000 I6.298557 J53.745764
G00 Z3.000000

(End cutting path id: path364)


(Start cutting path id: path366)
(Change tool to Default tool)

G00 Z3.000000
G00 X10.198233 Y199.074314

G00 Z4.875000 (Fast pre-penetrate)
G01 Z-0.125000 F400.0(Penetrate)
G02 X10.809669 Y199.340134 Z-0.125000 I25.082983 J-56.859391 F800.000000
G03 X12.031479 Y199.883027 Z-0.125000 I-19.645839 J45.860308
G03 X12.940648 Y200.310656 Z-0.125000 I-25.879201 J56.201325
G03 X13.848243 Y200.755053 Z-0.125000 I-28.937806 J60.248849
G03 X14.748783 Y201.214377 Z-0.125000 I-25.742123 J51.581815
G03 X15.647877 Y201.687798 Z-0.125000 I-55.420045 J106.341127
G03 X16.541819 Y202.170815 Z-0.125000 I-36.830653 J69.232992
G03 X17.434743 Y202.663001 Z-0.125000 I-128.512907 J234.204218
G03 X18.324781 Y203.159435 Z-0.125000 I-79.381229 J143.365628
G03 X19.214043 Y203.662373 Z-0.125000 I-88.714320 J157.896392
G03 X20.100452 Y204.169936 Z-0.125000 I-101.270062 J177.886245
G03 X20.985957 Y204.684695 Z-0.125000 I-63.237926 J109.802737
G03 X21.867786 Y205.205260 Z-0.125000 I-97.300355 J165.832658
G03 X22.748248 Y205.736027 Z-0.125000 I-40.022334 J67.386724
G03 X23.622838 Y206.276245 Z-0.125000 I-62.890927 J102.795739
G03 X24.495213 Y206.831673 Z-0.125000 I-29.191534 J46.812065
G03 X25.358454 Y207.401872 Z-0.125000 I-38.028410 J58.510900
G03 X26.218587 Y207.991525 Z-0.125000 I-29.661002 J44.188899
G03 X27.067550 Y208.598192 Z-0.125000 I-30.843010 J44.058751
G03 X27.913092 Y209.224326 Z-0.125000 I-42.790093 J58.668442
G03 X28.748675 Y209.863762 Z-0.125000 I-36.966129 J49.171117
G03 X29.581115 Y210.519433 Z-0.125000 I-60.098455 J77.157327
G03 X30.405456 Y211.184913 Z-0.125000 I-50.104354 J62.908415
G03 X31.226992 Y211.863727 Z-0.125000 I-70.267568 J85.878101
G03 X32.041639 Y212.549988 Z-0.125000 I-72.467449 J86.851215
G03 X32.853234 Y213.249649 Z-0.125000 I-51.884228 J61.005380
G03 X33.656015 Y213.959842 Z-0.125000 I-57.580420 J65.896079
G03 X34.455250 Y214.684610 Z-0.125000 I-58.308603 J65.102597
G03 X35.245312 Y215.419942 Z-0.125000 I-53.763218 J58.556806
G03 X36.032022 Y216.168212 Z-0.125000 I-92.288667 J97.817523
G03 X36.811422 Y216.924545 Z-0.125000 I-62.817568 J65.513078
G03 X37.588609 Y217.689048 Z-0.125000 I-472.622251 J481.241159
G03 X38.362425 Y218.457250 Z-0.125000 I-101.339578 J102.854054
G02 X39.135969 Y219.226447 Z-0.125000 I130.641105 J-130.605867
G03 X39.911441 Y219.993863 Z-0.125000 I-697.414018 J705.509609
G02 X40.688942 Y220.753805 Z-0.125000 I56.679871 J-57.211828
G02 X41.473985 Y221.506135 Z-0.125000 I121.650259 J-126.154187
G02 X42.263227 Y222.242064 Z-0.125000 I35.226453 J-36.987205
G02 X43.065318 Y222.964430 Z-0.125000 I53.969887 J-59.119868
G02 X43.873370 Y223.660848 Z-0.125000 I23.502071 J-26.452412
G02 X44.699803 Y224.334687 Z-0.125000 I27.985303 J-33.478983
G02 X45.532869 Y224.975185 Z-0.125000 I19.984740 J-25.131209
G02 X46.385668 Y225.587974 Z-0.125000 I19.552928 J-26.311369
G02 X47.244306 Y226.165893 Z-0.125000 I20.167295 J-29.036560
G02 X48.120108 Y226.716340 Z-0.125000 I16.955877 J-26.006107
G02 X49.000232 Y227.235898 Z-0.125000 I23.671905 J-39.094609
G02 X49.893152 Y227.732457 Z-0.125000 I17.479737 J-30.381220
G02 X50.788895 Y228.205251 Z-0.125000 I32.887275 J-61.222477
G02 X51.693054 Y228.661532 Z-0.125000 I21.169641 J-40.825390
G02 X52.598860 Y229.101936 Z-0.125000 I58.403972 J-118.971437
G02 X53.509516 Y229.532044 Z-0.125000 I29.123024 J-60.482234
G02 X54.420940 Y229.954124 Z-0.125000 I3952.653644 J-8534.037892
G02 X55.333983 Y230.372449 Z-0.125000 I52.587831 J-113.573446
G03 X56.246991 Y230.791132 Z-0.125000 I-47.662199 J105.140218
G03 X57.158050 Y231.214669 Z-0.125000 I-248.114327 J534.902954
G03 X58.068365 Y231.645986 Z-0.125000 I-32.914304 J70.643473
G03 X58.974148 Y232.087935 Z-0.125000 I-43.779924 J90.877087
G03 X59.878861 Y232.540780 Z-0.125000 I-43.534907 J88.106144
G03 X60.778711 Y233.004525 Z-0.125000 I-34.520300 J68.088000
G03 X61.677785 Y233.475945 Z-0.125000 I-534.422790 J1020.321570
G03 X62.574872 Y233.951789 Z-0.125000 I-54.536782 J103.899312
G02 X63.472041 Y234.426838 Z-0.125000 I47.421339 J-88.474416
G02 X64.371865 Y234.896377 Z-0.125000 I242.805910 J-464.216167
G02 X65.272658 Y235.356220 Z-0.125000 I29.285447 J-56.255420
G02 X66.179342 Y235.802618 Z-0.125000 I34.646468 J-69.226971
G02 X67.087261 Y236.236168 Z-0.125000 I40.080084 J-82.766222
G02 X68.000200 Y236.657957 Z-0.125000 I29.598993 J-62.866513
G02 X68.913974 Y237.070628 Z-0.125000 I151.326456 J-333.862387
G02 X69.830059 Y237.478037 Z-0.125000 I47.063695 J-104.592241
G03 X70.746388 Y237.882668 Z-0.125000 I-115.917505 J263.747080
G02 X71.662444 Y238.288841 Z-0.125000 I920.854996 J-2075.598919
G03 X72.578385 Y238.696374 Z-0.125000 I-134.695721 J303.964777
G03 X73.493284 Y239.107815 Z-0.125000 I-82.594946 J184.884903
G02 X74.408238 Y239.518563 Z-0.125000 I66.076119 J-145.962303
G03 X75.324503 Y239.927973 Z-0.125000 I-147.934681 J332.310463
G02 X76.241529 Y240.327100 Z-0.125000 I18.475530 J-41.195894
G02 X77.164953 Y240.711121 Z-0.125000 I36.532891 J-86.545440
G02 X78.089845 Y241.072668 Z-0.125000 I11.660415 J-28.465284
G02 X79.024340 Y241.408482 Z-0.125000 I15.050028 J-40.412696
G02 X79.960510 Y241.712081 Z-0.125000 I8.105754 J-23.399569
G02 X80.907079 Y241.981103 Z-0.125000 I8.469203 J-27.999532
G02 X81.855104 Y242.211569 Z-0.125000 I5.805291 J-21.815125
G02 X82.811830 Y242.401654 Z-0.125000 I5.062553 J-22.977758
G02 X83.769592 Y242.551325 Z-0.125000 I4.149897 J-23.416515
G02 X84.732628 Y242.660232 Z-0.125000 I2.953346 J-21.803217
G02 X85.696272 Y242.731866 Z-0.125000 I2.667815 J-29.371056
G02 X86.661742 Y242.768482 Z-0.125000 I1.402010 J-24.220479
G02 X87.627458 Y242.774630 Z-0.125000 I0.747225 J-41.520769
G02 X88.592954 Y242.756356 Z-0.125000 I-0.185929 J-35.338060
G02 X89.558332 Y242.711548 Z-0.125000 I-1.141500 J-35.015358
G02 X90.522106 Y242.639985 Z-0.125000 I-2.085802 J-34.615989
G02 X91.485587 Y242.542160 Z-0.125000 I-3.241865 J-36.722598
G02 X92.446059 Y242.417681 Z-0.125000 I-3.793966 J-33.041899
G02 X93.406150 Y242.269732 Z-0.125000 I-7.344813 J-50.851912
G02 X94.362762 Y242.100328 Z-0.125000 I-6.077401 J-37.104384
G02 X95.319024 Y241.914273 Z-0.125000 I-22.924323 J-120.373578
G02 X96.272836 Y241.715803 Z-0.125000 I-10.532131 J-53.006908
G03 X97.226490 Y241.510651 Z-0.125000 I45.592424 J209.618375
G02 X98.179914 Y241.304506 Z-0.125000 I-30.539590 J-143.553457
G03 X99.133445 Y241.102783 Z-0.125000 I13.436199 J61.157785
G03 X100.089008 Y240.911743 Z-0.125000 I28.798076 J141.559151
G03 X101.044878 Y240.733859 Z-0.125000 I9.407952 J47.897220
G03 X102.003628 Y240.572798 Z-0.125000 I11.083924 J63.045175
G03 X102.962734 Y240.429555 Z-0.125000 I7.243784 J45.219205
G03 X103.924496 Y240.306235 Z-0.125000 I6.559121 J47.342152
G03 X104.886573 Y240.201606 Z-0.125000 I6.258327 J53.070465
G03 X105.850413 Y240.115948 Z-0.125000 I4.509045 J45.271252
G03 X106.814478 Y240.045917 Z-0.125000 I6.859948 J87.765320
G03 X107.779367 Y239.989668 Z-0.125000 I3.680597 J54.832364
G03 X108.744370 Y239.942648 Z-0.125000 I31.848867 J643.714479
G00 Z3.000000

(End cutting path id: path366)


(Start cutting path id: path368)
(Change tool to Default tool)

G00 Z3.000000
G00 X10.198233 Y197.089941

G00 Z4.875000 (Fast pre-penetrate)
G01 Z-0.125000 F400.0(Penetrate)
G02 X10.812687 Y197.343130 Z-0.125000 I22.546407 J-53.844822 F800.000000
G03 X12.040542 Y197.861362 Z-0.125000 I-17.609864 J43.437018
G03 X12.954278 Y198.270656 Z-0.125000 I-26.693370 J60.816680
G03 X13.866205 Y198.699870 Z-0.125000 I-18.645308 J40.797984
G03 X14.769008 Y199.149087 Z-0.125000 I-20.801216 J42.936516
G03 X15.669642 Y199.619532 Z-0.125000 I-25.433565 J49.788175
G03 X16.561116 Y200.107800 Z-0.125000 I-22.527339 J42.188050
G03 X17.450555 Y200.613811 Z-0.125000 I-45.257623 J80.586195
G03 X18.333027 Y201.131661 Z-0.125000 I-32.380461 J56.190646
G03 X19.213919 Y201.661956 Z-0.125000 I-79.200398 J132.559195
G03 X20.090063 Y202.199775 Z-0.125000 I-50.120547 J82.632427
G03 X20.965125 Y202.745559 Z-0.125000 I-150.141908 J241.698840
G03 X21.837400 Y203.294884 Z-0.125000 I-107.991790 J172.447840
G03 X22.708763 Y203.850537 Z-0.125000 I-88.649323 J139.979036
G03 X23.577006 Y204.410192 Z-0.125000 I-157.425132 J245.180700
G03 X24.443820 Y204.979158 Z-0.125000 I-43.190372 J66.744891
G03 X25.304584 Y205.557301 Z-0.125000 I-70.480684 J105.864557
G03 X26.162920 Y206.150176 Z-0.125000 I-32.710218 J48.274063
G03 X27.011882 Y206.757287 Z-0.125000 I-40.690274 J57.796939
G03 X27.857605 Y207.382537 Z-0.125000 I-36.625974 J50.425414
G03 X28.692737 Y208.022970 Z-0.125000 I-34.595968 J45.978320
G03 X29.524713 Y208.679727 Z-0.125000 I-66.754814 J85.419933
G03 X30.348813 Y209.346225 Z-0.125000 I-47.696786 J59.818032
G03 X31.170534 Y210.024144 Z-0.125000 I-120.025291 J146.322142
G03 X31.987494 Y210.706252 Z-0.125000 I-110.775578 J133.506245
G03 X32.802045 Y211.399066 Z-0.125000 I-56.732970 J67.526987
G03 X33.609155 Y212.100851 Z-0.125000 I-72.214300 J83.867346
G03 X34.413049 Y212.816120 Z-0.125000 I-53.904830 J61.393302
G03 X35.207941 Y213.541953 Z-0.125000 I-57.125587 J63.358887
G03 X35.999282 Y214.281766 Z-0.125000 I-67.715465 J73.224990
G03 X36.782019 Y215.031208 Z-0.125000 I-57.369512 J60.701739
G03 X37.561719 Y215.791956 Z-0.125000 I-129.086505 J133.082258
G03 X38.335385 Y216.559223 Z-0.125000 I-73.225020 J74.609443
G02 X39.107447 Y217.332258 Z-0.125000 I901.226557 J-899.320446
G03 X39.877877 Y218.107158 Z-0.125000 I-143.628651 J143.570321
G02 X40.648805 Y218.880288 Z-0.125000 I93.352611 J-92.315862
G02 X41.423493 Y219.649870 Z-0.125000 I668.122053 J-671.779645
G02 X42.201026 Y220.408993 Z-0.125000 I47.257453 J-47.625817
G02 X42.987939 Y221.159087 Z-0.125000 I97.256625 J-101.242750
G02 X43.780086 Y221.888284 Z-0.125000 I27.338367 J-28.903557
G02 X44.588746 Y222.598825 Z-0.125000 I37.371959 J-41.717228
G02 X45.404229 Y223.278549 Z-0.125000 I21.076381 J-24.456869
G02 X46.240001 Y223.932080 Z-0.125000 I22.537872 J-27.961510
G02 X47.082466 Y224.550108 Z-0.125000 I19.798222 J-26.104706
G02 X47.944250 Y225.139578 Z-0.125000 I17.707080 J-24.962469
G02 X48.811341 Y225.695380 Z-0.125000 I22.082877 J-33.496610
G02 X49.693662 Y226.225662 Z-0.125000 I16.989629 J-27.269340
G02 X50.579576 Y226.728912 Z-0.125000 I29.909450 J-51.620757
G02 X51.475741 Y227.213228 Z-0.125000 I19.665538 J-35.317332
G02 X52.374028 Y227.679154 Z-0.125000 I53.581242 J-102.203558
G02 X53.278179 Y228.133500 Z-0.125000 I27.351114 J-53.302106
G02 X54.183352 Y228.578128 Z-0.125000 I358.999745 J-729.707667
G02 X55.090794 Y229.017922 Z-0.125000 I47.479877 J-96.810699
G03 X55.998341 Y229.456665 Z-0.125000 I-58.964317 J123.126668
G03 X56.904438 Y229.898866 Z-0.125000 I-9262.512949 J18980.595239
G03 X57.809841 Y230.347860 Z-0.125000 I-35.081151 J71.879032
G03 X58.710865 Y230.806437 Z-0.125000 I-55.452582 J110.069298
G03 X59.610659 Y231.276554 Z-0.125000 I-35.271717 J68.605339
G03 X60.504635 Y231.758779 Z-0.125000 I-35.884765 J67.595089
G03 X61.397329 Y232.252384 Z-0.125000 I-64.844394 J118.326317
G03 X62.285338 Y232.755632 Z-0.125000 I-37.048971 J66.410002
G02 X63.172777 Y233.263803 Z-0.125000 I113.441097 J-197.077747
G03 X64.060203 Y233.772193 Z-0.125000 I-103.626551 J181.915354
G02 X64.948253 Y234.275137 Z-0.125000 I34.535908 J-59.944654
G02 X65.841450 Y234.767561 Z-0.125000 I60.654895 J-108.964241
G02 X66.736056 Y235.247294 Z-0.125000 I32.302969 J-59.164572
G02 X67.637182 Y235.713288 Z-0.125000 I31.767377 J-60.326577
G02 X68.539668 Y236.166347 Z-0.125000 I50.161252 J-98.795005
G02 X69.446948 Y236.609027 Z-0.125000 I33.171282 J-66.833922
G02 X70.355046 Y237.043472 Z-0.125000 I230.334352 J-480.291069
G02 X71.265155 Y237.474060 Z-0.125000 I64.283877 J-134.695854
G03 X72.175552 Y237.901578 Z-0.125000 I-435.068846 J927.659958
G03 X73.086209 Y238.329846 Z-0.125000 I-2695.402203 J5732.606408
G02 X73.997060 Y238.755919 Z-0.125000 I100.144100 J-212.899635
G03 X74.909108 Y239.181130 Z-0.125000 I-247.567999 J532.206897
G02 X75.821863 Y239.597740 Z-0.125000 I23.797326 J-50.929571
G02 X76.740012 Y240.002827 Z-0.125000 I54.334418 J-121.908581
G02 X77.659582 Y240.388290 Z-0.125000 I13.461117 J-30.823541
G02 X78.588390 Y240.750786 Z-0.125000 I18.584362 J-46.246738
G02 X79.518974 Y241.083437 Z-0.125000 I9.316926 J-24.595931
G02 X80.460292 Y241.384108 Z-0.125000 I10.261868 J-30.503236
G02 X81.403254 Y241.647718 Z-0.125000 I6.681109 J-22.080698
G02 X82.356024 Y241.872464 Z-0.125000 I6.172705 J-24.036189
G02 X83.310038 Y242.057007 Z-0.125000 I4.902182 J-22.784092
G02 X84.270827 Y242.200663 Z-0.125000 I3.772997 J-21.949574
G02 X85.232405 Y242.305927 Z-0.125000 I3.475813 J-27.306636
G02 X86.197134 Y242.374212 Z-0.125000 I2.123199 J-23.147425
G02 X87.162263 Y242.410347 Z-0.125000 I1.935359 J-38.784546
G02 X88.127982 Y242.420038 Z-0.125000 I0.806782 J-32.275660
G02 X89.093711 Y242.402436 Z-0.125000 I-0.178742 J-36.308367
G02 X90.058596 Y242.358823 Z-0.125000 I-1.115746 J-35.379926
G02 X91.023267 Y242.288544 Z-0.125000 I-2.043370 J-34.703480
G02 X91.985583 Y242.190588 Z-0.125000 I-2.826609 J-32.544275
G02 X92.947574 Y242.067710 Z-0.125000 I-5.209503 J-44.611397
G02 X93.906317 Y241.921216 Z-0.125000 I-4.836089 J-34.860783
G02 X94.864724 Y241.755642 Z-0.125000 I-14.130043 J-84.646887
G02 X95.820394 Y241.574689 Z-0.125000 I-8.226918 J-46.063101
G03 X96.775857 Y241.383979 Z-0.125000 I185.808754 J928.420698
G02 X97.730444 Y241.188890 Z-0.125000 I-18.651492 J-93.696252
G03 X98.685059 Y240.995154 Z-0.125000 I15.459953 J73.728337
G03 X99.641081 Y240.809209 Z-0.125000 I56.261331 J286.712802
G03 X100.597344 Y240.634104 Z-0.125000 I9.865935 J51.179974
G03 X101.556147 Y240.474146 Z-0.125000 I12.834220 J73.976055
G03 X102.515277 Y240.330643 Z-0.125000 I7.432941 J46.402463
G03 X103.476946 Y240.206099 Z-0.125000 I7.100504 J51.051603
G03 X104.438917 Y240.099799 Z-0.125000 I6.177753 J51.500592
G03 X105.402699 Y240.012544 Z-0.125000 I4.663548 J46.144763
G03 X106.366698 Y239.941399 Z-0.125000 I6.230753 J77.859048
G03 X107.331597 Y239.885040 Z-0.125000 I3.567717 J52.793386
G03 X108.296622 Y239.839090 Z-0.125000 I14.575286 J295.948631
G03 X109.261920 Y239.800197 Z-0.125000 I3.906593 J84.959848
G02 X110.227249 Y239.763890 Z-0.125000 I-5.563301 J-160.770551
G03 X111.192508 Y239.725201 Z-0.125000 I36.365887 J895.234093
G02 X112.157729 Y239.682250 Z-0.125000 I-3.857836 J-97.563666
G02 X113.122623 Y239.631810 Z-0.125000 I-8.487295 J-171.610473
G02 X114.087436 Y239.572980 Z-0.125000 I-4.537237 J-82.352206
G02 X115.051601 Y239.503699 Z-0.125000 I-6.488452 J-97.041267
G02 X116.015656 Y239.424303 Z-0.125000 I-6.777743 J-88.190652
G02 X116.978792 Y239.333903 Z-0.125000 I-7.123900 J-81.075019
G02 X117.941820 Y239.234311 Z-0.125000 I-13.665520 J-136.848271
G02 X118.903974 Y239.126112 Z-0.125000 I-9.514586 J-88.939946
G02 X119.866056 Y239.012398 Z-0.125000 I-223.561862 J-1895.569806
G02 X120.827776 Y238.895506 Z-0.125000 I-18.672828 J-157.635661
G03 X121.789492 Y238.778554 Z-0.125000 I20.040167 J160.772679
G03 X122.751571 Y238.665809 Z-0.125000 I41.615609 J350.955388
G03 X123.713698 Y238.556156 Z-0.125000 I30.836598 J266.292935
G03 X124.676192 Y238.449976 Z-0.125000 I29.899476 J266.614646
G03 X125.638733 Y238.346887 Z-0.125000 I37.974412 J350.021548
G03 X126.601574 Y238.246528 Z-0.125000 I34.788083 J329.088034
G03 X127.564455 Y238.149090 Z-0.125000 I32.058438 J311.993823
G03 X128.527628 Y238.054407 Z-0.125000 I36.455506 J365.901636
G03 X129.490842 Y237.963085 Z-0.125000 I21.763409 J224.423893
G03 X130.454402 Y237.875340 Z-0.125000 I28.529682 J307.960217
G03 X131.418014 Y237.792093 Z-0.125000 I14.030386 J156.787801
G03 X132.382061 Y237.714018 Z-0.125000 I17.497577 J210.063473
G03 X133.346168 Y237.641948 Z-0.125000 I9.718037 J123.516483
G03 X134.310757 Y237.576814 Z-0.125000 I10.390024 J146.694939
G03 X135.275404 Y237.518877 Z-0.125000 I7.467923 J116.280357
G03 X136.240482 Y237.468778 Z-0.125000 I6.775597 J121.201472
G03 X137.205603 Y237.426196 Z-0.125000 I6.096988 J127.229494
G03 X138.171024 Y237.391480 Z-0.125000 I4.455934 J110.475378
G03 X139.136479 Y237.363199 Z-0.125000 I6.657940 J210.791264
G03 X140.102072 Y237.340839 Z-0.125000 I3.389392 J125.506045
G02 X141.067684 Y237.321908 Z-0.125000 I-31.501865 J-1631.478044
G03 X142.033324 Y237.304761 Z-0.125000 I4.499488 J226.188520
G02 X142.998955 Y237.286330 Z-0.125000 I-2.177631 J-139.392610
G02 X143.964510 Y237.263568 Z-0.125000 I-10.367183 J-460.276407
G02 X144.930024 Y237.234868 Z-0.125000 I-2.331732 J-94.698060
G02 X145.895268 Y237.197259 Z-0.125000 I-4.063219 J-116.689217
G02 X146.860470 Y237.151839 Z-0.125000 I-5.277304 J-122.424290
G02 X147.825287 Y237.099096 Z-0.125000 I-6.757282 J-132.460479
G02 X148.790028 Y237.037963 Z-0.125000 I-5.596282 J-95.957202
G00 Z3.000000

(End cutting path id: path368)


(Start cutting path id: path370)
(Change tool to Default tool)

G00 Z3.000000
G00 X10.198233 Y195.767026

G00 Z4.875000 (Fast pre-penetrate)
G01 Z-0.125000 F400.0(Penetrate)
G02 X10.814392 Y196.012774 Z-0.125000 I21.217487 J-52.302731 F800.000000
G03 X12.045666 Y196.516460 Z-0.125000 I-16.541693 J42.193435
G03 X12.961963 Y196.915324 Z-0.125000 I-25.858329 J60.655448
G03 X13.876421 Y197.335090 Z-0.125000 I-16.745271 J37.685412
G03 X14.781370 Y197.775897 Z-0.125000 I-20.077502 J42.367232
G03 X15.683907 Y198.240583 Z-0.125000 I-19.829067 J39.621773
G03 X16.575648 Y198.726558 Z-0.125000 I-19.720860 J37.248015
G03 X17.464795 Y199.234942 Z-0.125000 I-29.898862 J53.323848
G03 X18.344262 Y199.760218 Z-0.125000 I-24.261247 J41.619395
G03 X19.221478 Y200.302746 Z-0.125000 I-55.515808 J90.744166
G03 X20.091742 Y200.856387 Z-0.125000 I-34.779797 J55.630901
G03 X20.960529 Y201.420440 Z-0.125000 I-203.065844 J313.724855
G03 X21.826070 Y201.988511 Z-0.125000 I-78.978074 J121.278259
G03 X22.690790 Y202.562010 Z-0.125000 I-232.641282 J351.714701
G03 X23.553675 Y203.137052 Z-0.125000 I-291.479027 J438.316525
G03 X24.415611 Y203.718049 Z-0.125000 I-67.304884 J100.779734
G03 X25.273647 Y204.304371 Z-0.125000 I-141.839755 J208.492352
G03 X26.129835 Y204.901643 Z-0.125000 I-38.872821 J56.636433
G03 X26.978496 Y205.510134 Z-0.125000 I-56.577259 J79.804245
G03 X27.824267 Y206.134618 Z-0.125000 I-35.766610 J49.325525
G03 X28.659961 Y206.773655 Z-0.125000 I-38.604896 J51.351097
G03 X29.492375 Y207.429538 Z-0.125000 I-51.473049 J66.183199
G03 X30.315599 Y208.097604 Z-0.125000 I-40.958225 J51.312014
G03 X31.136196 Y208.778273 Z-0.125000 I-127.616648 J154.686133
G03 X31.951701 Y209.463670 Z-0.125000 I-89.567683 J107.398073
G03 X32.765008 Y210.158844 Z-0.125000 I-76.699800 J90.557116
G03 X33.572431 Y210.860459 Z-0.125000 I-95.833119 J111.100568
G03 X34.377060 Y211.573786 Z-0.125000 I-56.398097 J64.427317
G03 X35.173498 Y212.296778 Z-0.125000 I-65.325288 J72.761564
G03 X35.966546 Y213.033191 Z-0.125000 I-63.218737 J68.875812
G03 X36.750937 Y213.779363 Z-0.125000 I-59.251235 J63.071561
G03 X37.532080 Y214.537690 Z-0.125000 I-97.051864 J100.753429
G03 X38.306196 Y215.303624 Z-0.125000 I-67.800594 J69.298977
G03 X39.078102 Y216.077473 Z-0.125000 I-405.693108 J405.446603
G03 X39.846573 Y216.855020 Z-0.125000 I-105.796326 J105.329825
G02 X40.614660 Y217.633917 Z-0.125000 I153.397572 J-150.500596
G03 X41.384228 Y218.411602 Z-0.125000 I-484.299941 J480.013918
G02 X42.155690 Y219.182529 Z-0.125000 I60.649305 J-59.919958
G02 X42.934105 Y219.947195 Z-0.125000 I177.075184 J-179.480502
G02 X43.717028 Y220.694721 Z-0.125000 I31.405234 J-32.108596
G02 X44.514521 Y221.426662 Z-0.125000 I48.185957 J-51.700987
G02 X45.318655 Y222.130452 Z-0.125000 I22.455588 J-24.845967
G02 X46.142665 Y222.809963 Z-0.125000 I25.745632 J-30.381084
G02 X46.973762 Y223.454550 Z-0.125000 I19.946910 J-24.860457
G02 X47.825222 Y224.070640 Z-0.125000 I18.753926 J-25.022198
G02 X48.682643 Y224.651729 Z-0.125000 I21.254898 J-30.439338
G02 X49.556946 Y225.205877 Z-0.125000 I16.978985 J-25.821712
G02 X50.435441 Y225.730768 Z-0.125000 I27.790392 J-45.514438
G02 X51.325662 Y226.234867 Z-0.125000 I18.797390 J-32.157393
G02 X52.218405 Y226.718527 Z-0.125000 I48.726171 J-88.873308
G02 X53.117941 Y227.189317 Z-0.125000 I25.688244 J-47.987644
G02 X54.018723 Y227.648931 Z-0.125000 I222.112105 J-434.197872
G02 X54.922318 Y228.102899 Z-0.125000 I44.071869 J-86.595942
G03 X55.826148 Y228.554638 Z-0.125000 I-71.770667 J144.727353
G02 X56.728994 Y229.008715 Z-0.125000 I362.996964 J-720.626275
G03 X57.631215 Y229.468624 Z-0.125000 I-37.565420 J74.808411
G03 X58.529304 Y229.937351 Z-0.125000 I-65.413033 J126.427323
G03 X59.426146 Y230.417263 Z-0.125000 I-35.060724 J66.598173
G03 X60.317097 Y230.908964 Z-0.125000 I-39.288476 J72.242823
G03 X61.206584 Y231.413047 Z-0.125000 I-48.893470 J87.312379
G03 X62.090399 Y231.928159 Z-0.125000 I-36.328567 J63.347402
G03 X62.973210 Y232.451435 Z-0.125000 I-721.671001 J1218.525649
G03 X63.853739 Y232.979377 Z-0.125000 I-55.960713 J94.332467
G02 X64.734449 Y233.505880 Z-0.125000 I44.511061 J-73.456150
G02 X65.618808 Y234.025327 Z-0.125000 I148.253076 J-251.388992
G02 X66.504480 Y234.533957 Z-0.125000 I32.133795 J-54.928715
G02 X67.396891 Y235.029289 Z-0.125000 I38.201408 J-67.773716
G02 X68.290920 Y235.510533 Z-0.125000 I38.363082 J-70.197841
G02 X69.191165 Y235.979022 Z-0.125000 I31.186664 J-58.828904
G02 X70.092638 Y236.436140 Z-0.125000 I78.738208 J-154.160528
G02 X70.997804 Y236.885843 Z-0.125000 I43.055395 J-85.526386
G02 X71.903611 Y237.329216 Z-0.125000 I354.264994 J-722.613338
G02 X72.810873 Y237.770616 Z-0.125000 I125.957970 J-257.743328
G02 X73.718507 Y238.208097 Z-0.125000 I115.542966 J-238.554655
G03 X74.627607 Y238.644172 Z-0.125000 I-23008.615920 J47968.015316
G02 X75.537407 Y239.072217 Z-0.125000 I28.949370 J-60.350266
G02 X76.451985 Y239.490881 Z-0.125000 I71.470508 J-154.920270
G02 X77.367943 Y239.891721 Z-0.125000 I14.941589 J-32.896038
G02 X78.292781 Y240.271523 Z-0.125000 I21.551744 J-51.163663
G02 X79.219437 Y240.623203 Z-0.125000 I10.262436 J-25.644250
G02 X80.156901 Y240.944804 Z-0.125000 I11.711760 J-32.612486
G02 X81.096127 Y241.230587 Z-0.125000 I7.338976 J-22.433250
G02 X82.045777 Y241.478814 Z-0.125000 I7.038145 J-24.985430
G02 X82.996819 Y241.687255 Z-0.125000 I5.437695 J-22.536428
G02 X83.955622 Y241.855065 Z-0.125000 I4.382407 J-22.216405
G02 X84.915348 Y241.983969 Z-0.125000 I4.009791 J-26.216817
G02 X85.879203 Y242.074956 Z-0.125000 I2.634224 J-22.754595
G02 X86.843568 Y242.132588 Z-0.125000 I2.649541 J-36.237686
G02 X87.809170 Y242.161825 Z-0.125000 I1.389185 J-29.920264
G02 X88.774886 Y242.163166 Z-0.125000 I0.535423 J-37.857181
G02 X89.740285 Y242.139314 Z-0.125000 I-0.410101 J-36.147395
G02 X90.705530 Y242.088691 Z-0.125000 I-1.282568 J-33.682958
G02 X91.668935 Y242.009900 Z-0.125000 I-2.168723 J-32.446985
G02 X92.632062 Y241.905367 Z-0.125000 I-4.005945 J-41.398423
G02 X93.592215 Y241.775896 Z-0.125000 I-4.054999 J-33.696770
G02 X94.552048 Y241.625814 Z-0.125000 I-10.558508 J-70.669953
G02 X95.509055 Y241.458399 Z-0.125000 I-6.943234 J-42.509244
G02 X96.465838 Y241.279175 Z-0.125000 I-125.443126 J-672.320205
G02 X97.421360 Y241.093280 Z-0.125000 I-14.352340 J-76.321314
G03 X98.376865 Y240.906547 Z-0.125000 I17.705408 J88.059883
G03 X99.333325 Y240.725386 Z-0.125000 I235.347933 J1239.927346
G03 X100.289975 Y240.553324 Z-0.125000 I10.200504 J53.968399
G03 X101.248906 Y240.395177 Z-0.125000 I14.462070 J84.705158
G03 X102.208133 Y240.252414 Z-0.125000 I7.584648 J47.667307
G03 X103.169790 Y240.127789 Z-0.125000 I7.544039 J54.440583
G03 X104.131733 Y240.020946 Z-0.125000 I6.142191 J50.916207
G03 X105.095487 Y239.933027 Z-0.125000 I4.790015 J47.181166
G03 X106.059461 Y239.861405 Z-0.125000 I5.901278 J72.903524
G03 X107.024371 Y239.805120 Z-0.125000 I3.513300 J51.930812
G03 X107.989409 Y239.759956 Z-0.125000 I10.682443 J217.921572
G03 X108.954752 Y239.722882 Z-0.125000 I3.486623 J78.199651
G02 X109.920135 Y239.689280 Z-0.125000 I-6.035947 J-187.298785
G03 X110.885480 Y239.654275 Z-0.125000 I16.291775 J435.947520
G02 X111.850794 Y239.615586 Z-0.125000 I-3.450634 J-98.158266
G02 X112.815826 Y239.569662 Z-0.125000 I-8.441346 J-187.544244
G02 X113.780784 Y239.515521 Z-0.125000 I-4.088326 J-81.493037
G02 X114.745143 Y239.450977 Z-0.125000 I-6.159969 J-99.274255
G02 X115.709396 Y239.376160 Z-0.125000 I-6.025323 J-83.905550
G02 X116.672749 Y239.289990 Z-0.125000 I-6.668944 J-79.985169
G02 X117.635994 Y239.194084 Z-0.125000 I-11.497531 J-120.362345
G02 X118.598311 Y239.088815 Z-0.125000 I-8.732875 J-84.282879
G02 X119.560550 Y238.977134 Z-0.125000 I-63.201653 J-548.742492
G02 X120.522300 Y238.861050 Z-0.125000 I-15.225111 J-130.181731
G03 X121.484039 Y238.744050 Z-0.125000 I21.719341 J174.520574
G03 X122.446059 Y238.630528 Z-0.125000 I67.555890 J568.360136
G03 X123.408121 Y238.519800 Z-0.125000 I27.854738 J237.779911
G03 X124.370567 Y238.412802 Z-0.125000 I29.389259 J259.975226
G03 X125.333057 Y238.308932 Z-0.125000 I38.516759 J352.397024
G03 X126.295853 Y238.207808 Z-0.125000 I34.368434 J322.586088
G03 X127.258690 Y238.109569 Z-0.125000 I33.748449 J325.998659
G03 X128.221809 Y238.013997 Z-0.125000 I37.375678 J371.749745
G03 X129.184970 Y237.921657 Z-0.125000 I23.192482 J236.841776
G03 X130.148467 Y237.832703 Z-0.125000 I30.463508 J324.699275
G03 X131.112010 Y237.748048 Z-0.125000 I14.842838 J163.416188
G03 X132.075981 Y237.668306 Z-0.125000 I19.020584 J224.066246
G03 X133.040008 Y237.594413 Z-0.125000 I9.997927 J124.109379
G03 X134.004527 Y237.527324 Z-0.125000 I11.036469 J151.702749
G03 X134.969104 Y237.467455 Z-0.125000 I7.479801 J112.709869
G03 X135.934133 Y237.415546 Z-0.125000 I7.010896 J121.340513
G03 X136.899211 Y237.371443 Z-0.125000 I5.865124 J117.763340
G03 X137.864614 Y237.335639 Z-0.125000 I4.457642 J107.160534
G03 X138.830055 Y237.306853 Z-0.125000 I5.699635 J174.953683
G03 X139.795656 Y237.284770 Z-0.125000 I3.128222 J115.658641
G03 X140.761278 Y237.266949 Z-0.125000 I37.676059 J2015.324935
G03 X141.726940 Y237.251891 Z-0.125000 I3.364255 J184.775863
G02 X142.692599 Y237.236495 Z-0.125000 I-2.115763 J-163.001238
G00 Z3.000000

(End cutting path id: path370)


(Start cutting path id: path372)
(Change tool to Default tool)

G00 Z3.000000
G00 X10.198233 Y195.105569

G00 Z4.875000 (Fast pre-penetrate)
G01 Z-0.125000 F400.0(Penetrate)
G02 X10.815316 Y195.347219 Z-0.125000 I20.896479 J-52.452810 F800.000000
G03 X12.048466 Y195.842684 Z-0.125000 I-16.270034 J42.276440
G03 X12.966308 Y196.235227 Z-0.125000 I-25.980117 J62.015812
G03 X13.882323 Y196.648939 Z-0.125000 I-15.884442 J36.391283
G03 X14.788718 Y197.084231 Z-0.125000 I-19.611245 J41.997179
G03 X15.692634 Y197.544391 Z-0.125000 I-18.232335 J36.932623
G03 X16.585238 Y198.027007 Z-0.125000 I-18.906047 J36.033708
G03 X17.475033 Y198.533948 Z-0.125000 I-25.598937 J45.966273
G03 X18.353977 Y199.060010 Z-0.125000 I-21.983966 J37.728069
G03 X19.230329 Y199.605781 Z-0.125000 I-45.492507 J74.024375
G03 X20.098418 Y200.164856 Z-0.125000 I-29.860858 J47.319131
G03 X20.964747 Y200.736138 Z-0.125000 I-180.279671 J274.330507
G03 X21.827204 Y201.312355 Z-0.125000 I-64.322328 J97.208576
G03 X22.688789 Y201.894231 Z-0.125000 I-534.522191 J792.395671
G03 X23.548877 Y202.476983 Z-0.125000 I-303.061377 J448.217323
G03 X24.408204 Y203.064429 Z-0.125000 I-91.816591 J135.233230
G03 X25.264615 Y203.655457 Z-0.125000 I-238.057598 J345.866026
G03 X26.119478 Y204.255550 Z-0.125000 I-44.050332 J63.660889
G03 X26.967849 Y204.865150 Z-0.125000 I-70.890240 J99.551892
G03 X27.813564 Y205.489369 Z-0.125000 I-36.318384 J50.090517
G03 X28.649699 Y206.127439 Z-0.125000 I-42.057703 J55.979774
G03 X29.482567 Y206.782243 Z-0.125000 I-46.919336 J60.535410
G03 X30.305869 Y207.449857 Z-0.125000 I-40.498826 J50.784664
G03 X31.126309 Y208.131151 Z-0.125000 I-97.052630 J117.709124
G03 X31.940588 Y208.818986 Z-0.125000 I-69.520197 J83.125970
G03 X32.752573 Y209.517026 Z-0.125000 I-92.773669 J108.738824
G03 X33.559165 Y210.220538 Z-0.125000 I-102.592663 J118.439005
G03 X34.363151 Y210.934932 Z-0.125000 I-61.152541 J69.631300
G03 X35.159588 Y211.658099 Z-0.125000 I-72.560195 J80.711901
G03 X35.952792 Y212.394036 Z-0.125000 I-63.169715 J68.880827
G03 X36.737563 Y213.139506 Z-0.125000 I-62.003693 J66.058255
G03 X37.519071 Y213.897163 Z-0.125000 I-89.620281 J93.223335
G03 X38.293305 Y214.662714 Z-0.125000 I-67.397313 J68.935998
G03 X39.065122 Y215.436899 Z-0.125000 I-253.772029 J253.767938
G03 X39.832811 Y216.215490 Z-0.125000 I-97.092602 J96.500840
G02 X40.599740 Y216.996724 Z-0.125000 I216.837012 J-212.099581
G03 X41.367137 Y217.777763 Z-0.125000 I-282.937242 J278.762437
G02 X42.135968 Y218.553747 Z-0.125000 I70.182923 J-68.767106
G02 X42.910570 Y219.324748 Z-0.125000 I275.344174 J-275.855868
G02 X43.689268 Y220.080518 Z-0.125000 I34.102406 J-34.357929
G02 X44.481403 Y220.822304 Z-0.125000 I56.021758 J-59.030370
G02 X45.279994 Y221.537527 Z-0.125000 I23.413370 J-25.339075
G02 X46.097999 Y222.229682 Z-0.125000 I27.904360 J-32.148563
G02 X46.923224 Y222.887540 Z-0.125000 I20.171340 J-24.456642
G02 X47.769156 Y223.517212 Z-0.125000 I19.499164 J-25.313062
G02 X48.621370 Y224.111443 Z-0.125000 I20.947424 J-29.133474
G02 X49.491262 Y224.678169 Z-0.125000 I17.099499 J-25.295733
G02 X50.365671 Y225.214569 Z-0.125000 I26.793593 J-42.696546
G02 X51.252606 Y225.729217 Z-0.125000 I18.449924 J-30.774665
G02 X52.142301 Y226.222313 Z-0.125000 I46.103970 J-82.136445
G02 X53.039337 Y226.701763 Z-0.125000 I24.813688 J-45.346694
G02 X53.937753 Y227.169200 Z-0.125000 I184.989970 J-354.455005
G02 X54.839298 Y227.630537 Z-0.125000 I42.372438 J-81.692660
G03 X55.741159 Y228.088975 Z-0.125000 I-81.141139 J160.740902
G02 X56.642310 Y228.549132 Z-0.125000 I235.067026 J-459.232350
G03 X57.542884 Y229.014544 Z-0.125000 I-39.283691 J77.118061
G03 X58.439502 Y229.488299 Z-0.125000 I-72.630695 J138.544600
G03 X59.334881 Y229.972954 Z-0.125000 I-35.224417 J66.145012
G03 X60.224366 Y230.469260 Z-0.125000 I-40.741106 J74.061803
G03 X61.112342 Y230.978099 Z-0.125000 I-46.781739 J82.668100
G03 X61.994456 Y231.497970 Z-0.125000 I-37.743589 J65.051477
G03 X62.875385 Y232.027192 Z-0.125000 I-163.118926 J272.521291
G03 X63.753008 Y232.562977 Z-0.125000 I-48.165052 J79.881584
G02 X64.630544 Y233.099425 Z-0.125000 I54.977247 J-88.947300
G02 X65.510681 Y233.631005 Z-0.125000 I603.451315 J-998.140241
G02 X66.391995 Y234.153249 Z-0.125000 I33.267845 J-55.136489
G02 X67.279843 Y234.663000 Z-0.125000 I44.363016 J-76.240308
G02 X68.169387 Y235.158609 Z-0.125000 I35.493778 J-62.659898
G02 X69.065708 Y235.640717 Z-0.125000 I31.497230 J-57.484507
G02 X69.963450 Y236.110142 Z-0.125000 I60.228113 J-114.088765
G02 X70.865751 Y236.570480 Z-0.125000 I38.118630 J-73.601147
G02 X71.768893 Y237.022818 Z-0.125000 I171.321784 J-340.934911
G02 X72.674190 Y237.471658 Z-0.125000 I82.745460 J-165.757953
G02 X73.579980 Y237.915492 Z-0.125000 I115.120527 J-233.794906
G02 X74.487492 Y238.357366 Z-0.125000 I392.448518 J-804.850786
G02 X75.395725 Y238.791267 Z-0.125000 I32.026707 J-65.870170
G02 X76.308483 Y239.216682 Z-0.125000 I79.976052 J-170.402490
G02 X77.222600 Y239.625093 Z-0.125000 I15.818480 J-34.178159
G02 X78.145390 Y240.013470 Z-0.125000 I23.277561 J-54.017367
G02 X79.070011 Y240.374616 Z-0.125000 I10.784642 J-26.247037
G02 X80.005432 Y240.706680 Z-0.125000 I12.530757 J-33.815554
G02 X80.942674 Y241.003615 Z-0.125000 I7.697821 J-22.669653
G02 X81.890602 Y241.263736 Z-0.125000 I7.517794 J-25.538948
G02 X82.840004 Y241.484368 Z-0.125000 I5.722617 J-22.472026
G02 X83.797644 Y241.664614 Z-0.125000 I4.713711 J-22.409668
G02 X84.756280 Y241.805778 Z-0.125000 I4.281698 J-25.751169
G02 X85.719563 Y241.908681 Z-0.125000 I2.905769 J-22.641004
G02 X86.683410 Y241.977638 Z-0.125000 I2.984121 J-34.940035
G02 X87.648862 Y242.017139 Z-0.125000 I1.661730 J-28.795848
G02 X88.614488 Y242.028419 Z-0.125000 I0.935364 J-38.736769
G02 X89.580065 Y242.014894 Z-0.125000 I-0.030108 J-36.623718
G02 X90.545521 Y241.974611 Z-0.125000 I-0.905272 J-33.285801
G02 X91.509417 Y241.905973 Z-0.125000 I-1.827124 J-32.461135
G02 X92.473066 Y241.811228 Z-0.125000 I-3.448150 J-40.019121
G02 X93.433914 Y241.690936 Z-0.125000 I-3.669488 J-33.208107
G02 X94.394454 Y241.549302 Z-0.125000 I-9.141248 J-65.322242
G02 X95.352167 Y241.389372 Z-0.125000 I-6.353770 J-40.996034
G02 X96.309646 Y241.216623 Z-0.125000 I-64.316235 J-359.219136
G02 X97.265697 Y241.036052 Z-0.125000 I-12.722301 J-69.980637
G03 X98.221708 Y240.853514 Z-0.125000 I19.307721 J98.526514
G02 X99.178443 Y240.675348 Z-0.125000 I-304.902684 J-1639.955179
G03 X100.135345 Y240.505358 Z-0.125000 I10.369370 J55.592383
G03 X101.094383 Y240.348630 Z-0.125000 I15.470737 J91.655308
G03 X102.053701 Y240.206699 Z-0.125000 I7.664354 J48.490531
G03 X103.015376 Y240.082432 Z-0.125000 I7.789414 J56.497591
G03 X103.977330 Y239.975657 Z-0.125000 I6.124557 J50.790427
G03 X104.941084 Y239.887684 Z-0.125000 I4.855380 J47.868153
G03 X105.905053 Y239.816050 Z-0.125000 I5.751294 J70.872618
G00 Z3.000000

(End cutting path id: path372)


(Start cutting path id: path374)
(Change tool to Default tool)

G00 Z3.000000
G00 X10.198233 Y194.444111

G00 Z4.875000 (Fast pre-penetrate)
G01 Z-0.125000 F400.0(Penetrate)
G02 X10.816270 Y194.681491 Z-0.125000 I20.808731 J-53.253846 F800.000000
G03 X12.051369 Y195.168211 Z-0.125000 I-16.207387 J42.938245
G03 X12.970915 Y195.553758 Z-0.125000 I-26.445362 J64.362728
G03 X13.888678 Y195.960441 Z-0.125000 I-15.252528 J35.659310
G03 X14.796873 Y196.388941 Z-0.125000 I-19.420035 J42.336927
G03 X15.702564 Y196.843006 Z-0.125000 I-16.881476 J34.802645
G03 X16.596567 Y197.320574 Z-0.125000 I-18.204732 J35.154634
G03 X17.487599 Y197.824122 Z-0.125000 I-22.530110 J40.907323
G03 X18.366802 Y198.348698 Z-0.125000 I-20.359238 J35.121690
G03 X19.243096 Y198.895371 Z-0.125000 I-37.487867 J61.067194
G03 X20.109749 Y199.457705 Z-0.125000 I-26.109778 J41.188579
G03 X20.974315 Y200.034369 Z-0.125000 I-139.058035 J209.420054
G03 X21.834113 Y200.617337 Z-0.125000 I-52.288571 J78.044022
G03 X22.692909 Y201.206699 Z-0.125000 I-3198.895714 J4662.228465
G03 X23.550280 Y201.796730 Z-0.125000 I-242.876725 J353.840946
G03 X24.407020 Y202.390584 Z-0.125000 I-137.554876 J199.362273
G03 X25.261699 Y202.986512 Z-0.125000 I-487.187991 J699.634831
G03 X26.115117 Y203.589743 Z-0.125000 I-51.480117 J73.736596
G03 X26.963103 Y204.200714 Z-0.125000 I-93.927413 J131.258684
G03 X27.808696 Y204.824792 Z-0.125000 I-37.573216 J51.794609
G03 X28.645342 Y205.461795 Z-0.125000 I-46.909399 J62.479263
G03 X29.478784 Y206.115185 Z-0.125000 I-43.638269 J56.521733
G03 X30.302435 Y206.781797 Z-0.125000 I-40.720282 J51.155239
G03 X31.123018 Y207.463031 Z-0.125000 I-77.630517 J94.344899
G03 X31.936463 Y208.152308 Z-0.125000 I-59.896169 J71.510686
G03 X32.747359 Y208.852888 Z-0.125000 I-90.093853 J105.099887
G03 X33.552358 Y209.559663 Z-0.125000 I-85.698438 J98.420181
G03 X34.354804 Y210.277075 Z-0.125000 I-73.000141 J82.460220
G03 X35.150557 Y211.001803 Z-0.125000 I-83.419563 J92.394220
G03 X35.943294 Y211.738391 Z-0.125000 I-64.700452 J70.427302
G03 X36.727979 Y212.484088 Z-0.125000 I-66.551199 J70.816533
G03 X37.509464 Y213.241725 Z-0.125000 I-85.533087 J89.007149
G03 X38.283596 Y214.007342 Z-0.125000 I-68.573512 J70.110387
G03 X39.055176 Y214.782053 Z-0.125000 I-192.884129 J192.876134
G03 X39.822096 Y215.561717 Z-0.125000 I-92.190572 J91.450648
G02 X40.587940 Y216.345106 Z-0.125000 I348.046348 J-339.485334
G03 X41.353347 Y217.129196 Z-0.125000 I-210.542978 J206.292005
G02 X42.119759 Y217.909792 Z-0.125000 I82.605623 J-80.338077
G02 X42.890809 Y218.686585 Z-0.125000 I546.387213 J-541.576651
G02 X43.665522 Y219.450036 Z-0.125000 I37.372912 J-37.149427
G02 X44.452482 Y220.201080 Z-0.125000 I66.202831 J-68.580963
G02 X45.245657 Y220.927292 Z-0.125000 I24.620756 J-26.094683
G02 X46.057593 Y221.631831 Z-0.125000 I30.594197 J-34.437751
G02 X46.876821 Y222.302939 Z-0.125000 I20.511358 J-24.202867
G02 X47.716970 Y222.946372 Z-0.125000 I20.434676 J-25.811916
G02 X48.563697 Y223.554112 Z-0.125000 I20.736907 J-27.997721
G02 X49.428861 Y224.133915 Z-0.125000 I17.325428 J-24.917078
G02 X50.298882 Y224.682384 Z-0.125000 I25.867665 J-40.068908
G02 X51.182262 Y225.208155 Z-0.125000 I18.170711 J-29.524730
G02 X52.068665 Y225.711212 Z-0.125000 I43.501125 J-75.617840
G02 X52.963020 Y226.199766 Z-0.125000 I23.961799 J-42.801960
G02 X53.858907 Y226.675392 Z-0.125000 I156.658202 J-293.999374
G02 X54.758275 Y227.144423 Z-0.125000 I40.687005 J-76.920781
G03 X55.658051 Y227.609820 Z-0.125000 I-94.032118 J182.899222
G02 X56.557422 Y228.076271 Z-0.125000 I172.571453 J-331.637736
G03 X57.456281 Y228.547338 Z-0.125000 I-41.414032 J80.116540
G03 X58.351392 Y229.026197 Z-0.125000 I-82.430320 J155.159724
G03 X59.245283 Y229.515582 Z-0.125000 I-35.618807 J66.120844
G03 X60.133325 Y230.016409 Z-0.125000 I-42.614754 J76.600228
G03 X61.019820 Y230.529832 Z-0.125000 I-45.095575 J78.885646
G03 X61.900281 Y231.054376 Z-0.125000 I-38.683372 J65.932261
G03 X62.779418 Y231.589106 Z-0.125000 I-108.300794 J179.045033
G03 X63.654560 Y232.131422 Z-0.125000 I-45.845119 J74.958131
G02 X64.529360 Y232.676317 Z-0.125000 I77.054310 J-122.731749
G03 X65.405516 Y233.218880 Z-0.125000 I-288.522370 J466.898121
G02 X66.282648 Y233.753945 Z-0.125000 I35.439530 J-57.109558
G02 X67.165867 Y234.277713 Z-0.125000 I54.577669 J-91.026660
G02 X68.050811 Y234.787698 Z-0.125000 I33.854058 J-57.722046
G02 X68.942939 Y235.283785 Z-0.125000 I32.739486 J-57.826190
G02 X69.836678 Y235.766128 Z-0.125000 I49.495838 J-90.642053
G02 X70.735815 Y236.237845 Z-0.125000 I35.008542 J-65.636910
G02 X71.636006 Y236.699913 Z-0.125000 I110.327420 J-213.829423
G02 X72.539120 Y237.156879 Z-0.125000 I62.161612 J-121.730657
G02 X73.442865 Y237.607618 Z-0.125000 I108.715486 J-216.846429
G02 X74.348683 Y238.055654 Z-0.125000 I183.223384 J-369.292780
G02 X75.255256 Y238.495596 Z-0.125000 I35.333223 J-71.655929
G02 X76.166171 Y238.927745 Z-0.125000 I86.116590 J-180.346748
G02 X77.078428 Y239.343637 Z-0.125000 I16.827053 J-35.701566
G02 X77.999122 Y239.740551 Z-0.125000 I25.224073 J-57.244182
G02 X78.921659 Y240.111155 Z-0.125000 I11.344484 J-26.906072
G02 X79.854959 Y240.453682 Z-0.125000 I13.420723 J-35.125326
G02 X80.790131 Y240.761813 Z-0.125000 I8.079882 J-22.949177
G02 X81.736233 Y241.033931 Z-0.125000 I8.035794 J-26.158052
G02 X82.683881 Y241.266920 Z-0.125000 I6.021739 J-22.448870
G02 X83.640241 Y241.459845 Z-0.125000 I5.066361 J-22.647823
G02 X84.597671 Y241.613579 Z-0.125000 I4.561238 J-25.348438
G02 X85.560271 Y241.728784 Z-0.125000 I3.189488 J-22.570916
G02 X86.523502 Y241.809498 Z-0.125000 I3.314008 J-33.761002
G02 X87.488733 Y241.859767 Z-0.125000 I1.933625 J-27.836297
G02 X88.454198 Y241.881470 Z-0.125000 I1.369499 J-39.437099
G02 X89.419892 Y241.878671 Z-0.125000 I0.376316 J-36.766574
G02 X90.385501 Y241.849045 Z-0.125000 I-0.528823 J-32.986551
G02 X91.349850 Y241.790977 Z-0.125000 I-1.474635 J-32.526258
G02 X92.313980 Y241.706480 Z-0.125000 I-2.914170 J-38.793937
G02 X93.275511 Y241.595856 Z-0.125000 I-3.284451 J-32.782211
G02 X94.236752 Y241.463188 Z-0.125000 I-7.898915 J-60.779836
G02 X95.195188 Y241.311284 Z-0.125000 I-5.790507 J-39.634670
G02 X96.153386 Y241.145558 Z-0.125000 I-41.729974 J-244.129346
G02 X97.110010 Y240.970864 Z-0.125000 I-11.322634 J-64.709314
G03 X98.066573 Y240.793060 Z-0.125000 I21.420843 J112.578947
G02 X99.023626 Y240.618381 Z-0.125000 I-87.437391 J-481.773891
G03 X99.980820 Y240.450917 Z-0.125000 I10.539206 J57.420730
G03 X100.940002 Y240.296031 Z-0.125000 I16.671073 J100.193676
G03 X101.899446 Y240.155314 Z-0.125000 I7.743821 J49.458162
G03 X102.861163 Y240.031752 Z-0.125000 I8.051464 J58.861997
G03 X103.823147 Y239.925344 Z-0.125000 I6.107287 J50.811650
G03 X104.786913 Y239.837573 Z-0.125000 I4.921489 J48.705176
G03 X105.750889 Y239.766134 Z-0.125000 I5.612980 J69.199839
G03 X106.715825 Y239.710437 Z-0.125000 I3.460417 J51.564201
G03 X107.680889 Y239.666450 Z-0.125000 I8.457479 J174.945957
G03 X108.646282 Y239.631473 Z-0.125000 I3.142319 J73.390789
G02 X109.611715 Y239.600828 Z-0.125000 I-6.840157 J-230.712324
G03 X110.577148 Y239.569845 Z-0.125000 I9.389881 J277.537643
G02 X111.542552 Y239.535788 Z-0.125000 I-2.977198 J-98.092719
G02 X112.507718 Y239.494706 Z-0.125000 I-8.257556 J-205.357317
G02 X113.472817 Y239.445576 Z-0.125000 I-3.629816 J-80.806957
G02 X114.437370 Y239.386102 Z-0.125000 I-5.784691 J-101.668707
G02 X115.401823 Y239.316210 Z-0.125000 I-5.327296 J-80.201943
G02 X116.365402 Y239.234639 Z-0.125000 I-6.208724 J-79.074311
G02 X117.328874 Y239.142808 Z-0.125000 I-9.773324 J-107.639294
G02 X118.291378 Y239.040881 Z-0.125000 I-8.011774 J-80.251356
G02 X119.253792 Y238.931660 Z-0.125000 I-35.971392 J-321.261111
G02 X120.215605 Y238.816876 Z-0.125000 I-12.930181 J-112.432742
G03 X121.177392 Y238.700214 Z-0.125000 I25.280220 J204.392728
G03 X122.139359 Y238.585986 Z-0.125000 I355.708387 J2991.497283
G03 X123.101355 Y238.474151 Z-0.125000 I24.840819 J209.485107
G03 X124.063753 Y238.366354 Z-0.125000 I28.874849 J253.441563
G03 X125.026197 Y238.261725 Z-0.125000 I38.982967 J354.111004
G03 X125.988949 Y238.159873 Z-0.125000 I33.913005 J315.960371
G03 X126.951739 Y238.060873 Z-0.125000 I35.582363 J341.309651
G03 X127.914811 Y237.964468 Z-0.125000 I38.051968 J375.274841
G03 X128.877922 Y237.871169 Z-0.125000 I24.832212 J251.323122
G03 X129.841355 Y237.781069 Z-0.125000 I32.532076 J342.664709
G03 X130.804835 Y237.695071 Z-0.125000 I15.718970 J170.667853
G03 X131.768728 Y237.613731 Z-0.125000 I20.687809 J239.402992
G03 X132.732679 Y237.538059 Z-0.125000 I10.351658 J125.688016
G03 X133.697124 Y237.469018 Z-0.125000 I11.827757 J158.452160
G03 X134.661627 Y237.407181 Z-0.125000 I7.514477 J109.653845
G03 X135.626604 Y237.353397 Z-0.125000 I7.289844 J122.108899
G03 X136.591633 Y237.307679 Z-0.125000 I5.690959 J109.918969
G03 X137.557017 Y237.270674 Z-0.125000 I4.476377 J104.167960
G03 X138.522443 Y237.241268 Z-0.125000 I5.032296 J149.356657
G03 X139.488048 Y237.219345 Z-0.125000 I2.916320 J107.172129
G03 X140.453680 Y237.202544 Z-0.125000 I10.999531 J604.436714
G00 Z3.000000

(End cutting path id: path374)


(Start cutting path id: path376)
(Change tool to Default tool)

G00 Z3.000000
G00 X10.198233 Y192.459739

G00 Z4.875000 (Fast pre-penetrate)
G01 Z-0.125000 F400.0(Penetrate)
