%
(Header)
(Generated by gcodetools from Inkscape.)
(Using default header. To add your own header create file "header" in the output dir.)
M3
(Header end.)
G21 (All units in mm)

(Start cutting path id: polygon311372)
(Change tool to Default tool)

G00 Z3.000000
G00 X97.041105 Y62.101580

G00 Z4.875000 (Fast pre-penetrate)
G01 Z-0.125000 F400.0(Penetrate)
G01 X96.574222 Y62.276708 Z-0.125000 F800.000000
G01 X96.215262 Y62.609156 Z-0.125000
G01 X96.005368 Y63.057730 Z-0.125000
G01 X95.984916 Y63.573217 Z-0.125000
G01 X96.160043 Y64.040101 Z-0.125000
G01 X96.492492 Y64.399060 Z-0.125000
G01 X96.941066 Y64.608954 Z-0.125000
G01 X97.456553 Y64.629406 Z-0.125000
G01 X97.923436 Y64.454279 Z-0.125000
G01 X98.282396 Y64.121830 Z-0.125000
G01 X98.492290 Y63.673256 Z-0.125000
G01 X98.512742 Y63.157769 Z-0.125000
G01 X98.337615 Y62.690886 Z-0.125000
G01 X98.005166 Y62.331926 Z-0.125000
G01 X97.556592 Y62.122033 Z-0.125000
G01 X97.041105 Y62.101580 Z-0.125000
G00 Z3.000000

(End cutting path id: polygon311372)


(Start cutting path id: polygon309766)
(Change tool to Default tool)

G00 Z3.000000
G00 X95.093218 Y63.047703

G00 Z4.875000 (Fast pre-penetrate)
G01 Z-0.125000 F400.0(Penetrate)
G01 X94.876525 Y62.584497 Z-0.125000 F800.000000
G01 X94.505844 Y62.241201 Z-0.125000
G01 X94.023747 Y62.060385 Z-0.125000
G01 X93.491459 Y62.081525 Z-0.125000
G01 X93.028254 Y62.298218 Z-0.125000
G01 X92.684957 Y62.668899 Z-0.125000
G01 X92.504141 Y63.150996 Z-0.125000
G01 X92.525282 Y63.683284 Z-0.125000
G01 X92.741975 Y64.146489 Z-0.125000
G01 X93.112656 Y64.489786 Z-0.125000
G01 X93.594753 Y64.670602 Z-0.125000
G01 X94.127041 Y64.649462 Z-0.125000
G01 X94.590246 Y64.432768 Z-0.125000
G01 X94.933543 Y64.062087 Z-0.125000
G01 X95.114359 Y63.579991 Z-0.125000
G01 X95.093218 Y63.047703 Z-0.125000
G00 Z3.000000

(End cutting path id: polygon309766)


(Start cutting path id: polygon309764)
(Change tool to Default tool)

G00 Z3.000000
G00 X94.418717 Y65.626911

G00 Z4.875000 (Fast pre-penetrate)
G01 Z-0.125000 F400.0(Penetrate)
G01 X93.918020 Y65.483269 Z-0.125000 F800.000000
G01 X93.390071 Y65.546504 Z-0.125000
G01 X92.946180 Y65.798122 Z-0.125000
G01 X92.631088 Y66.195605 Z-0.125000
G01 X92.487446 Y66.696302 Z-0.125000
G01 X92.550682 Y67.224251 Z-0.125000
G01 X92.802300 Y67.668142 Z-0.125000
G01 X93.199783 Y67.983234 Z-0.125000
G01 X93.700480 Y68.126876 Z-0.125000
G01 X94.228429 Y68.063641 Z-0.125000
G01 X94.672320 Y67.812022 Z-0.125000
G01 X94.987412 Y67.414539 Z-0.125000
G01 X95.131054 Y66.913842 Z-0.125000
G01 X95.067818 Y66.385893 Z-0.125000
G01 X94.816200 Y65.942003 Z-0.125000
G01 X94.418717 Y65.626911 Z-0.125000
G00 Z3.000000

(End cutting path id: polygon309764)


(Start cutting path id: polygon309798)
(Change tool to Default tool)

G00 Z3.000000
G00 X91.424881 Y65.959280

G00 Z4.875000 (Fast pre-penetrate)
G01 Z-0.125000 F400.0(Penetrate)
G01 X90.964374 Y65.590213 Z-0.125000 F800.000000
G01 X90.475345 Y65.456837 Z-0.125000
G01 X89.961499 Y65.515468 Z-0.125000
G01 X89.523879 Y65.749862 Z-0.125000
G01 X89.154812 Y66.210369 Z-0.125000
G01 X89.021435 Y66.699398 Z-0.125000
G01 X89.080067 Y67.213244 Z-0.125000
G01 X89.314461 Y67.650865 Z-0.125000
G01 X89.774968 Y68.019932 Z-0.125000
G01 X90.263997 Y68.153308 Z-0.125000
G01 X90.777843 Y68.094676 Z-0.125000
G01 X91.215463 Y67.860282 Z-0.125000
G01 X91.584530 Y67.399776 Z-0.125000
G01 X91.717907 Y66.910747 Z-0.125000
G01 X91.659275 Y66.396900 Z-0.125000
G01 X91.424881 Y65.959280 Z-0.125000
G00 Z3.000000

(End cutting path id: polygon309798)


(Start cutting path id: polygon309800)
(Change tool to Default tool)

G00 Z3.000000
G00 X89.965785 Y68.968594

G00 Z4.875000 (Fast pre-penetrate)
G01 Z-0.125000 F400.0(Penetrate)
G01 X89.532769 Y69.200527 Z-0.125000 F800.000000
G01 X89.167591 Y69.656192 Z-0.125000
G01 X89.035591 Y70.140088 Z-0.125000
G01 X89.093614 Y70.648537 Z-0.125000
G01 X89.325547 Y71.081554 Z-0.125000
G01 X89.781212 Y71.446731 Z-0.125000
G01 X90.265108 Y71.578732 Z-0.125000
G01 X90.773557 Y71.520709 Z-0.125000
G01 X91.206573 Y71.288775 Z-0.125000
G01 X91.571751 Y70.833110 Z-0.125000
G01 X91.703751 Y70.349215 Z-0.125000
G01 X91.645728 Y69.840765 Z-0.125000
G01 X91.413795 Y69.407749 Z-0.125000
G01 X90.958130 Y69.042571 Z-0.125000
G01 X90.474234 Y68.910571 Z-0.125000
G01 X89.965785 Y68.968594 Z-0.125000
G00 Z3.000000

(End cutting path id: polygon309800)


(Start cutting path id: polygon309428)
(Change tool to Default tool)

G00 Z3.000000
G00 X90.153824 Y72.370999

G00 Z4.875000 (Fast pre-penetrate)
G01 Z-0.125000 F400.0(Penetrate)
G01 X89.668738 Y72.552953 Z-0.125000 F800.000000
G01 X89.295782 Y72.898366 Z-0.125000
G01 X89.077712 Y73.364455 Z-0.125000
G01 X89.056440 Y73.900077 Z-0.125000
G01 X89.238393 Y74.385164 Z-0.125000
G01 X89.583807 Y74.758120 Z-0.125000
G01 X90.049896 Y74.976189 Z-0.125000
G01 X90.585518 Y74.997462 Z-0.125000
G01 X91.070604 Y74.815508 Z-0.125000
G01 X91.443560 Y74.470095 Z-0.125000
G01 X91.661630 Y74.004005 Z-0.125000
G01 X91.682902 Y73.468383 Z-0.125000
G01 X91.500949 Y72.983297 Z-0.125000
G01 X91.155535 Y72.610341 Z-0.125000
G01 X90.689446 Y72.392272 Z-0.125000
G01 X90.153824 Y72.370999 Z-0.125000
G00 Z3.000000

(End cutting path id: polygon309428)


(Start cutting path id: polygon309430)
(Change tool to Default tool)

G00 Z3.000000
G00 X93.306384 Y74.939095

G00 Z4.875000 (Fast pre-penetrate)
G01 Z-0.125000 F400.0(Penetrate)
G01 X93.809250 Y75.035747 Z-0.125000 F800.000000
G01 X94.312116 Y74.939095 Z-0.125000
G01 X94.729364 Y74.674194 Z-0.125000
G01 X95.064114 Y74.187097 Z-0.125000
G01 X95.160766 Y73.684230 Z-0.125000
G01 X95.064114 Y73.181364 Z-0.125000
G01 X94.799214 Y72.764116 Z-0.125000
G01 X94.312116 Y72.429366 Z-0.125000
G01 X93.809250 Y72.332714 Z-0.125000
G01 X93.306384 Y72.429366 Z-0.125000
G01 X92.889136 Y72.694267 Z-0.125000
G01 X92.554386 Y73.181364 Z-0.125000
G01 X92.457734 Y73.684230 Z-0.125000
G01 X92.554386 Y74.187097 Z-0.125000
G01 X92.819286 Y74.604344 Z-0.125000
G01 X93.306384 Y74.939095 Z-0.125000
G00 Z3.000000

(End cutting path id: polygon309430)


(Start cutting path id: polygon309374)
(Change tool to Default tool)

G00 Z3.000000
G00 X91.710392 Y77.123809

G00 Z4.875000 (Fast pre-penetrate)
G01 Z-0.125000 F400.0(Penetrate)
G01 X91.614508 Y76.624965 Z-0.125000 F800.000000
G01 X91.282429 Y76.141757 Z-0.125000
G01 X90.868516 Y75.878973 Z-0.125000
G01 X90.369671 Y75.783088 Z-0.125000
G01 X89.870826 Y75.878973 Z-0.125000
G01 X89.387618 Y76.211051 Z-0.125000
G01 X89.124834 Y76.624965 Z-0.125000
G01 X89.028950 Y77.123809 Z-0.125000
G01 X89.124834 Y77.622654 Z-0.125000
G01 X89.456913 Y78.105862 Z-0.125000
G01 X89.870826 Y78.368646 Z-0.125000
G01 X90.369671 Y78.464531 Z-0.125000
G01 X90.868516 Y78.368646 Z-0.125000
G01 X91.282429 Y78.105862 Z-0.125000
G01 X91.614508 Y77.622654 Z-0.125000
G01 X91.710392 Y77.123809 Z-0.125000
G00 Z3.000000

(End cutting path id: polygon309374)


(Start cutting path id: polygon309372)
(Change tool to Default tool)

G00 Z3.000000
G00 X94.410012 Y78.351051

G00 Z4.875000 (Fast pre-penetrate)
G01 Z-0.125000 F400.0(Penetrate)
G01 X94.875228 Y77.978227 Z-0.125000 F800.000000
G01 X95.112004 Y77.536135 Z-0.125000
G01 X95.171217 Y77.017050 Z-0.125000
G01 X95.036492 Y76.523047 Z-0.125000
G01 X94.663668 Y76.057831 Z-0.125000
G01 X94.221576 Y75.821056 Z-0.125000
G01 X93.702491 Y75.761842 Z-0.125000
G01 X93.208488 Y75.896568 Z-0.125000
G01 X92.743272 Y76.269391 Z-0.125000
G01 X92.506496 Y76.711483 Z-0.125000
G01 X92.447283 Y77.230569 Z-0.125000
G01 X92.582008 Y77.724571 Z-0.125000
G01 X92.954832 Y78.189788 Z-0.125000
G01 X93.396924 Y78.426563 Z-0.125000
G01 X93.916009 Y78.485777 Z-0.125000
G01 X94.410012 Y78.351051 Z-0.125000
G00 Z3.000000

(End cutting path id: polygon309372)


(Start cutting path id: polygon309370)
(Change tool to Default tool)

G00 Z3.000000
G00 X96.566496 Y78.356528

G00 Z4.875000 (Fast pre-penetrate)
G01 Z-0.125000 F400.0(Penetrate)
G01 X97.040655 Y78.517236 Z-0.125000 F800.000000
G01 X97.557650 Y78.498530 Z-0.125000
G01 X98.096579 Y78.248949 Z-0.125000
G01 X98.481548 Y77.806142 Z-0.125000
G01 X98.642255 Y77.331983 Z-0.125000
G01 X98.623549 Y76.814988 Z-0.125000
G01 X98.373968 Y76.276059 Z-0.125000
G01 X97.931162 Y75.891091 Z-0.125000
G01 X97.457003 Y75.730383 Z-0.125000
G01 X96.940008 Y75.749089 Z-0.125000
G01 X96.401079 Y75.998670 Z-0.125000
G01 X96.016110 Y76.441476 Z-0.125000
G01 X95.855403 Y76.915635 Z-0.125000
G01 X95.874109 Y77.432631 Z-0.125000
G01 X96.123690 Y77.971560 Z-0.125000
G01 X96.566496 Y78.356528 Z-0.125000
G00 Z3.000000

(End cutting path id: polygon309370)


(Start cutting path id: polygon309346)
(Change tool to Default tool)

G00 Z3.000000
G00 X99.383723 Y79.956991

G00 Z4.875000 (Fast pre-penetrate)
G01 Z-0.125000 F400.0(Penetrate)
G01 X99.253971 Y80.456047 Z-0.125000 F800.000000
G01 X99.310936 Y80.978810 Z-0.125000
G01 X99.602824 Y81.507076 Z-0.125000
G01 X100.082010 Y81.868074 Z-0.125000
G01 X100.581067 Y81.997825 Z-0.125000
G01 X101.103830 Y81.940860 Z-0.125000
G01 X101.632096 Y81.648972 Z-0.125000
G01 X101.993093 Y81.169786 Z-0.125000
G01 X102.122845 Y80.670730 Z-0.125000
G01 X102.065880 Y80.147967 Z-0.125000
G01 X101.773992 Y79.619700 Z-0.125000
G01 X101.294806 Y79.258703 Z-0.125000
G01 X100.795749 Y79.128952 Z-0.125000
G01 X100.272986 Y79.185916 Z-0.125000
G01 X99.744720 Y79.477804 Z-0.125000
G01 X99.383723 Y79.956991 Z-0.125000
G00 Z3.000000

(End cutting path id: polygon309346)


(Start cutting path id: polygon309340)
(Change tool to Default tool)

G00 Z3.000000
G00 X99.844997 Y82.883622

G00 Z4.875000 (Fast pre-penetrate)
G01 Z-0.125000 F400.0(Penetrate)
G01 X99.462039 Y83.324153 Z-0.125000 F800.000000
G01 X99.290801 Y83.898378 Z-0.125000
G01 X99.346284 Y84.407726 Z-0.125000
G01 X99.569063 Y84.846379 Z-0.125000
G01 X100.009594 Y85.229336 Z-0.125000
G01 X100.583818 Y85.400574 Z-0.125000
G01 X101.093167 Y85.345091 Z-0.125000
G01 X101.531819 Y85.122312 Z-0.125000
G01 X101.914777 Y84.681781 Z-0.125000
G01 X102.086015 Y84.107557 Z-0.125000
G01 X102.030532 Y83.598208 Z-0.125000
G01 X101.807753 Y83.159556 Z-0.125000
G01 X101.367222 Y82.776599 Z-0.125000
G01 X100.792998 Y82.605361 Z-0.125000
G01 X100.283649 Y82.660844 Z-0.125000
G01 X99.844997 Y82.883622 Z-0.125000
G00 Z3.000000

(End cutting path id: polygon309340)


(Start cutting path id: polygon309342)
(Change tool to Default tool)

G00 Z3.000000
G00 X97.938174 Y85.182293

G00 Z4.875000 (Fast pre-penetrate)
G01 Z-0.125000 F400.0(Penetrate)
G01 X98.374312 Y84.776952 Z-0.125000 F800.000000
G01 X98.578570 Y84.316128 Z-0.125000
G01 X98.598414 Y83.791751 Z-0.125000
G01 X98.428155 Y83.313623 Z-0.125000
G01 X98.022814 Y82.877484 Z-0.125000
G01 X97.561989 Y82.673226 Z-0.125000
G01 X97.037612 Y82.653382 Z-0.125000
G01 X96.559484 Y82.823641 Z-0.125000
G01 X96.123346 Y83.228983 Z-0.125000
G01 X95.919088 Y83.689807 Z-0.125000
G01 X95.899244 Y84.214184 Z-0.125000
G01 X96.069503 Y84.692312 Z-0.125000
G01 X96.474844 Y85.128450 Z-0.125000
G01 X96.935669 Y85.332709 Z-0.125000
G01 X97.460046 Y85.352552 Z-0.125000
G01 X97.938174 Y85.182293 Z-0.125000
G00 Z3.000000

(End cutting path id: polygon309342)


(Start cutting path id: polygon309324)
(Change tool to Default tool)

G00 Z3.000000
G00 X98.089938 Y86.393184

G00 Z4.875000 (Fast pre-penetrate)
G01 Z-0.125000 F400.0(Penetrate)
G01 X97.654752 Y86.160086 Z-0.125000 F800.000000
G01 X97.143737 Y86.101798 Z-0.125000
G01 X96.657407 Y86.234434 Z-0.125000
G01 X96.199466 Y86.601437 Z-0.125000
G01 X95.966369 Y87.036623 Z-0.125000
G01 X95.908081 Y87.547639 Z-0.125000
G01 X96.040717 Y88.033969 Z-0.125000
G01 X96.407720 Y88.491909 Z-0.125000
G01 X96.842906 Y88.725007 Z-0.125000
G01 X97.353921 Y88.783294 Z-0.125000
G01 X97.840251 Y88.650659 Z-0.125000
G01 X98.298192 Y88.283656 Z-0.125000
G01 X98.531289 Y87.848470 Z-0.125000
G01 X98.589577 Y87.337454 Z-0.125000
G01 X98.456941 Y86.851124 Z-0.125000
G01 X98.089938 Y86.393184 Z-0.125000
G00 Z3.000000

(End cutting path id: polygon309324)


(Start cutting path id: polygon309896)
(Change tool to Default tool)

G00 Z3.000000
G00 X94.869646 Y86.592600

G00 Z4.875000 (Fast pre-penetrate)
G01 Z-0.125000 F400.0(Penetrate)
G01 X94.406864 Y86.221734 Z-0.125000 F800.000000
G01 X93.915454 Y86.087696 Z-0.125000
G01 X93.399067 Y86.146619 Z-0.125000
G01 X92.959304 Y86.382151 Z-0.125000
G01 X92.588438 Y86.844933 Z-0.125000
G01 X92.454400 Y87.336343 Z-0.125000
G01 X92.513322 Y87.852729 Z-0.125000
G01 X92.748854 Y88.292493 Z-0.125000
G01 X93.211636 Y88.663359 Z-0.125000
G01 X93.703046 Y88.797396 Z-0.125000
G01 X94.219433 Y88.738474 Z-0.125000
G01 X94.659196 Y88.502942 Z-0.125000
G01 X95.030062 Y88.040160 Z-0.125000
G01 X95.164100 Y87.548750 Z-0.125000
G01 X95.105178 Y87.032363 Z-0.125000
G01 X94.869646 Y86.592600 Z-0.125000
G00 Z3.000000

(End cutting path id: polygon309896)


(Start cutting path id: polygon309894)
(Change tool to Default tool)

G00 Z3.000000
G00 X92.741552 Y84.858761

G00 Z4.875000 (Fast pre-penetrate)
G01 Z-0.125000 F400.0(Penetrate)
G01 X93.207509 Y85.232193 Z-0.125000 F800.000000
G01 X93.702306 Y85.367157 Z-0.125000
G01 X94.222264 Y85.307838 Z-0.125000
G01 X94.665044 Y85.070666 Z-0.125000
G01 X95.038476 Y84.604708 Z-0.125000
G01 X95.173440 Y84.109912 Z-0.125000
G01 X95.114120 Y83.589953 Z-0.125000
G01 X94.876948 Y83.147174 Z-0.125000
G01 X94.410991 Y82.773741 Z-0.125000
G01 X93.916194 Y82.638777 Z-0.125000
G01 X93.396236 Y82.698097 Z-0.125000
G01 X92.953456 Y82.935269 Z-0.125000
G01 X92.580024 Y83.401226 Z-0.125000
G01 X92.445060 Y83.896023 Z-0.125000
G01 X92.504380 Y84.415981 Z-0.125000
G01 X92.741552 Y84.858761 Z-0.125000
G00 Z3.000000

(End cutting path id: polygon309894)


(Start cutting path id: polygon309900)
(Change tool to Default tool)

G00 Z3.000000
G00 X89.050619 Y84.420453

G00 Z4.875000 (Fast pre-penetrate)
G01 Z-0.125000 F400.0(Penetrate)
G01 X89.290358 Y84.868074 Z-0.125000 F800.000000
G01 X89.761368 Y85.245555 Z-0.125000
G01 X90.261589 Y85.382000 Z-0.125000
G01 X90.787157 Y85.322019 Z-0.125000
G01 X91.234778 Y85.082281 Z-0.125000
G01 X91.612259 Y84.611270 Z-0.125000
G01 X91.748704 Y84.111049 Z-0.125000
G01 X91.688723 Y83.585482 Z-0.125000
G01 X91.448984 Y83.137860 Z-0.125000
G01 X90.977974 Y82.760380 Z-0.125000
G01 X90.477753 Y82.623934 Z-0.125000
G01 X89.952185 Y82.683915 Z-0.125000
G01 X89.504564 Y82.923654 Z-0.125000
G01 X89.127083 Y83.394665 Z-0.125000
G01 X88.990638 Y83.894885 Z-0.125000
G01 X89.050619 Y84.420453 Z-0.125000
G00 Z3.000000

(End cutting path id: polygon309900)


(Start cutting path id: polygon307118)
(Change tool to Default tool)

G00 Z3.000000
G00 X86.613016 Y86.096216

G00 Z4.875000 (Fast pre-penetrate)
G01 Z-0.125000 F400.0(Penetrate)
G01 X86.146450 Y86.302987 Z-0.125000 F800.000000
G01 X85.736029 Y86.744576 Z-0.125000
G01 X85.563653 Y87.228684 Z-0.125000
G01 X85.583761 Y87.759623 Z-0.125000
G01 X85.790533 Y88.226188 Z-0.125000
G01 X86.232122 Y88.636609 Z-0.125000
G01 X86.716230 Y88.808985 Z-0.125000
G01 X87.247168 Y88.788877 Z-0.125000
G01 X87.713734 Y88.582105 Z-0.125000
G01 X88.124155 Y88.140516 Z-0.125000
G01 X88.296531 Y87.656409 Z-0.125000
G01 X88.276423 Y87.125470 Z-0.125000
G01 X88.069651 Y86.658904 Z-0.125000
G01 X87.628062 Y86.248483 Z-0.125000
G01 X87.143954 Y86.076107 Z-0.125000
G01 X86.613016 Y86.096216 Z-0.125000
G00 Z3.000000

(End cutting path id: polygon307118)


(Start cutting path id: polygon309902)
(Change tool to Default tool)

G00 Z3.000000
G00 X85.565849 Y83.789449

G00 Z4.875000 (Fast pre-penetrate)
G01 Z-0.125000 F400.0(Penetrate)
G01 X85.585905 Y84.319541 Z-0.125000 F800.000000
G01 X85.792359 Y84.785366 Z-0.125000
G01 X86.233260 Y85.195125 Z-0.125000
G01 X86.716574 Y85.367210 Z-0.125000
G01 X87.246666 Y85.347155 Z-0.125000
G01 X87.712490 Y85.140701 Z-0.125000
G01 X88.122250 Y84.699800 Z-0.125000
G01 X88.294335 Y84.216486 Z-0.125000
G01 X88.274279 Y83.686394 Z-0.125000
G01 X88.067825 Y83.220569 Z-0.125000
G01 X87.626924 Y82.810809 Z-0.125000
G01 X87.143610 Y82.638724 Z-0.125000
G01 X86.613518 Y82.658780 Z-0.125000
G01 X86.147694 Y82.865234 Z-0.125000
G01 X85.737934 Y83.306135 Z-0.125000
G01 X85.565849 Y83.789449 Z-0.125000
G00 Z3.000000

(End cutting path id: polygon309902)


(Start cutting path id: polygon309904)
(Change tool to Default tool)

G00 Z3.000000
G00 X84.404383 Y83.019697

G00 Z4.875000 (Fast pre-penetrate)
G01 Z-0.125000 F400.0(Penetrate)
G01 X83.989966 Y82.756596 Z-0.125000 F800.000000
G01 X83.490513 Y82.660605 Z-0.125000
G01 X82.991060 Y82.756596 Z-0.125000
G01 X82.507243 Y83.089098 Z-0.125000
G01 X82.244142 Y83.503514 Z-0.125000
G01 X82.148151 Y84.002967 Z-0.125000
G01 X82.244142 Y84.502421 Z-0.125000
G01 X82.576643 Y84.986237 Z-0.125000
G01 X82.991060 Y85.249338 Z-0.125000
G01 X83.490513 Y85.345329 Z-0.125000
G01 X83.989966 Y85.249338 Z-0.125000
G01 X84.404383 Y84.986237 Z-0.125000
G01 X84.736884 Y84.502421 Z-0.125000
G01 X84.832875 Y84.002967 Z-0.125000
G01 X84.736884 Y83.503514 Z-0.125000
G01 X84.404383 Y83.019697 Z-0.125000
G00 Z3.000000

(End cutting path id: polygon309904)


(Start cutting path id: polygon309888)
(Change tool to Default tool)

G00 Z3.000000
G00 X85.576962 Y80.457317

G00 Z4.875000 (Fast pre-penetrate)
G01 Z-0.125000 F400.0(Penetrate)
G01 X85.635805 Y80.973042 Z-0.125000 F800.000000
G01 X85.871046 Y81.412250 Z-0.125000
G01 X86.333219 Y81.782666 Z-0.125000
G01 X86.824021 Y81.916519 Z-0.125000
G01 X87.339746 Y81.857675 Z-0.125000
G01 X87.778954 Y81.622435 Z-0.125000
G01 X88.149370 Y81.160261 Z-0.125000
G01 X88.283222 Y80.669460 Z-0.125000
G01 X88.224379 Y80.153734 Z-0.125000
G01 X87.989138 Y79.714527 Z-0.125000
G01 X87.526965 Y79.344110 Z-0.125000
G01 X87.036163 Y79.210258 Z-0.125000
G01 X86.520438 Y79.269101 Z-0.125000
G01 X86.081230 Y79.504342 Z-0.125000
G01 X85.710814 Y79.966516 Z-0.125000
G01 X85.576962 Y80.457317 Z-0.125000
G00 Z3.000000

(End cutting path id: polygon309888)


(Start cutting path id: polygon309376)
(Change tool to Default tool)

G00 Z3.000000
G00 X85.665835 Y77.544893

G00 Z4.875000 (Fast pre-penetrate)
G01 Z-0.125000 F400.0(Penetrate)
G01 X85.918591 Y77.990768 Z-0.125000 F800.000000
G01 X86.317873 Y78.307289 Z-0.125000
G01 X86.820846 Y78.451566 Z-0.125000
G01 X87.351176 Y78.388066 Z-0.125000
G01 X87.797051 Y78.135310 Z-0.125000
G01 X88.113572 Y77.736028 Z-0.125000
G01 X88.257849 Y77.233056 Z-0.125000
G01 X88.194349 Y76.702725 Z-0.125000
G01 X87.941593 Y76.256850 Z-0.125000
G01 X87.542311 Y75.940330 Z-0.125000
G01 X87.039338 Y75.796052 Z-0.125000
G01 X86.509008 Y75.859552 Z-0.125000
G01 X86.063133 Y76.112308 Z-0.125000
G01 X85.746612 Y76.511591 Z-0.125000
G01 X85.602335 Y77.014563 Z-0.125000
G01 X85.665835 Y77.544893 Z-0.125000
G00 Z3.000000

(End cutting path id: polygon309376)


(Start cutting path id: polygon309378)
(Change tool to Default tool)

G00 Z3.000000
G00 X82.574341 Y78.039981

G00 Z4.875000 (Fast pre-penetrate)
G01 Z-0.125000 F400.0(Penetrate)
G01 X82.986191 Y78.317634 Z-0.125000 F800.000000
G01 X83.490513 Y78.419446 Z-0.125000
G01 X83.994835 Y78.317634 Z-0.125000
G01 X84.406685 Y78.039981 Z-0.125000
G01 X84.684338 Y77.628131 Z-0.125000
G01 X84.786149 Y77.123809 Z-0.125000
G01 X84.684338 Y76.619488 Z-0.125000
G01 X84.406685 Y76.207638 Z-0.125000
G01 X83.994835 Y75.929984 Z-0.125000
G01 X83.490513 Y75.828173 Z-0.125000
G01 X82.986191 Y75.929984 Z-0.125000
G01 X82.574341 Y76.207638 Z-0.125000
G01 X82.296688 Y76.619488 Z-0.125000
G01 X82.194877 Y77.123809 Z-0.125000
G01 X82.296688 Y77.628131 Z-0.125000
G01 X82.574341 Y78.039981 Z-0.125000
G00 Z3.000000

(End cutting path id: polygon309378)


(Start cutting path id: polygon309886)
(Change tool to Default tool)

G00 Z3.000000
G00 X82.209111 Y80.246233

G00 Z4.875000 (Fast pre-penetrate)
G01 Z-0.125000 F400.0(Penetrate)
G01 X82.188024 Y80.777462 Z-0.125000 F800.000000
G01 X82.368469 Y81.258580 Z-0.125000
G01 X82.711078 Y81.628520 Z-0.125000
G01 X83.173357 Y81.844790 Z-0.125000
G01 X83.704587 Y81.865877 Z-0.125000
G01 X84.185705 Y81.685432 Z-0.125000
G01 X84.555645 Y81.342823 Z-0.125000
G01 X84.771915 Y80.880544 Z-0.125000
G01 X84.793002 Y80.349314 Z-0.125000
G01 X84.612557 Y79.868196 Z-0.125000
G01 X84.269948 Y79.498257 Z-0.125000
G01 X83.807669 Y79.281986 Z-0.125000
G01 X83.276439 Y79.260899 Z-0.125000
G01 X82.795321 Y79.441345 Z-0.125000
G01 X82.425381 Y79.783953 Z-0.125000
G01 X82.209111 Y80.246233 Z-0.125000
G00 Z3.000000

(End cutting path id: polygon309886)


(Start cutting path id: polygon309884)
(Change tool to Default tool)

G00 Z3.000000
G00 X79.051472 Y81.345707

G00 Z4.875000 (Fast pre-penetrate)
G01 Z-0.125000 F400.0(Penetrate)
G01 X79.440303 Y81.676277 Z-0.125000 F800.000000
G01 X79.941423 Y81.827910 Z-0.125000
G01 X80.371318 Y81.791794 Z-0.125000
G01 X80.833253 Y81.562851 Z-0.125000
G01 X81.163823 Y81.174019 Z-0.125000
G01 X81.315456 Y80.672899 Z-0.125000
G01 X81.279340 Y80.243005 Z-0.125000
G01 X81.050396 Y79.781069 Z-0.125000
G01 X80.661565 Y79.450499 Z-0.125000
G01 X80.160445 Y79.298867 Z-0.125000
G01 X79.730550 Y79.334982 Z-0.125000
G01 X79.268615 Y79.563926 Z-0.125000
G01 X78.938045 Y79.952757 Z-0.125000
G01 X78.786412 Y80.453877 Z-0.125000
G01 X78.822528 Y80.883772 Z-0.125000
G01 X79.051472 Y81.345707 Z-0.125000
G00 Z3.000000

(End cutting path id: polygon309884)


(Start cutting path id: polygon309882)
(Change tool to Default tool)

G00 Z3.000000
G00 X77.840846 Y80.669856

G00 Z4.875000 (Fast pre-penetrate)
G01 Z-0.125000 F400.0(Penetrate)
G01 X77.805709 Y80.251868 Z-0.125000 F800.000000
G01 X77.583142 Y79.802739 Z-0.125000
G01 X77.205079 Y79.481323 Z-0.125000
G01 X76.717823 Y79.333898 Z-0.125000
G01 X76.299835 Y79.369034 Z-0.125000
G01 X75.850705 Y79.591601 Z-0.125000
G01 X75.529290 Y79.969664 Z-0.125000
G01 X75.381864 Y80.456920 Z-0.125000
G01 X75.417001 Y80.874908 Z-0.125000
G01 X75.639568 Y81.324038 Z-0.125000
G01 X76.017631 Y81.645453 Z-0.125000
G01 X76.504887 Y81.792879 Z-0.125000
G01 X76.922875 Y81.757742 Z-0.125000
G01 X77.372005 Y81.535175 Z-0.125000
G01 X77.693420 Y81.157113 Z-0.125000
G01 X77.840846 Y80.669856 Z-0.125000
G00 Z3.000000

(End cutting path id: polygon309882)


(Start cutting path id: polygon309908)
(Change tool to Default tool)

G00 Z3.000000
G00 X77.829971 Y83.685124

G00 Z4.875000 (Fast pre-penetrate)
G01 Z-0.125000 F400.0(Penetrate)
G01 X77.602853 Y83.226892 Z-0.125000 F800.000000
G01 X77.217118 Y82.898942 Z-0.125000
G01 X76.719993 Y82.748526 Z-0.125000
G01 X76.293511 Y82.784351 Z-0.125000
G01 X75.835280 Y83.011469 Z-0.125000
G01 X75.507330 Y83.397205 Z-0.125000
G01 X75.356914 Y83.894330 Z-0.125000
G01 X75.392739 Y84.320811 Z-0.125000
G01 X75.619857 Y84.779042 Z-0.125000
G01 X76.005592 Y85.106993 Z-0.125000
G01 X76.502717 Y85.257408 Z-0.125000
G01 X76.929199 Y85.221584 Z-0.125000
G01 X77.387430 Y84.994466 Z-0.125000
G01 X77.715380 Y84.608730 Z-0.125000
G01 X77.865796 Y84.111605 Z-0.125000
G01 X77.829971 Y83.685124 Z-0.125000
G00 Z3.000000

(End cutting path id: polygon309908)


(Start cutting path id: polygon309906)
(Change tool to Default tool)

G00 Z3.000000
G00 X81.276773 Y84.411245

G00 Z4.875000 (Fast pre-penetrate)
G01 Z-0.125000 F400.0(Penetrate)
G01 X81.338342 Y83.897028 Z-0.125000 F800.000000
G01 X81.198430 Y83.409375 Z-0.125000
G01 X80.891541 Y83.022211 Z-0.125000
G01 X80.459212 Y82.777128 Z-0.125000
G01 X79.944995 Y82.715559 Z-0.125000
G01 X79.457342 Y82.855471 Z-0.125000
G01 X79.070178 Y83.162361 Z-0.125000
G01 X78.825095 Y83.594689 Z-0.125000
G01 X78.763526 Y84.108906 Z-0.125000
G01 X78.903438 Y84.596559 Z-0.125000
G01 X79.210327 Y84.983724 Z-0.125000
G01 X79.642656 Y85.228807 Z-0.125000
G01 X80.156873 Y85.290375 Z-0.125000
G01 X80.644526 Y85.150464 Z-0.125000
G01 X81.031690 Y84.843574 Z-0.125000
G01 X81.276773 Y84.411245 Z-0.125000
G00 Z3.000000

(End cutting path id: polygon309906)


(Start cutting path id: polygon307122)
(Change tool to Default tool)

G00 Z3.000000
G00 X80.555679 Y86.247689

G00 Z4.875000 (Fast pre-penetrate)
G01 Z-0.125000 F400.0(Penetrate)
G01 X80.050934 Y86.145772 Z-0.125000 F800.000000
G01 X79.546189 Y86.247689 Z-0.125000
G01 X79.133995 Y86.525607 Z-0.125000
G01 X78.856077 Y86.937801 Z-0.125000
G01 X78.754160 Y87.442546 Z-0.125000
G01 X78.856077 Y87.947291 Z-0.125000
G01 X79.133995 Y88.359485 Z-0.125000
G01 X79.546189 Y88.637403 Z-0.125000
G01 X80.050934 Y88.739320 Z-0.125000
G01 X80.555679 Y88.637403 Z-0.125000
G01 X80.967873 Y88.359485 Z-0.125000
G01 X81.245791 Y87.947291 Z-0.125000
G01 X81.347708 Y87.442546 Z-0.125000
G01 X81.245791 Y86.937801 Z-0.125000
G01 X80.967873 Y86.525607 Z-0.125000
G01 X80.555679 Y86.247689 Z-0.125000
G00 Z3.000000

(End cutting path id: polygon307122)


(Start cutting path id: polygon307120)
(Change tool to Default tool)

G00 Z3.000000
G00 X82.989922 Y86.193344

G00 Z4.875000 (Fast pre-penetrate)
G01 Z-0.125000 F400.0(Penetrate)
G01 X82.505021 Y86.526613 Z-0.125000 F800.000000
G01 X82.241311 Y86.941955 Z-0.125000
G01 X82.145108 Y87.442546 Z-0.125000
G01 X82.241311 Y87.943137 Z-0.125000
G01 X82.505021 Y88.358480 Z-0.125000
G01 X82.989922 Y88.691748 Z-0.125000
G01 X83.490513 Y88.787951 Z-0.125000
G01 X83.991104 Y88.691748 Z-0.125000
G01 X84.476005 Y88.358480 Z-0.125000
G01 X84.739715 Y87.943137 Z-0.125000
G01 X84.835918 Y87.442546 Z-0.125000
G01 X84.739715 Y86.941955 Z-0.125000
G01 X84.406446 Y86.457054 Z-0.125000
G01 X83.991104 Y86.193344 Z-0.125000
G01 X83.490513 Y86.097142 Z-0.125000
G01 X82.989922 Y86.193344 Z-0.125000
G00 Z3.000000

(End cutting path id: polygon307120)


(Start cutting path id: polygon307108)
(Change tool to Default tool)

G00 Z3.000000
G00 X79.945180 Y89.597019

G00 Z4.875000 (Fast pre-penetrate)
G01 Z-0.125000 F400.0(Penetrate)
G01 X79.458400 Y89.736666 Z-0.125000 F800.000000
G01 X79.071950 Y90.043027 Z-0.125000
G01 X78.827291 Y90.474588 Z-0.125000
G01 X78.765828 Y90.987879 Z-0.125000
G01 X78.905475 Y91.474659 Z-0.125000
G01 X79.211835 Y91.861109 Z-0.125000
G01 X79.643397 Y92.105769 Z-0.125000
G01 X80.156688 Y92.167231 Z-0.125000
G01 X80.643468 Y92.027584 Z-0.125000
G01 X81.029918 Y91.721224 Z-0.125000
G01 X81.274577 Y91.289662 Z-0.125000
G01 X81.336040 Y90.776371 Z-0.125000
G01 X81.196393 Y90.289592 Z-0.125000
G01 X80.890033 Y89.903142 Z-0.125000
G01 X80.458471 Y89.658482 Z-0.125000
G01 X79.945180 Y89.597019 Z-0.125000
G00 Z3.000000

(End cutting path id: polygon307108)


(Start cutting path id: polygon307124)
(Change tool to Default tool)

G00 Z3.000000
G00 X77.860716 Y87.226356

G00 Z4.875000 (Fast pre-penetrate)
G01 Z-0.125000 F400.0(Penetrate)
G01 X77.669713 Y86.744444 Z-0.125000 F800.000000
G01 X77.309457 Y86.384188 Z-0.125000
G01 X76.827546 Y86.193185 Z-0.125000
G01 X76.395164 Y86.193185 Z-0.125000
G01 X75.913253 Y86.384188 Z-0.125000
G01 X75.552997 Y86.744444 Z-0.125000
G01 X75.361994 Y87.226356 Z-0.125000
G01 X75.361994 Y87.658737 Z-0.125000
G01 X75.552997 Y88.140649 Z-0.125000
G01 X75.913253 Y88.500905 Z-0.125000
G01 X76.395164 Y88.691907 Z-0.125000
G01 X76.827546 Y88.691907 Z-0.125000
G01 X77.309457 Y88.500905 Z-0.125000
G01 X77.669713 Y88.140649 Z-0.125000
G01 X77.860716 Y87.658737 Z-0.125000
G01 X77.860716 Y87.226356 Z-0.125000
G00 Z3.000000

(End cutting path id: polygon307124)


(Start cutting path id: polygon307106)
(Change tool to Default tool)

G00 Z3.000000
G00 X76.611355 Y89.617551

G00 Z4.875000 (Fast pre-penetrate)
G01 Z-0.125000 F400.0(Penetrate)
G01 X76.191885 Y89.688803 Z-0.125000 F800.000000
G01 X75.754027 Y89.952539 Z-0.125000
G01 X75.456503 Y90.366136 Z-0.125000
G01 X75.346781 Y90.882125 Z-0.125000
G01 X75.418033 Y91.301595 Z-0.125000
G01 X75.681769 Y91.739454 Z-0.125000
G01 X76.095365 Y92.036977 Z-0.125000
G01 X76.611355 Y92.146700 Z-0.125000
G01 X77.030825 Y92.075448 Z-0.125000
G01 X77.468683 Y91.811711 Z-0.125000
G01 X77.766207 Y91.398115 Z-0.125000
G01 X77.875929 Y90.882125 Z-0.125000
G01 X77.804677 Y90.462655 Z-0.125000
G01 X77.540941 Y90.024797 Z-0.125000
G01 X77.127345 Y89.727273 Z-0.125000
G01 X76.611355 Y89.617551 Z-0.125000
G00 Z3.000000

(End cutting path id: polygon307106)


(Start cutting path id: polygon307128)
(Change tool to Default tool)

G00 Z3.000000
G00 X74.101150 Y91.739268

G00 Z4.875000 (Fast pre-penetrate)
G01 Z-0.125000 F400.0(Penetrate)
G01 X74.364834 Y91.301489 Z-0.125000 F800.000000
G01 X74.436059 Y90.882125 Z-0.125000
G01 X74.326363 Y90.366268 Z-0.125000
G01 X74.028919 Y89.952751 Z-0.125000
G01 X73.591140 Y89.689068 Z-0.125000
G01 X73.171776 Y89.617842 Z-0.125000
G01 X72.655919 Y89.727538 Z-0.125000
G01 X72.242402 Y90.024982 Z-0.125000
G01 X71.978718 Y90.462761 Z-0.125000
G01 X71.907493 Y90.882125 Z-0.125000
G01 X72.017189 Y91.397983 Z-0.125000
G01 X72.314633 Y91.811500 Z-0.125000
G01 X72.752412 Y92.075183 Z-0.125000
G01 X73.171776 Y92.146409 Z-0.125000
G01 X73.687633 Y92.036713 Z-0.125000
G01 X74.101150 Y91.739268 Z-0.125000
G00 Z3.000000

(End cutting path id: polygon307128)


(Start cutting path id: polygon307130)
(Change tool to Default tool)

G00 Z3.000000
G00 X73.780714 Y95.431498

G00 Z4.875000 (Fast pre-penetrate)
G01 Z-0.125000 F400.0(Penetrate)
G01 X74.168460 Y95.101827 Z-0.125000 F800.000000
G01 X74.396742 Y94.641188 Z-0.125000
G01 X74.432779 Y94.212511 Z-0.125000
G01 X74.281569 Y93.712767 Z-0.125000
G01 X73.951899 Y93.325020 Z-0.125000
G01 X73.491260 Y93.096738 Z-0.125000
G01 X73.062583 Y93.060702 Z-0.125000
G01 X72.562838 Y93.211911 Z-0.125000
G01 X72.175092 Y93.541581 Z-0.125000
G01 X71.946810 Y94.002220 Z-0.125000
G01 X71.910773 Y94.430898 Z-0.125000
G01 X72.061983 Y94.930642 Z-0.125000
G01 X72.391653 Y95.318388 Z-0.125000
G01 X72.852292 Y95.546671 Z-0.125000
G01 X73.280969 Y95.582707 Z-0.125000
G01 X73.780714 Y95.431498 Z-0.125000
G00 Z3.000000

(End cutting path id: polygon307130)


(Start cutting path id: polygon307132)
(Change tool to Default tool)

G00 Z3.000000
G00 X73.690041 Y96.601325

G00 Z4.875000 (Fast pre-penetrate)
G01 Z-0.125000 F400.0(Penetrate)
G01 X73.171776 Y96.491100 Z-0.125000 F800.000000
G01 X72.750454 Y96.562643 Z-0.125000
G01 X72.310638 Y96.827570 Z-0.125000
G01 X72.011818 Y97.243018 Z-0.125000
G01 X71.901592 Y97.761283 Z-0.125000
G01 X71.973136 Y98.182605 Z-0.125000
G01 X72.238063 Y98.622422 Z-0.125000
G01 X72.653511 Y98.921242 Z-0.125000
G01 X73.171776 Y99.031467 Z-0.125000
G01 X73.593098 Y98.959924 Z-0.125000
G01 X74.032914 Y98.694997 Z-0.125000
G01 X74.331734 Y98.279548 Z-0.125000
G01 X74.441960 Y97.761283 Z-0.125000
G01 X74.370416 Y97.339961 Z-0.125000
G01 X74.105489 Y96.900145 Z-0.125000
G01 X73.690041 Y96.601325 Z-0.125000
G00 Z3.000000

(End cutting path id: polygon307132)


(Start cutting path id: polygon307104)
(Change tool to Default tool)

G00 Z3.000000
G00 X76.502558 Y95.578077

G00 Z4.875000 (Fast pre-penetrate)
G01 Z-0.125000 F400.0(Penetrate)
G01 X76.929675 Y95.542173 Z-0.125000 F800.000000
G01 X77.388620 Y95.314737 Z-0.125000
G01 X77.717074 Y94.928393 Z-0.125000
G01 X77.867727 Y94.430501 Z-0.125000
G01 X77.831823 Y94.003384 Z-0.125000
G01 X77.604388 Y93.544439 Z-0.125000
G01 X77.218044 Y93.215985 Z-0.125000
G01 X76.720152 Y93.065332 Z-0.125000
G01 X76.293035 Y93.101236 Z-0.125000
G01 X75.834090 Y93.328671 Z-0.125000
G01 X75.505636 Y93.715015 Z-0.125000
G01 X75.354983 Y94.212908 Z-0.125000
G01 X75.390887 Y94.640024 Z-0.125000
G01 X75.618322 Y95.098970 Z-0.125000
G01 X76.004666 Y95.427423 Z-0.125000
G01 X76.502558 Y95.578077 Z-0.125000
G00 Z3.000000

(End cutting path id: polygon307104)


(Start cutting path id: polygon307086)
(Change tool to Default tool)

G00 Z3.000000
G00 X77.467255 Y96.833258

G00 Z4.875000 (Fast pre-penetrate)
G01 Z-0.125000 F400.0(Penetrate)
G01 X77.030111 Y96.569972 Z-0.125000 F800.000000
G01 X76.611355 Y96.498852 Z-0.125000
G01 X76.096238 Y96.608389 Z-0.125000
G01 X75.683330 Y96.905384 Z-0.125000
G01 X75.420044 Y97.342528 Z-0.125000
G01 X75.348924 Y97.761283 Z-0.125000
G01 X75.458461 Y98.276400 Z-0.125000
G01 X75.755455 Y98.689308 Z-0.125000
G01 X76.192599 Y98.952595 Z-0.125000
G01 X76.611355 Y99.023715 Z-0.125000
G01 X77.126472 Y98.914177 Z-0.125000
G01 X77.539380 Y98.617183 Z-0.125000
G01 X77.802666 Y98.180039 Z-0.125000
G01 X77.873786 Y97.761283 Z-0.125000
G01 X77.764249 Y97.246167 Z-0.125000
G01 X77.467255 Y96.833258 Z-0.125000
G00 Z3.000000

(End cutting path id: polygon307086)


(Start cutting path id: polygon307102)
(Change tool to Default tool)

G00 Z3.000000
G00 X78.806336 Y94.629758

G00 Z4.875000 (Fast pre-penetrate)
G01 Z-0.125000 F400.0(Penetrate)
G01 X79.016414 Y95.078756 Z-0.125000 F800.000000
G01 X79.375718 Y95.411522 Z-0.125000
G01 X79.842998 Y95.586781 Z-0.125000
G01 X80.358988 Y95.566303 Z-0.125000
G01 X80.807985 Y95.356224 Z-0.125000
G01 X81.140751 Y94.996920 Z-0.125000
G01 X81.316011 Y94.529640 Z-0.125000
G01 X81.295532 Y94.013650 Z-0.125000
G01 X81.085454 Y93.564653 Z-0.125000
G01 X80.726150 Y93.231887 Z-0.125000
G01 X80.258870 Y93.056627 Z-0.125000
G01 X79.742880 Y93.077106 Z-0.125000
G01 X79.293883 Y93.287185 Z-0.125000
G01 X78.961117 Y93.646488 Z-0.125000
G01 X78.785857 Y94.113769 Z-0.125000
G01 X78.806336 Y94.629758 Z-0.125000
G00 Z3.000000

(End cutting path id: polygon307102)


(Start cutting path id: polygon307088)
(Change tool to Default tool)

G00 Z3.000000
G00 X81.023488 Y98.594852

G00 Z4.875000 (Fast pre-penetrate)
G01 Z-0.125000 F400.0(Penetrate)
G01 X81.266508 Y98.166148 Z-0.125000 F800.000000
G01 X81.327573 Y97.656244 Z-0.125000
G01 X81.188853 Y97.172639 Z-0.125000
G01 X80.884503 Y96.788729 Z-0.125000
G01 X80.455799 Y96.545710 Z-0.125000
G01 X79.945895 Y96.484644 Z-0.125000
G01 X79.462290 Y96.623365 Z-0.125000
G01 X79.078380 Y96.927715 Z-0.125000
G01 X78.835360 Y97.356418 Z-0.125000
G01 X78.774295 Y97.866323 Z-0.125000
G01 X78.913015 Y98.349928 Z-0.125000
G01 X79.217365 Y98.733837 Z-0.125000
G01 X79.646069 Y98.976857 Z-0.125000
G01 X80.155973 Y99.037923 Z-0.125000
G01 X80.639578 Y98.899202 Z-0.125000
G01 X81.023488 Y98.594852 Z-0.125000
G00 Z3.000000

(End cutting path id: polygon307088)


(Start cutting path id: polygon307090)
(Change tool to Default tool)

G00 Z3.000000
G00 X83.382484 Y99.074144

G00 Z4.875000 (Fast pre-penetrate)
G01 Z-0.125000 F400.0(Penetrate)
G01 X83.906861 Y99.011359 Z-0.125000 F800.000000
G01 X84.347762 Y98.761433 Z-0.125000
G01 X84.660737 Y98.366623 Z-0.125000
G01 X84.803374 Y97.869313 Z-0.125000
G01 X84.740588 Y97.344935 Z-0.125000
G01 X84.490663 Y96.904034 Z-0.125000
G01 X84.095852 Y96.591059 Z-0.125000
G01 X83.598542 Y96.448422 Z-0.125000
G01 X83.074165 Y96.511208 Z-0.125000
G01 X82.633264 Y96.761133 Z-0.125000
G01 X82.320289 Y97.155944 Z-0.125000
G01 X82.177652 Y97.653254 Z-0.125000
G01 X82.240438 Y98.177631 Z-0.125000
G01 X82.490363 Y98.618532 Z-0.125000
G01 X82.885174 Y98.931507 Z-0.125000
G01 X83.382484 Y99.074144 Z-0.125000
G00 Z3.000000

(End cutting path id: polygon307090)


(Start cutting path id: polygon307080)
(Change tool to Default tool)

G00 Z3.000000
G00 X82.552090 Y102.139285

G00 Z4.875000 (Fast pre-penetrate)
G01 Z-0.125000 F400.0(Penetrate)
G01 X82.973941 Y102.423686 Z-0.125000 F800.000000
G01 X83.490513 Y102.527984 Z-0.125000
G01 X84.007085 Y102.423686 Z-0.125000
G01 X84.428936 Y102.139285 Z-0.125000
G01 X84.713336 Y101.717434 Z-0.125000
G01 X84.817635 Y101.200862 Z-0.125000
G01 X84.713336 Y100.684290 Z-0.125000
G01 X84.428936 Y100.262439 Z-0.125000
G01 X84.007085 Y99.978039 Z-0.125000
G01 X83.490513 Y99.873740 Z-0.125000
G01 X82.973941 Y99.978039 Z-0.125000
G01 X82.552090 Y100.262439 Z-0.125000
G01 X82.267690 Y100.684290 Z-0.125000
G01 X82.163391 Y101.200862 Z-0.125000
G01 X82.267690 Y101.717434 Z-0.125000
G01 X82.552090 Y102.139285 Z-0.125000
G00 Z3.000000

(End cutting path id: polygon307080)


(Start cutting path id: polygon307082)
(Change tool to Default tool)

G00 Z3.000000
G00 X80.361210 Y102.454457

G00 Z4.875000 (Fast pre-penetrate)
G01 Z-0.125000 F400.0(Penetrate)
G01 X80.813436 Y102.242870 Z-0.125000 F800.000000
G01 X81.148609 Y101.880973 Z-0.125000
G01 X81.325139 Y101.410280 Z-0.125000
G01 X81.304528 Y100.890586 Z-0.125000
G01 X81.092941 Y100.438361 Z-0.125000
G01 X80.731045 Y100.103187 Z-0.125000
G01 X80.260351 Y99.926657 Z-0.125000
G01 X79.740658 Y99.947268 Z-0.125000
G01 X79.288432 Y100.158855 Z-0.125000
G01 X78.953259 Y100.520752 Z-0.125000
G01 X78.776729 Y100.991445 Z-0.125000
G01 X78.797340 Y101.511139 Z-0.125000
G01 X79.008927 Y101.963364 Z-0.125000
G01 X79.370823 Y102.298538 Z-0.125000
G01 X79.841517 Y102.475068 Z-0.125000
G01 X80.361210 Y102.454457 Z-0.125000
G00 Z3.000000

(End cutting path id: polygon307082)


(Start cutting path id: polygon307068)
(Change tool to Default tool)

G00 Z3.000000
G00 X81.167607 Y103.948557

G00 Z4.875000 (Fast pre-penetrate)
G01 Z-0.125000 F400.0(Penetrate)
G01 X80.826638 Y103.580416 Z-0.125000 F800.000000
G01 X80.366582 Y103.365151 Z-0.125000
G01 X79.837892 Y103.344170 Z-0.125000
G01 X79.359049 Y103.523769 Z-0.125000
G01 X78.990909 Y103.864737 Z-0.125000
G01 X78.775644 Y104.324794 Z-0.125000
G01 X78.754663 Y104.853484 Z-0.125000
G01 X78.934261 Y105.332326 Z-0.125000
G01 X79.275230 Y105.700467 Z-0.125000
G01 X79.735286 Y105.915731 Z-0.125000
G01 X80.263976 Y105.936713 Z-0.125000
G01 X80.742819 Y105.757114 Z-0.125000
G01 X81.110959 Y105.416146 Z-0.125000
G01 X81.326224 Y104.956089 Z-0.125000
G01 X81.347205 Y104.427399 Z-0.125000
G01 X81.167607 Y103.948557 Z-0.125000
G00 Z3.000000

(End cutting path id: polygon307068)


(Start cutting path id: polygon307070)
(Change tool to Default tool)

G00 Z3.000000
G00 X82.175403 Y104.330720

G00 Z4.875000 (Fast pre-penetrate)
G01 Z-0.125000 F400.0(Penetrate)
G01 X82.155771 Y104.849356 Z-0.125000 F800.000000
G01 X82.324152 Y105.322219 Z-0.125000
G01 X82.725048 Y105.753568 Z-0.125000
G01 X83.180792 Y105.955551 Z-0.125000
G01 X83.699428 Y105.975183 Z-0.125000
G01 X84.172290 Y105.806803 Z-0.125000
G01 X84.603640 Y105.405906 Z-0.125000
G01 X84.805623 Y104.950162 Z-0.125000
G01 X84.825255 Y104.431527 Z-0.125000
G01 X84.656874 Y103.958664 Z-0.125000
G01 X84.255978 Y103.527314 Z-0.125000
G01 X83.800234 Y103.325331 Z-0.125000
G01 X83.281598 Y103.305699 Z-0.125000
G01 X82.808736 Y103.474080 Z-0.125000
G01 X82.377386 Y103.874976 Z-0.125000
G01 X82.175403 Y104.330720 Z-0.125000
G00 Z3.000000

(End cutting path id: polygon307070)


(Start cutting path id: polygon307072)
(Change tool to Default tool)

G00 Z3.000000
G00 X86.067419 Y105.716712

G00 Z4.875000 (Fast pre-penetrate)
G01 Z-0.125000 F400.0(Penetrate)
G01 X86.513771 Y105.955789 Z-0.125000 F800.000000
G01 X87.037883 Y106.015585 Z-0.125000
G01 X87.536675 Y105.879536 Z-0.125000
G01 X88.006363 Y105.503114 Z-0.125000
G01 X88.245440 Y105.056763 Z-0.125000
G01 X88.305236 Y104.532650 Z-0.125000
G01 X88.169187 Y104.033858 Z-0.125000
G01 X87.792765 Y103.564171 Z-0.125000
G01 X87.346413 Y103.325093 Z-0.125000
G01 X86.822301 Y103.265298 Z-0.125000
G01 X86.323509 Y103.401346 Z-0.125000
G01 X85.853821 Y103.777768 Z-0.125000
G01 X85.614744 Y104.224120 Z-0.125000
G01 X85.554948 Y104.748232 Z-0.125000
G01 X85.690997 Y105.247024 Z-0.125000
G01 X86.067419 Y105.716712 Z-0.125000
G00 Z3.000000

(End cutting path id: polygon307072)


(Start cutting path id: polygon310024)
(Change tool to Default tool)

G00 Z3.000000
G00 X87.782155 Y109.210848

G00 Z4.875000 (Fast pre-penetrate)
G01 Z-0.125000 F400.0(Penetrate)
G01 X88.169028 Y108.765793 Z-0.125000 F800.000000
G01 X88.342013 Y108.185695 Z-0.125000
G01 X88.285948 Y107.671107 Z-0.125000
G01 X88.060920 Y107.227957 Z-0.125000
G01 X87.615865 Y106.841084 Z-0.125000
G01 X87.035766 Y106.668100 Z-0.125000
G01 X86.521179 Y106.724165 Z-0.125000
G01 X86.078029 Y106.949193 Z-0.125000
G01 X85.691156 Y107.394248 Z-0.125000
G01 X85.518171 Y107.974346 Z-0.125000
G01 X85.574236 Y108.488933 Z-0.125000
G01 X85.799264 Y108.932083 Z-0.125000
G01 X86.244319 Y109.318957 Z-0.125000
G01 X86.824418 Y109.491941 Z-0.125000
G01 X87.339005 Y109.435876 Z-0.125000
G01 X87.782155 Y109.210848 Z-0.125000
G00 Z3.000000

(End cutting path id: polygon310024)


(Start cutting path id: polygon307156)
(Change tool to Default tool)

G00 Z3.000000
G00 X89.098667 Y112.223125

G00 Z4.875000 (Fast pre-penetrate)
G01 Z-0.125000 F400.0(Penetrate)
G01 X89.495568 Y112.679690 Z-0.125000 F800.000000
G01 X90.051245 Y112.937050 Z-0.125000
G01 X90.584301 Y112.956311 Z-0.125000
G01 X91.073197 Y112.790603 Z-0.125000
G01 X91.529762 Y112.393702 Z-0.125000
G01 X91.787122 Y111.838025 Z-0.125000
G01 X91.806383 Y111.304970 Z-0.125000
G01 X91.640675 Y110.816073 Z-0.125000
G01 X91.243774 Y110.359509 Z-0.125000
G01 X90.688097 Y110.102149 Z-0.125000
G01 X90.155041 Y110.082887 Z-0.125000
G01 X89.666145 Y110.248595 Z-0.125000
G01 X89.209580 Y110.645496 Z-0.125000
G01 X88.952220 Y111.201174 Z-0.125000
G01 X88.932959 Y111.734229 Z-0.125000
G01 X89.098667 Y112.223125 Z-0.125000
G00 Z3.000000

(End cutting path id: polygon307156)


(Start cutting path id: polygon307154)
(Change tool to Default tool)

G00 Z3.000000
G00 X86.139835 Y112.737104

G00 Z4.875000 (Fast pre-penetrate)
G01 Z-0.125000 F400.0(Penetrate)
G01 X86.611904 Y112.935939 Z-0.125000 F800.000000
G01 X87.144563 Y112.955174 Z-0.125000
G01 X87.720349 Y112.737104 Z-0.125000
G01 X88.147597 Y112.309856 Z-0.125000
G01 X88.346431 Y111.837787 Z-0.125000
G01 X88.365666 Y111.305128 Z-0.125000
G01 X88.147597 Y110.729343 Z-0.125000
G01 X87.720349 Y110.302094 Z-0.125000
G01 X87.248280 Y110.103260 Z-0.125000
G01 X86.715621 Y110.084025 Z-0.125000
G01 X86.139835 Y110.302094 Z-0.125000
G01 X85.712587 Y110.729343 Z-0.125000
G01 X85.513753 Y111.201412 Z-0.125000
G01 X85.494518 Y111.734070 Z-0.125000
G01 X85.712587 Y112.309856 Z-0.125000
G01 X86.139835 Y112.737104 Z-0.125000
G00 Z3.000000

(End cutting path id: polygon307154)


(Start cutting path id: polygon307160)
(Change tool to Default tool)

G00 Z3.000000
G00 X87.886824 Y116.059764

G00 Z4.875000 (Fast pre-penetrate)
G01 Z-0.125000 F400.0(Penetrate)
G01 X88.252848 Y115.573963 Z-0.125000 F800.000000
G01 X88.388368 Y114.959178 Z-0.125000
G01 X88.293065 Y114.439564 Z-0.125000
G01 X88.030678 Y114.002446 Z-0.125000
G01 X87.544877 Y113.636422 Z-0.125000
G01 X86.930092 Y113.500903 Z-0.125000
G01 X86.410477 Y113.596205 Z-0.125000
G01 X85.973360 Y113.858592 Z-0.125000
G01 X85.607336 Y114.344393 Z-0.125000
G01 X85.471816 Y114.959178 Z-0.125000
G01 X85.567119 Y115.478793 Z-0.125000
G01 X85.829506 Y115.915910 Z-0.125000
G01 X86.315307 Y116.281935 Z-0.125000
G01 X86.930092 Y116.417454 Z-0.125000
G01 X87.449707 Y116.322151 Z-0.125000
G01 X87.886824 Y116.059764 Z-0.125000
G00 Z3.000000

(End cutting path id: polygon307160)


(Start cutting path id: polygon307186)
(Change tool to Default tool)

G00 Z3.000000
G00 X85.977355 Y117.302775

G00 Z4.875000 (Fast pre-penetrate)
G01 Z-0.125000 F400.0(Penetrate)
G01 X85.612866 Y117.786565 Z-0.125000 F800.000000
G01 X85.477902 Y118.398757 Z-0.125000
G01 X85.572808 Y118.916202 Z-0.125000
G01 X85.834110 Y119.351494 Z-0.125000
G01 X86.317900 Y119.715984 Z-0.125000
G01 X86.930092 Y119.850948 Z-0.125000
G01 X87.447537 Y119.756042 Z-0.125000
G01 X87.882829 Y119.494739 Z-0.125000
G01 X88.247318 Y119.010949 Z-0.125000
G01 X88.382282 Y118.398757 Z-0.125000
G01 X88.287376 Y117.881312 Z-0.125000
G01 X88.026074 Y117.446020 Z-0.125000
G01 X87.542284 Y117.081531 Z-0.125000
G01 X86.930092 Y116.946567 Z-0.125000
G01 X86.412647 Y117.041473 Z-0.125000
G01 X85.977355 Y117.302775 Z-0.125000
G00 Z3.000000

(End cutting path id: polygon307186)


(Start cutting path id: polygon307162)
(Change tool to Default tool)

G00 Z3.000000
G00 X83.079219 Y116.322945

G00 Z4.875000 (Fast pre-penetrate)
G01 Z-0.125000 F400.0(Penetrate)
G01 X83.596796 Y116.379354 Z-0.125000 F800.000000
G01 X84.090878 Y116.250899 Z-0.125000
G01 X84.565276 Y115.893474 Z-0.125000
G01 X84.854280 Y115.370473 Z-0.125000
G01 X84.910689 Y114.852895 Z-0.125000
G01 X84.782234 Y114.358813 Z-0.125000
G01 X84.424808 Y113.884416 Z-0.125000
G01 X83.901807 Y113.595412 Z-0.125000
G01 X83.384230 Y113.539003 Z-0.125000
G01 X82.890148 Y113.667458 Z-0.125000
G01 X82.415750 Y114.024883 Z-0.125000
G01 X82.126746 Y114.547884 Z-0.125000
G01 X82.070337 Y115.065461 Z-0.125000
G01 X82.198792 Y115.559544 Z-0.125000
G01 X82.556218 Y116.033941 Z-0.125000
G01 X83.079219 Y116.322945 Z-0.125000
G00 Z3.000000

(End cutting path id: polygon307162)


(Start cutting path id: polygon307184)
(Change tool to Default tool)

G00 Z3.000000
G00 X82.718275 Y117.209007

G00 Z4.875000 (Fast pre-penetrate)
G01 Z-0.125000 F400.0(Penetrate)
G01 X82.300763 Y117.626519 Z-0.125000 F800.000000
G01 X82.087641 Y118.189181 Z-0.125000
G01 X82.106453 Y118.709669 Z-0.125000
G01 X82.300763 Y119.170996 Z-0.125000
G01 X82.718275 Y119.588508 Z-0.125000
G01 X83.280937 Y119.801629 Z-0.125000
G01 X83.801424 Y119.782817 Z-0.125000
G01 X84.262751 Y119.588508 Z-0.125000
G01 X84.680263 Y119.170996 Z-0.125000
G01 X84.893385 Y118.608333 Z-0.125000
G01 X84.874573 Y118.087846 Z-0.125000
G01 X84.680263 Y117.626519 Z-0.125000
G01 X84.262751 Y117.209007 Z-0.125000
G01 X83.700089 Y116.995885 Z-0.125000
G01 X83.179602 Y117.014697 Z-0.125000
G01 X82.718275 Y117.209007 Z-0.125000
G00 Z3.000000

(End cutting path id: polygon307184)


(Start cutting path id: polygon307182)
(Change tool to Default tool)

G00 Z3.000000
G00 X81.413880 Y118.291919

G00 Z4.875000 (Fast pre-penetrate)
G01 Z-0.125000 F400.0(Penetrate)
G01 X81.279022 Y117.797572 Z-0.125000 F800.000000
G01 X80.905960 Y117.332038 Z-0.125000
G01 X80.463551 Y117.095077 Z-0.125000
G01 X79.944095 Y117.035811 Z-0.125000
G01 X79.449749 Y117.170669 Z-0.125000
G01 X78.984215 Y117.543731 Z-0.125000
G01 X78.747254 Y117.986140 Z-0.125000
G01 X78.687988 Y118.505596 Z-0.125000
G01 X78.822846 Y118.999943 Z-0.125000
G01 X79.195908 Y119.465477 Z-0.125000
G01 X79.638317 Y119.702437 Z-0.125000
G01 X80.157773 Y119.761704 Z-0.125000
G01 X80.652119 Y119.626846 Z-0.125000
G01 X81.117653 Y119.253784 Z-0.125000
G01 X81.354614 Y118.811374 Z-0.125000
G01 X81.413880 Y118.291919 Z-0.125000
G00 Z3.000000

(End cutting path id: polygon307182)


(Start cutting path id: polygon307180)
(Change tool to Default tool)

G00 Z3.000000
G00 X77.677228 Y119.178722

G00 Z4.875000 (Fast pre-penetrate)
G01 Z-0.125000 F400.0(Penetrate)
G01 X77.893657 Y118.716125 Z-0.125000 F800.000000
G01 X77.914744 Y118.184524 Z-0.125000
G01 X77.734166 Y117.703089 Z-0.125000
G01 X77.391319 Y117.332885 Z-0.125000
G01 X76.928722 Y117.116456 Z-0.125000
G01 X76.397122 Y117.095369 Z-0.125000
G01 X75.915687 Y117.275946 Z-0.125000
G01 X75.545482 Y117.618793 Z-0.125000
G01 X75.329053 Y118.081390 Z-0.125000
G01 X75.307966 Y118.612990 Z-0.125000
G01 X75.488544 Y119.094425 Z-0.125000
G01 X75.831391 Y119.464630 Z-0.125000
G01 X76.293988 Y119.681059 Z-0.125000
G01 X76.825588 Y119.702146 Z-0.125000
G01 X77.307023 Y119.521568 Z-0.125000
G01 X77.677228 Y119.178722 Z-0.125000
G00 Z3.000000

(End cutting path id: polygon307180)


(Start cutting path id: polygon307202)
(Change tool to Default tool)

G00 Z3.000000
G00 X77.738267 Y122.536571

G00 Z4.875000 (Fast pre-penetrate)
G01 Z-0.125000 F400.0(Penetrate)
G01 X77.919506 Y122.053336 Z-0.125000 F800.000000
G01 X77.898340 Y121.519805 Z-0.125000
G01 X77.681117 Y121.055515 Z-0.125000
G01 X77.309590 Y120.711424 Z-0.125000
G01 X76.826355 Y120.530185 Z-0.125000
G01 X76.292824 Y120.551352 Z-0.125000
G01 X75.828533 Y120.768574 Z-0.125000
G01 X75.484443 Y121.140102 Z-0.125000
G01 X75.303204 Y121.623336 Z-0.125000
G01 X75.324370 Y122.156868 Z-0.125000
G01 X75.541593 Y122.621158 Z-0.125000
G01 X75.913120 Y122.965248 Z-0.125000
G01 X76.396355 Y123.146488 Z-0.125000
G01 X76.929886 Y123.125321 Z-0.125000
G01 X77.394177 Y122.908098 Z-0.125000
G01 X77.738267 Y122.536571 Z-0.125000
G00 Z3.000000

(End cutting path id: polygon307202)


(Start cutting path id: polygon307200)
(Change tool to Default tool)

G00 Z3.000000
G00 X79.540871 Y123.111192

G00 Z4.875000 (Fast pre-penetrate)
G01 Z-0.125000 F400.0(Penetrate)
G01 X80.050934 Y123.209220 Z-0.125000 F800.000000
G01 X80.560997 Y123.111192 Z-0.125000
G01 X80.984224 Y122.842482 Z-0.125000
G01 X81.323790 Y122.348399 Z-0.125000
G01 X81.421818 Y121.838336 Z-0.125000
G01 X81.323790 Y121.328273 Z-0.125000
G01 X81.055079 Y120.905046 Z-0.125000
G01 X80.560997 Y120.565480 Z-0.125000
G01 X80.050934 Y120.467452 Z-0.125000
G01 X79.540871 Y120.565480 Z-0.125000
G01 X79.117644 Y120.834191 Z-0.125000
G01 X78.778078 Y121.328273 Z-0.125000
G01 X78.680050 Y121.838336 Z-0.125000
G01 X78.778078 Y122.348399 Z-0.125000
G01 X79.046789 Y122.771626 Z-0.125000
G01 X79.540871 Y123.111192 Z-0.125000
G00 Z3.000000

(End cutting path id: polygon307200)


(Start cutting path id: polygon307218)
(Change tool to Default tool)

G00 Z3.000000
G00 X79.126534 Y124.214530

G00 Z4.875000 (Fast pre-penetrate)
G01 Z-0.125000 F400.0(Penetrate)
G01 X78.772919 Y124.683926 Z-0.125000 F800.000000
G01 X78.641950 Y125.277915 Z-0.125000
G01 X78.734025 Y125.779962 Z-0.125000
G01 X78.987548 Y126.202315 Z-0.125000
G01 X79.456945 Y126.555931 Z-0.125000
G01 X80.050934 Y126.686899 Z-0.125000
G01 X80.552980 Y126.594824 Z-0.125000
G01 X80.975334 Y126.341301 Z-0.125000
G01 X81.328949 Y125.871904 Z-0.125000
G01 X81.459918 Y125.277915 Z-0.125000
G01 X81.367843 Y124.775869 Z-0.125000
G01 X81.114320 Y124.353515 Z-0.125000
G01 X80.644923 Y123.999900 Z-0.125000
G01 X80.050934 Y123.868931 Z-0.125000
G01 X79.548888 Y123.961006 Z-0.125000
G01 X79.126534 Y124.214530 Z-0.125000
G00 Z3.000000

(End cutting path id: polygon307218)


(Start cutting path id: polygon307220)
(Change tool to Default tool)

G00 Z3.000000
G00 X82.798840 Y124.028290

G00 Z4.875000 (Fast pre-penetrate)
G01 Z-0.125000 F400.0(Penetrate)
G01 X82.349949 Y124.418523 Z-0.125000 F800.000000
G01 X82.096928 Y124.964861 Z-0.125000
G01 X82.077984 Y125.488947 Z-0.125000
G01 X82.240887 Y125.969588 Z-0.125000
G01 X82.631121 Y126.418480 Z-0.125000
G01 X83.177458 Y126.671500 Z-0.125000
G01 X83.701544 Y126.690445 Z-0.125000
G01 X84.182186 Y126.527541 Z-0.125000
G01 X84.631077 Y126.137307 Z-0.125000
G01 X84.884098 Y125.590970 Z-0.125000
G01 X84.903042 Y125.066884 Z-0.125000
G01 X84.740139 Y124.586242 Z-0.125000
G01 X84.349905 Y124.137351 Z-0.125000
G01 X83.803568 Y123.884330 Z-0.125000
G01 X83.279482 Y123.865386 Z-0.125000
G01 X82.798840 Y124.028290 Z-0.125000
G00 Z3.000000

(End cutting path id: polygon307220)


(Start cutting path id: polygon307198)
(Change tool to Default tool)

G00 Z3.000000
G00 X84.908810 Y121.838336

G00 Z4.875000 (Fast pre-penetrate)
G01 Z-0.125000 F400.0(Penetrate)
G01 X84.776995 Y121.240432 Z-0.125000 F800.000000
G01 X84.421025 Y120.767939 Z-0.125000
G01 X83.995893 Y120.512723 Z-0.125000
G01 X83.490513 Y120.420039 Z-0.125000
G01 X82.892608 Y120.551854 Z-0.125000
G01 X82.420116 Y120.907824 Z-0.125000
G01 X82.164899 Y121.332956 Z-0.125000
G01 X82.072216 Y121.838336 Z-0.125000
G01 X82.204031 Y122.436241 Z-0.125000
G01 X82.560001 Y122.908733 Z-0.125000
G01 X82.985133 Y123.163950 Z-0.125000
G01 X83.490513 Y123.256633 Z-0.125000
G01 X84.088418 Y123.124818 Z-0.125000
G01 X84.560910 Y122.768848 Z-0.125000
G01 X84.816127 Y122.343716 Z-0.125000
G01 X84.908810 Y121.838336 Z-0.125000
G00 Z3.000000

(End cutting path id: polygon307198)


(Start cutting path id: polygon307222)
(Change tool to Default tool)

G00 Z3.000000
G00 X86.325282 Y123.976590

G00 Z4.875000 (Fast pre-penetrate)
G01 Z-0.125000 F400.0(Penetrate)
G01 X85.847339 Y124.336688 Z-0.125000 F800.000000
G01 X85.556165 Y124.863578 Z-0.125000
G01 X85.499359 Y125.384992 Z-0.125000
G01 X85.628767 Y125.882726 Z-0.125000
G01 X85.988864 Y126.360668 Z-0.125000
G01 X86.515755 Y126.651842 Z-0.125000
G01 X87.037169 Y126.708648 Z-0.125000
G01 X87.534902 Y126.579240 Z-0.125000
G01 X88.012845 Y126.219143 Z-0.125000
G01 X88.304019 Y125.692252 Z-0.125000
G01 X88.360825 Y125.170839 Z-0.125000
G01 X88.231417 Y124.673105 Z-0.125000
G01 X87.871320 Y124.195162 Z-0.125000
G01 X87.344429 Y123.903989 Z-0.125000
G01 X86.823015 Y123.847183 Z-0.125000
G01 X86.325282 Y123.976590 Z-0.125000
G00 Z3.000000

(End cutting path id: polygon307222)


(Start cutting path id: polygon307196)
(Change tool to Default tool)

G00 Z3.000000
G00 X88.244302 Y121.227520

G00 Z4.875000 (Fast pre-penetrate)
G01 Z-0.125000 F400.0(Penetrate)
G01 X87.880659 Y120.744841 Z-0.125000 F800.000000
G01 X87.348556 Y120.450810 Z-0.125000
G01 X86.821957 Y120.393449 Z-0.125000
G01 X86.319276 Y120.524126 Z-0.125000
G01 X85.836597 Y120.887769 Z-0.125000
G01 X85.542566 Y121.419872 Z-0.125000
G01 X85.485204 Y121.946471 Z-0.125000
G01 X85.615882 Y122.449153 Z-0.125000
G01 X85.979525 Y122.931831 Z-0.125000
G01 X86.511628 Y123.225862 Z-0.125000
G01 X87.038227 Y123.283224 Z-0.125000
G01 X87.540908 Y123.152547 Z-0.125000
G01 X88.023587 Y122.788904 Z-0.125000
G01 X88.317618 Y122.256801 Z-0.125000
G01 X88.374980 Y121.730201 Z-0.125000
G01 X88.244302 Y121.227520 Z-0.125000
G00 Z3.000000

(End cutting path id: polygon307196)


(Start cutting path id: polygon307188)
(Change tool to Default tool)

G00 Z3.000000
G00 X89.047232 Y119.013384

G00 Z4.875000 (Fast pre-penetrate)
G01 Z-0.125000 F400.0(Penetrate)
G01 X89.413151 Y119.499105 Z-0.125000 F800.000000
G01 X89.948587 Y119.794988 Z-0.125000
G01 X90.478468 Y119.852720 Z-0.125000
G01 X90.984297 Y119.721196 Z-0.125000
G01 X91.470019 Y119.355278 Z-0.125000
G01 X91.765902 Y118.819841 Z-0.125000
G01 X91.823634 Y118.289961 Z-0.125000
G01 X91.692110 Y117.784131 Z-0.125000
G01 X91.326191 Y117.298410 Z-0.125000
G01 X90.790755 Y117.002526 Z-0.125000
G01 X90.260874 Y116.944794 Z-0.125000
G01 X89.755045 Y117.076319 Z-0.125000
G01 X89.269323 Y117.442237 Z-0.125000
G01 X88.973440 Y117.977673 Z-0.125000
G01 X88.915708 Y118.507554 Z-0.125000
G01 X89.047232 Y119.013384 Z-0.125000
G00 Z3.000000

(End cutting path id: polygon307188)


(Start cutting path id: polygon307192)
(Change tool to Default tool)

G00 Z3.000000
G00 X92.444108 Y121.317902

G00 Z4.875000 (Fast pre-penetrate)
G01 Z-0.125000 F400.0(Penetrate)
G01 X92.348672 Y121.838336 Z-0.125000 F800.000000
G01 X92.444108 Y122.358771 Z-0.125000
G01 X92.776450 Y122.871136 Z-0.125000
G01 X93.288815 Y123.203479 Z-0.125000
G01 X93.809250 Y123.298914 Z-0.125000
G01 X94.329685 Y123.203479 Z-0.125000
G01 X94.842050 Y122.871136 Z-0.125000
G01 X95.174392 Y122.358771 Z-0.125000
G01 X95.269828 Y121.838336 Z-0.125000
G01 X95.174392 Y121.317902 Z-0.125000
G01 X94.842050 Y120.805537 Z-0.125000
G01 X94.329685 Y120.473194 Z-0.125000
G01 X93.809250 Y120.377759 Z-0.125000
G01 X93.288815 Y120.473194 Z-0.125000
G01 X92.776450 Y120.805537 Z-0.125000
G01 X92.444108 Y121.317902 Z-0.125000
G00 Z3.000000

(End cutting path id: polygon307192)


(Start cutting path id: polygon307194)
(Change tool to Default tool)

G00 Z3.000000
G00 X90.887936 Y123.197764

G00 Z4.875000 (Fast pre-penetrate)
G01 Z-0.125000 F400.0(Penetrate)
G01 X91.398132 Y122.866797 Z-0.125000 F800.000000
G01 X91.729098 Y122.356601 Z-0.125000
G01 X91.824163 Y121.838336 Z-0.125000
G01 X91.729098 Y121.320071 Z-0.125000
G01 X91.398132 Y120.809876 Z-0.125000
G01 X90.887936 Y120.478909 Z-0.125000
G01 X90.369671 Y120.383844 Z-0.125000
G01 X89.851406 Y120.478909 Z-0.125000
G01 X89.341210 Y120.809876 Z-0.125000
G01 X89.010244 Y121.320071 Z-0.125000
G01 X88.915179 Y121.838336 Z-0.125000
G01 X89.010244 Y122.356601 Z-0.125000
G01 X89.341210 Y122.866797 Z-0.125000
G01 X89.851406 Y123.197764 Z-0.125000
G01 X90.369671 Y123.292828 Z-0.125000
G01 X90.887936 Y123.197764 Z-0.125000
G00 Z3.000000

(End cutting path id: polygon307194)


(Start cutting path id: polygon307224)
(Change tool to Default tool)

G00 Z3.000000
G00 X90.157423 Y123.857184

G00 Z4.875000 (Fast pre-penetrate)
G01 Z-0.125000 F400.0(Penetrate)
G01 X89.587590 Y124.073004 Z-0.125000 F800.000000
G01 X89.164760 Y124.495834 Z-0.125000
G01 X88.967990 Y124.963035 Z-0.125000
G01 X88.948940 Y125.490164 Z-0.125000
G01 X89.164760 Y126.059996 Z-0.125000
G01 X89.587590 Y126.482826 Z-0.125000
G01 X90.054791 Y126.679597 Z-0.125000
G01 X90.581919 Y126.698647 Z-0.125000
G01 X91.151752 Y126.482826 Z-0.125000
G01 X91.574582 Y126.059996 Z-0.125000
G01 X91.771352 Y125.592796 Z-0.125000
G01 X91.790402 Y125.065667 Z-0.125000
G01 X91.574582 Y124.495834 Z-0.125000
G01 X91.151752 Y124.073004 Z-0.125000
G01 X90.684551 Y123.876234 Z-0.125000
G01 X90.157423 Y123.857184 Z-0.125000
G00 Z3.000000

(End cutting path id: polygon307224)


(Start cutting path id: polygon307226)
(Change tool to Default tool)

G00 Z3.000000
G00 X93.202508 Y123.972436

G00 Z4.875000 (Fast pre-penetrate)
G01 Z-0.125000 F400.0(Penetrate)
G01 X92.723031 Y124.333671 Z-0.125000 F800.000000
G01 X92.430931 Y124.862229 Z-0.125000
G01 X92.373940 Y125.385336 Z-0.125000
G01 X92.503771 Y125.884657 Z-0.125000
G01 X92.865006 Y126.364134 Z-0.125000
G01 X93.393564 Y126.656234 Z-0.125000
G01 X93.916671 Y126.713225 Z-0.125000
G01 X94.415992 Y126.583394 Z-0.125000
G01 X94.895469 Y126.222159 Z-0.125000
G01 X95.187569 Y125.693602 Z-0.125000
G01 X95.244560 Y125.170495 Z-0.125000
G01 X95.114729 Y124.671174 Z-0.125000
G01 X94.753494 Y124.191696 Z-0.125000
G01 X94.224936 Y123.899597 Z-0.125000
G01 X93.701829 Y123.842605 Z-0.125000
G01 X93.202508 Y123.972436 Z-0.125000
G00 Z3.000000

(End cutting path id: polygon307226)


(Start cutting path id: polygon307228)
(Change tool to Default tool)

G00 Z3.000000
G00 X94.736190 Y127.651198

G00 Z4.875000 (Fast pre-penetrate)
G01 Z-0.125000 F400.0(Penetrate)
G01 X94.312699 Y127.396961 Z-0.125000 F800.000000
G01 X93.809250 Y127.304648 Z-0.125000
G01 X93.213621 Y127.435960 Z-0.125000
G01 X92.742954 Y127.790554 Z-0.125000
G01 X92.488716 Y128.214046 Z-0.125000
G01 X92.396403 Y128.717494 Z-0.125000
G01 X92.527716 Y129.313124 Z-0.125000
G01 X92.882310 Y129.783790 Z-0.125000
G01 X93.305801 Y130.038028 Z-0.125000
G01 X93.809250 Y130.130341 Z-0.125000
G01 X94.404879 Y129.999029 Z-0.125000
G01 X94.875546 Y129.644434 Z-0.125000
G01 X95.129784 Y129.220943 Z-0.125000
G01 X95.222097 Y128.717494 Z-0.125000
G01 X95.090784 Y128.121865 Z-0.125000
G01 X94.736190 Y127.651198 Z-0.125000
G00 Z3.000000

(End cutting path id: polygon307228)


(Start cutting path id: polygon307234)
(Change tool to Default tool)

G00 Z3.000000
G00 X93.809250 Y130.756927

G00 Z4.875000 (Fast pre-penetrate)
G01 Z-0.125000 F400.0(Penetrate)
G01 X93.288286 Y130.857045 Z-0.125000 F800.000000
G01 X92.783647 Y131.203860 Z-0.125000
G01 X92.509221 Y131.636109 Z-0.125000
G01 X92.409103 Y132.157073 Z-0.125000
G01 X92.509221 Y132.678037 Z-0.125000
G01 X92.856037 Y133.182676 Z-0.125000
G01 X93.288286 Y133.457102 Z-0.125000
G01 X93.809250 Y133.557220 Z-0.125000
G01 X94.330214 Y133.457102 Z-0.125000
G01 X94.834853 Y133.110286 Z-0.125000
G01 X95.109279 Y132.678037 Z-0.125000
G01 X95.209397 Y132.157073 Z-0.125000
G01 X95.109279 Y131.636109 Z-0.125000
G01 X94.762463 Y131.131470 Z-0.125000
G01 X94.330214 Y130.857045 Z-0.125000
G01 X93.809250 Y130.756927 Z-0.125000
G00 Z3.000000

(End cutting path id: polygon307234)


(Start cutting path id: polygon310048)
(Change tool to Default tool)

G00 Z3.000000
G00 X95.917738 Y132.578369

G00 Z4.875000 (Fast pre-penetrate)
G01 Z-0.125000 F400.0(Penetrate)
G01 X96.159673 Y133.030091 Z-0.125000 F800.000000
G01 X96.634996 Y133.411012 Z-0.125000
G01 X97.139741 Y133.548674 Z-0.125000
G01 X97.670125 Y133.488164 Z-0.125000
G01 X98.121847 Y133.246229 Z-0.125000
G01 X98.502767 Y132.770906 Z-0.125000
G01 X98.640430 Y132.266161 Z-0.125000
G01 X98.579920 Y131.735778 Z-0.125000
G01 X98.337985 Y131.284055 Z-0.125000
G01 X97.862662 Y130.903135 Z-0.125000
G01 X97.357917 Y130.765473 Z-0.125000
G01 X96.827533 Y130.825983 Z-0.125000
G01 X96.375811 Y131.067917 Z-0.125000
G01 X95.994891 Y131.543241 Z-0.125000
G01 X95.857228 Y132.047986 Z-0.125000
G01 X95.917738 Y132.578369 Z-0.125000
G00 Z3.000000

(End cutting path id: polygon310048)


(Start cutting path id: polygon310050)
(Change tool to Default tool)

G00 Z3.000000
G00 X96.300458 Y134.576262

G00 Z4.875000 (Fast pre-penetrate)
G01 Z-0.125000 F400.0(Penetrate)
G01 X95.955389 Y135.078334 Z-0.125000 F800.000000
G01 X95.855773 Y135.596652 Z-0.125000
G01 X95.955389 Y136.114970 Z-0.125000
G01 X96.300458 Y136.617043 Z-0.125000
G01 X96.730511 Y136.890093 Z-0.125000
G01 X97.248829 Y136.989708 Z-0.125000
G01 X97.767147 Y136.890093 Z-0.125000
G01 X98.269220 Y136.545024 Z-0.125000
G01 X98.542269 Y136.114970 Z-0.125000
G01 X98.641885 Y135.596652 Z-0.125000
G01 X98.542269 Y135.078334 Z-0.125000
G01 X98.197200 Y134.576262 Z-0.125000
G01 X97.767147 Y134.303212 Z-0.125000
G01 X97.248829 Y134.203596 Z-0.125000
G01 X96.730511 Y134.303212 Z-0.125000
G01 X96.300458 Y134.576262 Z-0.125000
G00 Z3.000000

(End cutting path id: polygon310050)


(Start cutting path id: polygon310052)
(Change tool to Default tool)

G00 Z3.000000
G00 X99.347290 Y135.280820

G00 Z4.875000 (Fast pre-penetrate)
G01 Z-0.125000 F400.0(Penetrate)
G01 X99.327287 Y135.809695 Z-0.125000 F800.000000
G01 X99.498975 Y136.291897 Z-0.125000
G01 X99.907809 Y136.731766 Z-0.125000
G01 X100.372575 Y136.937771 Z-0.125000
G01 X100.901450 Y136.957773 Z-0.125000
G01 X101.383653 Y136.786085 Z-0.125000
G01 X101.823522 Y136.377252 Z-0.125000
G01 X102.029526 Y135.912485 Z-0.125000
G01 X102.049529 Y135.383610 Z-0.125000
G01 X101.877841 Y134.901408 Z-0.125000
G01 X101.469007 Y134.461538 Z-0.125000
G01 X101.004241 Y134.255534 Z-0.125000
G01 X100.475366 Y134.235532 Z-0.125000
G01 X99.993163 Y134.407219 Z-0.125000
G01 X99.553294 Y134.816053 Z-0.125000
G01 X99.347290 Y135.280820 Z-0.125000
G00 Z3.000000

(End cutting path id: polygon310052)


(Start cutting path id: polygon307244)
(Change tool to Default tool)

G00 Z3.000000
G00 X96.382346 Y137.955225

G00 Z4.875000 (Fast pre-penetrate)
G01 Z-0.125000 F400.0(Penetrate)
G01 X96.004257 Y138.426976 Z-0.125000 F800.000000
G01 X95.867626 Y138.927964 Z-0.125000
G01 X95.927687 Y139.454378 Z-0.125000
G01 X96.167822 Y139.902714 Z-0.125000
G01 X96.639574 Y140.280803 Z-0.125000
G01 X97.140562 Y140.417434 Z-0.125000
G01 X97.666976 Y140.357374 Z-0.125000
G01 X98.115312 Y140.117238 Z-0.125000
G01 X98.493401 Y139.645487 Z-0.125000
G01 X98.630032 Y139.144499 Z-0.125000
G01 X98.569971 Y138.618084 Z-0.125000
G01 X98.329836 Y138.169748 Z-0.125000
G01 X97.858084 Y137.791659 Z-0.125000
G01 X97.357096 Y137.655029 Z-0.125000
G01 X96.830682 Y137.715089 Z-0.125000
G01 X96.382346 Y137.955225 Z-0.125000
G00 Z3.000000

(End cutting path id: polygon307244)


(Start cutting path id: polygon307246)
(Change tool to Default tool)

G00 Z3.000000
G00 X96.467436 Y141.339532

G00 Z4.875000 (Fast pre-penetrate)
G01 Z-0.125000 F400.0(Penetrate)
G01 X96.058205 Y141.779851 Z-0.125000 F800.000000
G01 X95.886332 Y142.262556 Z-0.125000
G01 X95.906361 Y142.791987 Z-0.125000
G01 X96.112551 Y143.257203 Z-0.125000
G01 X96.552870 Y143.666434 Z-0.125000
G01 X97.035575 Y143.838307 Z-0.125000
G01 X97.565006 Y143.818278 Z-0.125000
G01 X98.030222 Y143.612088 Z-0.125000
G01 X98.439452 Y143.171769 Z-0.125000
G01 X98.611326 Y142.689064 Z-0.125000
G01 X98.591297 Y142.159634 Z-0.125000
G01 X98.385107 Y141.694417 Z-0.125000
G01 X97.944788 Y141.285187 Z-0.125000
G01 X97.462083 Y141.113314 Z-0.125000
G01 X96.932652 Y141.133343 Z-0.125000
G01 X96.467436 Y141.339532 Z-0.125000
G00 Z3.000000

(End cutting path id: polygon307246)


(Start cutting path id: polygon307248)
(Change tool to Default tool)

G00 Z3.000000
G00 X93.916671 Y141.105456

G00 Z4.875000 (Fast pre-penetrate)
G01 Z-0.125000 F400.0(Penetrate)
G01 X93.394384 Y141.165040 Z-0.125000 F800.000000
G01 X92.949593 Y141.403297 Z-0.125000
G01 X92.574468 Y141.871344 Z-0.125000
G01 X92.438895 Y142.368390 Z-0.125000
G01 X92.498479 Y142.890676 Z-0.125000
G01 X92.736736 Y143.335467 Z-0.125000
G01 X93.204784 Y143.710593 Z-0.125000
G01 X93.701829 Y143.846165 Z-0.125000
G01 X94.224116 Y143.786581 Z-0.125000
G01 X94.668907 Y143.548324 Z-0.125000
G01 X95.044032 Y143.080277 Z-0.125000
G01 X95.179605 Y142.583231 Z-0.125000
G01 X95.120021 Y142.060944 Z-0.125000
G01 X94.881764 Y141.616154 Z-0.125000
G01 X94.413716 Y141.241028 Z-0.125000
G01 X93.916671 Y141.105456 Z-0.125000
G00 Z3.000000

(End cutting path id: polygon307248)


(Start cutting path id: polygon307242)
(Change tool to Default tool)

G00 Z3.000000
G00 X92.444425 Y139.249856

G00 Z4.875000 (Fast pre-penetrate)
G01 Z-0.125000 F400.0(Penetrate)
G01 X92.616589 Y139.733355 Z-0.125000 F800.000000
G01 X93.026534 Y140.174441 Z-0.125000
G01 X93.492544 Y140.380974 Z-0.125000
G01 X94.022874 Y140.401056 Z-0.125000
G01 X94.506373 Y140.228892 Z-0.125000
G01 X94.947460 Y139.818947 Z-0.125000
G01 X95.153993 Y139.352937 Z-0.125000
G01 X95.174075 Y138.822607 Z-0.125000
G01 X95.001911 Y138.339108 Z-0.125000
G01 X94.591966 Y137.898022 Z-0.125000
G01 X94.125956 Y137.691488 Z-0.125000
G01 X93.595626 Y137.671406 Z-0.125000
G01 X93.112127 Y137.843571 Z-0.125000
G01 X92.671040 Y138.253515 Z-0.125000
G01 X92.464507 Y138.719525 Z-0.125000
G01 X92.444425 Y139.249856 Z-0.125000
G00 Z3.000000

(End cutting path id: polygon307242)


(Start cutting path id: polygon307240)
(Change tool to Default tool)

G00 Z3.000000
G00 X90.054606 Y137.698394

G00 Z4.875000 (Fast pre-penetrate)
G01 Z-0.125000 F400.0(Penetrate)
G01 X89.590977 Y137.903895 Z-0.125000 F800.000000
G01 X89.183149 Y138.342680 Z-0.125000
G01 X89.011884 Y138.823718 Z-0.125000
G01 X89.031834 Y139.351297 Z-0.125000
G01 X89.237335 Y139.814926 Z-0.125000
G01 X89.676120 Y140.222754 Z-0.125000
G01 X90.157158 Y140.394018 Z-0.125000
G01 X90.684736 Y140.374069 Z-0.125000
G01 X91.148365 Y140.168567 Z-0.125000
G01 X91.556193 Y139.729783 Z-0.125000
G01 X91.727458 Y139.248744 Z-0.125000
G01 X91.707508 Y138.721166 Z-0.125000
G01 X91.502007 Y138.257537 Z-0.125000
G01 X91.063222 Y137.849709 Z-0.125000
G01 X90.582184 Y137.678444 Z-0.125000
G01 X90.054606 Y137.698394 Z-0.125000
G00 Z3.000000

(End cutting path id: polygon307240)


(Start cutting path id: polygon307238)
(Change tool to Default tool)

G00 Z3.000000
G00 X89.585844 Y136.736476

G00 Z4.875000 (Fast pre-penetrate)
G01 Z-0.125000 F400.0(Penetrate)
G01 X90.052515 Y136.943327 Z-0.125000 F800.000000
G01 X90.583586 Y136.963409 Z-0.125000
G01 X91.067800 Y136.791006 Z-0.125000
G01 X91.509495 Y136.380479 Z-0.125000
G01 X91.716346 Y135.913808 Z-0.125000
G01 X91.736427 Y135.382737 Z-0.125000
G01 X91.564025 Y134.898524 Z-0.125000
G01 X91.153498 Y134.456829 Z-0.125000
G01 X90.686827 Y134.249978 Z-0.125000
G01 X90.155756 Y134.229896 Z-0.125000
G01 X89.671542 Y134.402298 Z-0.125000
G01 X89.229847 Y134.812825 Z-0.125000
G01 X89.022996 Y135.279497 Z-0.125000
G01 X89.002915 Y135.810568 Z-0.125000
G01 X89.175317 Y136.294781 Z-0.125000
G01 X89.585844 Y136.736476 Z-0.125000
G00 Z3.000000

(End cutting path id: polygon307238)


(Start cutting path id: polygon310094)
(Change tool to Default tool)

G00 Z3.000000
G00 X88.252107 Y136.015090

G00 Z4.875000 (Fast pre-penetrate)
G01 Z-0.125000 F400.0(Penetrate)
G01 X88.312221 Y135.488306 Z-0.125000 F800.000000
G01 X88.175484 Y134.987000 Z-0.125000
G01 X87.797157 Y134.514905 Z-0.125000
G01 X87.348530 Y134.274637 Z-0.125000
G01 X86.821745 Y134.214524 Z-0.125000
G01 X86.320440 Y134.351260 Z-0.125000
G01 X85.848344 Y134.729587 Z-0.125000
G01 X85.608077 Y135.178214 Z-0.125000
G01 X85.547963 Y135.704999 Z-0.125000
G01 X85.684700 Y136.206304 Z-0.125000
G01 X86.063027 Y136.678400 Z-0.125000
G01 X86.511654 Y136.918668 Z-0.125000
G01 X87.038439 Y136.978781 Z-0.125000
G01 X87.539744 Y136.842044 Z-0.125000
G01 X88.011840 Y136.463717 Z-0.125000
G01 X88.252107 Y136.015090 Z-0.125000
G00 Z3.000000

(End cutting path id: polygon310094)


(Start cutting path id: polygon310496)
(Change tool to Default tool)

G00 Z3.000000
G00 X84.559772 Y136.526159

G00 Z4.875000 (Fast pre-penetrate)
G01 Z-0.125000 F400.0(Penetrate)
G01 X84.814698 Y136.101477 Z-0.125000 F800.000000
G01 X84.907302 Y135.596652 Z-0.125000
G01 X84.775619 Y134.999383 Z-0.125000
G01 X84.420020 Y134.527393 Z-0.125000
G01 X83.995337 Y134.272467 Z-0.125000
G01 X83.490513 Y134.179863 Z-0.125000
G01 X82.893243 Y134.311546 Z-0.125000
G01 X82.421254 Y134.667146 Z-0.125000
G01 X82.166328 Y135.091828 Z-0.125000
G01 X82.073724 Y135.596652 Z-0.125000
G01 X82.205407 Y136.193922 Z-0.125000
G01 X82.561006 Y136.665912 Z-0.125000
G01 X82.985689 Y136.920837 Z-0.125000
G01 X83.490513 Y137.013441 Z-0.125000
G01 X84.087783 Y136.881758 Z-0.125000
G01 X84.559772 Y136.526159 Z-0.125000
G00 Z3.000000

(End cutting path id: polygon310496)


(Start cutting path id: polygon310494)
(Change tool to Default tool)

G00 Z3.000000
G00 X84.825387 Y138.613719

G00 Z4.875000 (Fast pre-penetrate)
G01 Z-0.125000 F400.0(Penetrate)
G01 X84.582765 Y138.160753 Z-0.125000 F800.000000
G01 X84.106092 Y137.778748 Z-0.125000
G01 X83.599892 Y137.640688 Z-0.125000
G01 X83.068000 Y137.701357 Z-0.125000
G01 X82.615034 Y137.943980 Z-0.125000
G01 X82.233029 Y138.420652 Z-0.125000
G01 X82.094970 Y138.926853 Z-0.125000
G01 X82.155639 Y139.458744 Z-0.125000
G01 X82.398261 Y139.911710 Z-0.125000
G01 X82.874934 Y140.293715 Z-0.125000
G01 X83.381134 Y140.431774 Z-0.125000
G01 X83.913026 Y140.371105 Z-0.125000
G01 X84.365992 Y140.128483 Z-0.125000
G01 X84.747997 Y139.651810 Z-0.125000
G01 X84.886056 Y139.145610 Z-0.125000
G01 X84.825387 Y138.613719 Z-0.125000
G00 Z3.000000

(End cutting path id: polygon310494)


(Start cutting path id: polygon310096)
(Change tool to Default tool)

G00 Z3.000000
G00 X87.245660 Y140.376185

G00 Z4.875000 (Fast pre-penetrate)
G01 Z-0.125000 F400.0(Penetrate)
G01 X87.710030 Y140.170366 Z-0.125000 F800.000000
G01 X88.118493 Y139.730894 Z-0.125000
G01 X88.290049 Y139.249088 Z-0.125000
G01 X88.270046 Y138.720663 Z-0.125000
G01 X88.064227 Y138.256294 Z-0.125000
G01 X87.624755 Y137.847830 Z-0.125000
G01 X87.142949 Y137.676275 Z-0.125000
G01 X86.614524 Y137.696277 Z-0.125000
G01 X86.150154 Y137.902096 Z-0.125000
G01 X85.741691 Y138.341569 Z-0.125000
G01 X85.570135 Y138.823374 Z-0.125000
G01 X85.590138 Y139.351799 Z-0.125000
G01 X85.795957 Y139.816169 Z-0.125000
G01 X86.235429 Y140.224632 Z-0.125000
G01 X86.717235 Y140.396188 Z-0.125000
G01 X87.245660 Y140.376185 Z-0.125000
G00 Z3.000000

(End cutting path id: polygon310096)


(Start cutting path id: polygon310098)
(Change tool to Default tool)

G00 Z3.000000
G00 X88.283593 Y142.263959

G00 Z4.875000 (Fast pre-penetrate)
G01 Z-0.125000 F400.0(Penetrate)
G01 X88.112857 Y141.784455 Z-0.125000 F800.000000
G01 X87.706326 Y141.347046 Z-0.125000
G01 X87.244178 Y141.142206 Z-0.125000
G01 X86.718240 Y141.122310 Z-0.125000
G01 X86.238737 Y141.293045 Z-0.125000
G01 X85.801328 Y141.699577 Z-0.125000
G01 X85.596488 Y142.161724 Z-0.125000
G01 X85.576591 Y142.687662 Z-0.125000
G01 X85.747327 Y143.167166 Z-0.125000
G01 X86.153858 Y143.604574 Z-0.125000
G01 X86.616006 Y143.809414 Z-0.125000
G01 X87.141944 Y143.829311 Z-0.125000
G01 X87.621447 Y143.658576 Z-0.125000
G01 X88.058856 Y143.252044 Z-0.125000
G01 X88.263696 Y142.789897 Z-0.125000
G01 X88.283593 Y142.263959 Z-0.125000
G00 Z3.000000

(End cutting path id: polygon310098)


(Start cutting path id: polygon310100)
(Change tool to Default tool)

G00 Z3.000000
G00 X88.279359 Y145.597625

G00 Z4.875000 (Fast pre-penetrate)
G01 Z-0.125000 F400.0(Penetrate)
G01 X88.072112 Y145.130028 Z-0.125000 F800.000000
G01 X87.629570 Y144.718733 Z-0.125000
G01 X87.144431 Y144.545987 Z-0.125000
G01 X86.612328 Y144.566122 Z-0.125000
G01 X86.144730 Y144.773370 Z-0.125000
G01 X85.733436 Y145.215911 Z-0.125000
G01 X85.560690 Y145.701051 Z-0.125000
G01 X85.580825 Y146.233153 Z-0.125000
G01 X85.788072 Y146.700751 Z-0.125000
G01 X86.230614 Y147.112045 Z-0.125000
G01 X86.715753 Y147.284792 Z-0.125000
G01 X87.247856 Y147.264657 Z-0.125000
G01 X87.715454 Y147.057409 Z-0.125000
G01 X88.126748 Y146.614867 Z-0.125000
G01 X88.299494 Y146.129728 Z-0.125000
G01 X88.279359 Y145.597625 Z-0.125000
G00 Z3.000000

(End cutting path id: polygon310100)


(Start cutting path id: polygon310102)
(Change tool to Default tool)

G00 Z3.000000
G00 X88.171039 Y148.668084

G00 Z4.875000 (Fast pre-penetrate)
G01 Z-0.125000 F400.0(Penetrate)
G01 X87.783531 Y148.222315 Z-0.125000 F800.000000
G01 X87.240977 Y147.971040 Z-0.125000
G01 X86.720542 Y147.952255 Z-0.125000
G01 X86.243208 Y148.114021 Z-0.125000
G01 X85.797439 Y148.501529 Z-0.125000
G01 X85.546164 Y149.044083 Z-0.125000
G01 X85.527379 Y149.564518 Z-0.125000
G01 X85.689145 Y150.041852 Z-0.125000
G01 X86.076653 Y150.487622 Z-0.125000
G01 X86.619207 Y150.738896 Z-0.125000
G01 X87.139642 Y150.757682 Z-0.125000
G01 X87.616976 Y150.595915 Z-0.125000
G01 X88.062745 Y150.208407 Z-0.125000
G01 X88.314020 Y149.665853 Z-0.125000
G01 X88.332805 Y149.145419 Z-0.125000
G01 X88.171039 Y148.668084 Z-0.125000
G00 Z3.000000

(End cutting path id: polygon310102)


(Start cutting path id: polygon310904)
(Change tool to Default tool)

G00 Z3.000000
G00 X87.787897 Y151.656100

G00 Z4.875000 (Fast pre-penetrate)
G01 Z-0.125000 F400.0(Penetrate)
G01 X87.341757 Y151.429537 Z-0.125000 F800.000000
G01 X86.823703 Y151.373075 Z-0.125000
G01 X86.239689 Y151.547250 Z-0.125000
G01 X85.791644 Y151.936743 Z-0.125000
G01 X85.565082 Y152.382883 Z-0.125000
G01 X85.508620 Y152.900936 Z-0.125000
G01 X85.682795 Y153.484950 Z-0.125000
G01 X86.072287 Y153.932995 Z-0.125000
G01 X86.518427 Y154.159557 Z-0.125000
G01 X87.036481 Y154.216019 Z-0.125000
G01 X87.620495 Y154.041844 Z-0.125000
G01 X88.068540 Y153.652352 Z-0.125000
G01 X88.295102 Y153.206212 Z-0.125000
G01 X88.351564 Y152.688158 Z-0.125000
G01 X88.177389 Y152.104144 Z-0.125000
G01 X87.787897 Y151.656100 Z-0.125000
G00 Z3.000000

(End cutting path id: polygon310904)


(Start cutting path id: polygon310902)
(Change tool to Default tool)

G00 Z3.000000
G00 X91.664302 Y152.192833

G00 Z4.875000 (Fast pre-penetrate)
G01 Z-0.125000 F400.0(Penetrate)
G01 X91.306083 Y151.717351 Z-0.125000 F800.000000
G01 X90.781891 Y151.427685 Z-0.125000
G01 X90.263150 Y151.371170 Z-0.125000
G01 X89.767956 Y151.499916 Z-0.125000
G01 X89.292474 Y151.858135 Z-0.125000
G01 X89.002809 Y152.382327 Z-0.125000
G01 X88.946294 Y152.901068 Z-0.125000
G01 X89.075040 Y153.396262 Z-0.125000
G01 X89.433259 Y153.871744 Z-0.125000
G01 X89.957451 Y154.161410 Z-0.125000
G01 X90.476192 Y154.217924 Z-0.125000
G01 X90.971386 Y154.089178 Z-0.125000
G01 X91.446868 Y153.730959 Z-0.125000
G01 X91.736533 Y153.206768 Z-0.125000
G01 X91.793048 Y152.688026 Z-0.125000
G01 X91.664302 Y152.192833 Z-0.125000
G00 Z3.000000

(End cutting path id: polygon310902)


(Start cutting path id: polygon311260)
(Change tool to Default tool)

G00 Z3.000000
G00 X91.754340 Y149.666039

G00 Z4.875000 (Fast pre-penetrate)
G01 Z-0.125000 F400.0(Penetrate)
G01 X91.773152 Y149.145286 Z-0.125000 F800.000000
G01 X91.611280 Y148.667714 Z-0.125000
G01 X91.223560 Y148.221706 Z-0.125000
G01 X90.680741 Y147.970300 Z-0.125000
G01 X90.159989 Y147.951488 Z-0.125000
G01 X89.682417 Y148.113360 Z-0.125000
G01 X89.236409 Y148.501080 Z-0.125000
G01 X88.985002 Y149.043898 Z-0.125000
G01 X88.966190 Y149.564650 Z-0.125000
G01 X89.128062 Y150.042223 Z-0.125000
G01 X89.515782 Y150.488230 Z-0.125000
G01 X90.058601 Y150.739637 Z-0.125000
G01 X90.579353 Y150.758449 Z-0.125000
G01 X91.056925 Y150.596577 Z-0.125000
G01 X91.502933 Y150.208857 Z-0.125000
G01 X91.754340 Y149.666039 Z-0.125000
G00 Z3.000000

(End cutting path id: polygon311260)


(Start cutting path id: polygon307256)
(Change tool to Default tool)

G00 Z3.000000
G00 X95.045593 Y150.039312

G00 Z4.875000 (Fast pre-penetrate)
G01 Z-0.125000 F400.0(Penetrate)
G01 X95.206777 Y149.563751 Z-0.125000 F800.000000
G01 X95.188018 Y149.045221 Z-0.125000
G01 X94.937696 Y148.504704 Z-0.125000
G01 X94.493594 Y148.118625 Z-0.125000
G01 X94.018032 Y147.957441 Z-0.125000
G01 X93.499503 Y147.976200 Z-0.125000
G01 X92.958986 Y148.226522 Z-0.125000
G01 X92.572907 Y148.670624 Z-0.125000
G01 X92.411723 Y149.146186 Z-0.125000
G01 X92.430482 Y149.664716 Z-0.125000
G01 X92.680804 Y150.205232 Z-0.125000
G01 X93.124906 Y150.591312 Z-0.125000
G01 X93.600468 Y150.752496 Z-0.125000
G01 X94.118997 Y150.733737 Z-0.125000
G01 X94.659514 Y150.483415 Z-0.125000
G01 X95.045593 Y150.039312 Z-0.125000
G00 Z3.000000

(End cutting path id: polygon307256)


(Start cutting path id: polygon309244)
(Change tool to Default tool)

G00 Z3.000000
G00 X96.568692 Y150.583745

G00 Z4.875000 (Fast pre-penetrate)
G01 Z-0.125000 F400.0(Penetrate)
G01 X97.041317 Y150.743923 Z-0.125000 F800.000000
G01 X97.556671 Y150.725297 Z-0.125000
G01 X98.093881 Y150.476509 Z-0.125000
G01 X98.477605 Y150.035105 Z-0.125000
G01 X98.637784 Y149.562481 Z-0.125000
G01 X98.619157 Y149.047126 Z-0.125000
G01 X98.370370 Y148.509917 Z-0.125000
G01 X97.928966 Y148.126192 Z-0.125000
G01 X97.456341 Y147.966013 Z-0.125000
G01 X96.940987 Y147.984640 Z-0.125000
G01 X96.403777 Y148.233427 Z-0.125000
G01 X96.020053 Y148.674831 Z-0.125000
G01 X95.859874 Y149.147456 Z-0.125000
G01 X95.878501 Y149.662811 Z-0.125000
G01 X96.127288 Y150.200020 Z-0.125000
G01 X96.568692 Y150.583745 Z-0.125000
G00 Z3.000000

(End cutting path id: polygon309244)


(Start cutting path id: polygon309242)
(Change tool to Default tool)

G00 Z3.000000
G00 X98.653156 Y152.794547

G00 Z4.875000 (Fast pre-penetrate)
G01 Z-0.125000 F400.0(Penetrate)
G01 X98.522637 Y152.202516 Z-0.125000 F800.000000
G01 X98.170160 Y151.734681 Z-0.125000
G01 X97.749235 Y151.482004 Z-0.125000
G01 X97.248829 Y151.390220 Z-0.125000
G01 X96.656798 Y151.520739 Z-0.125000
G01 X96.188962 Y151.873216 Z-0.125000
G01 X95.936286 Y152.294141 Z-0.125000
G01 X95.844502 Y152.794547 Z-0.125000
G01 X95.975021 Y153.386578 Z-0.125000
G01 X96.327498 Y153.854414 Z-0.125000
G01 X96.748423 Y154.107091 Z-0.125000
G01 X97.248829 Y154.198874 Z-0.125000
G01 X97.840860 Y154.068356 Z-0.125000
G01 X98.308696 Y153.715878 Z-0.125000
G01 X98.561372 Y153.294953 Z-0.125000
G01 X98.653156 Y152.794547 Z-0.125000
G00 Z3.000000

(End cutting path id: polygon309242)


(Start cutting path id: polygon310880)
(Change tool to Default tool)

G00 Z3.000000
G00 X99.897622 Y153.944451

G00 Z4.875000 (Fast pre-penetrate)
G01 Z-0.125000 F400.0(Penetrate)
G01 X100.368448 Y154.153128 Z-0.125000 F800.000000
G01 X100.904228 Y154.173395 Z-0.125000
G01 X101.392701 Y153.999458 Z-0.125000
G01 X101.838312 Y153.585333 Z-0.125000
G01 X102.046989 Y153.114508 Z-0.125000
G01 X102.067256 Y152.578727 Z-0.125000
G01 X101.893319 Y152.090254 Z-0.125000
G01 X101.479194 Y151.644643 Z-0.125000
G01 X101.008368 Y151.435967 Z-0.125000
G01 X100.472588 Y151.415699 Z-0.125000
G01 X99.984115 Y151.589636 Z-0.125000
G01 X99.538504 Y152.003762 Z-0.125000
G01 X99.329827 Y152.474587 Z-0.125000
G01 X99.309560 Y153.010368 Z-0.125000
G01 X99.483497 Y153.498841 Z-0.125000
G01 X99.897622 Y153.944451 Z-0.125000
G00 Z3.000000

(End cutting path id: polygon310880)


(Start cutting path id: polygon310898)
(Change tool to Default tool)

G00 Z3.000000
G00 X102.874181 Y155.731683

G00 Z4.875000 (Fast pre-penetrate)
G01 Z-0.125000 F400.0(Penetrate)
G01 X102.777608 Y156.234126 Z-0.125000 F800.000000
G01 X102.874181 Y156.736569 Z-0.125000
G01 X103.208667 Y157.223270 Z-0.125000
G01 X103.625544 Y157.487932 Z-0.125000
G01 X104.127987 Y157.584505 Z-0.125000
G01 X104.630430 Y157.487932 Z-0.125000
G01 X105.117131 Y157.153446 Z-0.125000
G01 X105.381793 Y156.736569 Z-0.125000
G01 X105.478366 Y156.234126 Z-0.125000
G01 X105.381793 Y155.731683 Z-0.125000
G01 X105.047307 Y155.244983 Z-0.125000
G01 X104.630430 Y154.980320 Z-0.125000
G01 X104.127987 Y154.883748 Z-0.125000
G01 X103.625544 Y154.980320 Z-0.125000
G01 X103.138843 Y155.314806 Z-0.125000
G01 X102.874181 Y155.731683 Z-0.125000
G00 Z3.000000

(End cutting path id: polygon310898)


(Start cutting path id: polygon310900)
(Change tool to Default tool)

G00 Z3.000000
G00 X103.814218 Y154.126802

G00 Z4.875000 (Fast pre-penetrate)
G01 Z-0.125000 F400.0(Penetrate)
G01 X104.339600 Y154.146672 Z-0.125000 F800.000000
G01 X104.818628 Y153.976096 Z-0.125000
G01 X105.255613 Y153.569987 Z-0.125000
G01 X105.460242 Y153.108316 Z-0.125000
G01 X105.480112 Y152.582934 Z-0.125000
G01 X105.309535 Y152.103906 Z-0.125000
G01 X104.903427 Y151.666921 Z-0.125000
G01 X104.441756 Y151.462293 Z-0.125000
G01 X103.916374 Y151.442422 Z-0.125000
G01 X103.437346 Y151.612999 Z-0.125000
G01 X103.000361 Y152.019107 Z-0.125000
G01 X102.795732 Y152.480778 Z-0.125000
G01 X102.775862 Y153.006161 Z-0.125000
G01 X102.946439 Y153.485188 Z-0.125000
G01 X103.352547 Y153.922174 Z-0.125000
G01 X103.814218 Y154.126802 Z-0.125000
G00 Z3.000000

(End cutting path id: polygon310900)


(Start cutting path id: polygon310884)
(Change tool to Default tool)

G00 Z3.000000
G00 X103.812578 Y150.694208

G00 Z4.875000 (Fast pre-penetrate)
G01 Z-0.125000 F400.0(Penetrate)
G01 X104.340712 Y150.714184 Z-0.125000 F800.000000
G01 X104.822253 Y150.542734 Z-0.125000
G01 X105.261513 Y150.134483 Z-0.125000
G01 X105.467227 Y149.670378 Z-0.125000
G01 X105.487203 Y149.142244 Z-0.125000
G01 X105.315753 Y148.660703 Z-0.125000
G01 X104.907501 Y148.221442 Z-0.125000
G01 X104.443396 Y148.015729 Z-0.125000
G01 X103.915262 Y147.995753 Z-0.125000
G01 X103.433721 Y148.167202 Z-0.125000
G01 X102.994461 Y148.575454 Z-0.125000
G01 X102.788747 Y149.039559 Z-0.125000
G01 X102.768771 Y149.567693 Z-0.125000
G01 X102.940221 Y150.049234 Z-0.125000
G01 X103.348473 Y150.488495 Z-0.125000
G01 X103.812578 Y150.694208 Z-0.125000
G00 Z3.000000

(End cutting path id: polygon310884)


(Start cutting path id: polygon310882)
(Change tool to Default tool)

G00 Z3.000000
G00 X102.018917 Y148.933858

G00 Z4.875000 (Fast pre-penetrate)
G01 Z-0.125000 F400.0(Penetrate)
G01 X101.777088 Y148.482347 Z-0.125000 F800.000000
G01 X101.301976 Y148.101586 Z-0.125000
G01 X100.797443 Y147.963976 Z-0.125000
G01 X100.267298 Y148.024460 Z-0.125000
G01 X99.815787 Y148.266289 Z-0.125000
G01 X99.435025 Y148.741400 Z-0.125000
G01 X99.297416 Y149.245934 Z-0.125000
G01 X99.357899 Y149.776079 Z-0.125000
G01 X99.599728 Y150.227589 Z-0.125000
G01 X100.074840 Y150.608351 Z-0.125000
G01 X100.579373 Y150.745961 Z-0.125000
G01 X101.109518 Y150.685477 Z-0.125000
G01 X101.561029 Y150.443648 Z-0.125000
G01 X101.941791 Y149.968536 Z-0.125000
G01 X102.079400 Y149.464003 Z-0.125000
G01 X102.018917 Y148.933858 Z-0.125000
G00 Z3.000000

(End cutting path id: polygon310882)


(Start cutting path id: polygon309248)
(Change tool to Default tool)

G00 Z3.000000
G00 X99.611635 Y146.778459

G00 Z4.875000 (Fast pre-penetrate)
G01 Z-0.125000 F400.0(Penetrate)
G01 X100.081560 Y147.155066 Z-0.125000 F800.000000
G01 X100.580564 Y147.291168 Z-0.125000
G01 X101.104915 Y147.231346 Z-0.125000
G01 X101.551478 Y146.992163 Z-0.125000
G01 X101.928085 Y146.522237 Z-0.125000
G01 X102.064187 Y146.023233 Z-0.125000
G01 X102.004364 Y145.498883 Z-0.125000
G01 X101.765181 Y145.052320 Z-0.125000
G01 X101.295256 Y144.675712 Z-0.125000
G01 X100.796252 Y144.539611 Z-0.125000
G01 X100.271901 Y144.599433 Z-0.125000
G01 X99.825338 Y144.838616 Z-0.125000
G01 X99.448731 Y145.308542 Z-0.125000
G01 X99.312629 Y145.807545 Z-0.125000
G01 X99.372452 Y146.331896 Z-0.125000
G01 X99.611635 Y146.778459 Z-0.125000
G00 Z3.000000

(End cutting path id: polygon309248)


(Start cutting path id: polygon309246)
(Change tool to Default tool)

G00 Z3.000000
G00 X98.193046 Y146.931309

G00 Z4.875000 (Fast pre-penetrate)
G01 Z-0.125000 F400.0(Penetrate)
G01 X98.536581 Y146.431432 Z-0.125000 F800.000000
G01 X98.635773 Y145.915389 Z-0.125000
G01 X98.536581 Y145.399347 Z-0.125000
G01 X98.193046 Y144.899470 Z-0.125000
G01 X97.764872 Y144.627637 Z-0.125000
G01 X97.248829 Y144.528445 Z-0.125000
G01 X96.732786 Y144.627637 Z-0.125000
G01 X96.304612 Y144.899470 Z-0.125000
G01 X95.961077 Y145.399347 Z-0.125000
G01 X95.861885 Y145.915389 Z-0.125000
G01 X95.961077 Y146.431432 Z-0.125000
G01 X96.232910 Y146.859607 Z-0.125000
G01 X96.732786 Y147.203141 Z-0.125000
G01 X97.248829 Y147.302333 Z-0.125000
G01 X97.764872 Y147.203141 Z-0.125000
G01 X98.193046 Y146.931309 Z-0.125000
G00 Z3.000000

(End cutting path id: polygon309246)


(Start cutting path id: polygon307254)
(Change tool to Default tool)

G00 Z3.000000
G00 X92.486467 Y146.334065

G00 Z4.875000 (Fast pre-penetrate)
G01 Z-0.125000 F400.0(Penetrate)
G01 X92.726894 Y146.782930 Z-0.125000 F800.000000
G01 X93.199254 Y147.161496 Z-0.125000
G01 X93.700850 Y147.298285 Z-0.125000
G01 X94.227926 Y147.238172 Z-0.125000
G01 X94.676791 Y146.997745 Z-0.125000
G01 X95.055357 Y146.525385 Z-0.125000
G01 X95.192146 Y146.023789 Z-0.125000
G01 X95.132033 Y145.496713 Z-0.125000
G01 X94.891606 Y145.047848 Z-0.125000
G01 X94.419246 Y144.669283 Z-0.125000
G01 X93.917650 Y144.532493 Z-0.125000
G01 X93.390574 Y144.592607 Z-0.125000
G01 X92.941709 Y144.833033 Z-0.125000
G01 X92.563143 Y145.305393 Z-0.125000
G01 X92.426354 Y145.806990 Z-0.125000
G01 X92.486467 Y146.334065 Z-0.125000
G00 Z3.000000

(End cutting path id: polygon307254)


(Start cutting path id: polygon307252)
(Change tool to Default tool)

G00 Z3.000000
G00 X91.718012 Y145.597837

G00 Z4.875000 (Fast pre-penetrate)
G01 Z-0.125000 F400.0(Penetrate)
G01 X91.510897 Y145.130583 Z-0.125000 F800.000000
G01 X91.068673 Y144.719554 Z-0.125000
G01 X90.583851 Y144.546940 Z-0.125000
G01 X90.052118 Y144.567048 Z-0.125000
G01 X89.584865 Y144.774163 Z-0.125000
G01 X89.173835 Y145.216387 Z-0.125000
G01 X89.001221 Y145.701209 Z-0.125000
G01 X89.021330 Y146.232942 Z-0.125000
G01 X89.228445 Y146.700195 Z-0.125000
G01 X89.670669 Y147.111225 Z-0.125000
G01 X90.155491 Y147.283839 Z-0.125000
G01 X90.687224 Y147.263731 Z-0.125000
G01 X91.154477 Y147.056615 Z-0.125000
G01 X91.565507 Y146.614391 Z-0.125000
G01 X91.738121 Y146.129569 Z-0.125000
G01 X91.718012 Y145.597837 Z-0.125000
G00 Z3.000000

(End cutting path id: polygon307252)


(Start cutting path id: polygon307250)
(Change tool to Default tool)

G00 Z3.000000
G00 X91.721346 Y142.687371

G00 Z4.875000 (Fast pre-penetrate)
G01 Z-0.125000 F400.0(Penetrate)
G01 X91.701476 Y142.162147 Z-0.125000 F800.000000
G01 X91.496927 Y141.700609 Z-0.125000
G01 X91.060100 Y141.294632 Z-0.125000
G01 X90.581232 Y141.124135 Z-0.125000
G01 X90.056008 Y141.144005 Z-0.125000
G01 X89.594469 Y141.348554 Z-0.125000
G01 X89.188493 Y141.785381 Z-0.125000
G01 X89.017996 Y142.264250 Z-0.125000
G01 X89.037866 Y142.789473 Z-0.125000
G01 X89.242415 Y143.251012 Z-0.125000
G01 X89.679242 Y143.656988 Z-0.125000
G01 X90.158110 Y143.827485 Z-0.125000
G01 X90.683334 Y143.807615 Z-0.125000
G01 X91.144873 Y143.603066 Z-0.125000
G01 X91.550849 Y143.166240 Z-0.125000
G01 X91.721346 Y142.687371 Z-0.125000
G00 Z3.000000

(End cutting path id: polygon307250)


(Start cutting path id: polygon310492)
(Change tool to Default tool)

G00 Z3.000000
G00 X84.843855 Y142.794527

G00 Z4.875000 (Fast pre-penetrate)
G01 Z-0.125000 F400.0(Penetrate)
G01 X84.864043 Y142.260837 Z-0.125000 F800.000000
G01 X84.690767 Y141.774216 Z-0.125000
G01 X84.278230 Y141.330351 Z-0.125000
G01 X83.809230 Y141.122468 Z-0.125000
G01 X83.275539 Y141.102281 Z-0.125000
G01 X82.788918 Y141.275556 Z-0.125000
G01 X82.345054 Y141.688094 Z-0.125000
G01 X82.137171 Y142.157094 Z-0.125000
G01 X82.116983 Y142.690784 Z-0.125000
G01 X82.290259 Y143.177405 Z-0.125000
G01 X82.702796 Y143.621269 Z-0.125000
G01 X83.171796 Y143.829152 Z-0.125000
G01 X83.705487 Y143.849340 Z-0.125000
G01 X84.192108 Y143.676065 Z-0.125000
G01 X84.635972 Y143.263527 Z-0.125000
G01 X84.843855 Y142.794527 Z-0.125000
G00 Z3.000000

(End cutting path id: polygon310492)


(Start cutting path id: polygon310490)
(Change tool to Default tool)

G00 Z3.000000
G00 X84.579219 Y145.042742

G00 Z4.875000 (Fast pre-penetrate)
G01 Z-0.125000 F400.0(Penetrate)
G01 X84.104107 Y144.661980 Z-0.125000 F800.000000
G01 X83.599548 Y144.524344 Z-0.125000
G01 X83.069376 Y144.584828 Z-0.125000
G01 X82.617865 Y144.826683 Z-0.125000
G01 X82.237104 Y145.301795 Z-0.125000
G01 X82.099468 Y145.806355 Z-0.125000
G01 X82.159952 Y146.336526 Z-0.125000
G01 X82.401807 Y146.788037 Z-0.125000
G01 X82.876919 Y147.168798 Z-0.125000
G01 X83.381478 Y147.306434 Z-0.125000
G01 X83.911650 Y147.245951 Z-0.125000
G01 X84.363161 Y147.004095 Z-0.125000
G01 X84.743922 Y146.528984 Z-0.125000
G01 X84.881558 Y146.024424 Z-0.125000
G01 X84.821074 Y145.494253 Z-0.125000
G01 X84.579219 Y145.042742 Z-0.125000
G00 Z3.000000

(End cutting path id: polygon310490)


(Start cutting path id: polygon310486)
(Change tool to Default tool)

G00 Z3.000000
G00 X81.463199 Y142.475810

G00 Z4.875000 (Fast pre-penetrate)
G01 Z-0.125000 F400.0(Penetrate)
G01 X81.370912 Y141.972573 Z-0.125000 F800.000000
G01 X81.116807 Y141.549267 Z-0.125000
G01 X80.646325 Y141.194805 Z-0.125000
G01 X80.050934 Y141.063546 Z-0.125000
G01 X79.547697 Y141.155832 Z-0.125000
G01 X79.124391 Y141.409938 Z-0.125000
G01 X78.769929 Y141.880419 Z-0.125000
G01 X78.638669 Y142.475810 Z-0.125000
G01 X78.730956 Y142.979047 Z-0.125000
G01 X78.985061 Y143.402354 Z-0.125000
G01 X79.455543 Y143.756815 Z-0.125000
G01 X80.050934 Y143.888075 Z-0.125000
G01 X80.554171 Y143.795788 Z-0.125000
G01 X80.977477 Y143.541683 Z-0.125000
G01 X81.331939 Y143.071201 Z-0.125000
G01 X81.463199 Y142.475810 Z-0.125000
G00 Z3.000000

(End cutting path id: polygon310486)


(Start cutting path id: polygon310488)
(Change tool to Default tool)

G00 Z3.000000
G00 X79.458559 Y144.640840

G00 Z4.875000 (Fast pre-penetrate)
G01 Z-0.125000 F400.0(Penetrate)
G01 X78.990459 Y144.993529 Z-0.125000 F800.000000
G01 X78.705291 Y145.509572 Z-0.125000
G01 X78.649650 Y146.020244 Z-0.125000
G01 X78.776385 Y146.507764 Z-0.125000
G01 X79.129074 Y146.975864 Z-0.125000
G01 X79.645117 Y147.261032 Z-0.125000
G01 X80.155788 Y147.316674 Z-0.125000
G01 X80.643309 Y147.189939 Z-0.125000
G01 X81.111409 Y146.837249 Z-0.125000
G01 X81.396577 Y146.321207 Z-0.125000
G01 X81.452218 Y145.810535 Z-0.125000
G01 X81.325483 Y145.323014 Z-0.125000
G01 X80.972794 Y144.854914 Z-0.125000
G01 X80.456751 Y144.569747 Z-0.125000
G01 X79.946080 Y144.514105 Z-0.125000
G01 X79.458559 Y144.640840 Z-0.125000
G00 Z3.000000

(End cutting path id: polygon310488)


(Start cutting path id: polygon310110)
(Change tool to Default tool)

G00 Z3.000000
G00 X76.716315 Y144.512703

G00 Z4.875000 (Fast pre-penetrate)
G01 Z-0.125000 F400.0(Penetrate)
G01 X76.205114 Y144.568397 Z-0.125000 F800.000000
G01 X75.764875 Y144.791970 Z-0.125000
G01 X75.380515 Y145.234088 Z-0.125000
G01 X75.208668 Y145.810429 Z-0.125000
G01 X75.264363 Y146.321630 Z-0.125000
G01 X75.487936 Y146.761870 Z-0.125000
G01 X75.930054 Y147.146229 Z-0.125000
G01 X76.506395 Y147.318076 Z-0.125000
G01 X77.017596 Y147.262381 Z-0.125000
G01 X77.457835 Y147.038809 Z-0.125000
G01 X77.842195 Y146.596691 Z-0.125000
G01 X78.014042 Y146.020349 Z-0.125000
G01 X77.958347 Y145.509149 Z-0.125000
G01 X77.734774 Y145.068909 Z-0.125000
G01 X77.292656 Y144.684549 Z-0.125000
G01 X76.716315 Y144.512703 Z-0.125000
G00 Z3.000000

(End cutting path id: polygon310110)


(Start cutting path id: polygon310112)
(Change tool to Default tool)

G00 Z3.000000
G00 X76.717082 Y143.888710

G00 Z4.875000 (Fast pre-penetrate)
G01 Z-0.125000 F400.0(Penetrate)
G01 X77.297604 Y143.715620 Z-0.125000 F800.000000
G01 X77.742976 Y143.328455 Z-0.125000
G01 X77.968163 Y142.884988 Z-0.125000
G01 X78.024255 Y142.370083 Z-0.125000
G01 X77.851164 Y141.789561 Z-0.125000
G01 X77.464000 Y141.344189 Z-0.125000
G01 X77.020533 Y141.119002 Z-0.125000
G01 X76.505628 Y141.062911 Z-0.125000
G01 X75.925106 Y141.236001 Z-0.125000
G01 X75.479734 Y141.623165 Z-0.125000
G01 X75.254547 Y142.066633 Z-0.125000
G01 X75.198455 Y142.581538 Z-0.125000
G01 X75.371546 Y143.162059 Z-0.125000
G01 X75.758710 Y143.607432 Z-0.125000
G01 X76.202177 Y143.832618 Z-0.125000
G01 X76.717082 Y143.888710 Z-0.125000
G00 Z3.000000

(End cutting path id: polygon310112)


(Start cutting path id: polygon311032)
(Change tool to Default tool)

G00 Z3.000000
G00 X74.459131 Y143.074138

G00 Z4.875000 (Fast pre-penetrate)
G01 Z-0.125000 F400.0(Penetrate)
G01 X74.587136 Y142.581723 Z-0.125000 F800.000000
G01 X74.530939 Y142.065918 Z-0.125000
G01 X74.242914 Y141.544690 Z-0.125000
G01 X73.770104 Y141.188455 Z-0.125000
G01 X73.277689 Y141.060450 Z-0.125000
G01 X72.761884 Y141.116647 Z-0.125000
G01 X72.240656 Y141.404672 Z-0.125000
G01 X71.884421 Y141.877482 Z-0.125000
G01 X71.756416 Y142.369898 Z-0.125000
G01 X71.812613 Y142.885702 Z-0.125000
G01 X72.100638 Y143.406931 Z-0.125000
G01 X72.573448 Y143.763165 Z-0.125000
G01 X73.065863 Y143.891171 Z-0.125000
G01 X73.581668 Y143.834973 Z-0.125000
G01 X74.102896 Y143.546948 Z-0.125000
G01 X74.459131 Y143.074138 Z-0.125000
G00 Z3.000000

(End cutting path id: polygon311032)


(Start cutting path id: polygon310116)
(Change tool to Default tool)

G00 Z3.000000
G00 X73.381987 Y140.443337

G00 Z4.875000 (Fast pre-penetrate)
G01 Z-0.125000 F400.0(Penetrate)
G01 X73.946343 Y140.229580 Z-0.125000 F800.000000
G01 X74.365125 Y139.810798 Z-0.125000
G01 X74.559990 Y139.348095 Z-0.125000
G01 X74.578881 Y138.826020 Z-0.125000
G01 X74.365125 Y138.261665 Z-0.125000
G01 X73.946343 Y137.842883 Z-0.125000
G01 X73.483640 Y137.648017 Z-0.125000
G01 X72.961565 Y137.629126 Z-0.125000
G01 X72.397209 Y137.842883 Z-0.125000
G01 X71.978427 Y138.261665 Z-0.125000
G01 X71.783562 Y138.724367 Z-0.125000
G01 X71.764671 Y139.246442 Z-0.125000
G01 X71.978427 Y139.810798 Z-0.125000
G01 X72.397209 Y140.229580 Z-0.125000
G01 X72.859912 Y140.424445 Z-0.125000
G01 X73.381987 Y140.443337 Z-0.125000
G00 Z3.000000

(End cutting path id: polygon310116)


(Start cutting path id: polygon310118)
(Change tool to Default tool)

G00 Z3.000000
G00 X71.115119 Y138.725558

G00 Z4.875000 (Fast pre-penetrate)
G01 Z-0.125000 F400.0(Penetrate)
G01 X70.864030 Y138.183427 Z-0.125000 F800.000000
G01 X70.418578 Y137.796184 Z-0.125000
G01 X69.941614 Y137.634523 Z-0.125000
G01 X69.421524 Y137.653309 Z-0.125000
G01 X68.879393 Y137.904398 Z-0.125000
G01 X68.492149 Y138.349850 Z-0.125000
G01 X68.330489 Y138.826814 Z-0.125000
G01 X68.349275 Y139.346905 Z-0.125000
G01 X68.600364 Y139.889035 Z-0.125000
G01 X69.045816 Y140.276279 Z-0.125000
G01 X69.522780 Y140.437939 Z-0.125000
G01 X70.042870 Y140.419154 Z-0.125000
G01 X70.585001 Y140.168064 Z-0.125000
G01 X70.972245 Y139.722613 Z-0.125000
G01 X71.133905 Y139.245649 Z-0.125000
G01 X71.115119 Y138.725558 Z-0.125000
G00 Z3.000000

(End cutting path id: polygon310118)


(Start cutting path id: polygon310148)
(Change tool to Default tool)

G00 Z3.000000
G00 X70.143306 Y141.112652

G00 Z4.875000 (Fast pre-penetrate)
G01 Z-0.125000 F400.0(Penetrate)
G01 X69.625967 Y141.056270 Z-0.125000 F800.000000
G01 X69.132123 Y141.184672 Z-0.125000
G01 X68.657911 Y141.541938 Z-0.125000
G01 X68.369039 Y142.064701 Z-0.125000
G01 X68.312656 Y142.582040 Z-0.125000
G01 X68.441058 Y143.075885 Z-0.125000
G01 X68.798325 Y143.550097 Z-0.125000
G01 X69.321088 Y143.838968 Z-0.125000
G01 X69.838427 Y143.895351 Z-0.125000
G01 X70.332271 Y143.766949 Z-0.125000
G01 X70.806483 Y143.409682 Z-0.125000
G01 X71.095355 Y142.886919 Z-0.125000
G01 X71.151738 Y142.369580 Z-0.125000
G01 X71.023336 Y141.875736 Z-0.125000
G01 X70.666069 Y141.401524 Z-0.125000
G01 X70.143306 Y141.112652 Z-0.125000
G00 Z3.000000

(End cutting path id: polygon310148)


(Start cutting path id: polygon310150)
(Change tool to Default tool)

G00 Z3.000000
G00 X68.797663 Y144.840336

G00 Z4.875000 (Fast pre-penetrate)
G01 Z-0.125000 F400.0(Penetrate)
G01 X68.440159 Y145.314892 Z-0.125000 F800.000000
G01 X68.307762 Y145.915389 Z-0.125000
G01 X68.400842 Y146.422965 Z-0.125000
G01 X68.657143 Y146.849923 Z-0.125000
G01 X69.131699 Y147.207427 Z-0.125000
G01 X69.732197 Y147.339825 Z-0.125000
G01 X70.239773 Y147.246744 Z-0.125000
G01 X70.666731 Y146.990443 Z-0.125000
G01 X71.024235 Y146.515887 Z-0.125000
G01 X71.156632 Y145.915389 Z-0.125000
G01 X71.063552 Y145.407813 Z-0.125000
G01 X70.807251 Y144.980856 Z-0.125000
G01 X70.332695 Y144.623351 Z-0.125000
G01 X69.732197 Y144.490954 Z-0.125000
G01 X69.224621 Y144.584034 Z-0.125000
G01 X68.797663 Y144.840336 Z-0.125000
G00 Z3.000000

(End cutting path id: polygon310150)


(Start cutting path id: polygon311030)
(Change tool to Default tool)

G00 Z3.000000
G00 X71.792320 Y146.225269

G00 Z4.875000 (Fast pre-penetrate)
G01 Z-0.125000 F400.0(Penetrate)
G01 X72.042774 Y146.766077 Z-0.125000 F800.000000
G01 X72.487115 Y147.152341 Z-0.125000
G01 X72.962888 Y147.313605 Z-0.125000
G01 X73.481656 Y147.294846 Z-0.125000
G01 X74.022463 Y147.044391 Z-0.125000
G01 X74.408728 Y146.600051 Z-0.125000
G01 X74.569991 Y146.124278 Z-0.125000
G01 X74.551232 Y145.605510 Z-0.125000
G01 X74.300778 Y145.064702 Z-0.125000
G01 X73.856437 Y144.678437 Z-0.125000
G01 X73.380664 Y144.517174 Z-0.125000
G01 X72.861896 Y144.535933 Z-0.125000
G01 X72.321089 Y144.786387 Z-0.125000
G01 X71.934824 Y145.230728 Z-0.125000
G01 X71.773561 Y145.706501 Z-0.125000
G01 X71.792320 Y146.225269 Z-0.125000
G00 Z3.000000

(End cutting path id: polygon311030)


(Start cutting path id: polygon310152)
(Change tool to Default tool)

G00 Z3.000000
G00 X70.239747 Y148.023640

G00 Z4.875000 (Fast pre-penetrate)
G01 Z-0.125000 F400.0(Penetrate)
G01 X69.732197 Y147.930559 Z-0.125000 F800.000000
G01 X69.224647 Y148.023640 Z-0.125000
G01 X68.724982 Y148.347754 Z-0.125000
G01 X68.400868 Y148.847419 Z-0.125000
G01 X68.307788 Y149.354968 Z-0.125000
G01 X68.400868 Y149.862518 Z-0.125000
G01 X68.724982 Y150.362183 Z-0.125000
G01 X69.224647 Y150.686297 Z-0.125000
G01 X69.732197 Y150.779377 Z-0.125000
G01 X70.239747 Y150.686297 Z-0.125000
G01 X70.739412 Y150.362183 Z-0.125000
G01 X71.063526 Y149.862518 Z-0.125000
G01 X71.156606 Y149.354968 Z-0.125000
G01 X71.063526 Y148.847419 Z-0.125000
G01 X70.739412 Y148.347754 Z-0.125000
G01 X70.239747 Y148.023640 Z-0.125000
G00 Z3.000000

(End cutting path id: polygon310152)


(Start cutting path id: polygon311060)
(Change tool to Default tool)

G00 Z3.000000
G00 X67.592594 Y148.750793

G00 Z4.875000 (Fast pre-penetrate)
G01 Z-0.125000 F400.0(Penetrate)
G01 X67.232893 Y148.273327 Z-0.125000 F800.000000
G01 X66.706532 Y147.982470 Z-0.125000
G01 X66.185647 Y147.925717 Z-0.125000
G01 X65.688443 Y148.054993 Z-0.125000
G01 X65.210976 Y148.414693 Z-0.125000
G01 X64.920120 Y148.941055 Z-0.125000
G01 X64.863367 Y149.461939 Z-0.125000
G01 X64.992642 Y149.959144 Z-0.125000
G01 X65.352343 Y150.436610 Z-0.125000
G01 X65.878704 Y150.727466 Z-0.125000
G01 X66.399589 Y150.784219 Z-0.125000
G01 X66.896793 Y150.654944 Z-0.125000
G01 X67.374260 Y150.295243 Z-0.125000
G01 X67.665116 Y149.768882 Z-0.125000
G01 X67.721869 Y149.247997 Z-0.125000
G01 X67.592594 Y148.750793 Z-0.125000
G00 Z3.000000

(End cutting path id: polygon311060)


(Start cutting path id: polygon311034)
(Change tool to Default tool)

G00 Z3.000000
G00 X64.865272 Y145.915389

G00 Z4.875000 (Fast pre-penetrate)
G01 Z-0.125000 F400.0(Penetrate)
G01 X64.958564 Y146.423997 Z-0.125000 F800.000000
G01 X65.215395 Y146.851828 Z-0.125000
G01 X65.690877 Y147.210073 Z-0.125000
G01 X66.292618 Y147.342735 Z-0.125000
G01 X66.801226 Y147.249443 Z-0.125000
G01 X67.229057 Y146.992613 Z-0.125000
G01 X67.587302 Y146.517130 Z-0.125000
G01 X67.719964 Y145.915389 Z-0.125000
G01 X67.626672 Y145.406781 Z-0.125000
G01 X67.369841 Y144.978951 Z-0.125000
G01 X66.894359 Y144.620705 Z-0.125000
G01 X66.292618 Y144.488043 Z-0.125000
G01 X65.784010 Y144.581335 Z-0.125000
G01 X65.356179 Y144.838166 Z-0.125000
G01 X64.997934 Y145.313648 Z-0.125000
G01 X64.865272 Y145.915389 Z-0.125000
G00 Z3.000000

(End cutting path id: polygon311034)


(Start cutting path id: polygon310146)
(Change tool to Default tool)

G00 Z3.000000
G00 X65.002114 Y143.075594

G00 Z4.875000 (Fast pre-penetrate)
G01 Z-0.125000 F400.0(Penetrate)
G01 X65.359196 Y143.549594 Z-0.125000 F800.000000
G01 X65.881721 Y143.838333 Z-0.125000
G01 X66.398795 Y143.894663 Z-0.125000
G01 X66.892401 Y143.766314 Z-0.125000
G01 X67.366402 Y143.409233 Z-0.125000
G01 X67.655141 Y142.886708 Z-0.125000
G01 X67.711471 Y142.369633 Z-0.125000
G01 X67.583122 Y141.876027 Z-0.125000
G01 X67.226040 Y141.402027 Z-0.125000
G01 X66.703515 Y141.113287 Z-0.125000
G01 X66.186441 Y141.056958 Z-0.125000
G01 X65.692835 Y141.185307 Z-0.125000
G01 X65.218834 Y141.542388 Z-0.125000
G01 X64.930095 Y142.064913 Z-0.125000
G01 X64.873765 Y142.581987 Z-0.125000
G01 X65.002114 Y143.075594 Z-0.125000
G00 Z3.000000

(End cutting path id: polygon310146)


(Start cutting path id: polygon310120)
(Change tool to Default tool)

G00 Z3.000000
G00 X65.164939 Y139.885913

G00 Z4.875000 (Fast pre-penetrate)
G01 Z-0.125000 F400.0(Penetrate)
G01 X65.608750 Y140.271728 Z-0.125000 F800.000000
G01 X66.187235 Y140.444236 Z-0.125000
G01 X66.700393 Y140.388330 Z-0.125000
G01 X67.142300 Y140.163911 Z-0.125000
G01 X67.528115 Y139.720099 Z-0.125000
G01 X67.700623 Y139.141615 Z-0.125000
G01 X67.644717 Y138.628456 Z-0.125000
