%
(Header)
(Generated by gcodetools from Inkscape.)
(Using default header. To add your own header create file "header" in the output dir.)
M3
(Header end.)
G21 (All units in mm)

(Start cutting path id: path190313)
(Change tool to Default tool)

G00 Z10.000000
G00 X192.196479 Y226.145270

G00 Z4.875000 (Fast pre-penetrate)
G01 Z-0.125000 F100.0(Penetrate)
G01 X176.354398 Y228.997020 Z-0.125000 F800.000000
G01 X160.511859 Y228.997020 Z-0.125000
G01 X144.669781 Y228.997020 Z-0.125000
G01 X128.827701 Y233.380000 Z-0.125000
G01 X112.985162 Y225.078340 Z-0.125000
G01 X97.143081 Y232.396990 Z-0.125000
G01 X81.301001 Y226.169240 Z-0.125000
G01 X65.458464 Y228.997020 Z-0.125000
G01 X49.616381 Y230.518570 Z-0.125000
G01 X33.774304 Y228.997020 Z-0.125000
G01 X17.931764 Y228.997020 Z-0.125000
G00 Z10.000000

(End cutting path id: path190313)


(Start cutting path id: path190311)
(Change tool to Default tool)

G00 Z10.000000
G00 X17.931764 Y227.398010

G00 Z4.875000 (Fast pre-penetrate)
G01 Z-0.125000 F100.0(Penetrate)
G01 X33.774304 Y226.335230 Z-0.125000 F800.000000
G01 X49.616381 Y227.957290 Z-0.125000
G01 X65.458464 Y229.450720 Z-0.125000
G01 X81.301001 Y225.856630 Z-0.125000
G01 X97.143081 Y231.173750 Z-0.125000
G01 X112.985162 Y222.788180 Z-0.125000
G01 X128.827701 Y228.923710 Z-0.125000
G01 X144.669781 Y225.615950 Z-0.125000
G01 X160.511859 Y227.149490 Z-0.125000
G01 X176.354398 Y227.398010 Z-0.125000
G01 X192.196479 Y225.293660 Z-0.125000
G00 Z10.000000

(End cutting path id: path190311)


(Start cutting path id: path190309)
(Change tool to Default tool)

G00 Z10.000000
G00 X192.196479 Y224.290360

G00 Z4.875000 (Fast pre-penetrate)
G01 Z-0.125000 F100.0(Penetrate)
G01 X176.354398 Y225.799460 Z-0.125000 F800.000000
G01 X160.511859 Y225.447660 Z-0.125000
G01 X144.669781 Y222.595450 Z-0.125000
G01 X128.827701 Y224.881920 Z-0.125000
G01 X112.985162 Y220.747000 Z-0.125000
G01 X97.143081 Y229.811740 Z-0.125000
G01 X81.301001 Y225.336540 Z-0.125000
G01 X65.458464 Y229.510660 Z-0.125000
G01 X49.616381 Y225.562010 Z-0.125000
G01 X33.774304 Y223.880930 Z-0.125000
G01 X17.931764 Y225.799460 Z-0.125000
G00 Z10.000000

(End cutting path id: path190309)


(Start cutting path id: path190307)
(Change tool to Default tool)

G00 Z10.000000
G00 X17.931764 Y224.200450

G00 Z4.875000 (Fast pre-penetrate)
G01 Z-0.125000 F100.0(Penetrate)
G01 X33.774304 Y221.634110 Z-0.125000 F800.000000
G01 X49.616381 Y223.333170 Z-0.125000
G01 X65.458464 Y229.175920 Z-0.125000
G01 X81.301001 Y224.608970 Z-0.125000
G01 X97.143081 Y228.310480 Z-0.125000
G01 X112.985162 Y218.954340 Z-0.125000
G01 X128.827701 Y221.255110 Z-0.125000
G01 X144.669781 Y219.934590 Z-0.125000
G01 X160.511859 Y223.891530 Z-0.125000
G01 X176.354398 Y224.200450 Z-0.125000
G01 X192.196479 Y223.136750 Z-0.125000
G00 Z10.000000

(End cutting path id: path190307)


(Start cutting path id: path190305)
(Change tool to Default tool)

G00 Z10.000000
G00 X192.196479 Y221.832370

G00 Z4.875000 (Fast pre-penetrate)
G01 Z-0.125000 F100.0(Penetrate)
G01 X176.354398 Y222.601910 Z-0.125000 F800.000000
G01 X160.511859 Y222.481110 Z-0.125000
G01 X144.669781 Y217.633820 Z-0.125000
G01 X128.827701 Y218.043260 Z-0.125000
G01 X112.985162 Y217.410200 Z-0.125000
G01 X97.143081 Y226.670430 Z-0.125000
G01 X81.301001 Y223.674370 Z-0.125000
G01 X65.458464 Y228.446950 Z-0.125000
G01 X49.616381 Y221.270320 Z-0.125000
G01 X33.774304 Y219.594770 Z-0.125000
G01 X17.931764 Y222.601910 Z-0.125000
G00 Z10.000000

(End cutting path id: path190305)


(Start cutting path id: path190303)
(Change tool to Default tool)

G00 Z10.000000
G00 X17.931764 Y221.003360

G00 Z4.875000 (Fast pre-penetrate)
G01 Z-0.125000 F100.0(Penetrate)
G01 X33.774304 Y217.762920 Z-0.125000 F800.000000
G01 X49.616381 Y219.373920 Z-0.125000
G01 X65.458464 Y227.323780 Z-0.125000
G01 X81.301001 Y222.532280 Z-0.125000
G01 X97.143081 Y224.891600 Z-0.125000
G01 X112.985162 Y216.114580 Z-0.125000
G01 X128.827701 Y215.245910 Z-0.125000
G01 X144.669781 Y215.693160 Z-0.125000
G01 X160.511859 Y221.216840 Z-0.125000
G01 X176.354398 Y221.003360 Z-0.125000
G01 X192.196479 Y220.376760 Z-0.125000
G00 Z10.000000

(End cutting path id: path190303)


(Start cutting path id: path190301)
(Change tool to Default tool)

G00 Z10.000000
G00 X192.196479 Y218.770370

G00 Z4.875000 (Fast pre-penetrate)
G01 Z-0.125000 F100.0(Penetrate)
G01 X176.354398 Y219.404350 Z-0.125000 F800.000000
G01 X160.511859 Y220.097810 Z-0.125000
G01 X144.669781 Y214.112130 Z-0.125000
G01 X128.827701 Y212.863540 Z-0.125000
G01 X112.985162 Y215.067480 Z-0.125000
G01 X97.143081 Y222.973990 Z-0.125000
G01 X81.301001 Y221.182260 Z-0.125000
G01 X65.458464 Y225.806380 Z-0.125000
G01 X49.616381 Y217.643970 Z-0.125000
G01 X33.774304 Y216.138560 Z-0.125000
G01 X17.931764 Y219.404350 Z-0.125000
G00 Z10.000000

(End cutting path id: path190301)


(Start cutting path id: path190299)
(Change tool to Default tool)

G00 Z10.000000
G00 X17.931764 Y217.805800

G00 Z4.875000 (Fast pre-penetrate)
G01 Z-0.125000 F100.0(Penetrate)
G01 X33.774304 Y214.721210 Z-0.125000 F800.000000
G01 X49.616381 Y216.080460 Z-0.125000
G01 X65.458464 Y223.894760 Z-0.125000
G01 X81.301001 Y219.625210 Z-0.125000
G01 X97.143081 Y220.917600 Z-0.125000
G01 X112.985162 Y214.268890 Z-0.125000
G01 X128.827701 Y210.896130 Z-0.125000
G01 X144.669781 Y212.891660 Z-0.125000
G01 X160.511859 Y219.124480 Z-0.125000
G01 X176.354398 Y217.805800 Z-0.125000
G01 X192.196479 Y217.013220 Z-0.125000
G00 Z10.000000

(End cutting path id: path190299)


(Start cutting path id: path190297)
(Change tool to Default tool)

G00 Z10.000000
G00 X192.196479 Y215.105290

G00 Z4.875000 (Fast pre-penetrate)
G01 Z-0.125000 F100.0(Penetrate)
G01 X176.354398 Y216.206790 Z-0.125000 F800.000000
G01 X160.511859 Y218.296850 Z-0.125000
G01 X144.669781 Y212.030840 Z-0.125000
G01 X128.827701 Y209.343690 Z-0.125000
G01 X112.985162 Y213.718830 Z-0.125000
G01 X97.143081 Y218.722420 Z-0.125000
G01 X81.301001 Y217.860670 Z-0.125000
G01 X65.458464 Y221.588460 Z-0.125000
G01 X49.616381 Y214.682940 Z-0.125000
G01 X33.774304 Y213.511810 Z-0.125000
G01 X17.931764 Y216.206790 Z-0.125000
G00 Z10.000000

(End cutting path id: path190297)


(Start cutting path id: path190295)
(Change tool to Default tool)

G00 Z10.000000
G00 X17.931764 Y214.608250

G00 Z4.875000 (Fast pre-penetrate)
G01 Z-0.125000 F100.0(Penetrate)
G01 X33.774304 Y212.509430 Z-0.125000 F800.000000
G01 X49.616381 Y213.451870 Z-0.125000
G01 X65.458464 Y218.888410 Z-0.125000
G01 X81.301001 Y215.888660 Z-0.125000
G01 X97.143081 Y216.388000 Z-0.125000
G01 X112.985162 Y213.417750 Z-0.125000
G01 X128.827701 Y208.205760 Z-0.125000
G01 X144.669781 Y211.530110 Z-0.125000
G01 X160.511859 Y217.615380 Z-0.125000
G01 X176.354398 Y214.608250 Z-0.125000
G01 X192.196479 Y213.046590 Z-0.125000
G00 Z10.000000

(End cutting path id: path190295)


(Start cutting path id: path190293)
(Change tool to Default tool)

G00 Z10.000000
G00 X192.196479 Y210.836650

G00 Z4.875000 (Fast pre-penetrate)
G01 Z-0.125000 F100.0(Penetrate)
G01 X176.354398 Y213.009240 Z-0.125000 F800.000000
G01 X160.511859 Y217.079150 Z-0.125000
G01 X144.669781 Y211.389480 Z-0.125000
G01 X128.827701 Y207.483250 Z-0.125000
G01 X112.985162 Y213.364730 Z-0.125000
G01 X97.143081 Y213.914790 Z-0.125000
G01 X81.301001 Y213.709150 Z-0.125000
G01 X65.458464 Y215.793670 Z-0.125000
G01 X49.616381 Y212.386790 Z-0.125000
G01 X33.774304 Y211.714540 Z-0.125000
G01 X17.931764 Y213.009240 Z-0.125000
G00 Z10.000000

(End cutting path id: path190293)


(Start cutting path id: path190291)
(Change tool to Default tool)

G00 Z10.000000
G00 X17.931764 Y211.410690

G00 Z4.875000 (Fast pre-penetrate)
G01 Z-0.125000 F100.0(Penetrate)
G01 X33.774304 Y211.236870 Z-0.125000 F800.000000
G01 X49.616381 Y211.403770 Z-0.125000
G01 X65.458464 Y212.501130 Z-0.125000
G01 X81.301001 Y211.423600 Z-0.125000
G01 X97.143081 Y211.429600 Z-0.125000
G01 X112.985162 Y213.450490 Z-0.125000
G01 X128.827701 Y207.312190 Z-0.125000
G01 X144.669781 Y211.553620 Z-0.125000
G01 X160.511859 Y216.571500 Z-0.125000
G01 X176.354398 Y211.424060 Z-0.125000
G01 X192.196479 Y208.473640 Z-0.125000
G00 Z10.000000

(End cutting path id: path190291)


(Start cutting path id: path190289)
(Change tool to Default tool)

G00 Z10.000000
G00 X192.196479 Y206.130000

G00 Z4.875000 (Fast pre-penetrate)
G01 Z-0.125000 F100.0(Penetrate)
G01 X176.354398 Y209.915420 Z-0.125000 F800.000000
G01 X160.511859 Y215.035210 Z-0.125000
G01 X144.669781 Y211.214730 Z-0.125000
G01 X128.827701 Y208.328410 Z-0.125000
G01 X112.985162 Y212.517730 Z-0.125000
G01 X97.143081 Y209.996570 Z-0.125000
G01 X81.301001 Y209.954570 Z-0.125000
G01 X65.458464 Y210.801560 Z-0.125000
G01 X49.616381 Y209.735090 Z-0.125000
G01 X33.774304 Y211.619970 Z-0.125000
G01 X17.931764 Y209.811630 Z-0.125000
G00 Z10.000000

(End cutting path id: path190289)


(Start cutting path id: path190287)
(Change tool to Default tool)

G00 Z10.000000
G00 X17.931764 Y208.213140

G00 Z4.875000 (Fast pre-penetrate)
G01 Z-0.125000 F100.0(Penetrate)
G01 X33.774304 Y211.601580 Z-0.125000 F800.000000
G01 X49.616381 Y208.066510 Z-0.125000
G01 X65.458464 Y209.102090 Z-0.125000
G01 X81.301001 Y208.485630 Z-0.125000
G01 X97.143081 Y208.529930 Z-0.125000
G01 X112.985162 Y211.336950 Z-0.125000
G01 X128.827701 Y208.930140 Z-0.125000
G01 X144.669781 Y210.570640 Z-0.125000
G01 X160.511859 Y213.438070 Z-0.125000
G01 X176.354398 Y208.337200 Z-0.125000
G01 X192.196479 Y203.994330 Z-0.125000
G00 Z10.000000

(End cutting path id: path190287)


(Start cutting path id: path190285)
(Change tool to Default tool)

G00 Z10.000000
G00 X192.196479 Y202.066080

G00 Z4.875000 (Fast pre-penetrate)
G01 Z-0.125000 F100.0(Penetrate)
G01 X176.354398 Y206.688360 Z-0.125000 F800.000000
G01 X160.511859 Y211.778630 Z-0.125000
G01 X144.669781 Y209.621720 Z-0.125000
G01 X128.827701 Y209.116840 Z-0.125000
G01 X112.985162 Y209.907130 Z-0.125000
G01 X97.143081 Y207.028630 Z-0.125000
G01 X81.301001 Y207.016630 Z-0.125000
G01 X65.458464 Y207.402090 Z-0.125000
G01 X49.616381 Y206.397870 Z-0.125000
G01 X33.774304 Y211.182440 Z-0.125000
G01 X17.931764 Y206.614110 Z-0.125000
G00 Z10.000000

(End cutting path id: path190285)


(Start cutting path id: path190283)
(Change tool to Default tool)

G00 Z10.000000
G00 X17.931764 Y205.015580

G00 Z4.875000 (Fast pre-penetrate)
G01 Z-0.125000 F100.0(Penetrate)
G01 X33.774304 Y210.361750 Z-0.125000 F800.000000
G01 X49.616381 Y204.729250 Z-0.125000
G01 X65.458464 Y205.702120 Z-0.125000
G01 X81.301001 Y205.547200 Z-0.125000
G01 X97.143081 Y205.493700 Z-0.125000
G01 X112.985162 Y208.228800 Z-0.125000
G01 X128.827701 Y208.888600 Z-0.125000
G01 X144.669781 Y208.367590 Z-0.125000
G01 X160.511859 Y210.057890 Z-0.125000
G01 X176.354398 Y204.969460 Z-0.125000
G01 X192.196479 Y200.344880 Z-0.125000
G00 Z10.000000

(End cutting path id: path190283)


(Start cutting path id: path190281)
(Change tool to Default tool)

G00 Z10.000000
G00 X192.196479 Y198.831640

G00 Z4.875000 (Fast pre-penetrate)
G01 Z-0.125000 F100.0(Penetrate)
G01 X176.354398 Y203.180500 Z-0.125000 F800.000000
G01 X160.511859 Y208.275380 Z-0.125000
G01 X144.669781 Y206.808240 Z-0.125000
G01 X128.827701 Y208.245870 Z-0.125000
G01 X112.985162 Y206.302440 Z-0.125000
G01 X97.143081 Y203.923750 Z-0.125000
G01 X81.301001 Y204.078210 Z-0.125000
G01 X65.458464 Y204.002610 Z-0.125000
G01 X49.616381 Y203.060630 Z-0.125000
G01 X33.774304 Y209.140370 Z-0.125000
G01 X17.931764 Y203.417040 Z-0.125000
G00 Z10.000000

(End cutting path id: path190281)


(Start cutting path id: path190279)
(Change tool to Default tool)

G00 Z10.000000
G00 X17.931764 Y201.818030

G00 Z4.875000 (Fast pre-penetrate)
G01 Z-0.125000 F100.0(Penetrate)
G01 X33.774304 Y207.517380 Z-0.125000 F800.000000
G01 X49.616381 Y201.392450 Z-0.125000
G01 X65.458464 Y202.302610 Z-0.125000
G01 X81.301001 Y202.609230 Z-0.125000
G01 X97.143081 Y202.320140 Z-0.125000
G01 X112.985162 Y204.127090 Z-0.125000
G01 X128.827701 Y207.187700 Z-0.125000
G01 X144.669781 Y204.944110 Z-0.125000
G01 X160.511859 Y206.431080 Z-0.125000
G01 X176.354398 Y201.320980 Z-0.125000
G01 X192.196479 Y197.525420 Z-0.125000
G00 Z10.000000

(End cutting path id: path190279)


(Start cutting path id: path190277)
(Change tool to Default tool)

G00 Z10.000000
G00 X192.196479 Y196.427130

G00 Z4.875000 (Fast pre-penetrate)
G01 Z-0.125000 F100.0(Penetrate)
G01 X176.354398 Y199.391390 Z-0.125000 F800.000000
G01 X160.511859 Y204.525000 Z-0.125000
G01 X144.669781 Y202.774290 Z-0.125000
G01 X128.827701 Y205.715030 Z-0.125000
G01 X112.985162 Y201.703220 Z-0.125000
G01 X97.143081 Y200.681940 Z-0.125000
G01 X81.301001 Y201.140240 Z-0.125000
G01 X65.458464 Y200.603090 Z-0.125000
G01 X49.616381 Y199.723820 Z-0.125000
G01 X33.774304 Y205.493250 Z-0.125000
G01 X17.931764 Y200.219480 Z-0.125000
G00 Z10.000000

(End cutting path id: path190277)


(Start cutting path id: path190275)
(Change tool to Default tool)

G00 Z10.000000
G00 X17.931764 Y198.620470

G00 Z4.875000 (Fast pre-penetrate)
G01 Z-0.125000 F100.0(Penetrate)
G01 X33.774304 Y203.068460 Z-0.125000 F800.000000
G01 X49.616381 Y198.055190 Z-0.125000
G01 X65.458464 Y198.903570 Z-0.125000
G01 X81.301001 Y199.671260 Z-0.125000
G01 X97.143081 Y199.009160 Z-0.125000
G01 X112.985162 Y199.030860 Z-0.125000
G01 X128.827701 Y203.827880 Z-0.125000
G01 X144.669781 Y200.299740 Z-0.125000
G01 X160.511859 Y202.557620 Z-0.125000
G01 X176.354398 Y197.391280 Z-0.125000
G01 X192.196479 Y195.535910 Z-0.125000
G00 Z10.000000

(End cutting path id: path190275)


(Start cutting path id: path190273)
(Change tool to Default tool)

G00 Z10.000000
G00 X192.196479 Y194.852100

G00 Z4.875000 (Fast pre-penetrate)
G01 Z-0.125000 F100.0(Penetrate)
G01 X176.354398 Y195.321010 Z-0.125000 F800.000000
G01 X160.511859 Y200.527940 Z-0.125000
G01 X144.669781 Y197.519880 Z-0.125000
G01 X128.827701 Y201.525240 Z-0.125000
G01 X112.985162 Y196.109450 Z-0.125000
G01 X97.143081 Y197.302710 Z-0.125000
G01 X81.301001 Y198.202270 Z-0.125000
G01 X65.458464 Y197.203580 Z-0.125000
G01 X49.616381 Y196.386560 Z-0.125000
G01 X33.774304 Y200.242070 Z-0.125000
G01 X17.931764 Y197.021920 Z-0.125000
G00 Z10.000000

(End cutting path id: path190273)


(Start cutting path id: path190271)
(Change tool to Default tool)

G00 Z10.000000
G00 X17.931764 Y195.422910

G00 Z4.875000 (Fast pre-penetrate)
G01 Z-0.125000 F100.0(Penetrate)
G01 X33.774304 Y197.014540 Z-0.125000 F800.000000
G01 X49.616381 Y194.717930 Z-0.125000
G01 X65.458464 Y195.503600 Z-0.125000
G01 X81.301001 Y196.733290 Z-0.125000
G01 X97.143081 Y195.561700 Z-0.125000
G01 X112.985162 Y192.940020 Z-0.125000
G01 X128.827701 Y198.808130 Z-0.125000
G01 X144.669781 Y194.434830 Z-0.125000
G01 X160.511859 Y198.436960 Z-0.125000
G01 X176.354398 Y193.180250 Z-0.125000
G01 X192.196479 Y194.375810 Z-0.125000
G00 Z10.000000

(End cutting path id: path190271)


(Start cutting path id: path190269)
(Change tool to Default tool)

G00 Z10.000000
G00 X192.196479 Y194.001880

G00 Z4.875000 (Fast pre-penetrate)
G01 Z-0.125000 F100.0(Penetrate)
G01 X176.354398 Y191.046850 Z-0.125000 F800.000000
G01 X160.511859 Y196.267600 Z-0.125000
G01 X144.669781 Y191.144600 Z-0.125000
G01 X128.827701 Y195.491610 Z-0.125000
G01 X112.985162 Y189.711580 Z-0.125000
G01 X97.143081 Y193.787480 Z-0.125000
G01 X81.301001 Y194.827200 Z-0.125000
G01 X65.458464 Y193.600280 Z-0.125000
G01 X49.616381 Y193.242030 Z-0.125000
G01 X33.774304 Y193.838660 Z-0.125000
G01 X17.931764 Y193.824360 Z-0.125000
G00 Z10.000000

(End cutting path id: path190269)


(Start cutting path id: path190267)
(Change tool to Default tool)

G00 Z10.000000
G00 X17.931764 Y192.225360

G00 Z4.875000 (Fast pre-penetrate)
G01 Z-0.125000 F100.0(Penetrate)
G01 X33.774304 Y192.308760 Z-0.125000 F800.000000
G01 X49.616381 Y192.428640 Z-0.125000
G01 X65.458464 Y191.019600 Z-0.125000
G01 X81.301001 Y191.388460 Z-0.125000
G01 X97.143081 Y192.026120 Z-0.125000
G01 X112.985162 Y187.291340 Z-0.125000
G01 X128.827701 Y191.519860 Z-0.125000
G01 X144.669781 Y188.316310 Z-0.125000
G01 X160.511859 Y194.082520 Z-0.125000
G01 X176.354398 Y189.280880 Z-0.125000
G01 X192.196479 Y193.134090 Z-0.125000
G00 Z10.000000

(End cutting path id: path190267)


(Start cutting path id: path190265)
(Change tool to Default tool)

G00 Z10.000000
G00 X192.196479 Y192.002200

G00 Z4.875000 (Fast pre-penetrate)
G01 Z-0.125000 F100.0(Penetrate)
G01 X176.354398 Y187.655180 Z-0.125000 F800.000000
G01 X160.511859 Y192.021100 Z-0.125000
G01 X144.669781 Y185.793360 Z-0.125000
G01 X128.827701 Y187.963640 Z-0.125000
G01 X112.985162 Y185.120190 Z-0.125000
G01 X97.143081 Y190.298530 Z-0.125000
G01 X81.301001 Y188.309910 Z-0.125000
G01 X65.458464 Y188.666780 Z-0.125000
G01 X49.616381 Y191.435070 Z-0.125000
G01 X33.774304 Y190.772050 Z-0.125000
G01 X17.931764 Y190.626810 Z-0.125000
G00 Z10.000000

(End cutting path id: path190265)


(Start cutting path id: path190263)
(Change tool to Default tool)

G00 Z10.000000
G00 X17.931764 Y189.027800

G00 Z4.875000 (Fast pre-penetrate)
G01 Z-0.125000 F100.0(Penetrate)
G01 X33.774304 Y189.227910 Z-0.125000 F800.000000
G01 X49.616381 Y190.261180 Z-0.125000
G01 X65.458464 Y186.542150 Z-0.125000
G01 X81.301001 Y185.591410 Z-0.125000
G01 X97.143081 Y188.605460 Z-0.125000
G01 X112.985162 Y183.197510 Z-0.125000
G01 X128.827701 Y184.821870 Z-0.125000
G01 X144.669781 Y183.575130 Z-0.125000
G01 X160.511859 Y190.082740 Z-0.125000
G01 X176.354398 Y186.170520 Z-0.125000
G01 X192.196479 Y190.606060 Z-0.125000
G00 Z10.000000

(End cutting path id: path190263)


(Start cutting path id: path190261)
(Change tool to Default tool)

G00 Z10.000000
G00 X192.196479 Y188.946190

G00 Z4.875000 (Fast pre-penetrate)
G01 Z-0.125000 F100.0(Penetrate)
G01 X176.354398 Y184.826020 Z-0.125000 F800.000000
G01 X160.511859 Y188.267950 Z-0.125000
G01 X144.669781 Y181.662590 Z-0.125000
G01 X128.827701 Y182.094620 Z-0.125000
G01 X112.985162 Y181.522880 Z-0.125000
G01 X97.143081 Y186.946970 Z-0.125000
G01 X81.301001 Y183.233010 Z-0.125000
G01 X65.458464 Y184.645280 Z-0.125000
G01 X49.616381 Y188.907920 Z-0.125000
G01 X33.774304 Y187.677310 Z-0.125000
G01 X17.931764 Y187.429250 Z-0.125000
G00 Z10.000000

(End cutting path id: path190261)


(Start cutting path id: path190259)
(Change tool to Default tool)

G00 Z10.000000
G00 X17.931764 Y185.830250

G00 Z4.875000 (Fast pre-penetrate)
G01 Z-0.125000 F100.0(Penetrate)
G01 X33.774304 Y186.119800 Z-0.125000 F800.000000
G01 X49.616381 Y187.374380 Z-0.125000
G01 X65.458464 Y182.976650 Z-0.125000
G01 X81.301001 Y181.234710 Z-0.125000
G01 X97.143081 Y185.322140 Z-0.125000
G01 X112.985162 Y180.097240 Z-0.125000
G01 X128.827701 Y179.782780 Z-0.125000
G01 X144.669781 Y180.054820 Z-0.125000
G01 X160.511859 Y186.576730 Z-0.125000
G01 X176.354398 Y183.622160 Z-0.125000
G01 X192.196479 Y187.022120 Z-0.125000
G00 Z10.000000

(End cutting path id: path190259)


(Start cutting path id: path190257)
(Change tool to Default tool)

G00 Z10.000000
G00 X192.196479 Y184.834320

G00 Z4.875000 (Fast pre-penetrate)
G01 Z-0.125000 F100.0(Penetrate)
G01 X176.354398 Y182.558920 Z-0.125000 F800.000000
G01 X160.511859 Y185.008610 Z-0.125000
G01 X144.669781 Y178.752280 Z-0.125000
G01 X128.827701 Y177.885460 Z-0.125000
G01 X112.985162 Y178.920110 Z-0.125000
G01 X97.143081 Y183.732360 Z-0.125000
G01 X81.301001 Y179.596050 Z-0.125000
G01 X65.458464 Y181.535790 Z-0.125000
G01 X49.616381 Y185.660570 Z-0.125000
G01 X33.774304 Y184.555830 Z-0.125000
G01 X17.931764 Y184.231700 Z-0.125000
G00 Z10.000000

(End cutting path id: path190257)


(Start cutting path id: path190255)
(Change tool to Default tool)

G00 Z10.000000
G00 X17.931764 Y182.633150

G00 Z4.875000 (Fast pre-penetrate)
G01 Z-0.125000 F100.0(Penetrate)
G01 X33.774304 Y182.984490 Z-0.125000 F800.000000
G01 X49.616381 Y183.766930 Z-0.125000
G01 X65.458464 Y180.323170 Z-0.125000
G01 X81.301001 Y178.317490 Z-0.125000
G01 X97.143081 Y182.176230 Z-0.125000
G01 X112.985162 Y177.991970 Z-0.125000
G01 X128.827701 Y176.403100 Z-0.125000
G01 X144.669781 Y177.754980 Z-0.125000
G01 X160.511859 Y183.564060 Z-0.125000
G01 X176.354398 Y181.636310 Z-0.125000
G01 X192.196479 Y182.382330 Z-0.125000
G00 Z10.000000

(End cutting path id: path190255)


(Start cutting path id: path190253)
(Change tool to Default tool)

G00 Z10.000000
G00 X192.196479 Y179.666590

G00 Z4.875000 (Fast pre-penetrate)
G01 Z-0.125000 F100.0(Penetrate)
G01 X176.354398 Y180.853860 Z-0.125000 F800.000000
G01 X160.511859 Y182.243080 Z-0.125000
G01 X144.669781 Y177.062440 Z-0.125000
G01 X128.827701 Y175.335720 Z-0.125000
G01 X112.985162 Y177.311880 Z-0.125000
G01 X97.143081 Y180.654680 Z-0.125000
G01 X81.301001 Y177.399030 Z-0.125000
G01 X65.458464 Y179.338310 Z-0.125000
G01 X49.616381 Y181.693480 Z-0.125000
G01 X33.774304 Y181.406230 Z-0.125000
G01 X17.931764 Y181.034140 Z-0.125000
G00 Z10.000000

(End cutting path id: path190253)


(Start cutting path id: path190251)
(Change tool to Default tool)

G00 Z10.000000
G00 X17.931764 Y179.435600

G00 Z4.875000 (Fast pre-penetrate)
G01 Z-0.125000 F100.0(Penetrate)
G01 X33.774304 Y179.821510 Z-0.125000 F800.000000
G01 X49.616381 Y179.440210 Z-0.125000
G01 X65.458464 Y178.581680 Z-0.125000
G01 X81.301001 Y176.840670 Z-0.125000
G01 X97.143081 Y179.167250 Z-0.125000
G01 X112.985162 Y176.880320 Z-0.125000
G01 X128.827701 Y174.683290 Z-0.125000
G01 X144.669781 Y176.675600 Z-0.125000
G01 X160.511859 Y181.045670 Z-0.125000
G01 X176.354398 Y180.212510 Z-0.125000
G01 X192.196479 Y176.686660 Z-0.125000
G00 Z10.000000

(End cutting path id: path190251)


(Start cutting path id: path190249)
(Change tool to Default tool)

G00 Z10.000000
G00 X192.196479 Y173.442540

G00 Z4.875000 (Fast pre-penetrate)
G01 Z-0.125000 F100.0(Penetrate)
G01 X176.354398 Y179.711320 Z-0.125000 F800.000000
G01 X160.511859 Y179.971360 Z-0.125000
G01 X144.669781 Y176.593530 Z-0.125000
G01 X128.827701 Y174.445380 Z-0.125000
G01 X112.985162 Y176.697730 Z-0.125000
G01 X97.143081 Y177.714400 Z-0.125000
G01 X81.301001 Y176.642400 Z-0.125000
G01 X65.458464 Y178.052830 Z-0.125000
G01 X49.616381 Y177.006650 Z-0.125000
G01 X33.774304 Y178.229880 Z-0.125000
G01 X17.931764 Y177.836590 Z-0.125000
G00 Z10.000000

(End cutting path id: path190249)


(Start cutting path id: path190247)
(Change tool to Default tool)

G00 Z10.000000
G00 X17.931764 Y176.567710

G00 Z4.875000 (Fast pre-penetrate)
G01 Z-0.125000 F100.0(Penetrate)
G01 X33.774304 Y176.004740 Z-0.125000 F800.000000
G01 X49.616381 Y175.087200 Z-0.125000
G01 X65.458464 Y177.280530 Z-0.125000
G01 X81.301001 Y176.563100 Z-0.125000
G01 X97.143081 Y176.245420 Z-0.125000
G01 X112.985162 Y176.556180 Z-0.125000
G01 X128.827701 Y174.243430 Z-0.125000
G01 X144.669781 Y176.393420 Z-0.125000
G01 X160.511859 Y178.467340 Z-0.125000
G01 X176.354398 Y178.967600 Z-0.125000
G01 X192.196479 Y170.313680 Z-0.125000
G00 Z10.000000

(End cutting path id: path190247)


(Start cutting path id: path190245)
(Change tool to Default tool)

G00 Z10.000000
G00 X192.196479 Y168.099600

G00 Z4.875000 (Fast pre-penetrate)
G01 Z-0.125000 F100.0(Penetrate)
G01 X176.354398 Y177.376890 Z-0.125000 F800.000000
G01 X160.511859 Y175.769130 Z-0.125000
G01 X144.669781 Y175.249030 Z-0.125000
G01 X128.827701 Y173.269640 Z-0.125000
G01 X112.985162 Y175.910670 Z-0.125000
G01 X97.143081 Y174.650560 Z-0.125000
G01 X81.301001 Y175.930960 Z-0.125000
G01 X65.458464 Y175.474500 Z-0.125000
G01 X49.616381 Y174.598460 Z-0.125000
G01 X33.774304 Y172.572490 Z-0.125000
G01 X17.931764 Y175.933730 Z-0.125000
G00 Z10.000000

(End cutting path id: path190245)


(Start cutting path id: path190243)
(Change tool to Default tool)

G00 Z10.000000
G00 X17.931764 Y175.091810

G00 Z4.875000 (Fast pre-penetrate)
G01 Z-0.125000 F100.0(Penetrate)
G01 X33.774304 Y169.534930 Z-0.125000 F800.000000
G01 X49.616381 Y173.916060 Z-0.125000
G01 X65.458464 Y173.647720 Z-0.125000
G01 X81.301001 Y175.119010 Z-0.125000
G01 X97.143081 Y173.020660 Z-0.125000
G01 X112.985162 Y175.098260 Z-0.125000
G01 X128.827701 Y172.248350 Z-0.125000
G01 X144.669781 Y174.006900 Z-0.125000
G01 X160.511859 Y173.154830 Z-0.125000
G01 X176.354398 Y175.784340 Z-0.125000
G01 X192.196479 Y166.074100 Z-0.125000
G00 Z10.000000

(End cutting path id: path190243)


(Start cutting path id: path190241)
(Change tool to Default tool)

G00 Z10.000000
G00 X192.196479 Y164.237180

G00 Z4.875000 (Fast pre-penetrate)
G01 Z-0.125000 F100.0(Penetrate)
G01 X176.354398 Y174.189940 Z-0.125000 F800.000000
G01 X160.511859 Y170.624450 Z-0.125000
G01 X144.669781 Y172.667010 Z-0.125000
G01 X128.827701 Y171.179120 Z-0.125000
G01 X112.985162 Y174.119860 Z-0.125000
G01 X97.143081 Y171.357100 Z-0.125000
G01 X81.301001 Y174.126780 Z-0.125000
G01 X65.458464 Y171.800650 Z-0.125000
G01 X49.616381 Y173.040020 Z-0.125000
G01 X33.774304 Y166.891120 Z-0.125000
G01 X17.931764 Y174.042860 Z-0.125000
G00 Z10.000000

(End cutting path id: path190241)


(Start cutting path id: path190239)
(Change tool to Default tool)

G00 Z10.000000
G00 X17.931764 Y172.786430

G00 Z4.875000 (Fast pre-penetrate)
G01 Z-0.125000 F100.0(Penetrate)
G01 X33.774304 Y164.642000 Z-0.125000 F800.000000
G01 X49.616381 Y171.970330 Z-0.125000
G01 X65.458464 Y169.932840 Z-0.125000
G01 X81.301001 Y172.954720 Z-0.125000
G01 X97.143081 Y169.658960 Z-0.125000
G01 X112.985162 Y172.975470 Z-0.125000
G01 X128.827701 Y170.061480 Z-0.125000
G01 X144.669781 Y171.229380 Z-0.125000
G01 X160.511859 Y168.178440 Z-0.125000
G01 X176.354398 Y172.594160 Z-0.125000
G01 X192.196479 Y162.588830 Z-0.125000
G00 Z10.000000

(End cutting path id: path190239)


(Start cutting path id: path190237)
(Change tool to Default tool)

G00 Z10.000000
G00 X192.196479 Y161.129530

G00 Z4.875000 (Fast pre-penetrate)
G01 Z-0.125000 F100.0(Penetrate)
G01 X176.354398 Y170.996540 Z-0.125000 F800.000000
G01 X160.511859 Y165.816360 Z-0.125000
G01 X144.669781 Y169.694000 Z-0.125000
G01 X128.827701 Y168.896340 Z-0.125000
G01 X112.985162 Y171.664630 Z-0.125000
G01 X97.143081 Y167.926240 Z-0.125000
G01 X81.301001 Y171.602850 Z-0.125000
G01 X65.458464 Y168.044270 Z-0.125000
G01 X49.616381 Y170.706980 Z-0.125000
G01 X33.774304 Y162.786630 Z-0.125000
G01 X17.931764 Y171.322520 Z-0.125000
G00 Z10.000000

(End cutting path id: path190237)


(Start cutting path id: path190235)
(Change tool to Default tool)

G00 Z10.000000
G00 X17.931764 Y169.651120

G00 Z4.875000 (Fast pre-penetrate)
G01 Z-0.125000 F100.0(Penetrate)
G01 X33.774304 Y161.325950 Z-0.125000 F800.000000
G01 X49.616381 Y169.249990 Z-0.125000
G01 X65.458464 Y166.135420 Z-0.125000
G01 X81.301001 Y170.070700 Z-0.125000
G01 X97.143081 Y166.159400 Z-0.125000
G01 X112.985162 Y170.187350 Z-0.125000
G01 X128.827701 Y167.682790 Z-0.125000
G01 X144.669781 Y168.061330 Z-0.125000
G01 X160.511859 Y163.538190 Z-0.125000
G01 X176.354398 Y169.397070 Z-0.125000
G01 X192.196479 Y159.858350 Z-0.125000
G00 Z10.000000

(End cutting path id: path190235)


(Start cutting path id: path190233)
(Change tool to Default tool)

G00 Z10.000000
G00 X192.196479 Y158.775740

G00 Z4.875000 (Fast pre-penetrate)
G01 Z-0.125000 F100.0(Penetrate)
G01 X176.354398 Y167.796220 Z-0.125000 F800.000000
G01 X160.511859 Y161.343930 Z-0.125000
G01 X144.669781 Y166.330460 Z-0.125000
G01 X128.827701 Y166.421260 Z-0.125000
G01 X112.985162 Y168.544050 Z-0.125000
G01 X97.143081 Y164.358410 Z-0.125000
G01 X81.301001 Y168.358700 Z-0.125000
G01 X65.458464 Y164.205790 Z-0.125000
G01 X49.616381 Y167.598840 Z-0.125000
G01 X33.774304 Y160.259450 Z-0.125000
G01 X17.931764 Y167.772210 Z-0.125000
G00 Z10.000000

(End cutting path id: path190233)


(Start cutting path id: path190231)
(Change tool to Default tool)

G00 Z10.000000
G00 X17.931764 Y165.685870

G00 Z4.875000 (Fast pre-penetrate)
G01 Z-0.125000 F100.0(Penetrate)
G01 X33.774304 Y159.587230 Z-0.125000 F800.000000
G01 X49.616381 Y165.754570 Z-0.125000
G01 X65.458464 Y162.255940 Z-0.125000
G01 X81.301001 Y166.466940 Z-0.125000
G01 X97.143081 Y162.523360 Z-0.125000
G01 X112.985162 Y166.733900 Z-0.125000
G01 X128.827701 Y165.111830 Z-0.125000
G01 X144.669781 Y164.502290 Z-0.125000
G01 X160.511859 Y159.233590 Z-0.125000
G01 X176.354398 Y166.193060 Z-0.125000
G01 X192.196479 Y157.881720 Z-0.125000
G00 Z10.000000

(End cutting path id: path190231)


(Start cutting path id: path190229)
(Change tool to Default tool)

G00 Z10.000000
G00 X192.196479 Y157.176270

G00 Z4.875000 (Fast pre-penetrate)
G01 Z-0.125000 F100.0(Penetrate)
G01 X176.354398 Y164.588980 Z-0.125000 F800.000000
G01 X160.511859 Y157.207630 Z-0.125000
G01 X144.669781 Y162.575920 Z-0.125000
G01 X128.827701 Y163.754430 Z-0.125000
G01 X112.985162 Y164.758190 Z-0.125000
G01 X97.143081 Y160.653700 Z-0.125000
G01 X81.301001 Y164.394860 Z-0.125000
G01 X65.458464 Y160.285300 Z-0.125000
G01 X49.616381 Y163.716160 Z-0.125000
G01 X33.774304 Y159.309670 Z-0.125000
G01 X17.931764 Y163.392490 Z-0.125000
G00 Z10.000000

(End cutting path id: path190229)


(Start cutting path id: path190227)
(Change tool to Default tool)

G00 Z10.000000
G00 X17.931764 Y160.891150

G00 Z4.875000 (Fast pre-penetrate)
G01 Z-0.125000 F100.0(Penetrate)
G01 X33.774304 Y159.425860 Z-0.125000 F800.000000
G01 X49.616381 Y161.484100 Z-0.125000
G01 X65.458464 Y158.293920 Z-0.125000
G01 X81.301001 Y162.142510 Z-0.125000
G01 X97.143081 Y158.749920 Z-0.125000
G01 X112.985162 Y162.615580 Z-0.125000
G01 X128.827701 Y162.349080 Z-0.125000
G01 X144.669781 Y160.552260 Z-0.125000
G01 X160.511859 Y155.265120 Z-0.125000
G01 X176.354398 Y162.982590 Z-0.125000
G01 X192.196479 Y156.659400 Z-0.125000
G00 Z10.000000

(End cutting path id: path190227)


(Start cutting path id: path190225)
(Change tool to Default tool)

G00 Z10.000000
G00 X192.196479 Y156.247200

G00 Z4.875000 (Fast pre-penetrate)
G01 Z-0.125000 F100.0(Penetrate)
G01 X176.354398 Y161.374820 Z-0.125000 F800.000000
G01 X160.511859 Y153.866220 Z-0.125000
G01 X144.669781 Y158.766980 Z-0.125000
G01 X128.827701 Y160.936800 Z-0.125000
G01 X112.985162 Y161.046540 Z-0.125000
G01 X97.143081 Y157.023650 Z-0.125000
G01 X81.301001 Y160.117470 Z-0.125000
G01 X65.458464 Y156.138390 Z-0.125000
G01 X49.616381 Y158.892850 Z-0.125000
G01 X33.774304 Y159.031180 Z-0.125000
G01 X17.931764 Y158.651710 Z-0.125000
G00 Z10.000000

(End cutting path id: path190225)


(Start cutting path id: path190223)
(Change tool to Default tool)

G00 Z10.000000
G00 X17.931764 Y157.052700

G00 Z4.875000 (Fast pre-penetrate)
G01 Z-0.125000 F100.0(Penetrate)
G01 X33.774304 Y157.401280 Z-0.125000 F800.000000
G01 X49.616381 Y156.141160 Z-0.125000
G01 X65.458464 Y153.891110 Z-0.125000
G01 X81.301001 Y158.648490 Z-0.125000
G01 X97.143081 Y155.580950 Z-0.125000
G01 X112.985162 Y160.391350 Z-0.125000
G01 X128.827701 Y159.459980 Z-0.125000
G01 X144.669781 Y157.417410 Z-0.125000
G01 X160.511859 Y153.122040 Z-0.125000
G01 X176.354398 Y159.768440 Z-0.125000
G01 X192.196479 Y155.686080 Z-0.125000
G00 Z10.000000

(End cutting path id: path190223)


(Start cutting path id: path190221)
(Change tool to Default tool)

G00 Z10.000000
G00 X192.196479 Y155.012450

G00 Z4.875000 (Fast pre-penetrate)
G01 Z-0.125000 F100.0(Penetrate)
G01 X176.354398 Y158.163430 Z-0.125000 F800.000000
G01 X160.511859 Y152.294410 Z-0.125000
G01 X144.669781 Y156.013440 Z-0.125000
G01 X128.827701 Y157.824080 Z-0.125000
G01 X112.985162 Y159.529140 Z-0.125000
G01 X97.143081 Y154.103670 Z-0.125000
G01 X81.301001 Y157.179500 Z-0.125000
G01 X65.458464 Y151.831030 Z-0.125000
G01 X49.616381 Y153.596490 Z-0.125000
G01 X33.774304 Y155.777830 Z-0.125000
G01 X17.931764 Y155.454160 Z-0.125000
G00 Z10.000000

(End cutting path id: path190221)


(Start cutting path id: path190219)
(Change tool to Default tool)

G00 Z10.000000
G00 X17.931764 Y153.855150

G00 Z4.875000 (Fast pre-penetrate)
G01 Z-0.125000 F100.0(Penetrate)
G01 X33.774304 Y154.161770 Z-0.125000 F800.000000
G01 X49.616381 Y151.259300 Z-0.125000
G01 X65.458464 Y149.958140 Z-0.125000
G01 X81.301001 Y155.710510 Z-0.125000
G01 X97.143081 Y152.592260 Z-0.125000
G01 X112.985162 Y158.459440 Z-0.125000
G01 X128.827701 Y156.028660 Z-0.125000
G01 X144.669781 Y154.554600 Z-0.125000
G01 X160.511859 Y151.382400 Z-0.125000
G01 X176.354398 Y156.560280 Z-0.125000
G01 X192.196479 Y154.225390 Z-0.125000
G00 Z10.000000

(End cutting path id: path190219)


(Start cutting path id: path190217)
(Change tool to Default tool)

G00 Z10.000000
G00 X192.196479 Y153.325370

G00 Z4.875000 (Fast pre-penetrate)
G01 Z-0.125000 F100.0(Penetrate)
G01 X176.354398 Y154.958960 Z-0.125000 F800.000000
G01 X160.511859 Y150.386020 Z-0.125000
G01 X144.669781 Y153.040890 Z-0.125000
G01 X128.827701 Y154.074160 Z-0.125000
G01 X112.985162 Y157.182270 Z-0.125000
G01 X97.143081 Y151.046740 Z-0.125000
G01 X81.301001 Y154.241070 Z-0.125000
G01 X65.458464 Y148.271530 Z-0.125000
G01 X49.616381 Y149.129590 Z-0.125000
G01 X33.774304 Y152.552610 Z-0.125000
G01 X17.931764 Y152.256600 Z-0.125000
G00 Z10.000000

(End cutting path id: path190217)


(Start cutting path id: path190215)
(Change tool to Default tool)

G00 Z10.000000
G00 X17.931764 Y150.657590

G00 Z4.875000 (Fast pre-penetrate)
G01 Z-0.125000 F100.0(Penetrate)
G01 X33.774304 Y150.949910 Z-0.125000 F800.000000
G01 X49.616381 Y147.207370 Z-0.125000
G01 X65.458464 Y146.772110 Z-0.125000
G01 X81.301001 Y152.772080 Z-0.125000
G01 X97.143081 Y149.466640 Z-0.125000
G01 X112.985162 Y155.697600 Z-0.125000
G01 X128.827701 Y151.959670 Z-0.125000
G01 X144.669781 Y151.472310 Z-0.125000
G01 X160.511859 Y149.306180 Z-0.125000
G01 X176.354398 Y153.359030 Z-0.125000
G01 X192.196479 Y152.311930 Z-0.125000
G00 Z10.000000

(End cutting path id: path190215)


(Start cutting path id: path190213)
(Change tool to Default tool)

G00 Z10.000000
G00 X192.196479 Y151.185530

G00 Z4.875000 (Fast pre-penetrate)
G01 Z-0.125000 F100.0(Penetrate)
G01 X176.354398 Y151.761410 Z-0.125000 F800.000000
G01 X160.511859 Y148.141970 Z-0.125000
G01 X144.669781 Y149.848870 Z-0.125000
G01 X128.827701 Y149.686110 Z-0.125000
G01 X112.985162 Y154.005460 Z-0.125000
G01 X97.143081 Y147.852870 Z-0.125000
G01 X81.301001 Y151.303100 Z-0.125000
G01 X65.458464 Y145.459430 Z-0.125000
G01 X49.616381 Y145.492630 Z-0.125000
G01 X33.774304 Y149.354130 Z-0.125000
G01 X17.931764 Y149.059050 Z-0.125000
G00 Z10.000000

(End cutting path id: path190213)


(Start cutting path id: path190211)
(Change tool to Default tool)

G00 Z10.000000
G00 X17.931764 Y147.460500

G00 Z4.875000 (Fast pre-penetrate)
G01 Z-0.125000 F100.0(Penetrate)
G01 X33.774304 Y147.765270 Z-0.125000 F800.000000
G01 X49.616381 Y143.985380 Z-0.125000
G01 X65.458464 Y144.333490 Z-0.125000
G01 X81.301001 Y149.834110 Z-0.125000
G01 X97.143081 Y146.204070 Z-0.125000
G01 X112.985162 Y152.105830 Z-0.125000
G01 X128.827701 Y147.253010 Z-0.125000
G01 X144.669781 Y148.170550 Z-0.125000
G01 X160.511859 Y146.894300 Z-0.125000
G01 X176.354398 Y150.165170 Z-0.125000
G01 X192.196479 Y149.945690 Z-0.125000
G00 Z10.000000

(End cutting path id: path190211)


(Start cutting path id: path190209)
(Change tool to Default tool)

G00 Z10.000000
G00 X192.196479 Y148.592900

G00 Z4.875000 (Fast pre-penetrate)
G01 Z-0.125000 F100.0(Penetrate)
G01 X176.354398 Y148.570300 Z-0.125000 F800.000000
G01 X160.511859 Y145.562250 Z-0.125000
G01 X144.669781 Y146.437370 Z-0.125000
G01 X128.827701 Y144.660390 Z-0.125000
G01 X112.985162 Y149.998720 Z-0.125000
G01 X97.143081 Y144.521610 Z-0.125000
G01 X81.301001 Y148.365130 Z-0.125000
G01 X65.458464 Y143.394740 Z-0.125000
G01 X49.616381 Y142.685140 Z-0.125000
G01 X33.774304 Y146.183320 Z-0.125000
G01 X17.931764 Y145.861490 Z-0.125000
G00 Z10.000000

(End cutting path id: path190209)


(Start cutting path id: path190207)
(Change tool to Default tool)

G00 Z10.000000
G00 X17.931764 Y144.262940

G00 Z4.875000 (Fast pre-penetrate)
G01 Z-0.125000 F100.0(Penetrate)
G01 X33.774304 Y144.608290 Z-0.125000 F800.000000
G01 X49.616381 Y141.592860 Z-0.125000
G01 X65.458464 Y142.642260 Z-0.125000
G01 X81.301001 Y146.896140 Z-0.125000
G01 X97.143081 Y142.804560 Z-0.125000
G01 X112.985162 Y147.684580 Z-0.125000
G01 X128.827701 Y141.908230 Z-0.125000
G01 X144.669781 Y144.649320 Z-0.125000
G01 X160.511859 Y144.146290 Z-0.125000
G01 X176.354398 Y146.977750 Z-0.125000
G01 X192.196479 Y147.127140 Z-0.125000
G00 Z10.000000

(End cutting path id: path190207)


(Start cutting path id: path190205)
(Change tool to Default tool)

G00 Z10.000000
G00 X192.196479 Y145.547960

G00 Z4.875000 (Fast pre-penetrate)
G01 Z-0.125000 F100.0(Penetrate)
G01 X176.354398 Y145.386580 Z-0.125000 F800.000000
G01 X160.511859 Y142.645950 Z-0.125000
G01 X144.669781 Y142.806870 Z-0.125000
G01 X128.827701 Y138.997000 Z-0.125000
G01 X112.985162 Y145.162500 Z-0.125000
G01 X97.143081 Y141.052940 Z-0.125000
G01 X81.301001 Y145.427150 Z-0.125000
G01 X65.458464 Y142.076980 Z-0.125000
G01 X49.616381 Y140.707590 Z-0.125000
G01 X33.774304 Y143.040170 Z-0.125000
G01 X17.931764 Y142.663940 Z-0.125000
G00 Z10.000000

(End cutting path id: path190205)


(Start cutting path id: path190203)
(Change tool to Default tool)

G00 Z10.000000
G00 X17.931764 Y139.986470

G00 Z4.875000 (Fast pre-penetrate)
G01 Z-0.125000 F100.0(Penetrate)
G01 X33.774304 Y141.944200 Z-0.125000 F800.000000
G01 X49.616381 Y140.258050 Z-0.125000
G01 X65.458464 Y141.933130 Z-0.125000
G01 X81.301001 Y143.295610 Z-0.125000
G01 X97.143081 Y139.521250 Z-0.125000
G01 X112.985162 Y142.951640 Z-0.125000
G01 X128.827701 Y137.422430 Z-0.125000
G01 X144.669781 Y141.319440 Z-0.125000
G01 X160.511859 Y140.804420 Z-0.125000
G01 X176.354398 Y143.541820 Z-0.125000
G01 X192.196479 Y144.112630 Z-0.125000
G00 Z10.000000

(End cutting path id: path190203)


(Start cutting path id: path190201)
(Change tool to Default tool)

G00 Z10.000000
G00 X192.196479 Y142.849750

G00 Z4.875000 (Fast pre-penetrate)
G01 Z-0.125000 F100.0(Penetrate)
G01 X176.354398 Y141.443010 Z-0.125000 F800.000000
G01 X160.511859 Y138.793670 Z-0.125000
G01 X144.669781 Y140.155230 Z-0.125000
G01 X128.827701 Y137.149010 Z-0.125000
G01 X112.985162 Y141.176510 Z-0.125000
G01 X97.143081 Y138.234390 Z-0.125000
G01 X81.301001 Y140.636130 Z-0.125000
G01 X65.458464 Y141.804490 Z-0.125000
G01 X49.616381 Y139.922840 Z-0.125000
G01 X33.774304 Y141.160370 Z-0.125000
G01 X17.931764 Y136.541780 Z-0.125000
G00 Z10.000000

(End cutting path id: path190201)


(Start cutting path id: path190199)
(Change tool to Default tool)

G00 Z10.000000
G00 X17.931764 Y133.511590

G00 Z4.875000 (Fast pre-penetrate)
G01 Z-0.125000 F100.0(Penetrate)
G01 X33.774304 Y140.168600 Z-0.125000 F800.000000
G01 X49.616381 Y139.365860 Z-0.125000
G01 X65.458464 Y141.323130 Z-0.125000
G01 X81.301001 Y138.156930 Z-0.125000
G01 X97.143081 Y136.947530 Z-0.125000
G01 X112.985162 Y139.360330 Z-0.125000
G01 X128.827701 Y136.667650 Z-0.125000
G01 X144.669781 Y138.893720 Z-0.125000
G01 X160.511859 Y136.928620 Z-0.125000
G01 X176.354398 Y139.343730 Z-0.125000
G01 X192.196479 Y141.511250 Z-0.125000
G00 Z10.000000

(End cutting path id: path190199)


(Start cutting path id: path190197)
(Change tool to Default tool)

G00 Z10.000000
G00 X192.196479 Y140.097130

G00 Z4.875000 (Fast pre-penetrate)
G01 Z-0.125000 F100.0(Penetrate)
G01 X176.354398 Y137.244450 Z-0.125000 F800.000000
G01 X160.511859 Y135.208810 Z-0.125000
G01 X144.669781 Y137.534470 Z-0.125000
G01 X128.827701 Y135.979270 Z-0.125000
G01 X112.985162 Y137.502660 Z-0.125000
G01 X97.143081 Y135.660660 Z-0.125000
G01 X81.301001 Y135.858000 Z-0.125000
G01 X65.458464 Y140.488580 Z-0.125000
G01 X49.616381 Y138.588490 Z-0.125000
G01 X33.774304 Y138.969800 Z-0.125000
G01 X17.931764 Y130.896380 Z-0.125000
G00 Z10.000000

(End cutting path id: path190197)


(Start cutting path id: path190195)
(Change tool to Default tool)

G00 Z10.000000
G00 X17.931764 Y128.696120

G00 Z4.875000 (Fast pre-penetrate)
G01 Z-0.125000 F100.0(Penetrate)
G01 X33.774304 Y137.563060 Z-0.125000 F800.000000
G01 X49.616381 Y137.589360 Z-0.125000
G01 X65.458464 Y139.300870 Z-0.125000
G01 X81.301001 Y133.738460 Z-0.125000
G01 X97.143081 Y134.373820 Z-0.125000
G01 X112.985162 Y135.604430 Z-0.125000
G01 X128.827701 Y135.083420 Z-0.125000
G01 X144.669781 Y136.077500 Z-0.125000
G01 X160.511859 Y133.635180 Z-0.125000
G01 X176.354398 Y135.145660 Z-0.125000
G01 X192.196479 Y138.607880 Z-0.125000
G00 Z10.000000

(End cutting path id: path190195)


(Start cutting path id: path190193)
(Change tool to Default tool)

G00 Z10.000000
G00 X192.196479 Y137.042970

G00 Z4.875000 (Fast pre-penetrate)
G01 Z-0.125000 F100.0(Penetrate)
G01 X176.354398 Y133.046370 Z-0.125000 F800.000000
G01 X160.511859 Y132.207210 Z-0.125000
G01 X144.669781 Y134.522730 Z-0.125000
G01 X128.827701 Y133.980510 Z-0.125000
G01 X112.985162 Y133.664670 Z-0.125000
G01 X97.143081 Y133.086940 Z-0.125000
G01 X81.301001 Y131.799620 Z-0.125000
G01 X65.458464 Y137.760400 Z-0.125000
G01 X49.616381 Y136.369340 Z-0.125000
G01 X33.774304 Y135.949300 Z-0.125000
G01 X17.931764 Y126.910840 Z-0.125000
G00 Z10.000000

(End cutting path id: path190193)


(Start cutting path id: path190191)
(Change tool to Default tool)

G00 Z10.000000
G00 X17.931764 Y125.540070

G00 Z4.875000 (Fast pre-penetrate)
G01 Z-0.125000 F100.0(Penetrate)
G01 X33.774304 Y134.128050 Z-0.125000 F800.000000
G01 X49.616381 Y134.928010 Z-0.125000
G01 X65.458464 Y135.866300 Z-0.125000
G01 X81.301001 Y130.040160 Z-0.125000
G01 X97.143081 Y131.800080 Z-0.125000
G01 X112.985162 Y131.683430 Z-0.125000
G01 X128.827701 Y132.669670 Z-0.125000
G01 X144.669781 Y132.870240 Z-0.125000
G01 X160.511859 Y130.924960 Z-0.125000
G01 X176.354398 Y130.947560 Z-0.125000
G01 X192.196479 Y135.402930 Z-0.125000
G00 Z10.000000

(End cutting path id: path190191)


(Start cutting path id: path190185)
(Change tool to Default tool)

G00 Z10.000000
G00 X192.196479 Y133.687260

G00 Z4.875000 (Fast pre-penetrate)
G01 Z-0.125000 F100.0(Penetrate)
G01 X176.354398 Y128.848280 Z-0.125000 F800.000000
G01 X160.511859 Y129.787950 Z-0.125000
G01 X144.669781 Y131.119990 Z-0.125000
G01 X128.827701 Y131.151390 Z-0.125000
G01 X112.985162 Y129.661660 Z-0.125000
G01 X97.143081 Y130.513260 Z-0.125000
G01 X81.301001 Y128.461020 Z-0.125000
G01 X65.458464 Y133.619060 Z-0.125000
G01 X49.616381 Y133.265880 Z-0.125000
G01 X33.774304 Y132.099360 Z-0.125000
G01 X17.931764 Y124.584760 Z-0.125000
G00 Z10.000000

(End cutting path id: path190185)


(Start cutting path id: path190187)
(Change tool to Default tool)

G00 Z10.000000
G00 X17.931764 Y124.206640

G00 Z4.875000 (Fast pre-penetrate)
G01 Z-0.125000 F100.0(Penetrate)
G01 X33.774304 Y124.768690 Z-0.125000 F800.000000
G01 X49.616381 Y126.951880 Z-0.125000
G01 X65.458464 Y124.759000 Z-0.125000
G01 X81.301001 Y124.803300 Z-0.125000
G01 X97.143081 Y126.653130 Z-0.125000
G01 X112.985162 Y123.348610 Z-0.125000
G01 X128.827701 Y125.352440 Z-0.125000
G01 X144.669781 Y125.282840 Z-0.125000
G01 X160.511859 Y127.252550 Z-0.125000
G01 X176.354398 Y122.550970 Z-0.125000
G01 X192.196479 Y128.087550 Z-0.125000
G00 Z10.000000

(End cutting path id: path190187)


(Start cutting path id: path190189)
(Change tool to Default tool)

G00 Z10.000000
G00 X192.196479 Y130.029550

G00 Z4.875000 (Fast pre-penetrate)
G01 Z-0.125000 F100.0(Penetrate)
G01 X176.354398 Y124.650190 Z-0.125000 F800.000000
G01 X160.511859 Y127.951950 Z-0.125000
G01 X144.669781 Y127.326270 Z-0.125000
G01 X128.827701 Y127.492720 Z-0.125000
G01 X112.985162 Y125.493960 Z-0.125000
G01 X97.143081 Y127.939960 Z-0.125000
G01 X81.301001 Y125.842530 Z-0.125000
G01 X65.458464 Y128.065370 Z-0.125000
G01 X49.616381 Y129.278000 Z-0.125000
G01 X33.774304 Y127.419870 Z-0.125000
G01 X17.931764 Y123.917540 Z-0.125000
G00 Z10.000000

(End cutting path id: path190189)


(Start cutting path id: path190181)
(Change tool to Default tool)

G00 Z10.000000
G00 X17.931764 Y123.423270

G00 Z4.875000 (Fast pre-penetrate)
G01 Z-0.125000 F100.0(Penetrate)
G01 X33.774304 Y119.715770 Z-0.125000 F800.000000
G01 X49.616381 Y122.964960 Z-0.125000
G01 X65.458464 Y119.712080 Z-0.125000
G01 X81.301001 Y121.672570 Z-0.125000
G01 X97.143081 Y123.580040 Z-0.125000
G01 X112.985162 Y119.884060 Z-0.125000
G01 X128.827701 Y118.150420 Z-0.125000
G01 X144.669781 Y121.129880 Z-0.125000
G01 X160.511859 Y127.163970 Z-0.125000
G01 X176.354398 Y121.109590 Z-0.125000
G01 X192.196479 Y122.351270 Z-0.125000
G00 Z10.000000

(End cutting path id: path190181)


(Start cutting path id: path190179)
(Change tool to Default tool)

G00 Z10.000000
G00 X192.196479 Y119.534570

G00 Z4.875000 (Fast pre-penetrate)
G01 Z-0.125000 F100.0(Penetrate)
G01 X176.354398 Y120.461780 Z-0.125000 F800.000000
G01 X160.511859 Y126.719040 Z-0.125000
G01 X144.669781 Y119.316010 Z-0.125000
G01 X128.827701 Y114.759670 Z-0.125000
G01 X112.985162 Y118.368970 Z-0.125000
G01 X97.143081 Y121.981490 Z-0.125000
G01 X81.301001 Y119.944000 Z-0.125000
G01 X65.458464 Y117.689340 Z-0.125000
G01 X49.616381 Y121.110520 Z-0.125000
G01 X33.774304 Y117.517360 Z-0.125000
G01 X17.931764 Y122.519560 Z-0.125000
G00 Z10.000000

(End cutting path id: path190179)


(Start cutting path id: path190177)
(Change tool to Default tool)

G00 Z10.000000
G00 X17.931764 Y121.408370

G00 Z4.875000 (Fast pre-penetrate)
G01 Z-0.125000 F100.0(Penetrate)
G01 X33.774304 Y115.519520 Z-0.125000 F800.000000
G01 X49.616381 Y119.270370 Z-0.125000
G01 X65.458464 Y115.853800 Z-0.125000
G01 X81.301001 Y118.215890 Z-0.125000
G01 X97.143081 Y120.382940 Z-0.125000
G01 X112.985162 Y116.936410 Z-0.125000
G01 X128.827701 Y111.783890 Z-0.125000
G01 X144.669781 Y117.698100 Z-0.125000
G01 X160.511859 Y125.858670 Z-0.125000
G01 X176.354398 Y119.604650 Z-0.125000
G01 X192.196479 Y116.924880 Z-0.125000
G00 Z10.000000

(End cutting path id: path190177)


(Start cutting path id: path190175)
(Change tool to Default tool)

G00 Z10.000000
G00 X192.196479 Y114.523140

G00 Z4.875000 (Fast pre-penetrate)
G01 Z-0.125000 F100.0(Penetrate)
G01 X176.354398 Y118.538180 Z-0.125000 F800.000000
G01 X160.511859 Y124.583800 Z-0.125000
G01 X144.669781 Y116.275220 Z-0.125000
G01 X128.827701 Y109.222620 Z-0.125000
G01 X112.985162 Y115.585920 Z-0.125000
G01 X97.143081 Y118.783930 Z-0.125000
G01 X81.301001 Y116.487320 Z-0.125000
G01 X65.458464 Y114.204530 Z-0.125000
G01 X49.616381 Y117.443590 Z-0.125000
G01 X33.774304 Y113.722250 Z-0.125000
G01 X17.931764 Y120.089700 Z-0.125000
G00 Z10.000000

(End cutting path id: path190175)


(Start cutting path id: path190173)
(Change tool to Default tool)

G00 Z10.000000
G00 X17.931764 Y118.563540

G00 Z4.875000 (Fast pre-penetrate)
G01 Z-0.125000 F100.0(Penetrate)
G01 X33.774304 Y112.125550 Z-0.125000 F800.000000
G01 X49.616381 Y115.630640 Z-0.125000
G01 X65.458464 Y112.742470 Z-0.125000
G01 X81.301001 Y114.758750 Z-0.125000
G01 X97.143081 Y117.185390 Z-0.125000
G01 X112.985162 Y114.317960 Z-0.125000
G01 X128.827701 Y107.076780 Z-0.125000
G01 X144.669781 Y115.047840 Z-0.125000
G01 X160.511859 Y122.893950 Z-0.125000
G01 X176.354398 Y117.262850 Z-0.125000
G01 X192.196479 Y112.328420 Z-0.125000
G00 Z10.000000

(End cutting path id: path190173)


(Start cutting path id: path190171)
(Change tool to Default tool)

G00 Z10.000000
G00 X192.196479 Y110.341190

G00 Z4.875000 (Fast pre-penetrate)
G01 Z-0.125000 F100.0(Penetrate)
G01 X176.354398 Y115.778180 Z-0.125000 F800.000000
G01 X160.511859 Y120.789150 Z-0.125000
G01 X144.669781 Y114.015950 Z-0.125000
G01 X128.827701 Y105.345440 Z-0.125000
G01 X112.985162 Y113.132070 Z-0.125000
G01 X97.143081 Y115.586380 Z-0.125000
G01 X81.301001 Y113.030180 Z-0.125000
G01 X65.458464 Y111.467130 Z-0.125000
G01 X49.616381 Y113.831530 Z-0.125000
G01 X33.774304 Y110.729410 Z-0.125000
G01 X17.931764 Y116.829900 Z-0.125000
G00 Z10.000000

(End cutting path id: path190171)


(Start cutting path id: path190169)
(Change tool to Default tool)

G00 Z10.000000
G00 X17.931764 Y114.888770

G00 Z4.875000 (Fast pre-penetrate)
G01 Z-0.125000 F100.0(Penetrate)
G01 X33.774304 Y109.533840 Z-0.125000 F800.000000
G01 X49.616381 Y112.045780 Z-0.125000
G01 X65.458464 Y110.378530 Z-0.125000
G01 X81.301001 Y111.301610 Z-0.125000
G01 X97.143081 Y113.987830 Z-0.125000
G01 X112.985162 Y112.028720 Z-0.125000
G01 X128.827701 Y104.029070 Z-0.125000
G01 X144.669781 Y113.179560 Z-0.125000
G01 X160.511859 Y118.269830 Z-0.125000
G01 X176.354398 Y114.084660 Z-0.125000
G01 X192.196479 Y108.561440 Z-0.125000
G00 Z10.000000

(End cutting path id: path190169)


(Start cutting path id: path190167)
(Change tool to Default tool)

G00 Z10.000000
G00 X192.196479 Y106.989170

G00 Z4.875000 (Fast pre-penetrate)
G01 Z-0.125000 F100.0(Penetrate)
G01 X176.354398 Y112.181800 Z-0.125000 F800.000000
G01 X160.511859 Y115.335090 Z-0.125000
G01 X144.669781 Y112.538670 Z-0.125000
G01 X128.827701 Y103.127670 Z-0.125000
G01 X112.985162 Y111.007440 Z-0.125000
G01 X97.143081 Y112.388820 Z-0.125000
G01 X81.301001 Y109.573500 Z-0.125000
G01 X65.458464 Y109.477100 Z-0.125000
G01 X49.616381 Y110.273840 Z-0.125000
G01 X33.774304 Y108.538810 Z-0.125000
G01 X17.931764 Y112.740130 Z-0.125000
G00 Z10.000000

(End cutting path id: path190167)


(Start cutting path id: path190165)
(Change tool to Default tool)

G00 Z10.000000
G00 X17.931764 Y110.384530

G00 Z4.875000 (Fast pre-penetrate)
G01 Z-0.125000 F100.0(Penetrate)
G01 X33.774304 Y107.744410 Z-0.125000 F800.000000
G01 X49.616381 Y108.515790 Z-0.125000
G01 X65.458464 Y108.762460 Z-0.125000
G01 X81.301001 Y107.844920 Z-0.125000
G01 X97.143081 Y110.790270 Z-0.125000
G01 X112.985162 Y110.068690 Z-0.125000
G01 X128.827701 Y102.640770 Z-0.125000
G01 X144.669781 Y112.092810 Z-0.125000
G01 X160.511859 Y111.985840 Z-0.125000
G01 X176.354398 Y110.070080 Z-0.125000
G01 X192.196479 Y105.624390 Z-0.125000
G00 Z10.000000

(End cutting path id: path190165)


(Start cutting path id: path190163)
(Change tool to Default tool)

G00 Z10.000000
G00 X192.196479 Y104.467090

G00 Z4.875000 (Fast pre-penetrate)
G01 Z-0.125000 F100.0(Penetrate)
G01 X176.354398 Y107.749020 Z-0.125000 F800.000000
G01 X160.511859 Y108.221630 Z-0.125000
G01 X144.669781 Y111.842450 Z-0.125000
G01 X128.827701 Y102.569300 Z-0.125000
G01 X112.985162 Y109.212010 Z-0.125000
G01 X97.143081 Y109.191310 Z-0.125000
G01 X81.301001 Y106.116400 Z-0.125000
G01 X65.458464 Y108.234580 Z-0.125000
G01 X49.616381 Y106.771580 Z-0.125000
G01 X33.774304 Y107.150590 Z-0.125000
G01 X17.931764 Y107.820990 Z-0.125000
G00 Z10.000000

(End cutting path id: path190163)


(Start cutting path id: path190161)
(Change tool to Default tool)

G00 Z10.000000
G00 X17.931764 Y106.633220

G00 Z4.875000 (Fast pre-penetrate)
G01 Z-0.125000 F100.0(Penetrate)
G01 X33.774304 Y105.918090 Z-0.125000 F800.000000
G01 X49.616381 Y105.033750 Z-0.125000
G01 X65.458464 Y106.328910 Z-0.125000
G01 X81.301001 Y105.107060 Z-0.125000
G01 X97.143081 Y106.356580 Z-0.125000
G01 X112.985162 Y107.768390 Z-0.125000
G01 X128.827701 Y103.100460 Z-0.125000
G01 X144.669781 Y111.035560 Z-0.125000
G01 X160.511859 Y105.207110 Z-0.125000
G01 X176.354398 Y105.823110 Z-0.125000
G01 X192.196479 Y103.291350 Z-0.125000
G00 Z10.000000

(End cutting path id: path190161)


(Start cutting path id: path190159)
(Change tool to Default tool)

G00 Z10.000000
G00 X192.196479 Y102.034460

G00 Z4.875000 (Fast pre-penetrate)
G01 Z-0.125000 F100.0(Penetrate)
G01 X176.354398 Y104.183070 Z-0.125000 F800.000000
G01 X160.511859 Y102.752810 Z-0.125000
G01 X144.669781 Y109.851990 Z-0.125000
G01 X128.827701 Y103.462870 Z-0.125000
G01 X112.985162 Y105.979880 Z-0.125000
G01 X97.143081 Y103.285810 Z-0.125000
G01 X81.301001 Y104.299720 Z-0.125000
G01 X65.458464 Y103.922560 Z-0.125000
G01 X49.616381 Y103.307020 Z-0.125000
G01 X33.774304 Y104.355050 Z-0.125000
G01 X17.931764 Y105.915790 Z-0.125000
G00 Z10.000000

(End cutting path id: path190159)


(Start cutting path id: path190157)
(Change tool to Default tool)

G00 Z10.000000
G00 X17.931764 Y104.991330

G00 Z4.875000 (Fast pre-penetrate)
G01 Z-0.125000 F100.0(Penetrate)
G01 X33.774304 Y102.792470 Z-0.125000 F800.000000
G01 X49.616381 Y101.594130 Z-0.125000
G01 X65.458464 Y101.682630 Z-0.125000
G01 X81.301001 Y103.366940 Z-0.125000
G01 X97.143081 Y100.561760 Z-0.125000
G01 X112.985162 Y104.109260 Z-0.125000
G01 X128.827701 Y103.458690 Z-0.125000
G01 X144.669781 Y108.570630 Z-0.125000
G01 X160.511859 Y100.444180 Z-0.125000
G01 X176.354398 Y102.611230 Z-0.125000
G01 X192.196479 Y100.758630 Z-0.125000
G00 Z10.000000

(End cutting path id: path190157)


(Start cutting path id: path190155)
(Change tool to Default tool)

G00 Z10.000000
G00 X192.196479 Y99.463970

G00 Z4.875000 (Fast pre-penetrate)
G01 Z-0.125000 F100.0(Penetrate)
G01 X176.354398 Y101.108620 Z-0.125000 F800.000000
G01 X160.511859 Y98.281310 Z-0.125000
G01 X144.669781 Y107.192040 Z-0.125000
G01 X128.827701 Y103.087550 Z-0.125000
G01 X112.985162 Y102.156640 Z-0.125000
G01 X97.143081 Y98.184020 Z-0.125000
G01 X81.301001 Y102.309260 Z-0.125000
G01 X65.458464 Y99.608740 Z-0.125000
G01 X49.616381 Y99.894610 Z-0.125000
G01 X33.774304 Y101.229880 Z-0.125000
G01 X17.931764 Y103.859390 Z-0.125000
G00 Z10.000000

(End cutting path id: path190155)


(Start cutting path id: path190153)
(Change tool to Default tool)

G00 Z10.000000
G00 X17.931764 Y102.519970

G00 Z4.875000 (Fast pre-penetrate)
G01 Z-0.125000 F100.0(Penetrate)
G01 X33.774304 Y99.667300 Z-0.125000 F800.000000
G01 X49.616381 Y98.208920 Z-0.125000
G01 X65.458464 Y97.700810 Z-0.125000
G01 X81.301001 Y101.126140 Z-0.125000
G01 X97.143081 Y96.152060 Z-0.125000
G01 X112.985162 Y100.121460 Z-0.125000
G01 X128.827701 Y102.349370 Z-0.125000
G01 X144.669781 Y105.715220 Z-0.125000
G01 X160.511859 Y96.264100 Z-0.125000
G01 X176.354398 Y99.674210 Z-0.125000
G01 X192.196479 Y98.150360 Z-0.125000
G00 Z10.000000

(End cutting path id: path190153)


(Start cutting path id: path190151)
(Change tool to Default tool)

G00 Z10.000000
G00 X192.196479 Y96.817850

G00 Z4.875000 (Fast pre-penetrate)
G01 Z-0.125000 F100.0(Penetrate)
G01 X176.354398 Y98.308510 Z-0.125000 F800.000000
G01 X160.511859 Y94.392600 Z-0.125000
G01 X144.669781 Y104.141110 Z-0.125000
G01 X128.827701 Y101.244630 Z-0.125000
G01 X112.985162 Y98.003740 Z-0.125000
G01 X97.143081 Y94.466830 Z-0.125000
G01 X81.301001 Y99.818070 Z-0.125000
G01 X65.458464 Y95.959790 Z-0.125000
G01 X49.616381 Y96.537060 Z-0.125000
G01 X33.774304 Y98.104710 Z-0.125000
G01 X17.931764 Y100.973060 Z-0.125000
G00 Z10.000000

(End cutting path id: path190151)


(Start cutting path id: path190149)
(Change tool to Default tool)

G00 Z10.000000
G00 X17.931764 Y99.218670

G00 Z4.875000 (Fast pre-penetrate)
G01 Z-0.125000 F100.0(Penetrate)
G01 X33.774304 Y96.542130 Z-0.125000 F800.000000
G01 X49.616381 Y94.878570 Z-0.125000
G01 X65.458464 Y94.384760 Z-0.125000
G01 X81.301001 Y98.385050 Z-0.125000
G01 X97.143081 Y93.127870 Z-0.125000
G01 X112.985162 Y95.803950 Z-0.125000
G01 X128.827701 Y99.772880 Z-0.125000
G01 X144.669781 Y102.468790 Z-0.125000
G01 X160.511859 Y92.666800 Z-0.125000
G01 X176.354398 Y97.011510 Z-0.125000
G01 X192.196479 Y95.466440 Z-0.125000
G00 Z10.000000

(End cutting path id: path190149)


(Start cutting path id: path190147)
(Change tool to Default tool)

G00 Z10.000000
G00 X192.196479 Y94.096590

G00 Z4.875000 (Fast pre-penetrate)
G01 Z-0.125000 F100.0(Penetrate)
G01 X176.354398 Y95.782740 Z-0.125000 F800.000000
G01 X160.511859 Y91.086690 Z-0.125000
G01 X144.669781 Y100.699190 Z-0.125000
G01 X128.827701 Y97.934120 Z-0.125000
G01 X112.985162 Y93.522090 Z-0.125000
G01 X97.143081 Y92.135180 Z-0.125000
G01 X81.301001 Y96.826610 Z-0.125000
G01 X65.458464 Y92.975710 Z-0.125000
G01 X49.616381 Y93.233920 Z-0.125000
G01 X33.774304 Y94.979550 Z-0.125000
G01 X17.931764 Y97.256800 Z-0.125000
G00 Z10.000000

(End cutting path id: path190147)


(Start cutting path id: path190145)
(Change tool to Default tool)

G00 Z10.000000
G00 X17.931764 Y95.087440

G00 Z4.875000 (Fast pre-penetrate)
G01 Z-0.125000 F100.0(Penetrate)
G01 X33.774304 Y93.416960 Z-0.125000 F800.000000
G01 X49.616381 Y91.603100 Z-0.125000
G01 X65.458464 Y91.733120 Z-0.125000
G01 X81.301001 Y95.143230 Z-0.125000
G01 X97.143081 Y91.488750 Z-0.125000
G01 X112.985162 Y91.157700 Z-0.125000
G01 X128.827701 Y95.728790 Z-0.125000
G01 X144.669781 Y98.831830 Z-0.125000
G01 X160.511859 Y89.652290 Z-0.125000
G01 X176.354398 Y94.622680 Z-0.125000
G01 X192.196479 Y92.707370 Z-0.125000
G00 Z10.000000

(End cutting path id: path190145)


(Start cutting path id: path190143)
(Change tool to Default tool)

G00 Z10.000000
G00 X192.196479 Y91.299710

G00 Z4.875000 (Fast pre-penetrate)
G01 Z-0.125000 F100.0(Penetrate)
G01 X176.354398 Y93.531310 Z-0.125000 F800.000000
G01 X160.511859 Y88.364040 Z-0.125000
G01 X144.669781 Y96.866270 Z-0.125000
G01 X128.827701 Y93.156460 Z-0.125000
G01 X112.985162 Y88.711230 Z-0.125000
G01 X97.143081 Y91.188590 Z-0.125000
G01 X81.301001 Y93.334890 Z-0.125000
G01 X65.458464 Y90.656970 Z-0.125000
G01 X49.616381 Y89.986100 Z-0.125000
G01 X33.774304 Y91.854380 Z-0.125000
G01 X17.931764 Y92.711060 Z-0.125000
G00 Z10.000000

(End cutting path id: path190143)


(Start cutting path id: path190141)
(Change tool to Default tool)

G00 Z10.000000
G00 X17.931764 Y90.126730

G00 Z4.875000 (Fast pre-penetrate)
G01 Z-0.125000 F100.0(Penetrate)
G01 X33.774304 Y90.291800 Z-0.125000 F800.000000
G01 X49.616381 Y88.382480 Z-0.125000
G01 X65.458464 Y89.747270 Z-0.125000
G01 X81.301001 Y91.401140 Z-0.125000
G01 X97.143081 Y91.234690 Z-0.125000
G01 X112.985162 Y86.182240 Z-0.125000
G01 X128.827701 Y90.217100 Z-0.125000
G01 X144.669781 Y94.803420 Z-0.125000
G01 X160.511859 Y87.221040 Z-0.125000
G01 X176.354398 Y92.508650 Z-0.125000
G01 X192.196479 Y89.872680 Z-0.125000
G00 Z10.000000

(End cutting path id: path190141)


(Start cutting path id: path190139)
(Change tool to Default tool)

G00 Z10.000000
G00 X192.196479 Y88.763330

G00 Z4.875000 (Fast pre-penetrate)
G01 Z-0.125000 F100.0(Penetrate)
G01 X176.354398 Y91.026290 Z-0.125000 F800.000000
G01 X160.511859 Y85.292360 Z-0.125000
G01 X144.669781 Y92.308080 Z-0.125000
G01 X128.827701 Y86.984970 Z-0.125000
G01 X112.985162 Y84.055290 Z-0.125000
G01 X97.143081 Y90.580890 Z-0.125000
G01 X81.301001 Y89.103610 Z-0.125000
G01 X65.458464 Y88.222950 Z-0.125000
G01 X49.616381 Y86.896440 Z-0.125000
G01 X33.774304 Y90.291800 Z-0.125000
G01 X17.931764 Y88.306410 Z-0.125000
G00 Z10.000000

(End cutting path id: path190139)


(Start cutting path id: path190137)
(Change tool to Default tool)

G00 Z10.000000
G00 X17.931764 Y86.707400

G00 Z4.875000 (Fast pre-penetrate)
G01 Z-0.125000 F100.0(Penetrate)
G01 X33.774304 Y90.321770 Z-0.125000 F800.000000
G01 X49.616381 Y85.437140 Z-0.125000
G01 X65.458464 Y86.539110 Z-0.125000
G01 X81.301001 Y86.872000 Z-0.125000
G01 X97.143081 Y89.544860 Z-0.125000
G01 X112.985162 Y82.115090 Z-0.125000
G01 X128.827701 Y84.064980 Z-0.125000
G01 X144.669781 Y89.856080 Z-0.125000
G01 X160.511859 Y83.201380 Z-0.125000
G01 X176.354398 Y89.420370 Z-0.125000
G01 X192.196479 Y87.634160 Z-0.125000
G00 Z10.000000

(End cutting path id: path190137)


(Start cutting path id: path190135)
(Change tool to Default tool)

G00 Z10.000000
G00 X192.196479 Y86.391560

G00 Z4.875000 (Fast pre-penetrate)
G01 Z-0.125000 F100.0(Penetrate)
G01 X176.354398 Y87.816280 Z-0.125000 F800.000000
G01 X160.511859 Y81.171730 Z-0.125000
G01 X144.669781 Y87.556700 Z-0.125000
G01 X128.827701 Y81.511540 Z-0.125000
G01 X112.985162 Y80.256960 Z-0.125000
G01 X97.143081 Y88.335460 Z-0.125000
G01 X81.301001 Y84.792560 Z-0.125000
G01 X65.458464 Y84.875560 Z-0.125000
G01 X49.616381 Y83.977850 Z-0.125000
G01 X33.774304 Y89.950610 Z-0.125000
G01 X17.931764 Y85.108860 Z-0.125000
G00 Z10.000000

(End cutting path id: path190135)


(Start cutting path id: path190133)
(Change tool to Default tool)

G00 Z10.000000
G00 X17.931764 Y83.509840

G00 Z4.875000 (Fast pre-penetrate)
G01 Z-0.125000 F100.0(Penetrate)
G01 X33.774304 Y89.177840 Z-0.125000 F800.000000
G01 X49.616381 Y82.518990 Z-0.125000
G01 X65.458464 Y83.232280 Z-0.125000
G01 X81.301001 Y82.865720 Z-0.125000
G01 X97.143081 Y86.953150 Z-0.125000
G01 X112.985162 Y78.481360 Z-0.125000
G01 X128.827701 Y79.325130 Z-0.125000
G01 X144.669781 Y85.409940 Z-0.125000
G01 X160.511859 Y79.204320 Z-0.125000
G01 X176.354398 Y86.213590 Z-0.125000
G01 X192.196479 Y85.036460 Z-0.125000
G00 Z10.000000

(End cutting path id: path190133)


(Start cutting path id: path190131)
(Change tool to Default tool)

G00 Z10.000000
G00 X192.196479 Y83.567480

G00 Z4.875000 (Fast pre-penetrate)
G01 Z-0.125000 F100.0(Penetrate)
G01 X176.354398 Y84.613200 Z-0.125000 F800.000000
G01 X160.511859 Y77.298240 Z-0.125000
G01 X144.669781 Y83.415780 Z-0.125000
G01 X128.827701 Y77.505720 Z-0.125000
G01 X112.985162 Y76.787830 Z-0.125000
G01 X97.143081 Y85.397490 Z-0.125000
G01 X81.301001 Y81.091510 Z-0.125000
G01 X65.458464 Y81.610210 Z-0.125000
G01 X49.616381 Y81.059690 Z-0.125000
G01 X33.774304 Y88.004400 Z-0.125000
G01 X17.931764 Y81.911300 Z-0.125000
G00 Z10.000000

(End cutting path id: path190131)


(Start cutting path id: path190129)
(Change tool to Default tool)

G00 Z10.000000
G00 X17.931764 Y80.312290

G00 Z4.875000 (Fast pre-penetrate)
G01 Z-0.125000 F100.0(Penetrate)
G01 X33.774304 Y86.429830 Z-0.125000 F800.000000
G01 X49.616381 Y79.600390 Z-0.125000
G01 X65.458464 Y80.008440 Z-0.125000
G01 X81.301001 Y79.469900 Z-0.125000
G01 X97.143081 Y83.668910 Z-0.125000
G01 X112.985162 Y75.176830 Z-0.125000
G01 X128.827701 Y76.052880 Z-0.125000
G01 X144.669781 Y81.574250 Z-0.125000
G01 X160.511859 Y75.453940 Z-0.125000
G01 X176.354398 Y83.014190 Z-0.125000
G01 X192.196479 Y81.985990 Z-0.125000
G00 Z10.000000

(End cutting path id: path190129)


(Start cutting path id: path190127)
(Change tool to Default tool)

G00 Z10.000000
G00 X192.196479 Y80.291080

G00 Z4.875000 (Fast pre-penetrate)
G01 Z-0.125000 F100.0(Penetrate)
G01 X176.354398 Y81.416560 Z-0.125000 F800.000000
G01 X160.511859 Y73.671420 Z-0.125000
G01 X144.669781 Y79.885330 Z-0.125000
G01 X128.827701 Y74.967040 Z-0.125000
G01 X112.985162 Y73.647910 Z-0.125000
G01 X97.143081 Y81.766980 Z-0.125000
G01 X81.301001 Y78.000920 Z-0.125000
G01 X65.458464 Y78.426950 Z-0.125000
G01 X49.616381 Y78.141550 Z-0.125000
G01 X33.774304 Y84.453660 Z-0.125000
G01 X17.931764 Y78.713740 Z-0.125000
G00 Z10.000000

(End cutting path id: path190127)


(Start cutting path id: path190125)
(Change tool to Default tool)

G00 Z10.000000
G00 X17.931764 Y77.114730

G00 Z4.875000 (Fast pre-penetrate)
G01 Z-0.125000 F100.0(Penetrate)
G01 X33.774304 Y82.076820 Z-0.125000 F800.000000
G01 X49.616381 Y76.682240 Z-0.125000
G01 X65.458464 Y76.866210 Z-0.125000
G01 X81.301001 Y76.684090 Z-0.125000
G01 X97.143081 Y79.691680 Z-0.125000
G01 X112.985162 Y72.201520 Z-0.125000
G01 X128.827701 Y74.247770 Z-0.125000
G01 X144.669781 Y78.349030 Z-0.125000
G01 X160.511859 Y71.950230 Z-0.125000
G01 X176.354398 Y79.821240 Z-0.125000
G01 X192.196479 Y78.482740 Z-0.125000
G00 Z10.000000

(End cutting path id: path190125)


(Start cutting path id: path190123)
(Change tool to Default tool)

G00 Z10.000000
G00 X192.196479 Y76.561440

G00 Z4.875000 (Fast pre-penetrate)
G01 Z-0.125000 F100.0(Penetrate)
G01 X176.354398 Y78.227310 Z-0.125000 F800.000000
G01 X160.511859 Y70.291280 Z-0.125000
G01 X144.669781 Y76.965340 Z-0.125000
G01 X128.827701 Y73.895970 Z-0.125000
G01 X112.985162 Y70.837200 Z-0.125000
G01 X97.143081 Y77.443480 Z-0.125000
G01 X81.301001 Y75.520330 Z-0.125000
G01 X65.458464 Y75.326220 Z-0.125000
G01 X49.616381 Y75.222940 Z-0.125000
G01 X33.774304 Y79.298840 Z-0.125000
G01 X17.931764 Y75.516190 Z-0.125000
G00 Z10.000000

(End cutting path id: path190123)


(Start cutting path id: path190121)
(Change tool to Default tool)

G00 Z10.000000
G00 X17.931764 Y73.917640

G00 Z4.875000 (Fast pre-penetrate)
G01 Z-0.125000 F100.0(Penetrate)
G01 X33.774304 Y76.119270 Z-0.125000 F800.000000
G01 X49.616381 Y73.763640 Z-0.125000
G01 X65.458464 Y73.806540 Z-0.125000
G01 X81.301001 Y74.509220 Z-0.125000
G01 X97.143081 Y75.022390 Z-0.125000
G01 X112.985162 Y69.555430 Z-0.125000
G01 X128.827701 Y73.910740 Z-0.125000
G01 X144.669781 Y75.733830 Z-0.125000
G01 X160.511859 Y68.694140 Z-0.125000
G01 X176.354398 Y76.635230 Z-0.125000
G01 X192.196479 Y74.527200 Z-0.125000
G00 Z10.000000

(End cutting path id: path190121)


(Start cutting path id: path190119)
(Change tool to Default tool)

G00 Z10.000000
G00 X192.196479 Y72.379950

G00 Z4.875000 (Fast pre-penetrate)
G01 Z-0.125000 F100.0(Penetrate)
G01 X176.354398 Y75.044500 Z-0.125000 F800.000000
G01 X160.511859 Y67.158280 Z-0.125000
G01 X144.669781 Y74.655360 Z-0.125000
G01 X128.827701 Y74.292030 Z-0.125000
G01 X112.985162 Y68.355690 Z-0.125000
G01 X97.143081 Y72.427900 Z-0.125000
G01 X81.301001 Y73.650210 Z-0.125000
G01 X65.458464 Y72.307560 Z-0.125000
G01 X49.616381 Y72.304560 Z-0.125000
G01 X33.774304 Y72.538780 Z-0.125000
G01 X17.931764 Y72.318390 Z-0.125000
G00 Z10.000000

(End cutting path id: path190119)


(Start cutting path id: path190117)
(Change tool to Default tool)

G00 Z10.000000
G00 X17.931764 Y69.786400

G00 Z4.875000 (Fast pre-penetrate)
G01 Z-0.125000 F100.0(Penetrate)
G01 X33.774304 Y69.786400 Z-0.125000 F800.000000
G01 X49.616381 Y69.971760 Z-0.125000
G01 X65.458464 Y72.495680 Z-0.125000
G01 X81.301001 Y73.753950 Z-0.125000
G01 X97.143081 Y70.411160 Z-0.125000
G01 X112.985162 Y65.813320 Z-0.125000
G01 X128.827701 Y73.664050 Z-0.125000
G01 X144.669781 Y73.209890 Z-0.125000
G01 X160.511859 Y66.272090 Z-0.125000
G01 X176.354398 Y74.071640 Z-0.125000
G01 X192.196479 Y71.398780 Z-0.125000
G00 Z10.000000

(End cutting path id: path190117)


(Start cutting path id: path190115)
(Change tool to Default tool)

G00 Z10.000000
G00 X192.196479 Y70.411160

G00 Z4.875000 (Fast pre-penetrate)
G01 Z-0.125000 F100.0(Penetrate)
G01 X176.354398 Y73.035140 Z-0.125000 F800.000000
G01 X160.511859 Y65.396050 Z-0.125000
G01 X144.669781 Y71.569380 Z-0.125000
G01 X128.827701 Y72.704090 Z-0.125000
G01 X112.985162 Y63.394060 Z-0.125000
G01 X97.143081 Y68.535050 Z-0.125000
G01 X81.301001 Y73.613330 Z-0.125000
G01 X65.458464 Y72.476320 Z-0.125000
G01 X49.616381 Y67.699580 Z-0.125000
G01 X33.774304 Y67.347780 Z-0.125000
G01 X17.931764 Y67.347780 Z-0.125000
G00 Z10.000000

(End cutting path id: path190115)


(Start cutting path id: path190113)
(Change tool to Default tool)

G00 Z10.000000
G00 X17.931764 Y65.116170

G00 Z4.875000 (Fast pre-penetrate)
G01 Z-0.125000 F100.0(Penetrate)
G01 X33.774304 Y65.116170 Z-0.125000 F800.000000
G01 X49.616381 Y65.593390 Z-0.125000
G01 X65.458464 Y72.041980 Z-0.125000
G01 X81.301001 Y73.112600 Z-0.125000
G01 X97.143081 Y66.727170 Z-0.125000
G01 X112.985162 Y61.265740 Z-0.125000
G01 X128.827701 Y71.537110 Z-0.125000
G01 X144.669781 Y69.775800 Z-0.125000
G01 X160.511859 Y64.457760 Z-0.125000
G01 X176.354398 Y71.859860 Z-0.125000
G01 X192.196479 Y69.272310 Z-0.125000
G00 Z10.000000

(End cutting path id: path190113)


(Start cutting path id: path190111)
(Change tool to Default tool)

G00 Z10.000000
G00 X192.196479 Y67.982680

G00 Z4.875000 (Fast pre-penetrate)
G01 Z-0.125000 F100.0(Penetrate)
G01 X176.354398 Y70.545800 Z-0.125000 F800.000000
G01 X160.511859 Y63.458150 Z-0.125000
G01 X144.669781 Y67.830520 Z-0.125000
G01 X128.827701 Y70.162640 Z-0.125000
G01 X112.985162 Y59.429280 Z-0.125000
G01 X97.143081 Y64.987540 Z-0.125000
G01 X81.301001 Y72.251780 Z-0.125000
G01 X65.458464 Y71.192680 Z-0.125000
G01 X49.616381 Y63.653640 Z-0.125000
G01 X33.774304 Y63.092060 Z-0.125000
G01 X17.931764 Y63.092060 Z-0.125000
G00 Z10.000000

(End cutting path id: path190111)


(Start cutting path id: path190109)
(Change tool to Default tool)

G00 Z10.000000
G00 X17.931764 Y61.275880

G00 Z4.875000 (Fast pre-penetrate)
G01 Z-0.125000 F100.0(Penetrate)
G01 X33.774304 Y61.275880 Z-0.125000 F800.000000
G01 X49.616381 Y61.880350 Z-0.125000
G01 X65.458464 Y69.928420 Z-0.125000
G01 X81.301001 Y71.030850 Z-0.125000
G01 X97.143081 Y63.317060 Z-0.125000
G01 X112.985162 Y57.883750 Z-0.125000
G01 X128.827701 Y68.580690 Z-0.125000
G01 X144.669781 Y65.732170 Z-0.125000
G01 X160.511859 Y62.396750 Z-0.125000
G01 X176.354398 Y69.092950 Z-0.125000
G01 X192.196479 Y66.542280 Z-0.125000
G00 Z10.000000

(End cutting path id: path190109)


(Start cutting path id: path190107)
(Change tool to Default tool)

G00 Z10.000000
G00 X192.196479 Y64.951110

G00 Z4.875000 (Fast pre-penetrate)
G01 Z-0.125000 F100.0(Penetrate)
G01 X176.354398 Y67.501320 Z-0.125000 F800.000000
G01 X160.511859 Y61.273580 Z-0.125000
G01 X144.669781 Y63.481200 Z-0.125000
G01 X128.827701 Y66.790800 Z-0.125000
G01 X112.985162 Y56.630090 Z-0.125000
G01 X97.143081 Y61.714820 Z-0.125000
G01 X81.301001 Y69.450280 Z-0.125000
G01 X65.458464 Y68.249640 Z-0.125000
G01 X49.616381 Y60.273500 Z-0.125000
G01 X33.774304 Y59.666730 Z-0.125000
G01 X17.931764 Y59.666730 Z-0.125000
G00 Z10.000000

(End cutting path id: path190107)


(Start cutting path id: path190105)
(Change tool to Default tool)

G00 Z10.000000
G00 X17.931764 Y58.265060

G00 Z4.875000 (Fast pre-penetrate)
G01 Z-0.125000 F100.0(Penetrate)
G01 X33.774304 Y58.265060 Z-0.125000 F800.000000
G01 X49.616381 Y58.832640 Z-0.125000
G01 X65.458464 Y66.155440 Z-0.125000
G01 X81.301001 Y67.509150 Z-0.125000
G01 X97.143081 Y60.181290 Z-0.125000
G01 X112.985162 Y55.667360 Z-0.125000
G01 X128.827701 Y64.794340 Z-0.125000
G01 X144.669781 Y61.077620 Z-0.125000
G01 X160.511859 Y60.088610 Z-0.125000
G01 X176.354398 Y65.770440 Z-0.125000
G01 X192.196479 Y63.209170 Z-0.125000
G00 Z10.000000

(End cutting path id: path190105)


(Start cutting path id: path190103)
(Change tool to Default tool)

G00 Z10.000000
G00 X192.196479 Y61.316460

G00 Z4.875000 (Fast pre-penetrate)
G01 Z-0.125000 F100.0(Penetrate)
G01 X176.354398 Y63.900780 Z-0.125000 F800.000000
G01 X160.511859 Y58.842330 Z-0.125000
G01 X144.669781 Y58.521880 Z-0.125000
G01 X128.827701 Y62.589950 Z-0.125000
G01 X112.985162 Y54.996500 Z-0.125000
G01 X97.143081 Y58.715990 Z-0.125000
G01 X81.301001 Y65.208390 Z-0.125000
G01 X65.458464 Y63.646730 Z-0.125000
G01 X49.616381 Y57.558230 Z-0.125000
G01 X33.774304 Y57.070410 Z-0.125000
G01 X17.931764 Y57.070410 Z-0.125000
G00 Z10.000000

(End cutting path id: path190103)


(Start cutting path id: path190101)
(Change tool to Default tool)

G00 Z10.000000
G00 X17.931764 Y56.083710

G00 Z4.875000 (Fast pre-penetrate)
G01 Z-0.125000 F100.0(Penetrate)
G01 X33.774304 Y56.083710 Z-0.125000 F800.000000
G01 X49.616381 Y56.449810 Z-0.125000
G01 X65.458464 Y60.723050 Z-0.125000
G01 X81.301001 Y62.547990 Z-0.125000
G01 X97.143081 Y57.319390 Z-0.125000
G01 X112.985162 Y54.617030 Z-0.125000
G01 X128.827701 Y60.178060 Z-0.125000
G01 X144.669781 Y55.813060 Z-0.125000
G01 X160.511859 Y57.533800 Z-0.125000
G01 X176.354398 Y61.892800 Z-0.125000
G01 X192.196479 Y59.272510 Z-0.125000
G00 Z10.000000

(End cutting path id: path190101)


(Start cutting path id: path190099)
(Change tool to Default tool)

G00 Z10.000000
G00 X192.196479 Y57.077790

G00 Z4.875000 (Fast pre-penetrate)
G01 Z-0.125000 F100.0(Penetrate)
G01 X176.354398 Y59.745110 Z-0.125000 F800.000000
G01 X160.511859 Y56.163940 Z-0.125000
G01 X144.669781 Y52.952090 Z-0.125000
G01 X128.827701 Y57.559160 Z-0.125000
G01 X112.985162 Y54.528970 Z-0.125000
G01 X97.143081 Y55.991500 Z-0.125000
G01 X81.301001 Y59.527020 Z-0.125000
G01 X65.458464 Y57.384870 Z-0.125000
G01 X49.616381 Y55.507830 Z-0.125000
G01 X33.774304 Y55.304500 Z-0.125000
G01 X17.931764 Y55.304500 Z-0.125000
G00 Z10.000000

(End cutting path id: path190099)


(Start cutting path id: path190097)
(Change tool to Default tool)

G00 Z10.000000
G00 X17.931764 Y54.732300

G00 Z4.875000 (Fast pre-penetrate)
G01 Z-0.125000 F100.0(Penetrate)
G01 X33.774304 Y54.732300 Z-0.125000 F800.000000
G01 X49.616381 Y54.732300 Z-0.125000
G01 X65.458464 Y53.631250 Z-0.125000
G01 X81.301001 Y56.146420 Z-0.125000
G01 X97.143081 Y54.732300 Z-0.125000
G01 X112.985162 Y54.732300 Z-0.125000
G01 X128.827701 Y54.732300 Z-0.125000
G01 X144.669781 Y49.938510 Z-0.125000
G01 X160.511859 Y54.732300 Z-0.125000
G01 X176.354398 Y57.459100 Z-0.125000
G01 X192.196479 Y54.732300 Z-0.125000
G00 Z10.000000

(End cutting path id: path190097)


(Start cutting path id: path190183)
(Change tool to Default tool)

G00 Z10.000000
G00 X192.196479 Y125.375460

G00 Z4.875000 (Fast pre-penetrate)
G01 Z-0.125000 F100.0(Penetrate)
G01 X176.354398 Y121.548540 Z-0.125000 F800.000000
G01 X160.511859 Y127.194400 Z-0.125000
G01 X144.669781 Y123.138790 Z-0.125000
G01 X128.827701 Y121.955670 Z-0.125000
G01 X112.985162 Y121.481220 Z-0.125000
G01 X97.143081 Y125.179050 Z-0.125000
G01 X81.301001 Y123.401140 Z-0.125000
G01 X65.458464 Y121.922010 Z-0.125000
G01 X49.616381 Y124.832780 Z-0.125000
G01 X33.774304 Y122.114740 Z-0.125000
G01 X17.931764 Y124.119950 Z-0.125000
G01 X33.774304 Y129.863570 Z-0.125000
G01 X49.616381 Y131.382350 Z-0.125000
G01 X65.458464 Y131.019020 Z-0.125000
G01 X81.301001 Y127.062070 Z-0.125000
G01 X97.143081 Y129.226820 Z-0.125000
G01 X112.985162 Y127.598300 Z-0.125000
G01 X128.827701 Y129.426010 Z-0.125000
G01 X144.669781 Y129.272010 Z-0.125000
G01 X160.511859 Y128.797100 Z-0.125000
G01 X176.354398 Y126.749010 Z-0.125000
G01 X192.196479 Y131.895990 Z-0.125000
G00 Z10.000000

(End cutting path id: path190183)



(Footer)
M5
G00 X0.0000 Y0.0000
M2
(Using default footer. To add your own footer create file "footer" in the output dir.)
(end)
%