%
(Header)
(Generated by gcodetools from Inkscape.)
(Using default header. To add your own header create file "header" in the output dir.)
M3
(Header end.)
G21 (All units in mm)

(Start cutting path id: polyline614)
(Change tool to Default tool)

G00 Z3.000000
G00 X10.688717 Y213.237145

G00 Z4.875000 (Fast pre-penetrate)
G01 Z-0.125000 F400.0(Penetrate)
G01 X11.599491 Y213.811899 Z-0.125000 F800.000000
G01 X14.422936 Y215.901390 Z-0.125000
G01 X15.364084 Y216.364992 Z-0.125000
G01 X16.320393 Y216.591899 Z-0.125000
G01 X17.276728 Y216.544988 Z-0.125000
G01 X18.339294 Y216.186663 Z-0.125000
G01 X19.523329 Y215.483957 Z-0.125000
G01 X22.073512 Y213.541151 Z-0.125000
G01 X23.348617 Y212.717345 Z-0.125000
G01 X24.714791 Y212.155530 Z-0.125000
G01 X25.989896 Y211.995060 Z-0.125000
G01 X27.265001 Y212.180824 Z-0.125000
G01 X28.631175 Y212.698427 Z-0.125000
G01 X29.906280 Y213.385497 Z-0.125000
G01 X33.185099 Y215.385215 Z-0.125000
G01 X35.021834 Y216.303477 Z-0.125000
G01 X36.615708 Y216.873468 Z-0.125000
G01 X38.315839 Y217.242561 Z-0.125000
G01 X39.909714 Y217.395278 Z-0.125000
G01 X41.609845 Y217.405200 Z-0.125000
G01 X48.304139 Y216.938740 Z-0.125000
G01 X51.704400 Y216.855714 Z-0.125000
G01 X54.785866 Y216.961045 Z-0.125000
G01 X60.630082 Y217.364058 Z-0.125000
G01 X62.861495 Y217.415334 Z-0.125000
G01 X65.305448 Y217.276904 Z-0.125000
G01 X67.643119 Y216.884739 Z-0.125000
G01 X69.130736 Y216.488208 Z-0.125000
G01 X70.724611 Y215.952057 Z-0.125000
G01 X73.274821 Y215.371377 Z-0.125000
G01 X75.506234 Y214.660178 Z-0.125000
G01 X78.056444 Y214.130906 Z-0.125000
G01 X80.181601 Y213.435370 Z-0.125000
G01 X82.413015 Y213.034607 Z-0.125000
G01 X84.538172 Y212.413180 Z-0.125000
G01 X85.069481 Y212.330789 Z-0.125000
G01 X85.600764 Y212.404634 Z-0.125000
G01 X87.513408 Y213.042306 Z-0.125000
G01 X92.295031 Y215.119970 Z-0.125000
G01 X94.207675 Y215.845669 Z-0.125000
G01 X96.120319 Y216.356843 Z-0.125000
G01 X97.926733 Y216.587903 Z-0.125000
G01 X99.733121 Y216.557238 Z-0.125000
G01 X101.645765 Y216.258841 Z-0.125000
G01 X103.239639 Y215.840086 Z-0.125000
G01 X105.046027 Y215.240223 Z-0.125000
G01 X107.383697 Y214.836390 Z-0.125000
G01 X110.358933 Y213.946704 Z-0.125000
G01 X112.590346 Y213.514507 Z-0.125000
G01 X115.459326 Y212.725600 Z-0.125000
G01 X117.265713 Y212.821670 Z-0.125000
G01 X119.072101 Y213.037596 Z-0.125000
G01 X125.553855 Y214.219568 Z-0.125000
G01 X128.529091 Y214.656342 Z-0.125000
G01 X131.610583 Y214.933175 Z-0.125000
G01 X134.692076 Y215.025567 Z-0.125000
G01 X137.667311 Y214.934868 Z-0.125000
G01 X140.536264 Y214.654331 Z-0.125000
G01 X143.298987 Y214.178584 Z-0.125000
G01 X148.824406 Y212.924725 Z-0.125000
G01 X150.205767 Y212.758064 Z-0.125000
G01 X151.480872 Y212.764679 Z-0.125000
G01 X152.755977 Y212.975261 Z-0.125000
G01 X153.924799 Y213.370733 Z-0.125000
G01 X155.321347 Y214.082329 Z-0.125000
G01 X158.600166 Y216.097314 Z-0.125000
G01 X159.662758 Y216.500485 Z-0.125000
G01 X160.619066 Y216.603990 Z-0.125000
G01 X161.575402 Y216.408331 Z-0.125000
G01 X162.516550 Y215.913799 Z-0.125000
G01 X163.461482 Y215.155742 Z-0.125000
G01 X166.011691 Y212.723536 Z-0.125000
G01 X166.797238 Y212.222628 Z-0.125000
G01 X167.525873 Y212.005643 Z-0.125000
G00 Z3.000000

(End cutting path id: polyline614)


(Start cutting path id: polyline612)
(Change tool to Default tool)

G00 Z3.000000
G00 X10.688717 Y211.671052

G00 Z4.875000 (Fast pre-penetrate)
G01 Z-0.125000 F400.0(Penetrate)
G01 X11.963822 Y212.384579 Z-0.125000 F800.000000
G01 X14.149701 Y214.059363 Z-0.125000
G01 X15.060475 Y214.663088 Z-0.125000
G01 X16.001623 Y215.095735 Z-0.125000
G01 X16.851676 Y215.273561 Z-0.125000
G01 X17.914267 Y215.185243 Z-0.125000
G01 X19.158998 Y214.675048 Z-0.125000
G01 X20.331656 Y213.895322 Z-0.125000
G01 X22.802147 Y211.981487 Z-0.125000
G01 X24.077252 Y211.210016 Z-0.125000
G01 X25.246100 Y210.785730 Z-0.125000
G01 X26.308666 Y210.672330 Z-0.125000
G01 X27.583771 Y210.870794 Z-0.125000
G01 X28.904410 Y211.399669 Z-0.125000
G01 X30.088419 Y212.068376 Z-0.125000
G01 X33.367264 Y214.174139 Z-0.125000
G01 X35.128117 Y215.092427 Z-0.125000
G01 X36.721991 Y215.668927 Z-0.125000
G01 X38.315839 Y215.992327 Z-0.125000
G01 X39.803457 Y216.092657 Z-0.125000
G01 X41.397332 Y216.033999 Z-0.125000
G01 X49.047934 Y215.001913 Z-0.125000
G01 X51.279348 Y214.825278 Z-0.125000
G01 X53.404531 Y214.775563 Z-0.125000
G01 X57.017306 Y214.951669 Z-0.125000
G01 X64.774139 Y215.910862 Z-0.125000
G01 X68.068145 Y216.093318 Z-0.125000
G01 X70.193328 Y215.973595 Z-0.125000
G01 X72.318485 Y215.614608 Z-0.125000
G01 X75.506234 Y214.660178 Z-0.125000
G01 X78.162700 Y214.101643 Z-0.125000
G01 X80.181601 Y213.435370 Z-0.125000
G01 X82.625528 Y212.985103 Z-0.125000
G01 X85.388251 Y212.127166 Z-0.125000
G01 X87.513408 Y211.767254 Z-0.125000
G01 X89.744848 Y211.129926 Z-0.125000
G01 X90.276130 Y211.048250 Z-0.125000
G01 X90.701157 Y211.118946 Z-0.125000
G01 X92.720057 Y211.796067 Z-0.125000
G01 X97.395424 Y213.785096 Z-0.125000
G01 X99.308068 Y214.498888 Z-0.125000
G01 X101.220739 Y215.011465 Z-0.125000
G01 X103.133383 Y215.262819 Z-0.125000
G01 X105.046027 Y215.230989 Z-0.125000
G01 X106.958671 Y214.933757 Z-0.125000
G01 X110.465189 Y213.919637 Z-0.125000
G01 X113.334168 Y213.324616 Z-0.125000
G01 X115.884352 Y212.527375 Z-0.125000
G01 X117.690739 Y212.201858 Z-0.125000
G01 X120.772232 Y211.434514 Z-0.125000
G01 X123.534954 Y211.490659 Z-0.125000
G01 X131.185557 Y212.234931 Z-0.125000
G01 X135.435871 Y212.404740 Z-0.125000
G01 X139.261186 Y212.243900 Z-0.125000
G01 X145.530401 Y211.532992 Z-0.125000
G01 X147.655584 Y211.415650 Z-0.125000
G01 X149.568228 Y211.551513 Z-0.125000
G01 X151.374616 Y211.990615 Z-0.125000
G01 X153.135469 Y212.738644 Z-0.125000
G01 X157.006291 Y214.831072 Z-0.125000
G01 X158.068883 Y215.182491 Z-0.125000
G01 X159.131475 Y215.279435 Z-0.125000
G01 X160.194040 Y215.060360 Z-0.125000
G01 X161.332514 Y214.461212 Z-0.125000
G01 X162.345761 Y213.658731 Z-0.125000
G01 X164.497509 Y211.677507 Z-0.125000
G01 X165.522133 Y210.973849 Z-0.125000
G01 X166.038255 Y210.763664 Z-0.125000
G01 X166.569538 Y210.673680 Z-0.125000
G01 X166.994564 Y210.702228 Z-0.125000
G01 X167.525873 Y210.869471 Z-0.125000
G00 Z3.000000

(End cutting path id: polyline612)


(Start cutting path id: polyline610)
(Change tool to Default tool)

G00 Z3.000000
G00 X10.688717 Y210.194626

G00 Z4.875000 (Fast pre-penetrate)
G01 Z-0.125000 F400.0(Penetrate)
G01 X11.417326 Y210.463786 Z-0.125000 F800.000000
G01 X12.145961 Y210.875953 Z-0.125000
G01 X14.696171 Y212.811590 Z-0.125000
G01 X15.698041 Y213.452092 Z-0.125000
G01 X16.745419 Y213.864709 Z-0.125000
G01 X17.701754 Y213.956308 Z-0.125000
G01 X18.658090 Y213.763850 Z-0.125000
G01 X19.705494 Y213.263868 Z-0.125000
G01 X20.707338 Y212.574603 Z-0.125000
G01 X23.166452 Y210.640607 Z-0.125000
G01 X24.441556 Y209.862177 Z-0.125000
G01 X25.777383 Y209.412412 Z-0.125000
G01 X26.414922 Y209.349706 Z-0.125000
G01 X27.158745 Y209.400797 Z-0.125000
G01 X28.221310 Y209.687817 Z-0.125000
G01 X29.359810 Y210.225555 Z-0.125000
G01 X33.458333 Y212.928006 Z-0.125000
G01 X35.340630 Y213.934956 Z-0.125000
G01 X36.296939 Y214.300001 Z-0.125000
G01 X37.359530 Y214.579957 Z-0.125000
G01 X38.315839 Y214.722593 Z-0.125000
G01 X39.378431 Y214.770641 Z-0.125000
G01 X40.653536 Y214.699072 Z-0.125000
G01 X42.141154 Y214.481717 Z-0.125000
G01 X47.666573 Y213.236563 Z-0.125000
G01 X50.216783 Y212.770420 Z-0.125000
G01 X52.660709 Y212.492555 Z-0.125000
G01 X55.104662 Y212.395903 Z-0.125000
G01 X57.761102 Y212.492053 Z-0.125000
G01 X60.523825 Y212.793254 Z-0.125000
G01 X63.074008 Y213.217116 Z-0.125000
G01 X68.386941 Y214.263595 Z-0.125000
G01 X70.724611 Y214.614141 Z-0.125000
G01 X72.956025 Y214.767678 Z-0.125000
G01 X74.974952 Y214.694944 Z-0.125000
G01 X77.525135 Y214.267696 Z-0.125000
G01 X80.181601 Y213.435370 Z-0.125000
G01 X82.731784 Y212.959386 Z-0.125000
G01 X85.388251 Y212.127166 Z-0.125000
G01 X87.832177 Y211.694652 Z-0.125000
G01 X90.701157 Y210.806183 Z-0.125000
G01 X92.826314 Y210.437407 Z-0.125000
G01 X94.951497 Y209.813467 Z-0.125000
G01 X95.482780 Y209.724038 Z-0.125000
G01 X98.032990 Y210.538531 Z-0.125000
G01 X102.495817 Y212.433157 Z-0.125000
G01 X104.408461 Y213.150997 Z-0.125000
G01 X106.321131 Y213.672278 Z-0.125000
G01 X108.127519 Y213.927680 Z-0.125000
G01 X110.040163 Y213.924002 Z-0.125000
G01 X112.059064 Y213.633040 Z-0.125000
G01 X113.759195 Y213.205130 Z-0.125000
G01 X115.884352 Y212.527375 Z-0.125000
G01 X118.222048 Y212.077372 Z-0.125000
G01 X121.516054 Y211.146384 Z-0.125000
G01 X126.403934 Y210.165495 Z-0.125000
G01 X129.060373 Y210.092893 Z-0.125000
G01 X136.604720 Y210.182402 Z-0.125000
G01 X142.661448 Y210.092814 Z-0.125000
G01 X145.849197 Y210.237171 Z-0.125000
G01 X148.399380 Y210.701064 Z-0.125000
G01 X150.630794 Y211.468064 Z-0.125000
G01 X155.199904 Y213.562714 Z-0.125000
G01 X156.368752 Y213.882648 Z-0.125000
G01 X157.325061 Y213.959959 Z-0.125000
G01 X158.600166 Y213.736413 Z-0.125000
G01 X159.784201 Y213.170258 Z-0.125000
G01 X160.831606 Y212.416911 Z-0.125000
G01 X163.427324 Y210.205738 Z-0.125000
G01 X164.064890 Y209.785818 Z-0.125000
G01 X164.656894 Y209.508059 Z-0.125000
G01 X165.400690 Y209.351505 Z-0.125000
G01 X166.144512 Y209.442257 Z-0.125000
G01 X166.797238 Y209.735468 Z-0.125000
G01 X167.525873 Y210.284716 Z-0.125000
G00 Z3.000000

(End cutting path id: polyline610)


(Start cutting path id: polyline608)
(Change tool to Default tool)

G00 Z3.000000
G00 X10.688717 Y208.792336

G00 Z4.875000 (Fast pre-penetrate)
G01 Z-0.125000 F400.0(Penetrate)
G01 X11.538770 Y209.014903 Z-0.125000 F800.000000
G01 X12.419196 Y209.469113 Z-0.125000
G01 X15.071852 Y211.479308 Z-0.125000
G01 X16.153415 Y212.167727 Z-0.125000
G01 X17.064215 Y212.528221 Z-0.125000
G01 X18.020524 Y212.635351 Z-0.125000
G01 X18.976859 Y212.452894 Z-0.125000
G01 X20.069799 Y211.925977 Z-0.125000
G01 X21.048888 Y211.241872 Z-0.125000
G01 X23.439686 Y209.328936 Z-0.125000
G01 X24.714791 Y208.534605 Z-0.125000
G01 X25.458614 Y208.228853 Z-0.125000
G01 X26.096153 Y208.075104 Z-0.125000
G01 X26.733692 Y208.025839 Z-0.125000
G01 X27.371258 Y208.079840 Z-0.125000
G01 X28.433849 Y208.382550 Z-0.125000
G01 X29.541949 Y208.932644 Z-0.125000
G01 X33.458333 Y211.636735 Z-0.125000
G01 X35.188812 Y212.616856 Z-0.125000
G01 X36.934504 Y213.232091 Z-0.125000
G01 X37.784557 Y213.384597 Z-0.125000
G01 X38.740892 Y213.447462 Z-0.125000
G01 X40.228510 Y213.345677 Z-0.125000
G01 X41.822384 Y213.029288 Z-0.125000
G01 X47.985342 Y211.141806 Z-0.125000
G01 X50.960578 Y210.424231 Z-0.125000
G01 X54.042071 Y209.977376 Z-0.125000
G01 X57.123563 Y209.830215 Z-0.125000
G01 X60.523825 Y209.990209 Z-0.125000
G01 X63.924087 Y210.461934 Z-0.125000
G01 X67.005579 Y211.119767 Z-0.125000
G01 X73.168564 Y212.701285 Z-0.125000
G01 X75.612491 Y213.187377 Z-0.125000
G01 X77.950161 Y213.429947 Z-0.125000
G01 X80.075345 Y213.394439 Z-0.125000
G01 X81.350449 Y213.240479 Z-0.125000
G01 X82.731784 Y212.959386 Z-0.125000
G01 X85.281994 Y212.154577 Z-0.125000
G01 X88.044717 Y211.642688 Z-0.125000
G01 X90.701157 Y210.806183 Z-0.125000
G01 X93.145110 Y210.361075 Z-0.125000
G01 X95.907806 Y209.468398 Z-0.125000
G01 X97.820450 Y209.127509 Z-0.125000
G01 X99.839377 Y208.491558 Z-0.125000
G01 X100.370660 Y208.395646 Z-0.125000
G01 X100.901942 Y208.465496 Z-0.125000
G01 X102.814586 Y209.097003 Z-0.125000
G01 X107.808749 Y211.220255 Z-0.125000
G01 X109.721393 Y211.920183 Z-0.125000
G01 X111.740294 Y212.426754 Z-0.125000
G01 X113.759195 Y212.634001 Z-0.125000
G01 X115.353069 Y212.579868 Z-0.125000
G01 X117.159457 Y212.314015 Z-0.125000
G01 X118.859588 Y211.914203 Z-0.125000
G01 X121.622310 Y211.121089 Z-0.125000
G01 X123.641211 Y210.759060 Z-0.125000
G01 X128.422834 Y209.696892 Z-0.125000
G01 X134.373306 Y209.000721 Z-0.125000
G01 X137.348515 Y208.974131 Z-0.125000
G01 X140.111238 Y209.051706 Z-0.125000
G01 X142.342652 Y209.219664 Z-0.125000
G01 X144.361579 Y209.497555 Z-0.125000
G01 X146.061710 Y209.856197 Z-0.125000
G01 X147.655584 Y210.310275 Z-0.125000
G01 X153.074747 Y212.286578 Z-0.125000
G01 X154.137339 Y212.536794 Z-0.125000
G01 X155.093647 Y212.635721 Z-0.125000
G01 X155.837469 Y212.608152 Z-0.125000
G01 X156.581265 Y212.475622 Z-0.125000
G01 X157.962627 Y211.933465 Z-0.125000
G01 X159.317424 Y211.058727 Z-0.125000
G01 X162.243315 Y208.770508 Z-0.125000
G01 X163.063020 Y208.313970 Z-0.125000
G01 X163.806815 Y208.073940 Z-0.125000
G01 X164.763151 Y208.070633 Z-0.125000
G01 X165.613203 Y208.386783 Z-0.125000
G01 X166.489846 Y209.016861 Z-0.125000
G01 X167.525873 Y210.074981 Z-0.125000
G00 Z3.000000

(End cutting path id: polyline608)


(Start cutting path id: polyline606)
(Change tool to Default tool)

G00 Z3.000000
G00 X10.688717 Y207.446958

G00 Z4.875000 (Fast pre-penetrate)
G01 Z-0.125000 F400.0(Penetrate)
G01 X11.645026 Y207.600839 Z-0.125000 F800.000000
G01 X12.601361 Y208.039412 Z-0.125000
G01 X13.512135 Y208.657584 Z-0.125000
G01 X15.515875 Y210.231932 Z-0.125000
G01 X16.517745 Y210.861348 Z-0.125000
G01 X17.489241 Y211.230468 Z-0.125000
G01 X18.339294 Y211.312489 Z-0.125000
G01 X19.295629 Y211.125164 Z-0.125000
G01 X20.343034 Y210.615815 Z-0.125000
G01 X21.287965 Y209.950257 Z-0.125000
G01 X23.712948 Y207.984537 Z-0.125000
G01 X24.988026 Y207.185497 Z-0.125000
G01 X25.671127 Y206.903610 Z-0.125000
G01 X26.308666 Y206.748908 Z-0.125000
G01 X26.946231 Y206.703400 Z-0.125000
G01 X27.583771 Y206.766106 Z-0.125000
G01 X28.540106 Y207.048892 Z-0.125000
G01 X29.633045 Y207.605469 Z-0.125000
G01 X33.458333 Y210.352979 Z-0.125000
G01 X35.006673 Y211.277696 Z-0.125000
G01 X36.615708 Y211.894571 Z-0.125000
G01 X37.465787 Y212.062634 Z-0.125000
G01 X38.315839 Y212.124362 Z-0.125000
G01 X39.803457 Y212.002892 Z-0.125000
G01 X41.397332 Y211.616283 Z-0.125000
G01 X47.772829 Y209.168229 Z-0.125000
G01 X51.066835 Y208.178635 Z-0.125000
G01 X52.873222 Y207.801208 Z-0.125000
G01 X54.679610 Y207.534164 Z-0.125000
G01 X58.504924 Y207.282096 Z-0.125000
G01 X60.630082 Y207.301781 Z-0.125000
G01 X62.861495 Y207.437036 Z-0.125000
G01 X64.986679 Y207.676457 Z-0.125000
G01 X67.111836 Y208.027162 Z-0.125000
G01 X71.043380 Y208.961748 Z-0.125000
G01 X77.312622 Y210.897120 Z-0.125000
G01 X79.437779 Y211.481901 Z-0.125000
G01 X81.775476 Y211.943334 Z-0.125000
G01 X83.794376 Y212.119123 Z-0.125000
G01 X85.919533 Y212.030514 Z-0.125000
G01 X87.938434 Y211.669041 Z-0.125000
G01 X90.701157 Y210.806183 Z-0.125000
G01 X92.932597 Y210.412748 Z-0.125000
G01 X96.014063 Y209.440061 Z-0.125000
G01 X98.351759 Y208.991249 Z-0.125000
G01 X100.583173 Y208.205967 Z-0.125000
G01 X102.814586 Y207.727812 Z-0.125000
G01 X105.046027 Y206.963988 Z-0.125000
G01 X106.321131 Y207.292785 Z-0.125000
G01 X107.702466 Y207.769220 Z-0.125000
G01 X112.484090 Y209.832067 Z-0.125000
G01 X114.396734 Y210.545330 Z-0.125000
G01 X116.415661 Y211.067247 Z-0.125000
G01 X118.328305 Y211.296349 Z-0.125000
G01 X120.028436 Y211.285978 Z-0.125000
G01 X121.834823 Y211.089842 Z-0.125000
G01 X123.747467 Y210.736756 Z-0.125000
G01 X128.316578 Y209.716471 Z-0.125000
G01 X131.291814 Y209.315760 Z-0.125000
G01 X134.798332 Y208.956404 Z-0.125000
G01 X137.773568 Y208.846972 Z-0.125000
G01 X140.323751 Y208.928966 Z-0.125000
G01 X142.873961 Y209.175531 Z-0.125000
G01 X145.424144 Y209.690066 Z-0.125000
G01 X150.843333 Y211.088837 Z-0.125000
G01 X152.330925 Y211.293783 Z-0.125000
G01 X153.712286 Y211.275659 Z-0.125000
G01 X154.987391 Y211.021924 Z-0.125000
G01 X156.232121 Y210.527683 Z-0.125000
G01 X157.598296 Y209.722821 Z-0.125000
G01 X160.968210 Y207.341733 Z-0.125000
G01 X162.000428 Y206.870722 Z-0.125000
G01 X162.956763 Y206.703082 Z-0.125000
G01 X163.913072 Y206.855535 Z-0.125000
G01 X164.975664 Y207.419362 Z-0.125000
G01 X166.011691 Y208.322119 Z-0.125000
G01 X167.525873 Y209.986531 Z-0.125000
G00 Z3.000000

(End cutting path id: polyline606)


(Start cutting path id: polyline604)
(Change tool to Default tool)

G00 Z3.000000
G00 X10.688717 Y206.141743

G00 Z4.875000 (Fast pre-penetrate)
G01 Z-0.125000 F400.0(Penetrate)
G01 X11.538770 Y206.172038 Z-0.125000 F800.000000
G01 X12.495105 Y206.492977 Z-0.125000
G01 X13.512135 Y207.109191 Z-0.125000
G01 X15.629726 Y208.776249 Z-0.125000
G01 X16.608815 Y209.432256 Z-0.125000
G01 X17.595498 Y209.862627 Z-0.125000
G01 X18.551833 Y209.991320 Z-0.125000
G01 X19.508142 Y209.818494 Z-0.125000
G01 X20.616268 Y209.277263 Z-0.125000
G01 X21.606735 Y208.564001 Z-0.125000
G01 X23.917867 Y206.659770 Z-0.125000
G01 X25.170192 Y205.861814 Z-0.125000
G01 X26.414922 Y205.434195 Z-0.125000
G01 X27.052488 Y205.380167 Z-0.125000
G01 X27.690027 Y205.439487 Z-0.125000
G01 X28.722245 Y205.759368 Z-0.125000
G01 X29.815184 Y206.350975 Z-0.125000
G01 X33.458333 Y209.075598 Z-0.125000
G01 X35.006673 Y210.025584 Z-0.125000
G01 X35.871912 Y210.404440 Z-0.125000
G01 X36.615708 Y210.630367 Z-0.125000
G01 X37.359530 Y210.762024 Z-0.125000
G01 X38.209583 Y210.800441 Z-0.125000
G01 X39.484688 Y210.653730 Z-0.125000
G01 X40.972305 Y210.230318 Z-0.125000
G01 X42.459923 Y209.621698 Z-0.125000
G01 X46.209329 Y207.832825 Z-0.125000
G01 X48.091599 Y207.027382 Z-0.125000
G01 X50.216783 Y206.291815 Z-0.125000
G01 X52.341940 Y205.752012 Z-0.125000
G01 X54.998406 Y205.317012 Z-0.125000
G01 X57.973615 Y205.065843 Z-0.125000
G01 X61.480134 Y204.986600 Z-0.125000
G01 X65.092935 Y205.098916 Z-0.125000
G01 X69.024480 Y205.479942 Z-0.125000
G01 X72.637255 Y206.144389 Z-0.125000
G01 X76.356286 Y207.180390 Z-0.125000
G01 X82.625528 Y209.391590 Z-0.125000
G01 X84.963224 Y210.114430 Z-0.125000
G01 X87.513408 Y210.648385 Z-0.125000
G01 X89.744848 Y210.801658 Z-0.125000
G01 X91.126183 Y210.723315 Z-0.125000
G01 X92.507544 Y210.506728 Z-0.125000
G01 X93.995162 Y210.124194 Z-0.125000
G01 X96.014063 Y209.440061 Z-0.125000
G01 X98.139246 Y209.048346 Z-0.125000
G01 X100.689429 Y208.174296 Z-0.125000
G01 X103.133383 Y207.636055 Z-0.125000
G01 X105.364796 Y206.813308 Z-0.125000
G01 X107.171184 Y206.387356 Z-0.125000
G01 X109.508880 Y205.592972 Z-0.125000
G01 X110.783959 Y205.907164 Z-0.125000
G01 X112.165320 Y206.375105 Z-0.125000
G01 X116.840687 Y208.379322 Z-0.125000
G01 X118.647074 Y209.060914 Z-0.125000
G01 X120.559719 Y209.594975 Z-0.125000
G01 X122.366106 Y209.890990 Z-0.125000
G01 X124.066237 Y209.990685 Z-0.125000
G01 X125.978881 Y209.932450 Z-0.125000
G01 X133.841997 Y209.033821 Z-0.125000
G01 X137.879824 Y208.847051 Z-0.125000
G01 X139.898725 Y208.903778 Z-0.125000
G01 X141.917626 Y209.062501 Z-0.125000
G01 X148.611893 Y209.931339 Z-0.125000
G01 X150.949590 Y209.955707 Z-0.125000
G01 X152.543464 Y209.701866 Z-0.125000
G01 X154.031056 Y209.206435 Z-0.125000
G01 X155.685652 Y208.359081 Z-0.125000
G01 X159.510966 Y205.955450 Z-0.125000
G01 X160.619066 Y205.517936 Z-0.125000
G01 X161.681658 Y205.380961 Z-0.125000
G01 X162.319197 Y205.461342 Z-0.125000
G01 X162.850506 Y205.628505 Z-0.125000
G01 X163.973794 Y206.276416 Z-0.125000
G01 X165.046492 Y207.213913 Z-0.125000
G01 X167.525873 Y209.758302 Z-0.125000
G00 Z3.000000

(End cutting path id: polyline604)


(Start cutting path id: polyline602)
(Change tool to Default tool)

G00 Z3.000000
G00 X10.688717 Y204.861717

G00 Z4.875000 (Fast pre-penetrate)
G01 Z-0.125000 F400.0(Penetrate)
G01 X11.645026 Y204.823935 Z-0.125000 F800.000000
G01 X12.692431 Y205.135799 Z-0.125000
G01 X13.785370 Y205.793658 Z-0.125000
G01 X15.880180 Y207.451429 Z-0.125000
G01 X16.882050 Y208.126274 Z-0.125000
G01 X17.914267 Y208.562069 Z-0.125000
G01 X18.870603 Y208.664939 Z-0.125000
G01 X19.826911 Y208.461289 Z-0.125000
G01 X20.889503 Y207.913365 Z-0.125000
G01 X21.766120 Y207.271857 Z-0.125000
G01 X23.997560 Y205.404086 Z-0.125000
G01 X25.261261 Y204.568136 Z-0.125000
G01 X25.883640 Y204.289821 Z-0.125000
G01 X26.521179 Y204.114614 Z-0.125000
G01 X27.690027 Y204.099718 Z-0.125000
G01 X28.722245 Y204.403512 Z-0.125000
G01 X29.815184 Y204.996787 Z-0.125000
G01 X33.458333 Y207.803404 Z-0.125000
G01 X34.915577 Y208.725343 Z-0.125000
G01 X36.403195 Y209.307452 Z-0.125000
G01 X37.147017 Y209.443951 Z-0.125000
G01 X37.890813 Y209.477711 Z-0.125000
G01 X39.059661 Y209.338223 Z-0.125000
G01 X40.441023 Y208.917351 Z-0.125000
G01 X41.928641 Y208.243564 Z-0.125000
G01 X45.753929 Y206.163968 Z-0.125000
G01 X47.772829 Y205.196309 Z-0.125000
G01 X50.004269 Y204.374091 Z-0.125000
G01 X52.341940 Y203.799337 Z-0.125000
G01 X55.104662 Y203.424687 Z-0.125000
G01 X58.611181 Y203.241305 Z-0.125000
G01 X65.624218 Y203.207438 Z-0.125000
G01 X70.512098 Y203.336767 Z-0.125000
G01 X74.549899 Y203.718136 Z-0.125000
G01 X78.162700 Y204.423938 Z-0.125000
G01 X81.775476 Y205.528387 Z-0.125000
G01 X87.938434 Y207.938103 Z-0.125000
G01 X90.169874 Y208.706822 Z-0.125000
G01 X92.720057 Y209.305997 Z-0.125000
G01 X94.951497 Y209.478743 Z-0.125000
G01 X96.332859 Y209.392119 Z-0.125000
G01 X97.714194 Y209.152195 Z-0.125000
G01 X99.095555 Y208.765772 Z-0.125000
G01 X100.689429 Y208.174296 Z-0.125000
G01 X103.027126 Y207.667540 Z-0.125000
G01 X105.471053 Y206.779864 Z-0.125000
G01 X107.702466 Y206.218366 Z-0.125000
G01 X109.615137 Y205.442662 Z-0.125000
G01 X111.421524 Y204.962682 Z-0.125000
G01 X113.334168 Y204.172267 Z-0.125000
G01 X114.715530 Y204.444814 Z-0.125000
G01 X116.203148 Y204.903283 Z-0.125000
G01 X121.091028 Y206.893212 Z-0.125000
G01 X123.003672 Y207.581154 Z-0.125000
G01 X124.810059 Y208.079602 Z-0.125000
G01 X126.722703 Y208.429354 Z-0.125000
G01 X128.422834 Y208.599349 Z-0.125000
G01 X130.229222 Y208.666315 Z-0.125000
G01 X138.411107 Y208.518413 Z-0.125000
G01 X145.636657 Y208.669358 Z-0.125000
G01 X148.611893 Y208.499601 Z-0.125000
G01 X149.886998 Y208.278912 Z-0.125000
G01 X151.055846 Y207.969535 Z-0.125000
G01 X152.224668 Y207.547340 Z-0.125000
G01 X153.408703 Y207.006797 Z-0.125000
G01 X157.871531 Y204.582767 Z-0.125000
G01 X159.131475 Y204.162080 Z-0.125000
G01 X160.194040 Y204.059210 Z-0.125000
G01 X160.831606 Y204.133532 Z-0.125000
G01 X161.469145 Y204.319031 Z-0.125000
G01 X162.698715 Y204.990066 Z-0.125000
G01 X163.859944 Y205.949497 Z-0.125000
G01 X166.250768 Y208.279389 Z-0.125000
G01 X167.525873 Y209.184606 Z-0.125000
G00 Z3.000000

(End cutting path id: polyline602)


(Start cutting path id: polyline600)
(Change tool to Default tool)

G00 Z3.000000
G00 X10.688717 Y203.594259

G00 Z4.875000 (Fast pre-penetrate)
G01 Z-0.125000 F400.0(Penetrate)
G01 X11.751283 Y203.488214 Z-0.125000 F800.000000
G01 X12.282592 Y203.580527 Z-0.125000
G01 X12.874596 Y203.793013 Z-0.125000
G01 X13.967536 Y204.440924 Z-0.125000
G01 X16.187572 Y206.201751 Z-0.125000
G01 X17.064215 Y206.789760 Z-0.125000
G01 X18.126780 Y207.243282 Z-0.125000
G01 X19.083116 Y207.340833 Z-0.125000
G01 X20.039425 Y207.126680 Z-0.125000
G01 X21.071669 Y206.584285 Z-0.125000
G01 X24.259418 Y203.984704 Z-0.125000
G01 X25.443426 Y203.212121 Z-0.125000
G01 X26.627435 Y202.790217 Z-0.125000
G01 X27.265001 Y202.734285 Z-0.125000
G01 X27.796284 Y202.781592 Z-0.125000
G01 X28.722245 Y203.056679 Z-0.125000
G01 X29.815184 Y203.653287 Z-0.125000
G01 X33.401422 Y206.492501 Z-0.125000
G01 X34.824508 Y207.421663 Z-0.125000
G01 X36.296939 Y208.005969 Z-0.125000
G01 X37.678300 Y208.153526 Z-0.125000
G01 X39.059661 Y207.932388 Z-0.125000
G01 X40.547279 Y207.360730 Z-0.125000
G01 X42.019710 Y206.568172 Z-0.125000
G01 X45.662859 Y204.368958 Z-0.125000
G01 X47.879086 Y203.272896 Z-0.125000
G01 X49.897986 Y202.564634 Z-0.125000
G01 X51.916914 Y202.129316 Z-0.125000
G01 X53.617045 Y201.937969 Z-0.125000
G01 X55.635945 Y201.860420 Z-0.125000
G01 X64.986679 Y202.068594 Z-0.125000
G01 X69.449506 Y201.996812 Z-0.125000
G01 X73.062281 Y202.072615 Z-0.125000
G01 X77.312622 Y201.905584 Z-0.125000
G01 X80.819140 Y202.249833 Z-0.125000
G01 X84.006889 Y202.937934 Z-0.125000
G01 X87.300895 Y204.049500 Z-0.125000
G01 X93.038853 Y206.515493 Z-0.125000
G01 X95.270267 Y207.358825 Z-0.125000
G01 X97.607937 Y207.962656 Z-0.125000
G01 X98.776785 Y208.116167 Z-0.125000
G01 X99.839377 Y208.155643 Z-0.125000
G01 X101.114456 Y208.069680 Z-0.125000
G01 X102.389560 Y207.836979 Z-0.125000
G01 X103.664665 Y207.464923 Z-0.125000
G01 X105.471053 Y206.779864 Z-0.125000
G01 X107.383697 Y206.322665 Z-0.125000
G01 X109.508880 Y205.477508 Z-0.125000
G01 X111.740294 Y204.851081 Z-0.125000
G01 X113.440425 Y204.130595 Z-0.125000
G01 X115.246812 Y203.572510 Z-0.125000
G01 X117.159457 Y202.790561 Z-0.125000
G01 X118.434561 Y202.990163 Z-0.125000
G01 X119.922179 Y203.373491 Z-0.125000
G01 X126.191421 Y205.624880 Z-0.125000
G01 X129.485426 Y206.504275 Z-0.125000
G01 X131.504327 Y206.843867 Z-0.125000
G01 X133.629484 Y207.063048 Z-0.125000
G01 X136.073437 Y207.189704 Z-0.125000
G01 X139.048646 Y207.231825 Z-0.125000
G01 X144.042783 Y207.061328 Z-0.125000
G01 X145.955453 Y206.846910 Z-0.125000
G01 X147.761841 Y206.508640 Z-0.125000
G01 X149.249459 Y206.104331 Z-0.125000
G01 X150.843333 Y205.533705 Z-0.125000
G01 X156.156239 Y203.162327 Z-0.125000
G01 X157.325061 Y202.838901 Z-0.125000
G01 X158.493909 Y202.735528 Z-0.125000
G01 X159.769014 Y202.945025 Z-0.125000
G01 X161.059280 Y203.535945 Z-0.125000
G01 X162.425480 Y204.539852 Z-0.125000
G01 X164.736586 Y206.655960 Z-0.125000
G01 X165.613203 Y207.363005 Z-0.125000
G01 X166.569538 Y207.919053 Z-0.125000
G01 X167.525873 Y208.153368 Z-0.125000
G00 Z3.000000

(End cutting path id: polyline600)


(Start cutting path id: polyline598)
(Change tool to Default tool)

G00 Z3.000000
G00 X10.688717 Y202.329367

G00 Z4.875000 (Fast pre-penetrate)
G01 Z-0.125000 F400.0(Penetrate)
G01 X11.326257 Y202.179824 Z-0.125000 F800.000000
G01 X11.857539 Y202.159557 Z-0.125000
G01 X12.388848 Y202.237292 Z-0.125000
G01 X13.026388 Y202.454964 Z-0.125000
G01 X14.149701 Y203.117507 Z-0.125000
G01 X16.346957 Y204.867855 Z-0.125000
G01 X17.246354 Y205.473671 Z-0.125000
G01 X18.233037 Y205.904968 Z-0.125000
G01 X19.189372 Y206.020485 Z-0.125000
G01 X20.145681 Y205.819719 Z-0.125000
G01 X21.162738 Y205.293120 Z-0.125000
G01 X22.164608 Y204.540513 Z-0.125000
G01 X24.396022 Y202.638056 Z-0.125000
G01 X25.534496 Y201.889339 Z-0.125000
G01 X26.733692 Y201.461535 Z-0.125000
G01 X27.265001 Y201.411422 Z-0.125000
G01 X27.902540 Y201.467620 Z-0.125000
G01 X28.813341 Y201.756889 Z-0.125000
G01 X29.906280 Y202.380458 Z-0.125000
G01 X33.321703 Y205.164612 Z-0.125000
G01 X34.642342 Y206.063003 Z-0.125000
G01 X35.978169 Y206.642996 Z-0.125000
G01 X36.615708 Y206.783331 Z-0.125000
G01 X37.359530 Y206.832649 Z-0.125000
G01 X38.740892 Y206.615373 Z-0.125000
G01 X40.198136 Y206.021517 Z-0.125000
G01 X41.564310 Y205.231340 Z-0.125000
G01 X45.207459 Y202.843108 Z-0.125000
G01 X47.241547 Y201.761122 Z-0.125000
G01 X49.154191 Y201.058919 Z-0.125000
G01 X51.066835 Y200.667177 Z-0.125000
G01 X52.873222 Y200.538748 Z-0.125000
G01 X54.892149 Y200.596719 Z-0.125000
G01 X62.542726 Y201.405152 Z-0.125000
G01 X66.049244 Y201.613828 Z-0.125000
G01 X69.555763 Y201.977604 Z-0.125000
G01 X72.424742 Y202.076399 Z-0.125000
G01 X75.399978 Y201.981096 Z-0.125000
G01 X80.181601 Y201.562817 Z-0.125000
G01 X82.413015 Y201.277120 Z-0.125000
G01 X85.175737 Y200.737027 Z-0.125000
G01 X85.600764 Y200.717977 Z-0.125000
G01 X88.150973 Y201.154142 Z-0.125000
G01 X90.913670 Y201.994590 Z-0.125000
G01 X93.357623 Y203.006990 Z-0.125000
G01 X98.351759 Y205.367520 Z-0.125000
G01 X100.476916 Y206.189924 Z-0.125000
G01 X102.495817 Y206.691573 Z-0.125000
G01 X104.302204 Y206.832675 Z-0.125000
G01 X105.896079 Y206.686281 Z-0.125000
G01 X107.489953 Y206.288825 Z-0.125000
G01 X109.508880 Y205.477508 Z-0.125000
G01 X111.740294 Y204.851081 Z-0.125000
G01 X113.440425 Y204.130595 Z-0.125000
G01 X115.246812 Y203.572510 Z-0.125000
G01 X117.265713 Y202.709361 Z-0.125000
G01 X118.965844 Y202.145852 Z-0.125000
G01 X120.347205 Y201.566653 Z-0.125000
G01 X120.878488 Y201.446982 Z-0.125000
G01 X122.153593 Y201.569617 Z-0.125000
G01 X123.747467 Y201.892408 Z-0.125000
G01 X129.804196 Y203.676756 Z-0.125000
G01 X132.779431 Y204.374514 Z-0.125000
G01 X136.073437 Y204.837058 Z-0.125000
G01 X139.473699 Y204.990595 Z-0.125000
G01 X142.873961 Y204.827004 Z-0.125000
G01 X145.955453 Y204.355834 Z-0.125000
G01 X148.718149 Y203.624209 Z-0.125000
G01 X154.031056 Y201.788930 Z-0.125000
G01 X155.412417 Y201.489316 Z-0.125000
G01 X156.581265 Y201.412428 Z-0.125000
G01 X157.431344 Y201.489554 Z-0.125000
G01 X158.175140 Y201.662009 Z-0.125000
G01 X159.693105 Y202.336008 Z-0.125000
G01 X161.150376 Y203.353144 Z-0.125000
G01 X163.973794 Y205.721136 Z-0.125000
G01 X165.188177 Y206.484484 Z-0.125000
G01 X165.825742 Y206.726974 Z-0.125000
G01 X166.357025 Y206.823679 Z-0.125000
G01 X166.888308 Y206.814287 Z-0.125000
G01 X167.525873 Y206.654505 Z-0.125000
G00 Z3.000000

(End cutting path id: polyline598)


(Start cutting path id: polyline596)
(Change tool to Default tool)

G00 Z3.000000
G00 X10.688717 Y201.059448

G00 Z4.875000 (Fast pre-penetrate)
G01 Z-0.125000 F400.0(Penetrate)
G01 X11.326257 Y200.879902 Z-0.125000 F800.000000
G01 X11.963822 Y200.834579 Z-0.125000
G01 X12.601361 Y200.929855 Z-0.125000
G01 X13.132644 Y201.113714 Z-0.125000
G01 X14.240771 Y201.755539 Z-0.125000
G01 X16.426649 Y203.498533 Z-0.125000
G01 X17.428519 Y204.177744 Z-0.125000
G01 X18.339294 Y204.574803 Z-0.125000
G01 X19.295629 Y204.698284 Z-0.125000
G01 X20.251964 Y204.501673 Z-0.125000
G01 X21.253808 Y203.982905 Z-0.125000
G01 X22.244301 Y203.237151 Z-0.125000
G01 X24.475714 Y201.315829 Z-0.125000
G01 X25.625592 Y200.554121 Z-0.125000
G01 X26.733692 Y200.148568 Z-0.125000
G01 X27.265001 Y200.089354 Z-0.125000
G01 X27.902540 Y200.138117 Z-0.125000
G01 X28.813341 Y200.424290 Z-0.125000
G01 X29.906280 Y201.055770 Z-0.125000
G01 X33.242010 Y203.835717 Z-0.125000
G01 X34.551273 Y204.750328 Z-0.125000
G01 X35.871912 Y205.333178 Z-0.125000
G01 X37.147017 Y205.509919 Z-0.125000
G01 X38.422122 Y205.310979 Z-0.125000
G01 X39.924901 Y204.670371 Z-0.125000
G01 X41.291075 Y203.823837 Z-0.125000
G01 X44.752059 Y201.392796 Z-0.125000
G01 X46.664703 Y200.310651 Z-0.125000
G01 X48.410395 Y199.640621 Z-0.125000
G01 X50.216783 Y199.282217 Z-0.125000
G01 X51.810657 Y199.216230 Z-0.125000
G01 X53.510788 Y199.346643 Z-0.125000
G01 X55.423432 Y199.659354 Z-0.125000
G01 X60.523825 Y200.750944 Z-0.125000
G01 X63.286548 Y201.231506 Z-0.125000
G01 X68.599454 Y201.900266 Z-0.125000
G01 X72.318485 Y202.076134 Z-0.125000
G01 X75.825004 Y201.951278 Z-0.125000
G01 X81.775476 Y201.370677 Z-0.125000
G01 X87.832177 Y200.267419 Z-0.125000
G01 X90.913670 Y199.469013 Z-0.125000
G01 X91.444979 Y199.424192 Z-0.125000
G01 X93.676392 Y199.880413 Z-0.125000
G01 X96.014063 Y200.694508 Z-0.125000
G01 X98.124059 Y201.661136 Z-0.125000
G01 X102.586913 Y203.959701 Z-0.125000
G01 X104.621000 Y204.822083 Z-0.125000
G01 X106.533645 Y205.348285 Z-0.125000
G01 X108.340032 Y205.509945 Z-0.125000
G01 X109.933906 Y205.353471 Z-0.125000
G01 X111.527781 Y204.926540 Z-0.125000
G01 X113.440425 Y204.130595 Z-0.125000
G01 X115.459326 Y203.494696 Z-0.125000
G01 X117.265713 Y202.709361 Z-0.125000
G01 X119.390897 Y201.980461 Z-0.125000
G01 X120.984745 Y201.266537 Z-0.125000
G01 X124.278750 Y200.075516 Z-0.125000
G01 X125.872625 Y200.162009 Z-0.125000
G01 X127.466499 Y200.374680 Z-0.125000
G01 X132.991945 Y201.506540 Z-0.125000
G01 X135.435871 Y201.916511 Z-0.125000
G01 X137.773568 Y202.161065 Z-0.125000
G01 X140.004982 Y202.239117 Z-0.125000
G01 X142.236395 Y202.156329 Z-0.125000
G01 X144.574092 Y201.893625 Z-0.125000
G01 X146.911762 Y201.462275 Z-0.125000
G01 X151.905898 Y200.320441 Z-0.125000
G01 X153.287260 Y200.129571 Z-0.125000
G01 X154.456108 Y200.092026 Z-0.125000
G01 X155.412417 Y200.174550 Z-0.125000
G01 X156.262496 Y200.349598 Z-0.125000
G01 X157.112548 Y200.629342 Z-0.125000
G01 X158.053696 Y201.064554 Z-0.125000
G01 X159.602036 Y202.043220 Z-0.125000
G01 X162.880854 Y204.540196 Z-0.125000
G01 X163.609489 Y204.979827 Z-0.125000
G01 X164.338124 Y205.304391 Z-0.125000
G01 X165.188177 Y205.496928 Z-0.125000
G01 X165.931999 Y205.472692 Z-0.125000
G01 X166.675795 Y205.252824 Z-0.125000
G01 X167.525873 Y204.762393 Z-0.125000
G00 Z3.000000

(End cutting path id: polyline596)


(Start cutting path id: polyline594)
(Change tool to Default tool)

G00 Z3.000000
G00 X10.688717 Y199.779051

G00 Z4.875000 (Fast pre-penetrate)
G01 Z-0.125000 F400.0(Penetrate)
G01 X11.326257 Y199.578577 Z-0.125000 F800.000000
G01 X11.963822 Y199.509468 Z-0.125000
G01 X12.601361 Y199.580270 Z-0.125000
G01 X13.238901 Y199.788126 Z-0.125000
G01 X14.422936 Y200.483345 Z-0.125000
G01 X16.608815 Y202.231894 Z-0.125000
G01 X17.519589 Y202.847341 Z-0.125000
G01 X18.445550 Y203.253105 Z-0.125000
G01 X19.401885 Y203.374999 Z-0.125000
G01 X20.358221 Y203.173360 Z-0.125000
G01 X21.344904 Y202.655730 Z-0.125000
G01 X22.323993 Y201.912754 Z-0.125000
G01 X24.475714 Y200.039639 Z-0.125000
G01 X25.625592 Y199.256923 Z-0.125000
G01 X26.733692 Y198.832929 Z-0.125000
G01 X27.265001 Y198.767339 Z-0.125000
G01 X27.902540 Y198.811445 Z-0.125000
G01 X28.813341 Y199.097432 Z-0.125000
G01 X29.906280 Y199.738305 Z-0.125000
G01 X33.242010 Y202.569952 Z-0.125000
G01 X34.460203 Y203.433551 Z-0.125000
G01 X35.659399 Y203.986926 Z-0.125000
G01 X36.828248 Y204.186422 Z-0.125000
G01 X37.465787 Y204.150280 Z-0.125000
G01 X38.209583 Y203.986080 Z-0.125000
G01 X39.651666 Y203.344598 Z-0.125000
G01 X40.926771 Y202.518094 Z-0.125000
G01 X44.387754 Y199.950289 Z-0.125000
G01 X46.391468 Y198.786653 Z-0.125000
G01 X47.347803 Y198.394012 Z-0.125000
G01 X48.304139 Y198.115909 Z-0.125000
G01 X49.260447 Y197.950545 Z-0.125000
G01 X50.216783 Y197.890669 Z-0.125000
G01 X51.810657 Y197.994307 Z-0.125000
G01 X53.617045 Y198.347393 Z-0.125000
G01 X60.523825 Y200.453606 Z-0.125000
G01 X64.030343 Y201.286645 Z-0.125000
G01 X68.493197 Y201.890212 Z-0.125000
G01 X72.318485 Y202.076134 Z-0.125000
G01 X76.143773 Y201.926222 Z-0.125000
G01 X80.394114 Y201.540433 Z-0.125000
G01 X82.944297 Y201.191342 Z-0.125000
G01 X88.894769 Y200.035750 Z-0.125000
G01 X93.570136 Y198.791495 Z-0.125000
G01 X95.482780 Y198.150225 Z-0.125000
G01 X96.226576 Y198.048282 Z-0.125000
G01 X98.351759 Y198.555037 Z-0.125000
G01 X100.370660 Y199.323624 Z-0.125000
G01 X102.313678 Y200.285648 Z-0.125000
G01 X106.321131 Y202.510897 Z-0.125000
G01 X108.233776 Y203.401113 Z-0.125000
G01 X109.933906 Y203.945016 Z-0.125000
G01 X111.634037 Y204.180866 Z-0.125000
G01 X113.227912 Y204.092654 Z-0.125000
G01 X114.928043 Y203.681809 Z-0.125000
G01 X117.265713 Y202.709361 Z-0.125000
G01 X119.284614 Y202.023112 Z-0.125000
G01 X121.091028 Y201.225394 Z-0.125000
G01 X123.003672 Y200.559465 Z-0.125000
G01 X125.022572 Y199.704518 Z-0.125000
G01 X127.360242 Y198.879919 Z-0.125000
G01 X128.316578 Y198.772075 Z-0.125000
G01 X130.760504 Y198.832955 Z-0.125000
G01 X137.029746 Y199.444989 Z-0.125000
G01 X140.430008 Y199.587440 Z-0.125000
G01 X143.936526 Y199.443242 Z-0.125000
G01 X150.099511 Y198.807952 Z-0.125000
G01 X151.480872 Y198.765857 Z-0.125000
G01 X152.649721 Y198.823748 Z-0.125000
G01 X154.562365 Y199.178077 Z-0.125000
G01 X156.323217 Y199.853082 Z-0.125000
G01 X158.053696 Y200.842807 Z-0.125000
G01 X161.605749 Y203.278161 Z-0.125000
G01 X162.531737 Y203.765523 Z-0.125000
G01 X163.381789 Y204.066857 Z-0.125000
G01 X164.444381 Y204.184305 Z-0.125000
G01 X165.400690 Y204.002590 Z-0.125000
G01 X166.432934 Y203.484907 Z-0.125000
G01 X167.525873 Y202.603210 Z-0.125000
G00 Z3.000000

(End cutting path id: polyline594)


(Start cutting path id: polyline592)
(Change tool to Default tool)

G00 Z3.000000
G00 X10.688717 Y198.484605

G00 Z4.875000 (Fast pre-penetrate)
G01 Z-0.125000 F400.0(Penetrate)
G01 X11.326257 Y198.271669 Z-0.125000 F800.000000
G01 X11.963822 Y198.187426 Z-0.125000
G01 X12.601361 Y198.241824 Z-0.125000
G01 X13.238901 Y198.433541 Z-0.125000
G01 X14.514005 Y199.169399 Z-0.125000
G01 X16.699884 Y200.919669 Z-0.125000
G01 X17.610685 Y201.533184 Z-0.125000
G01 X18.551833 Y201.939557 Z-0.125000
G01 X19.508142 Y202.050417 Z-0.125000
G01 X20.464477 Y201.835046 Z-0.125000
G01 X21.435973 Y201.313156 Z-0.125000
G01 X22.323993 Y200.636829 Z-0.125000
G01 X24.555407 Y198.685239 Z-0.125000
G01 X25.716661 Y197.901253 Z-0.125000
G01 X26.839975 Y197.493133 Z-0.125000
G01 X27.902540 Y197.487048 Z-0.125000
G01 X28.813341 Y197.775417 Z-0.125000
G01 X29.894877 Y198.418645 Z-0.125000
G01 X33.162318 Y201.238465 Z-0.125000
G01 X34.369108 Y202.112329 Z-0.125000
G01 X35.553143 Y202.668880 Z-0.125000
G01 X36.721991 Y202.864195 Z-0.125000
G01 X37.359530 Y202.818157 Z-0.125000
G01 X37.997070 Y202.669779 Z-0.125000
G01 X39.469500 Y201.988769 Z-0.125000
G01 X40.733228 Y201.126625 Z-0.125000
G01 X44.023450 Y198.567129 Z-0.125000
G01 X45.844998 Y197.451197 Z-0.125000
G01 X47.560316 Y196.800799 Z-0.125000
G01 X49.260447 Y196.568972 Z-0.125000
G01 X50.960578 Y196.704491 Z-0.125000
G01 X52.766966 Y197.156134 Z-0.125000
G01 X54.467097 Y197.766501 Z-0.125000
G01 X59.780003 Y199.909358 Z-0.125000
G01 X63.286548 Y200.997879 Z-0.125000
G01 X65.092935 Y201.401686 Z-0.125000
G01 X67.005579 Y201.717519 Z-0.125000
G01 X69.024480 Y201.937519 Z-0.125000
G01 X71.043380 Y202.052930 Z-0.125000
G01 X73.487334 Y202.065048 Z-0.125000
G01 X76.037517 Y201.934821 Z-0.125000
G01 X80.712884 Y201.505085 Z-0.125000
G01 X83.688120 Y201.058733 Z-0.125000
G01 X88.682256 Y200.085306 Z-0.125000
G01 X93.251366 Y198.881004 Z-0.125000
G01 X97.714194 Y197.399127 Z-0.125000
G01 X99.308068 Y196.765795 Z-0.125000
G01 X99.945634 Y196.650939 Z-0.125000
G01 X101.964534 Y197.072076 Z-0.125000
G01 X104.044157 Y197.867492 Z-0.125000
G01 X105.865731 Y198.809063 Z-0.125000
G01 X109.964254 Y201.211371 Z-0.125000
G01 X111.740294 Y202.072562 Z-0.125000
G01 X113.334168 Y202.605988 Z-0.125000
G01 X114.928043 Y202.851283 Z-0.125000
G01 X116.521917 Y202.787439 Z-0.125000
G01 X118.115792 Y202.434247 Z-0.125000
G01 X119.390897 Y201.980461 Z-0.125000
G01 X121.091028 Y201.225394 Z-0.125000
G01 X123.003672 Y200.559465 Z-0.125000
G01 X124.916316 Y199.743491 Z-0.125000
G01 X129.379169 Y198.097891 Z-0.125000
G01 X130.973044 Y197.644713 Z-0.125000
G01 X132.779431 Y197.487180 Z-0.125000
G01 X135.117102 Y197.443101 Z-0.125000
G01 X141.280086 Y197.521285 Z-0.125000
G01 X147.655584 Y197.446831 Z-0.125000
G01 X149.568228 Y197.531551 Z-0.125000
G01 X151.268359 Y197.747689 Z-0.125000
G01 X152.968490 Y198.155993 Z-0.125000
G01 X154.668621 Y198.797633 Z-0.125000
G01 X156.414287 Y199.698750 Z-0.125000
G01 X160.421740 Y202.109525 Z-0.125000
G01 X161.681658 Y202.635860 Z-0.125000
G01 X162.744250 Y202.850569 Z-0.125000
G01 X163.913072 Y202.773178 Z-0.125000
G01 X165.066733 Y202.335055 Z-0.125000
G01 X166.250768 Y201.520510 Z-0.125000
G01 X167.525873 Y200.319092 Z-0.125000
G00 Z3.000000

(End cutting path id: polyline592)


(Start cutting path id: polyline590)
(Change tool to Default tool)

G00 Z3.000000
G00 X10.688717 Y197.174126

G00 Z4.875000 (Fast pre-penetrate)
G01 Z-0.125000 F400.0(Penetrate)
G01 X11.326257 Y196.956665 Z-0.125000 F800.000000
G01 X11.963822 Y196.865622 Z-0.125000
G01 X12.601361 Y196.911554 Z-0.125000
G01 X13.238901 Y197.094089 Z-0.125000
G01 X14.514005 Y197.813702 Z-0.125000
G01 X16.699884 Y199.559527 Z-0.125000
G01 X17.610685 Y200.182170 Z-0.125000
G01 X18.658090 Y200.632728 Z-0.125000
G01 X19.614398 Y200.723613 Z-0.125000
G01 X20.570734 Y200.486837 Z-0.125000
G01 X21.527042 Y199.956242 Z-0.125000
G01 X22.403685 Y199.277217 Z-0.125000
G01 X24.555407 Y197.381638 Z-0.125000
G01 X25.716661 Y196.586963 Z-0.125000
G01 X26.839975 Y196.171594 Z-0.125000
G01 X27.902540 Y196.164477 Z-0.125000
G01 X28.813341 Y196.457370 Z-0.125000
G01 X29.894877 Y197.111790 Z-0.125000
G01 X33.082626 Y199.903749 Z-0.125000
G01 X34.369108 Y200.841669 Z-0.125000
G01 X35.659399 Y201.410047 Z-0.125000
G01 X36.828248 Y201.536226 Z-0.125000
G01 X37.465787 Y201.446797 Z-0.125000
G01 X38.103326 Y201.252858 Z-0.125000
G01 X39.378431 Y200.595210 Z-0.125000
G01 X40.653536 Y199.675626 Z-0.125000
G01 X43.750189 Y197.171242 Z-0.125000
G01 X45.571763 Y196.031207 Z-0.125000
G01 X46.497725 Y195.634861 Z-0.125000
G01 X47.347803 Y195.392212 Z-0.125000
G01 X48.304139 Y195.258201 Z-0.125000
G01 X49.260447 Y195.264154 Z-0.125000
G01 X50.641809 Y195.491034 Z-0.125000
G01 X52.235683 Y196.005860 Z-0.125000
G01 X59.248720 Y199.294362 Z-0.125000
G01 X61.267621 Y200.071310 Z-0.125000
G01 X63.180291 Y200.656805 Z-0.125000
G01 X65.517961 Y201.182294 Z-0.125000
G01 X67.961888 Y201.542126 Z-0.125000
G01 X70.724611 Y201.769694 Z-0.125000
G01 X73.699847 Y201.856372 Z-0.125000
G01 X77.418878 Y201.773293 Z-0.125000
G01 X80.819140 Y201.492782 Z-0.125000
G01 X83.369350 Y201.117391 Z-0.125000
G01 X88.575999 Y200.109462 Z-0.125000
G01 X94.420188 Y198.528553 Z-0.125000
G01 X98.351759 Y197.163701 Z-0.125000
G01 X102.404747 Y195.415151 Z-0.125000
G01 X103.133383 Y195.266509 Z-0.125000
G01 X104.833514 Y195.526514 Z-0.125000
G01 X106.639901 Y196.119868 Z-0.125000
G01 X108.689149 Y197.132560 Z-0.125000
G01 X112.696603 Y199.579291 Z-0.125000
G01 X114.518177 Y200.549358 Z-0.125000
G01 X116.415661 Y201.248863 Z-0.125000
G01 X118.222048 Y201.532284 Z-0.125000
G01 X119.709666 Y201.471906 Z-0.125000
G01 X121.303541 Y201.142606 Z-0.125000
G01 X122.684876 Y200.682682 Z-0.125000
G01 X124.916316 Y199.743491 Z-0.125000
G01 X129.272886 Y198.134694 Z-0.125000
G01 X132.354379 Y197.167749 Z-0.125000
G01 X134.267049 Y196.645304 Z-0.125000
G01 X136.710976 Y196.385298 Z-0.125000
G01 X140.323751 Y196.246313 Z-0.125000
G01 X144.361579 Y196.286212 Z-0.125000
G01 X147.230532 Y196.477981 Z-0.125000
G01 X149.674485 Y196.853848 Z-0.125000
G01 X151.587129 Y197.355550 Z-0.125000
G01 X153.393516 Y198.030740 Z-0.125000
G01 X155.048113 Y198.812397 Z-0.125000
G01 X158.235861 Y200.501389 Z-0.125000
G01 X159.450245 Y201.044896 Z-0.125000
G01 X160.512810 Y201.383430 Z-0.125000
G01 X161.575402 Y201.537338 Z-0.125000
G01 X162.319197 Y201.509927 Z-0.125000
G01 X162.956763 Y201.387319 Z-0.125000
G01 X163.594302 Y201.168879 Z-0.125000
G01 X164.338124 Y200.792907 Z-0.125000
G01 X165.692922 Y199.801065 Z-0.125000
G01 X167.525873 Y198.038307 Z-0.125000
G00 Z3.000000

(End cutting path id: polyline590)


(Start cutting path id: polyline588)
(Change tool to Default tool)

G00 Z3.000000
G00 X10.688717 Y195.847030

G00 Z4.875000 (Fast pre-penetrate)
G01 Z-0.125000 F400.0(Penetrate)
G01 X11.432513 Y195.608853 Z-0.125000 F800.000000
G01 X12.070079 Y195.540855 Z-0.125000
G01 X12.707618 Y195.608694 Z-0.125000
G01 X13.329997 Y195.804194 Z-0.125000
G01 X14.605075 Y196.545291 Z-0.125000
G01 X16.745419 Y198.255080 Z-0.125000
G01 X17.610685 Y198.845682 Z-0.125000
G01 X18.658090 Y199.303357 Z-0.125000
G01 X19.614398 Y199.402444 Z-0.125000
G01 X20.570734 Y199.173341 Z-0.125000
G01 X21.527042 Y198.647932 Z-0.125000
G01 X22.403685 Y197.970468 Z-0.125000
G01 X24.555407 Y196.067216 Z-0.125000
G01 X25.716661 Y195.266429 Z-0.125000
G01 X26.839975 Y194.848203 Z-0.125000
G01 X27.902540 Y194.843308 Z-0.125000
G01 X28.813341 Y195.142419 Z-0.125000
G01 X29.894877 Y195.808295 Z-0.125000
G01 X33.002933 Y198.564906 Z-0.125000
G01 X34.278038 Y199.511082 Z-0.125000
G01 X35.553143 Y200.085041 Z-0.125000
G01 X36.721991 Y200.212491 Z-0.125000
G01 X37.890813 Y199.955607 Z-0.125000
G01 X39.196266 Y199.277428 Z-0.125000
G01 X40.334766 Y198.442960 Z-0.125000
G01 X43.476954 Y195.823165 Z-0.125000
G01 X45.207459 Y194.699904 Z-0.125000
G01 X46.072698 Y194.312528 Z-0.125000
G01 X46.922777 Y194.060010 Z-0.125000
G01 X47.772829 Y193.936133 Z-0.125000
G01 X48.729165 Y193.945075 Z-0.125000
G01 X50.004269 Y194.176665 Z-0.125000
G01 X51.491861 Y194.704296 Z-0.125000
G01 X53.040201 Y195.455633 Z-0.125000
G01 X56.774419 Y197.540335 Z-0.125000
G01 X58.595994 Y198.466270 Z-0.125000
G01 X60.630082 Y199.324868 Z-0.125000
G01 X62.755239 Y200.001671 Z-0.125000
G01 X65.199192 Y200.524646 Z-0.125000
G01 X67.855632 Y200.851962 Z-0.125000
G01 X71.149637 Y201.035688 Z-0.125000
G01 X75.506234 Y201.095140 Z-0.125000
G01 X79.969088 Y201.038466 Z-0.125000
G01 X83.369350 Y200.863815 Z-0.125000
G01 X86.238303 Y200.543961 Z-0.125000
G01 X88.894769 Y200.035750 Z-0.125000
G01 X93.782649 Y198.729054 Z-0.125000
G01 X97.926733 Y197.323351 Z-0.125000
G01 X101.949347 Y195.642031 Z-0.125000
G01 X104.954931 Y194.117689 Z-0.125000
G01 X105.789822 Y193.915204 Z-0.125000
G01 X107.702466 Y194.105254 Z-0.125000
G01 X109.508880 Y194.657333 Z-0.125000
G01 X111.512594 Y195.641052 Z-0.125000
G01 X115.702213 Y198.249867 Z-0.125000
G01 X117.523787 Y199.225041 Z-0.125000
G01 X119.497153 Y199.939680 Z-0.125000
G01 X120.453462 Y200.129809 Z-0.125000
G01 X121.409797 Y200.213735 Z-0.125000
G01 X123.003672 Y200.129888 Z-0.125000
G01 X124.810059 Y199.748783 Z-0.125000
G01 X126.510190 Y199.196889 Z-0.125000
G01 X129.485426 Y198.062754 Z-0.125000
G01 X133.523227 Y196.817944 Z-0.125000
G01 X135.967180 Y196.188554 Z-0.125000
G01 X137.029746 Y195.980592 Z-0.125000
G01 X138.623620 Y195.796310 Z-0.125000
G01 X141.917626 Y195.645180 Z-0.125000
G01 X145.636657 Y195.828695 Z-0.125000
G01 X147.336788 Y196.058882 Z-0.125000
G01 X149.036919 Y196.403316 Z-0.125000
G01 X150.524537 Y196.810245 Z-0.125000
G01 X152.118411 Y197.358408 Z-0.125000
G01 X156.581265 Y199.267877 Z-0.125000
G01 X157.962627 Y199.785242 Z-0.125000
G01 X159.556501 Y200.161506 Z-0.125000
G01 X160.937862 Y200.192012 Z-0.125000
G01 X162.319197 Y199.870147 Z-0.125000
G01 X163.791655 Y199.107778 Z-0.125000
G01 X165.214741 Y198.006689 Z-0.125000
G01 X167.525873 Y195.856873 Z-0.125000
G00 Z3.000000

(End cutting path id: polyline588)


(Start cutting path id: polyline586)
(Change tool to Default tool)

G00 Z3.000000
G00 X10.688717 Y194.503928

G00 Z4.875000 (Fast pre-penetrate)
G01 Z-0.125000 F400.0(Penetrate)
G01 X11.432513 Y194.277630 Z-0.125000 F800.000000
G01 X12.070079 Y194.218125 Z-0.125000
G01 X12.707618 Y194.292208 Z-0.125000
G01 X13.329997 Y194.491466 Z-0.125000
G01 X14.514005 Y195.169222 Z-0.125000
G01 X16.790980 Y196.970079 Z-0.125000
G01 X17.610685 Y197.523481 Z-0.125000
G01 X18.658090 Y197.979993 Z-0.125000
G01 X19.614398 Y198.079767 Z-0.125000
G01 X20.570734 Y197.852173 Z-0.125000
G01 X21.527042 Y197.328007 Z-0.125000
G01 X22.403685 Y196.650675 Z-0.125000
G01 X24.555407 Y194.743560 Z-0.125000
G01 X25.716661 Y193.940763 Z-0.125000
G01 X26.839975 Y193.523410 Z-0.125000
G01 X27.902540 Y193.523251 Z-0.125000
G01 X28.813341 Y193.829558 Z-0.125000
G01 X29.815184 Y194.447413 Z-0.125000
G01 X33.002933 Y197.288531 Z-0.125000
G01 X34.186969 Y198.174064 Z-0.125000
G01 X35.446886 Y198.755803 Z-0.125000
G01 X36.615708 Y198.889867 Z-0.125000
G01 X37.784557 Y198.627877 Z-0.125000
G01 X39.014127 Y197.980601 Z-0.125000
G01 X40.255074 Y197.048502 Z-0.125000
G01 X43.203719 Y194.520014 Z-0.125000
G01 X44.934224 Y193.360030 Z-0.125000
G01 X45.753929 Y192.982681 Z-0.125000
G01 X46.603981 Y192.725348 Z-0.125000
G01 X47.347803 Y192.614593 Z-0.125000
G01 X48.197856 Y192.615652 Z-0.125000
G01 X49.685473 Y192.914392 Z-0.125000
G01 X51.218626 Y193.542327 Z-0.125000
G01 X52.766966 Y194.393914 Z-0.125000
G01 X56.774419 Y196.843053 Z-0.125000
G01 X59.051394 Y198.004519 Z-0.125000
G01 X61.161364 Y198.806127 Z-0.125000
G01 X63.286548 Y199.344897 Z-0.125000
G01 X65.624218 Y199.676843 Z-0.125000
G01 X68.280684 Y199.821728 Z-0.125000
G01 X77.100109 Y199.766854 Z-0.125000
G01 X84.644428 Y199.836122 Z-0.125000
G01 X87.407151 Y199.765081 Z-0.125000
G01 X89.744848 Y199.563734 Z-0.125000
G01 X91.870005 Y199.213611 Z-0.125000
G01 X93.888905 Y198.697118 Z-0.125000
G01 X98.883042 Y196.949257 Z-0.125000
G01 X102.495817 Y195.381682 Z-0.125000
G01 X105.228192 Y193.983969 Z-0.125000
G01 X107.171184 Y192.867482 Z-0.125000
G01 X107.702466 Y192.683914 Z-0.125000
G01 X108.340032 Y192.620943 Z-0.125000
G01 X109.296341 Y192.606233 Z-0.125000
G01 X110.252676 Y192.705610 Z-0.125000
G01 X111.209011 Y192.919181 Z-0.125000
G01 X112.165320 Y193.241390 Z-0.125000
G01 X114.153873 Y194.207780 Z-0.125000
G01 X118.343492 Y196.828369 Z-0.125000
G01 X120.256136 Y197.854739 Z-0.125000
G01 X121.303541 Y198.285798 Z-0.125000
G01 X122.366106 Y198.608827 Z-0.125000
G01 X123.428698 Y198.810651 Z-0.125000
G01 X124.491290 Y198.893042 Z-0.125000
G01 X126.085164 Y198.812741 Z-0.125000
G01 X127.891552 Y198.484500 Z-0.125000
G01 X134.054510 Y196.667873 Z-0.125000
G01 X136.923489 Y195.991678 Z-0.125000
G01 X139.686212 Y195.595544 Z-0.125000
G01 X142.448908 Y195.462221 Z-0.125000
G01 X145.211631 Y195.595041 Z-0.125000
G01 X147.868097 Y195.987630 Z-0.125000
G01 X150.630794 Y196.677662 Z-0.125000
G01 X156.581265 Y198.588851 Z-0.125000
G01 X158.175140 Y198.862880 Z-0.125000
G01 X159.662758 Y198.853169 Z-0.125000
G01 X160.512810 Y198.700426 Z-0.125000
G01 X161.256632 Y198.468889 Z-0.125000
G01 X162.880854 Y197.639077 Z-0.125000
G01 X164.338124 Y196.560664 Z-0.125000
G01 X167.525873 Y193.831966 Z-0.125000
G00 Z3.000000

(End cutting path id: polyline586)


(Start cutting path id: polyline584)
(Change tool to Default tool)

G00 Z3.000000
G00 X10.688717 Y193.146617

G00 Z4.875000 (Fast pre-penetrate)
G01 Z-0.125000 F400.0(Penetrate)
G01 X11.326257 Y192.959901 Z-0.125000 F800.000000
G01 X11.963822 Y192.894893 Z-0.125000
G01 X12.601361 Y192.960350 Z-0.125000
G01 X13.238901 Y193.155084 Z-0.125000
G01 X14.514005 Y193.879009 Z-0.125000
G01 X16.699884 Y195.600598 Z-0.125000
G01 X17.610685 Y196.214880 Z-0.125000
G01 X18.658090 Y196.662316 Z-0.125000
G01 X19.614398 Y196.755741 Z-0.125000
G01 X20.570734 Y196.523992 Z-0.125000
G01 X21.527042 Y195.997552 Z-0.125000
G01 X22.403685 Y195.319214 Z-0.125000
G01 X24.555407 Y193.412099 Z-0.125000
G01 X25.716661 Y192.611074 Z-0.125000
G01 X26.733692 Y192.218804 Z-0.125000
G01 X27.796284 Y192.185572 Z-0.125000
G01 X28.722245 Y192.474179 Z-0.125000
G01 X29.815184 Y193.145029 Z-0.125000
G01 X32.923241 Y195.938179 Z-0.125000
G01 X34.186969 Y196.886709 Z-0.125000
G01 X35.340630 Y197.421749 Z-0.125000
G01 X35.978169 Y197.553009 Z-0.125000
G01 X36.509452 Y197.568354 Z-0.125000
G01 X37.678300 Y197.309063 Z-0.125000
G01 X38.923031 Y196.642817 Z-0.125000
G01 X40.095689 Y195.747177 Z-0.125000
G01 X43.044334 Y193.168921 Z-0.125000
G01 X44.660989 Y192.056217 Z-0.125000
G01 X45.435159 Y191.682176 Z-0.125000
G01 X46.178955 Y191.435056 Z-0.125000
G01 X46.922777 Y191.301680 Z-0.125000
G01 X47.772829 Y191.286784 Z-0.125000
G01 X49.260447 Y191.586583 Z-0.125000
G01 X50.854322 Y192.282224 Z-0.125000
G01 X52.311592 Y193.144447 Z-0.125000
G01 X56.227950 Y195.718575 Z-0.125000
G01 X58.413828 Y196.905680 Z-0.125000
G01 X60.523825 Y197.731787 Z-0.125000
G01 X62.648982 Y198.240422 Z-0.125000
G01 X64.561626 Y198.461057 Z-0.125000
G01 X66.793066 Y198.509450 Z-0.125000
G01 X74.974952 Y198.038783 Z-0.125000
G01 X78.906496 Y197.967742 Z-0.125000
G01 X82.200502 Y198.074634 Z-0.125000
G01 X88.363486 Y198.458861 Z-0.125000
G01 X90.807413 Y198.512519 Z-0.125000
G01 X92.720057 Y198.432297 Z-0.125000
G01 X94.526445 Y198.214387 Z-0.125000
G01 X96.226576 Y197.853443 Z-0.125000
G01 X97.820450 Y197.361583 Z-0.125000
G01 X102.677982 Y195.290692 Z-0.125000
G01 X105.683566 Y193.733197 Z-0.125000
G01 X108.871315 Y191.791555 Z-0.125000
G01 X109.827650 Y191.488211 Z-0.125000
G01 X110.996472 Y191.303611 Z-0.125000
G01 X111.952807 Y191.281704 Z-0.125000
G01 X112.802886 Y191.364597 Z-0.125000
G01 X114.609273 Y191.850927 Z-0.125000
G01 X116.612987 Y192.807077 Z-0.125000
G01 X120.893675 Y195.452960 Z-0.125000
G01 X123.003672 Y196.549789 Z-0.125000
G01 X124.172494 Y196.999951 Z-0.125000
G01 X125.235085 Y197.296125 Z-0.125000
G01 X126.403934 Y197.496044 Z-0.125000
G01 X127.572756 Y197.571476 Z-0.125000
G01 X129.060373 Y197.511125 Z-0.125000
G01 X130.654248 Y197.296919 Z-0.125000
G01 X136.179693 Y196.110820 Z-0.125000
G01 X138.623620 Y195.682222 Z-0.125000
G01 X140.748777 Y195.448965 Z-0.125000
G01 X142.873961 Y195.366204 Z-0.125000
G01 X145.211631 Y195.458120 Z-0.125000
G01 X147.655584 Y195.757522 Z-0.125000
G01 X149.886998 Y196.191835 Z-0.125000
G01 X154.031056 Y197.172115 Z-0.125000
G01 X155.624930 Y197.456780 Z-0.125000
G01 X157.112548 Y197.572217 Z-0.125000
G01 X158.493909 Y197.485090 Z-0.125000
G01 X160.194040 Y197.047655 Z-0.125000
G01 X161.878984 Y196.216547 Z-0.125000
G01 X163.142712 Y195.355514 Z-0.125000
G01 X166.171076 Y192.915239 Z-0.125000
G01 X167.525873 Y191.983775 Z-0.125000
G00 Z3.000000

(End cutting path id: polyline584)


(Start cutting path id: polyline582)
(Change tool to Default tool)

G00 Z3.000000
G00 X10.688717 Y191.778141

G00 Z4.875000 (Fast pre-penetrate)
G01 Z-0.125000 F400.0(Penetrate)
G01 X11.326257 Y191.615766 Z-0.125000 F800.000000
G01 X11.963822 Y191.573750 Z-0.125000
G01 X12.601361 Y191.659184 Z-0.125000
G01 X13.238901 Y191.869660 Z-0.125000
G01 X14.422936 Y192.546252 Z-0.125000
G01 X16.699884 Y194.318455 Z-0.125000
G01 X17.610685 Y194.918767 Z-0.125000
G01 X18.551833 Y195.321119 Z-0.125000
G01 X19.508142 Y195.437085 Z-0.125000
G01 X20.464477 Y195.231478 Z-0.125000
G01 X21.435973 Y194.718452 Z-0.125000
G01 X22.323993 Y194.044929 Z-0.125000
G01 X24.555407 Y192.074368 Z-0.125000
G01 X25.716661 Y191.278476 Z-0.125000
G01 X26.733692 Y190.891946 Z-0.125000
G01 X27.265001 Y190.828790 Z-0.125000
G01 X27.796284 Y190.865832 Z-0.125000
G01 X28.722245 Y191.161477 Z-0.125000
G01 X29.724115 Y191.773378 Z-0.125000
G01 X30.691827 Y192.573318 Z-0.125000
G01 X32.923241 Y194.648152 Z-0.125000
G01 X34.095873 Y195.535008 Z-0.125000
G01 X35.234373 Y196.082086 Z-0.125000
G01 X35.871912 Y196.224326 Z-0.125000
G01 X36.403195 Y196.247477 Z-0.125000
G01 X37.572043 Y195.999166 Z-0.125000
G01 X38.831961 Y195.323500 Z-0.125000
G01 X40.095689 Y194.338457 Z-0.125000
G01 X42.964642 Y191.791952 Z-0.125000
G01 X44.478824 Y190.735102 Z-0.125000
G01 X45.222646 Y190.366088 Z-0.125000
G01 X45.966442 Y190.111612 Z-0.125000
G01 X46.710264 Y189.976516 Z-0.125000
G01 X47.454060 Y189.960270 Z-0.125000
G01 X48.197856 Y190.057690 Z-0.125000
G01 X48.941678 Y190.259619 Z-0.125000
G01 X50.490017 Y190.960738 Z-0.125000
G01 X51.947261 Y191.866538 Z-0.125000
G01 X55.772549 Y194.525306 Z-0.125000
G01 X57.867359 Y195.722174 Z-0.125000
G01 X59.886286 Y196.539285 Z-0.125000
G01 X61.905186 Y197.012280 Z-0.125000
G01 X63.711574 Y197.179629 Z-0.125000
G01 X65.836731 Y197.141000 Z-0.125000
G01 X67.855632 Y196.950262 Z-0.125000
G01 X74.868695 Y196.061845 Z-0.125000
G01 X77.312622 Y195.890951 Z-0.125000
G01 X79.650292 Y195.845760 Z-0.125000
G01 X83.688120 Y196.044250 Z-0.125000
G01 X91.657492 Y197.009952 Z-0.125000
G01 X94.951497 Y197.190186 Z-0.125000
G01 X96.545372 Y197.112848 Z-0.125000
G01 X98.032990 Y196.907373 Z-0.125000
G01 X99.520581 Y196.554340 Z-0.125000
G01 X100.901942 Y196.086134 Z-0.125000
G01 X102.404747 Y195.426264 Z-0.125000
G01 X105.501427 Y193.834930 Z-0.125000
G01 X110.252676 Y190.888507 Z-0.125000
G01 X111.846551 Y190.286236 Z-0.125000
G01 X113.334168 Y189.989904 Z-0.125000
G01 X114.290477 Y189.956010 Z-0.125000
G01 X115.353069 Y190.066315 Z-0.125000
G01 X116.309404 Y190.294544 Z-0.125000
G01 X117.371970 Y190.678005 Z-0.125000
G01 X119.254266 Y191.623280 Z-0.125000
G01 X123.899259 Y194.405767 Z-0.125000
G01 X126.297677 Y195.485213 Z-0.125000
G01 X128.422834 Y196.046420 Z-0.125000
G01 X130.760504 Y196.249514 Z-0.125000
G01 X133.416971 Y196.096453 Z-0.125000
G01 X139.898725 Y195.265027 Z-0.125000
G01 X143.192730 Y195.095906 Z-0.125000
G01 X145.105374 Y195.138530 Z-0.125000
G01 X147.018019 Y195.283680 Z-0.125000
G01 X154.137339 Y196.203662 Z-0.125000
G01 X155.731186 Y196.244725 Z-0.125000
G01 X157.218804 Y196.109550 Z-0.125000
G01 X159.025192 Y195.645815 Z-0.125000
G01 X160.786045 Y194.833889 Z-0.125000
G01 X162.425480 Y193.782172 Z-0.125000
G01 X165.886438 Y191.210346 Z-0.125000
G01 X167.525873 Y190.304757 Z-0.125000
G00 Z3.000000

(End cutting path id: polyline582)


(Start cutting path id: polyline580)
(Change tool to Default tool)

G00 Z3.000000
G00 X10.688717 Y190.402679

G00 Z4.875000 (Fast pre-penetrate)
G01 Z-0.125000 F400.0(Penetrate)
G01 X11.326257 Y190.271393 Z-0.125000 F800.000000
G01 X11.963822 Y190.258773 Z-0.125000
G01 X13.132644 Y190.554577 Z-0.125000
G01 X14.331840 Y191.234396 Z-0.125000
G01 X16.608815 Y192.986332 Z-0.125000
G01 X17.519589 Y193.583629 Z-0.125000
G01 X18.551833 Y194.014634 Z-0.125000
G01 X19.508142 Y194.111234 Z-0.125000
G01 X20.464477 Y193.891339 Z-0.125000
G01 X21.435973 Y193.369872 Z-0.125000
G01 X22.323993 Y192.693810 Z-0.125000
G01 X24.555407 Y190.731741 Z-0.125000
G01 X25.625592 Y189.993899 Z-0.125000
G01 X26.733692 Y189.564877 Z-0.125000
G01 X27.265001 Y189.505452 Z-0.125000
G01 X27.796284 Y189.546118 Z-0.125000
G01 X28.722245 Y189.847664 Z-0.125000
G01 X29.724115 Y190.465333 Z-0.125000
G01 X30.612135 Y191.197937 Z-0.125000
G01 X32.923241 Y193.348547 Z-0.125000
G01 X34.095873 Y194.231645 Z-0.125000
G01 X35.234373 Y194.770442 Z-0.125000
G01 X35.871912 Y194.906041 Z-0.125000
G01 X36.403195 Y194.922710 Z-0.125000
G01 X37.556856 Y194.663339 Z-0.125000
G01 X38.831961 Y193.960950 Z-0.125000
G01 X40.015997 Y193.024935 Z-0.125000
G01 X42.884949 Y190.451495 Z-0.125000
G01 X44.387754 Y189.393216 Z-0.125000
G01 X45.116390 Y189.030235 Z-0.125000
G01 X45.860185 Y188.777134 Z-0.125000
G01 X46.497725 Y188.658681 Z-0.125000
G01 X47.241547 Y188.635556 Z-0.125000
G01 X48.622908 Y188.902679 Z-0.125000
G01 X50.216783 Y189.631526 Z-0.125000
G01 X51.674026 Y190.569684 Z-0.125000
G01 X55.408245 Y193.279385 Z-0.125000
G01 X57.503054 Y194.521258 Z-0.125000
G01 X59.354977 Y195.288892 Z-0.125000
G01 X61.267621 Y195.735694 Z-0.125000
G01 X63.074008 Y195.867827 Z-0.125000
G01 X65.092935 Y195.754823 Z-0.125000
G01 X67.218092 Y195.437853 Z-0.125000
G01 X72.424742 Y194.395554 Z-0.125000
G01 X74.974952 Y193.972301 Z-0.125000
G01 X77.737648 Y193.676153 Z-0.125000
G01 X80.500371 Y193.579289 Z-0.125000
G01 X82.944297 Y193.665887 Z-0.125000
G01 X85.494507 Y193.920125 Z-0.125000
G01 X88.150973 Y194.335891 Z-0.125000
G01 X94.738984 Y195.584749 Z-0.125000
G01 X96.651628 Y195.809539 Z-0.125000
G01 X98.245503 Y195.867244 Z-0.125000
G01 X99.626864 Y195.791494 Z-0.125000
G01 X101.008199 Y195.577526 Z-0.125000
G01 X102.283304 Y195.245633 Z-0.125000
G01 X103.558409 Y194.781316 Z-0.125000
G01 X104.772792 Y194.221088 Z-0.125000
G01 X106.138966 Y193.470361 Z-0.125000
G01 X108.780245 Y191.849843 Z-0.125000
G01 X110.875055 Y190.452791 Z-0.125000
G01 X112.059064 Y189.786995 Z-0.125000
G01 X113.865451 Y189.022032 Z-0.125000
G01 X115.565582 Y188.662596 Z-0.125000
G01 X116.521917 Y188.634868 Z-0.125000
G01 X117.478226 Y188.734563 Z-0.125000
G01 X118.434561 Y188.955490 Z-0.125000
G01 X119.497153 Y189.328684 Z-0.125000
G01 X121.349075 Y190.228610 Z-0.125000
G01 X126.085164 Y192.958419 Z-0.125000
G01 X127.466499 Y193.612944 Z-0.125000
G01 X128.741604 Y194.100703 Z-0.125000
G01 X130.016709 Y194.468235 Z-0.125000
G01 X131.398070 Y194.734856 Z-0.125000
G01 X132.779431 Y194.879979 Z-0.125000
G01 X134.267049 Y194.926996 Z-0.125000
G01 X143.192730 Y194.503954 Z-0.125000
G01 X146.274223 Y194.555839 Z-0.125000
G01 X152.755977 Y194.924826 Z-0.125000
G01 X154.562365 Y194.875667 Z-0.125000
G01 X156.156239 Y194.669610 Z-0.125000
G01 X157.962627 Y194.186296 Z-0.125000
G01 X159.693105 Y193.436018 Z-0.125000
G01 X161.423610 Y192.418775 Z-0.125000
G01 X165.431064 Y189.690422 Z-0.125000
G01 X166.569538 Y189.099476 Z-0.125000
G01 X167.525873 Y188.768747 Z-0.125000
G00 Z3.000000

(End cutting path id: polyline580)


(Start cutting path id: polyline578)
(Change tool to Default tool)

G00 Z3.000000
G00 X10.688717 Y189.025657

G00 Z4.875000 (Fast pre-penetrate)
G01 Z-0.125000 F400.0(Penetrate)
G01 X11.857539 Y188.942419 Z-0.125000 F800.000000
G01 X13.026388 Y189.253939 Z-0.125000
G01 X14.240771 Y189.943469 Z-0.125000
G01 X16.426649 Y191.606850 Z-0.125000
G01 X17.428519 Y192.260767 Z-0.125000
G01 X18.445550 Y192.684655 Z-0.125000
G01 X19.401885 Y192.790409 Z-0.125000
G01 X20.358221 Y192.586415 Z-0.125000
G01 X21.435973 Y192.013143 Z-0.125000
G01 X22.323993 Y191.334541 Z-0.125000
G01 X24.555407 Y189.385622 Z-0.125000
G01 X25.625592 Y188.657728 Z-0.125000
G01 X26.733692 Y188.237994 Z-0.125000
G01 X27.796284 Y188.226061 Z-0.125000
G01 X28.722245 Y188.531760 Z-0.125000
G01 X29.724115 Y189.152313 Z-0.125000
G01 X32.923241 Y192.037273 Z-0.125000
G01 X34.095873 Y192.918149 Z-0.125000
G01 X35.234373 Y193.452819 Z-0.125000
G01 X35.871912 Y193.585216 Z-0.125000
G01 X36.403195 Y193.598683 Z-0.125000
G01 X37.556856 Y193.331005 Z-0.125000
G01 X38.831961 Y192.617689 Z-0.125000
G01 X40.015997 Y191.671090 Z-0.125000
G01 X42.805257 Y189.147736 Z-0.125000
G01 X44.296685 Y188.081334 Z-0.125000
G01 X45.025294 Y187.711659 Z-0.125000
G01 X45.753929 Y187.458320 Z-0.125000
G01 X46.391468 Y187.336533 Z-0.125000
G01 X47.135290 Y187.312879 Z-0.125000
G01 X48.516652 Y187.589554 Z-0.125000
G01 X50.125687 Y188.354701 Z-0.125000
G01 X51.582957 Y189.329478 Z-0.125000
G01 X55.135010 Y191.994570 Z-0.125000
G01 X57.138750 Y193.227817 Z-0.125000
G01 X59.036207 Y194.033340 Z-0.125000
G01 X60.842595 Y194.445323 Z-0.125000
G01 X62.648982 Y194.541578 Z-0.125000
G01 X64.561626 Y194.368541 Z-0.125000
G01 X66.686810 Y193.950711 Z-0.125000
G01 X72.212229 Y192.516195 Z-0.125000
G01 X75.081208 Y191.897891 Z-0.125000
G01 X78.268957 Y191.456355 Z-0.125000
G01 X81.456706 Y191.311998 Z-0.125000
G01 X84.325659 Y191.442940 Z-0.125000
G01 X87.194638 Y191.812166 Z-0.125000
G01 X90.169874 Y192.415177 Z-0.125000
G01 X97.182911 Y194.148778 Z-0.125000
G01 X99.201811 Y194.460801 Z-0.125000
G01 X100.901942 Y194.544435 Z-0.125000
G01 X102.177047 Y194.468182 Z-0.125000
G01 X103.345896 Y194.278265 Z-0.125000
G01 X104.514744 Y193.965951 Z-0.125000
G01 X105.789822 Y193.484542 Z-0.125000
G01 X108.233776 Y192.191948 Z-0.125000
G01 X112.332298 Y189.476004 Z-0.125000
G01 X113.971708 Y188.505487 Z-0.125000
G01 X115.778095 Y187.718035 Z-0.125000
G01 X117.478226 Y187.344894 Z-0.125000
G01 X118.328305 Y187.307640 Z-0.125000
G01 X119.284614 Y187.385005 Z-0.125000
G01 X120.240949 Y187.582119 Z-0.125000
G01 X121.197284 Y187.886336 Z-0.125000
G01 X123.079554 Y188.730832 Z-0.125000
G01 X127.087008 Y190.958066 Z-0.125000
G01 X128.954117 Y191.881937 Z-0.125000
G01 X130.973044 Y192.658302 Z-0.125000
G01 X133.098201 Y193.198158 Z-0.125000
G01 X135.010845 Y193.467291 Z-0.125000
G01 X137.136002 Y193.589026 Z-0.125000
G01 X144.467835 Y193.542777 Z-0.125000
G01 X149.993254 Y193.604107 Z-0.125000
G01 X152.224668 Y193.548915 Z-0.125000
G01 X154.031056 Y193.376592 Z-0.125000
G01 X155.624930 Y193.076926 Z-0.125000
G01 X157.218804 Y192.600200 Z-0.125000
G01 X158.600166 Y192.027087 Z-0.125000
G01 X159.966340 Y191.317899 Z-0.125000
G01 X163.882724 Y188.851165 Z-0.125000
G01 X165.157829 Y188.128033 Z-0.125000
G01 X166.357025 Y187.614319 Z-0.125000
G01 X167.525873 Y187.340819 Z-0.125000
G00 Z3.000000

(End cutting path id: polyline578)


(Start cutting path id: polyline576)
(Change tool to Default tool)

G00 Z3.000000
G00 X10.688717 Y187.653794

G00 Z4.875000 (Fast pre-penetrate)
G01 Z-0.125000 F400.0(Penetrate)
G01 X11.751283 Y187.632390 Z-0.125000 F800.000000
G01 X12.920131 Y187.969019 Z-0.125000
G01 X14.058605 Y188.611823 Z-0.125000
G01 X16.335580 Y190.312563 Z-0.125000
G01 X17.337450 Y190.950049 Z-0.125000
G01 X18.339294 Y191.360073 Z-0.125000
G01 X19.295629 Y191.468420 Z-0.125000
G01 X20.343034 Y191.241434 Z-0.125000
G01 X21.344904 Y190.709940 Z-0.125000
G01 X22.323993 Y189.968128 Z-0.125000
G01 X24.475714 Y188.100331 Z-0.125000
G01 X25.625592 Y187.321452 Z-0.125000
G01 X26.733692 Y186.911666 Z-0.125000
G01 X27.796284 Y186.905289 Z-0.125000
G01 X28.722245 Y187.212735 Z-0.125000
G01 X29.724115 Y187.832732 Z-0.125000
G01 X32.923241 Y190.712321 Z-0.125000
G01 X34.095873 Y191.593118 Z-0.125000
G01 X35.234373 Y192.128740 Z-0.125000
G01 X35.871912 Y192.261878 Z-0.125000
G01 X36.403195 Y192.275980 Z-0.125000
G01 X37.556856 Y192.009227 Z-0.125000
G01 X38.831961 Y191.295568 Z-0.125000
G01 X40.015997 Y190.346932 Z-0.125000
G01 X42.805257 Y187.814793 Z-0.125000
G01 X44.296685 Y186.746169 Z-0.125000
G01 X45.025294 Y186.377446 Z-0.125000
G01 X45.753929 Y186.126912 Z-0.125000
G01 X46.391468 Y186.009305 Z-0.125000
G01 X47.135290 Y185.992636 Z-0.125000
G01 X48.516652 Y186.288361 Z-0.125000
G01 X50.034617 Y187.028241 Z-0.125000
G01 X51.491861 Y188.021353 Z-0.125000
G01 X55.043941 Y190.745367 Z-0.125000
G01 X56.956585 Y191.946098 Z-0.125000
G01 X58.717437 Y192.715426 Z-0.125000
G01 X60.523825 Y193.136563 Z-0.125000
G01 X62.542726 Y193.200354 Z-0.125000
G01 X64.880422 Y192.856396 Z-0.125000
G01 X67.005579 Y192.296565 Z-0.125000
G01 X72.849768 Y190.494357 Z-0.125000
G01 X76.356286 Y189.683411 Z-0.125000
G01 X79.331522 Y189.275926 Z-0.125000
G01 X82.306758 Y189.143794 Z-0.125000
G01 X85.494507 Y189.309211 Z-0.125000
G01 X88.682256 Y189.786836 Z-0.125000
G01 X91.976261 Y190.578918 Z-0.125000
G01 X99.201811 Y192.720268 Z-0.125000
G01 X101.326995 Y193.116216 Z-0.125000
G01 X103.133383 Y193.221018 Z-0.125000
G01 X104.302204 Y193.144077 Z-0.125000
G01 X105.471053 Y192.938946 Z-0.125000
G01 X106.533645 Y192.636183 Z-0.125000
G01 X107.687306 Y192.182926 Z-0.125000
G01 X109.964254 Y190.949705 Z-0.125000
G01 X114.062804 Y188.179309 Z-0.125000
G01 X115.702213 Y187.195563 Z-0.125000
G01 X117.478226 Y186.412292 Z-0.125000
G01 X119.178357 Y186.028461 Z-0.125000
G01 X120.134692 Y185.985360 Z-0.125000
G01 X121.091028 Y186.064868 Z-0.125000
G01 X122.047336 Y186.258939 Z-0.125000
G01 X123.109928 Y186.592182 Z-0.125000
G01 X124.992198 Y187.413738 Z-0.125000
G01 X130.441735 Y190.203634 Z-0.125000
G01 X132.354379 Y190.956081 Z-0.125000
G01 X134.160766 Y191.483263 Z-0.125000
G01 X136.179693 Y191.874581 Z-0.125000
G01 X138.411107 Y192.114875 Z-0.125000
G01 X141.067573 Y192.233276 Z-0.125000
G01 X144.892861 Y192.265926 Z-0.125000
G01 X148.611893 Y192.223937 Z-0.125000
G01 X151.162103 Y192.089740 Z-0.125000
G01 X153.393516 Y191.810340 Z-0.125000
G01 X155.306160 Y191.381742 Z-0.125000
G01 X157.006291 Y190.814715 Z-0.125000
G01 X158.691262 Y190.067982 Z-0.125000
G01 X163.427324 Y187.365849 Z-0.125000
G01 X164.793498 Y186.674573 Z-0.125000
G01 X166.250768 Y186.160435 Z-0.125000
G01 X167.525873 Y185.984805 Z-0.125000
G00 Z3.000000

(End cutting path id: polyline576)


(Start cutting path id: polyline574)
(Change tool to Default tool)

G00 Z3.000000
G00 X10.688717 Y186.294817

G00 Z4.875000 (Fast pre-penetrate)
G01 Z-0.125000 F400.0(Penetrate)
G01 X11.751283 Y186.351305 Z-0.125000 F800.000000
G01 X12.783527 Y186.687961 Z-0.125000
G01 X13.967536 Y187.364420 Z-0.125000
G01 X16.244511 Y189.034865 Z-0.125000
G01 X17.155285 Y189.602686 Z-0.125000
G01 X18.233037 Y190.040545 Z-0.125000
G01 X19.189372 Y190.145690 Z-0.125000
G01 X20.251964 Y189.920054 Z-0.125000
G01 X21.253808 Y189.399381 Z-0.125000
G01 X22.244301 Y188.661803 Z-0.125000
G01 X24.475714 Y186.750005 Z-0.125000
G01 X25.625592 Y185.985916 Z-0.125000
G01 X26.733692 Y185.586105 Z-0.125000
G01 X27.796284 Y185.583459 Z-0.125000
G01 X28.722245 Y185.889687 Z-0.125000
G01 X29.724115 Y186.505134 Z-0.125000
G01 X30.691827 Y187.303857 Z-0.125000
G01 X32.923241 Y189.371652 Z-0.125000
G01 X34.095873 Y190.254936 Z-0.125000
G01 X35.234373 Y190.797358 Z-0.125000
G01 X35.871912 Y190.935708 Z-0.125000
G01 X36.403195 Y190.954626 Z-0.125000
G01 X37.572043 Y190.692901 Z-0.125000
G01 X38.831961 Y189.996068 Z-0.125000
G01 X40.015997 Y189.054153 Z-0.125000
G01 X42.805257 Y186.519527 Z-0.125000
G01 X44.296685 Y185.440902 Z-0.125000
G01 X45.025294 Y185.066543 Z-0.125000
G01 X45.753929 Y184.810612 Z-0.125000
G01 X46.391468 Y184.688877 Z-0.125000
G01 X47.135290 Y184.668584 Z-0.125000
G01 X47.772829 Y184.752801 Z-0.125000
G01 X48.516652 Y184.962165 Z-0.125000
G01 X50.034617 Y185.707734 Z-0.125000
G01 X51.491861 Y186.713387 Z-0.125000
G01 X55.043941 Y189.476692 Z-0.125000
G01 X56.956585 Y190.686683 Z-0.125000
G01 X58.717437 Y191.448100 Z-0.125000
G01 X60.417568 Y191.829258 Z-0.125000
G01 X61.373877 Y191.897335 Z-0.125000
G01 X62.436469 Y191.862357 Z-0.125000
G01 X64.774139 Y191.453180 Z-0.125000
G01 X66.899323 Y190.815720 Z-0.125000
G01 X72.743511 Y188.782823 Z-0.125000
G01 X76.462569 Y187.808470 Z-0.125000
G01 X79.756575 Y187.298195 Z-0.125000
G01 X83.050580 Y187.130582 Z-0.125000
G01 X86.557099 Y187.325526 Z-0.125000
G01 X89.957361 Y187.884167 Z-0.125000
G01 X93.463879 Y188.823013 Z-0.125000
G01 X99.095555 Y190.762512 Z-0.125000
G01 X101.008199 Y191.343113 Z-0.125000
G01 X103.027126 Y191.767531 Z-0.125000
G01 X104.939770 Y191.898050 Z-0.125000
G01 X106.108592 Y191.814203 Z-0.125000
G01 X107.171184 Y191.617962 Z-0.125000
G01 X108.233776 Y191.303717 Z-0.125000
G01 X109.296341 Y190.873478 Z-0.125000
G01 X111.512594 Y189.650232 Z-0.125000
G01 X115.520047 Y186.908464 Z-0.125000
G01 X117.159457 Y185.914267 Z-0.125000
G01 X118.965844 Y185.108427 Z-0.125000
G01 X120.665975 Y184.714436 Z-0.125000
G01 X121.622310 Y184.661123 Z-0.125000
G01 X122.578619 Y184.726236 Z-0.125000
G01 X123.641211 Y184.926499 Z-0.125000
G01 X124.703803 Y185.243761 Z-0.125000
G01 X126.540538 Y185.997611 Z-0.125000
G01 X132.035609 Y188.638466 Z-0.125000
G01 X133.948253 Y189.359191 Z-0.125000
G01 X135.754641 Y189.879176 Z-0.125000
G01 X137.667311 Y190.268218 Z-0.125000
G01 X139.792468 Y190.539601 Z-0.125000
G01 X142.236395 Y190.700865 Z-0.125000
G01 X145.105374 Y190.756295 Z-0.125000
G01 X148.080610 Y190.693297 Z-0.125000
G01 X150.524537 Y190.518196 Z-0.125000
G01 X152.649721 Y190.221467 Z-0.125000
G01 X154.562365 Y189.791572 Z-0.125000
G01 X156.262496 Y189.250897 Z-0.125000
G01 X158.053696 Y188.510197 Z-0.125000
G01 X162.880854 Y185.981392 Z-0.125000
G01 X164.444381 Y185.264425 Z-0.125000
G01 X166.038255 Y184.782302 Z-0.125000
G01 X167.525873 Y184.668266 Z-0.125000
G00 Z3.000000

(End cutting path id: polyline574)


(Start cutting path id: polyline572)
(Change tool to Default tool)

G00 Z3.000000
G00 X10.688717 Y184.957429

G00 Z4.875000 (Fast pre-penetrate)
G01 Z-0.125000 F400.0(Penetrate)
G01 X11.645026 Y185.070062 Z-0.125000 F800.000000
G01 X12.601361 Y185.405342 Z-0.125000
G01 X13.694301 Y186.019730 Z-0.125000
G01 X16.062345 Y187.711156 Z-0.125000
G01 X16.973119 Y188.269453 Z-0.125000
G01 X18.020524 Y188.697839 Z-0.125000
G01 X19.083116 Y188.822299 Z-0.125000
G01 X20.145681 Y188.599202 Z-0.125000
G01 X21.162738 Y188.081916 Z-0.125000
G01 X22.164608 Y187.348677 Z-0.125000
G01 X24.475714 Y185.399759 Z-0.125000
G01 X25.625592 Y184.651942 Z-0.125000
G01 X26.733692 Y184.261576 Z-0.125000
G01 X27.796284 Y184.260253 Z-0.125000
G01 X28.722245 Y184.561877 Z-0.125000
G01 X29.815184 Y185.235082 Z-0.125000
G01 X32.923241 Y188.013389 Z-0.125000
G01 X34.186969 Y188.958956 Z-0.125000
G01 X35.340630 Y189.490715 Z-0.125000
G01 X36.403195 Y189.634013 Z-0.125000
G01 X37.572043 Y189.394433 Z-0.125000
G01 X38.923031 Y188.657384 Z-0.125000
G01 X40.095689 Y187.725285 Z-0.125000
G01 X42.964642 Y185.130493 Z-0.125000
G01 X44.478824 Y184.060334 Z-0.125000
G01 X45.222646 Y183.695686 Z-0.125000
G01 X45.966442 Y183.455391 Z-0.125000
G01 X46.710264 Y183.345589 Z-0.125000
G01 X47.454060 Y183.366439 Z-0.125000
G01 X48.729165 Y183.688621 Z-0.125000
G01 X50.216783 Y184.450779 Z-0.125000
G01 X51.571553 Y185.399071 Z-0.125000
G01 X55.135010 Y188.192247 Z-0.125000
G01 X57.229820 Y189.501457 Z-0.125000
G01 X58.292411 Y189.979056 Z-0.125000
G01 X59.354977 Y190.316320 Z-0.125000
G01 X60.417568 Y190.513090 Z-0.125000
G01 X61.480134 Y190.576378 Z-0.125000
G01 X63.180291 Y190.432736 Z-0.125000
G01 X65.092935 Y189.987760 Z-0.125000
G01 X67.005579 Y189.348184 Z-0.125000
G01 X72.849768 Y187.150372 Z-0.125000
G01 X74.868695 Y186.526089 Z-0.125000
G01 X76.887596 Y186.025154 Z-0.125000
G01 X79.012753 Y185.639286 Z-0.125000
G01 X81.244166 Y185.389440 Z-0.125000
G01 X83.475606 Y185.294640 Z-0.125000
G01 X85.707020 Y185.352584 Z-0.125000
G01 X88.788512 Y185.687308 Z-0.125000
G01 X91.763748 Y186.298918 Z-0.125000
G01 X95.057754 Y187.293168 Z-0.125000
G01 X100.370660 Y189.286510 Z-0.125000
G01 X102.283304 Y189.925107 Z-0.125000
G01 X104.408461 Y190.422206 Z-0.125000
G01 X106.321131 Y190.576114 Z-0.125000
G01 X107.383697 Y190.510709 Z-0.125000
G01 X108.446289 Y190.325792 Z-0.125000
G01 X109.508880 Y190.018002 Z-0.125000
G01 X110.571446 Y189.590039 Z-0.125000
G01 X112.696603 Y188.420397 Z-0.125000
G01 X116.795152 Y185.611611 Z-0.125000
G01 X118.434561 Y184.617043 Z-0.125000
G01 X120.240949 Y183.808424 Z-0.125000
G01 X121.197284 Y183.535295 Z-0.125000
G01 X122.047336 Y183.390410 Z-0.125000
G01 X123.003672 Y183.338208 Z-0.125000
G01 X123.959980 Y183.398956 Z-0.125000
G01 X125.022572 Y183.587101 Z-0.125000
G01 X126.085164 Y183.884598 Z-0.125000
G01 X127.997808 Y184.622149 Z-0.125000
G01 X133.416971 Y187.058721 Z-0.125000
G01 X135.223358 Y187.709674 Z-0.125000
G01 X137.029746 Y188.221563 Z-0.125000
G01 X138.942390 Y188.616030 Z-0.125000
G01 X140.961317 Y188.889794 Z-0.125000
G01 X143.192730 Y189.056270 Z-0.125000
G01 X145.530401 Y189.109345 Z-0.125000
G01 X147.868097 Y189.049946 Z-0.125000
G01 X150.099511 Y188.873363 Z-0.125000
G01 X152.118411 Y188.582613 Z-0.125000
G01 X154.031056 Y188.160630 Z-0.125000
G01 X155.731186 Y187.645592 Z-0.125000
G01 X157.431344 Y186.993845 Z-0.125000
G01 X162.531737 Y184.550156 Z-0.125000
G01 X164.125611 Y183.887323 Z-0.125000
G01 X165.931999 Y183.416021 Z-0.125000
G01 X167.525873 Y183.365486 Z-0.125000
G00 Z3.000000

(End cutting path id: polyline572)


(Start cutting path id: polyline570)
(Change tool to Default tool)

G00 Z3.000000
G00 X10.688717 Y183.650707

G00 Z4.875000 (Fast pre-penetrate)
G01 Z-0.125000 F400.0(Penetrate)
G01 X11.751283 Y183.874544 Z-0.125000 F800.000000
G01 X12.783527 Y184.326478 Z-0.125000
G01 X16.062345 Y186.525295 Z-0.125000
G01 X17.064215 Y187.082692 Z-0.125000
G01 X18.020524 Y187.414558 Z-0.125000
G01 X18.976859 Y187.497955 Z-0.125000
G01 X20.039425 Y187.273562 Z-0.125000
G01 X21.071669 Y186.758022 Z-0.125000
G01 X22.164608 Y185.966496 Z-0.125000
G01 X24.396022 Y184.111187 Z-0.125000
G01 X25.534496 Y183.367259 Z-0.125000
G01 X26.733692 Y182.938317 Z-0.125000
G01 X27.796284 Y182.935221 Z-0.125000
G01 X28.722245 Y183.228379 Z-0.125000
G01 X29.815184 Y183.886424 Z-0.125000
G01 X33.002933 Y186.703121 Z-0.125000
G01 X34.186969 Y187.589845 Z-0.125000
G01 X35.340630 Y188.142215 Z-0.125000
G01 X35.978169 Y188.285354 Z-0.125000
G01 X36.509452 Y188.310463 Z-0.125000
G01 X37.678300 Y188.068317 Z-0.125000
G01 X39.014127 Y187.344920 Z-0.125000
G01 X40.175381 Y186.431765 Z-0.125000
G01 X43.044334 Y183.848720 Z-0.125000
G01 X44.569920 Y182.764010 Z-0.125000
G01 X45.328903 Y182.386926 Z-0.125000
G01 X46.072698 Y182.141419 Z-0.125000
G01 X46.816521 Y182.025161 Z-0.125000
G01 X47.560316 Y182.038761 Z-0.125000
G01 X48.941678 Y182.388699 Z-0.125000
G01 X50.398921 Y183.144453 Z-0.125000
G01 X51.730965 Y184.078696 Z-0.125000
G01 X55.317176 Y186.893012 Z-0.125000
G01 X57.411985 Y188.201137 Z-0.125000
G01 X58.398668 Y188.646933 Z-0.125000
G01 X59.461233 Y188.989886 Z-0.125000
G01 X60.523825 Y189.189990 Z-0.125000
G01 X61.586417 Y189.253384 Z-0.125000
G01 X63.286548 Y189.102651 Z-0.125000
G01 X65.305448 Y188.606320 Z-0.125000
G01 X67.111836 Y187.971823 Z-0.125000
G01 X73.062281 Y185.628332 Z-0.125000
G01 X75.187465 Y184.943591 Z-0.125000
G01 X77.206365 Y184.423686 Z-0.125000
G01 X79.437779 Y184.004031 Z-0.125000
G01 X81.775476 Y183.735029 Z-0.125000
G01 X84.006889 Y183.634488 Z-0.125000
G01 X86.344586 Y183.689283 Z-0.125000
G01 X89.532308 Y184.033558 Z-0.125000
G01 X92.720057 Y184.705149 Z-0.125000
G01 X96.014063 Y185.738716 Z-0.125000
G01 X101.539508 Y187.910599 Z-0.125000
G01 X103.452152 Y188.577665 Z-0.125000
G01 X105.577309 Y189.094766 Z-0.125000
G01 X107.489953 Y189.253066 Z-0.125000
G01 X108.552545 Y189.184248 Z-0.125000
G01 X109.508880 Y189.017217 Z-0.125000
G01 X110.571446 Y188.712206 Z-0.125000
G01 X111.603663 Y188.299007 Z-0.125000
G01 X113.698473 Y187.152912 Z-0.125000
G01 X117.797022 Y184.351984 Z-0.125000
G01 X119.527501 Y183.305055 Z-0.125000
G01 X121.409797 Y182.475508 Z-0.125000
G01 X123.216185 Y182.068183 Z-0.125000
G01 X124.172494 Y182.015107 Z-0.125000
G01 X125.128829 Y182.069373 Z-0.125000
G01 X126.191421 Y182.243548 Z-0.125000
G01 X127.253986 Y182.520355 Z-0.125000
G01 X129.166630 Y183.206842 Z-0.125000
G01 X134.692076 Y185.522181 Z-0.125000
G01 X136.498463 Y186.130564 Z-0.125000
G01 X138.198594 Y186.587287 Z-0.125000
G01 X140.004982 Y186.950242 Z-0.125000
G01 X141.811369 Y187.198659 Z-0.125000
G01 X143.830270 Y187.358705 Z-0.125000
G01 X145.849197 Y187.410061 Z-0.125000
G01 X147.868097 Y187.358282 Z-0.125000
G01 X149.886998 Y187.196066 Z-0.125000
G01 X151.799642 Y186.923783 Z-0.125000
G01 X153.606029 Y186.542149 Z-0.125000
G01 X155.306160 Y186.059814 Z-0.125000
G01 X157.006291 Y185.456274 Z-0.125000
G01 X162.212941 Y183.165012 Z-0.125000
G01 X163.913072 Y182.518265 Z-0.125000
G01 X165.825742 Y182.074771 Z-0.125000
G01 X166.675795 Y182.015531 Z-0.125000
G01 X167.525873 Y182.058393 Z-0.125000
G00 Z3.000000

(End cutting path id: polyline570)


(Start cutting path id: polyline568)
(Change tool to Default tool)

G00 Z3.000000
G00 X10.688717 Y182.383645

G00 Z4.875000 (Fast pre-penetrate)
G01 Z-0.125000 F400.0(Penetrate)
G01 X11.645026 Y182.648942 Z-0.125000 F800.000000
G01 X12.692431 Y183.141093 Z-0.125000
G01 X15.698041 Y185.122846 Z-0.125000
G01 X16.790980 Y185.729323 Z-0.125000
G01 X17.808011 Y186.084209 Z-0.125000
G01 X18.764346 Y186.177527 Z-0.125000
G01 X19.826911 Y185.980360 Z-0.125000
G01 X20.980573 Y185.428016 Z-0.125000
G01 X22.005223 Y184.706499 Z-0.125000
G01 X24.441556 Y182.729296 Z-0.125000
G01 X25.625592 Y181.991533 Z-0.125000
G01 X26.733692 Y181.616566 Z-0.125000
G01 X27.265001 Y181.567618 Z-0.125000
G01 X27.902540 Y181.627202 Z-0.125000
G01 X28.813341 Y181.930441 Z-0.125000
G01 X29.894877 Y182.583220 Z-0.125000
G01 X33.162318 Y185.437277 Z-0.125000
G01 X34.369108 Y186.314740 Z-0.125000
G01 X35.553143 Y186.848854 Z-0.125000
G01 X36.190682 Y186.972917 Z-0.125000
G01 X36.721991 Y186.983579 Z-0.125000
G01 X37.890813 Y186.716112 Z-0.125000
G01 X39.196266 Y185.998378 Z-0.125000
G01 X40.334766 Y185.107659 Z-0.125000
G01 X43.203719 Y182.545279 Z-0.125000
G01 X44.752059 Y181.448715 Z-0.125000
G01 X45.541416 Y181.059407 Z-0.125000
G01 X46.285211 Y180.817208 Z-0.125000
G01 X47.029034 Y180.702246 Z-0.125000
G01 X47.772829 Y180.715052 Z-0.125000
G01 X49.154191 Y181.059407 Z-0.125000
G01 X50.581087 Y181.787037 Z-0.125000
G01 X51.947261 Y182.733821 Z-0.125000
G01 X55.590410 Y185.578802 Z-0.125000
G01 X57.685220 Y186.882270 Z-0.125000
G01 X58.717437 Y187.344338 Z-0.125000
G01 X59.780003 Y187.680332 Z-0.125000
G01 X60.842595 Y187.873504 Z-0.125000
G01 X61.905186 Y187.930284 Z-0.125000
G01 X63.711574 Y187.749282 Z-0.125000
G01 X65.624218 Y187.258005 Z-0.125000
G01 X67.536862 Y186.567734 Z-0.125000
G01 X73.381077 Y184.216491 Z-0.125000
G01 X75.506234 Y183.515372 Z-0.125000
G01 X77.525135 Y182.981153 Z-0.125000
G01 X79.756575 Y182.546575 Z-0.125000
G01 X82.094245 Y182.261937 Z-0.125000
G01 X84.431915 Y182.143324 Z-0.125000
G01 X86.875868 Y182.191822 Z-0.125000
G01 X90.169874 Y182.542739 Z-0.125000
G01 X93.463879 Y183.243143 Z-0.125000
G01 X96.864141 Y184.332881 Z-0.125000
G01 X102.389560 Y186.554584 Z-0.125000
G01 X104.302204 Y187.236415 Z-0.125000
G01 X106.427388 Y187.765660 Z-0.125000
G01 X108.340032 Y187.930231 Z-0.125000
G01 X109.402597 Y187.862947 Z-0.125000
G01 X110.358933 Y187.696181 Z-0.125000
G01 X111.421524 Y187.391011 Z-0.125000
G01 X112.484090 Y186.963656 Z-0.125000
G01 X114.609273 Y185.795337 Z-0.125000
G01 X118.616727 Y183.070317 Z-0.125000
G01 X120.347205 Y182.027040 Z-0.125000
G01 X122.259849 Y181.180930 Z-0.125000
G01 X124.066237 Y180.759846 Z-0.125000
G01 X125.022572 Y180.693118 Z-0.125000
G01 X126.085164 Y180.739367 Z-0.125000
G01 X128.210321 Y181.156350 Z-0.125000
G01 X130.122965 Y181.795874 Z-0.125000
G01 X135.648384 Y183.965454 Z-0.125000
G01 X137.454772 Y184.540975 Z-0.125000
G01 X139.154903 Y184.975235 Z-0.125000
G01 X140.855034 Y185.303689 Z-0.125000
G01 X142.661448 Y185.543533 Z-0.125000
G01 X146.274223 Y185.723503 Z-0.125000
G01 X148.186867 Y185.668205 Z-0.125000
G01 X149.993254 Y185.516758 Z-0.125000
G01 X151.693385 Y185.277442 Z-0.125000
G01 X153.393516 Y184.934410 Z-0.125000
G01 X155.093647 Y184.480465 Z-0.125000
G01 X156.793778 Y183.916851 Z-0.125000
G01 X162.106684 Y181.756107 Z-0.125000
G01 X163.806815 Y181.162383 Z-0.125000
G01 X165.719486 Y180.751671 Z-0.125000
G01 X166.675795 Y180.692192 Z-0.125000
G01 X167.525873 Y180.737780 Z-0.125000
G00 Z3.000000

(End cutting path id: polyline568)


(Start cutting path id: polyline566)
(Change tool to Default tool)

G00 Z3.000000
G00 X10.688717 Y181.164367

G00 Z4.875000 (Fast pre-penetrate)
G01 Z-0.125000 F400.0(Penetrate)
G01 X11.538770 Y181.454271 Z-0.125000 F800.000000
G01 X12.510292 Y181.933087 Z-0.125000
G01 X15.424780 Y183.800222 Z-0.125000
G01 X16.426649 Y184.347909 Z-0.125000
G01 X17.595498 Y184.759680 Z-0.125000
G01 X18.658090 Y184.851596 Z-0.125000
G01 X19.720655 Y184.645274 Z-0.125000
G01 X20.889503 Y184.092269 Z-0.125000
G01 X21.891373 Y183.405068 Z-0.125000
G01 X24.441556 Y181.385426 Z-0.125000
G01 X25.625592 Y180.666475 Z-0.125000
G01 X26.733692 Y180.296694 Z-0.125000
G01 X27.265001 Y180.245021 Z-0.125000
G01 X27.902540 Y180.297091 Z-0.125000
G01 X28.904410 Y180.624486 Z-0.125000
G01 X29.906280 Y181.216808 Z-0.125000
G01 X30.851212 Y181.958883 Z-0.125000
G01 X33.321703 Y184.146191 Z-0.125000
G01 X34.460203 Y184.964282 Z-0.125000
G01 X35.659399 Y185.512524 Z-0.125000
G01 X36.828248 Y185.663733 Z-0.125000
G01 X37.465787 Y185.578855 Z-0.125000
G01 X38.103326 Y185.380577 Z-0.125000
G01 X39.378431 Y184.684353 Z-0.125000
G01 X40.573843 Y183.757810 Z-0.125000
G01 X43.522515 Y181.159049 Z-0.125000
G01 X45.025294 Y180.117042 Z-0.125000
G01 X45.860185 Y179.716093 Z-0.125000
G01 X46.603981 Y179.484371 Z-0.125000
G01 X47.347803 Y179.377188 Z-0.125000
G01 X48.091599 Y179.394968 Z-0.125000
G01 X49.472960 Y179.740646 Z-0.125000
G01 X50.945391 Y180.488331 Z-0.125000
G01 X52.311592 Y181.429268 Z-0.125000
G01 X55.954715 Y184.247262 Z-0.125000
G01 X58.049524 Y185.543189 Z-0.125000
G01 X59.142464 Y186.029017 Z-0.125000
G01 X60.205055 Y186.360116 Z-0.125000
G01 X61.267621 Y186.550933 Z-0.125000
G01 X62.330213 Y186.607395 Z-0.125000
G01 X64.136600 Y186.429489 Z-0.125000
G01 X66.049244 Y185.944218 Z-0.125000
G01 X67.961888 Y185.260033 Z-0.125000
G01 X73.912360 Y182.875743 Z-0.125000
G01 X76.037517 Y182.177879 Z-0.125000
G01 X78.056444 Y181.645935 Z-0.125000
G01 X80.287858 Y181.212998 Z-0.125000
G01 X82.625528 Y180.929285 Z-0.125000
G01 X84.963224 Y180.811017 Z-0.125000
G01 X87.407151 Y180.859409 Z-0.125000
G01 X90.701157 Y181.209637 Z-0.125000
G01 X93.995162 Y181.908560 Z-0.125000
G01 X97.395424 Y182.995414 Z-0.125000
G01 X102.920869 Y185.213387 Z-0.125000
G01 X104.939770 Y185.930803 Z-0.125000
G01 X107.064927 Y186.451318 Z-0.125000
G01 X108.977571 Y186.606919 Z-0.125000
G01 X110.040163 Y186.534820 Z-0.125000
G01 X110.996472 Y186.364402 Z-0.125000
G01 X112.059064 Y186.056348 Z-0.125000
G01 X113.121655 Y185.627882 Z-0.125000
G01 X115.246813 Y184.463902 Z-0.125000
G01 X119.254266 Y181.765209 Z-0.125000
G01 X120.984745 Y180.731642 Z-0.125000
G01 X122.897415 Y179.886564 Z-0.125000
G01 X123.853724 Y179.610445 Z-0.125000
G01 X124.810059 Y179.438836 Z-0.125000
G01 X125.766368 Y179.370865 Z-0.125000
G01 X126.828960 Y179.410129 Z-0.125000
G01 X128.954117 Y179.797478 Z-0.125000
G01 X130.866761 Y180.396971 Z-0.125000
G01 X136.392206 Y182.444790 Z-0.125000
G01 X138.198594 Y182.992424 Z-0.125000
G01 X139.898725 Y183.406787 Z-0.125000
G01 X143.192730 Y183.924127 Z-0.125000
G01 X146.592992 Y184.093804 Z-0.125000
G01 X150.099511 Y183.904018 Z-0.125000
G01 X153.393516 Y183.360459 Z-0.125000
G01 X156.793778 Y182.395525 Z-0.125000
G01 X162.000428 Y180.416259 Z-0.125000
G01 X163.806815 Y179.823725 Z-0.125000
G01 X165.719486 Y179.433465 Z-0.125000
G01 X167.525873 Y179.402535 Z-0.125000
G00 Z3.000000

(End cutting path id: polyline566)


(Start cutting path id: polyline562)
(Change tool to Default tool)

G00 Z3.000000
G00 X10.688717 Y178.891467

G00 Z4.875000 (Fast pre-penetrate)
G01 Z-0.125000 F400.0(Penetrate)
G01 X11.963822 Y179.502786 Z-0.125000 F800.000000
G01 X14.605075 Y181.070123 Z-0.125000
G01 X15.789110 Y181.678584 Z-0.125000
G01 X17.064215 Y182.104748 Z-0.125000
G01 X18.339294 Y182.200659 Z-0.125000
G01 X19.508142 Y181.960736 Z-0.125000
G01 X20.707338 Y181.406408 Z-0.125000
G01 X21.800277 Y180.689758 Z-0.125000
G01 X24.350487 Y178.773992 Z-0.125000
G01 X25.564870 Y178.058745 Z-0.125000
G01 X26.839975 Y177.645810 Z-0.125000
G01 X28.008797 Y177.647398 Z-0.125000
G01 X29.071389 Y177.975613 Z-0.125000
G01 X30.179515 Y178.610427 Z-0.125000
G01 X31.169982 Y179.365626 Z-0.125000
G01 X33.640499 Y181.478242 Z-0.125000
G01 X34.915577 Y182.358377 Z-0.125000
G01 X36.190682 Y182.895375 Z-0.125000
G01 X37.359530 Y183.014755 Z-0.125000
G01 X37.997070 Y182.923077 Z-0.125000
G01 X38.634635 Y182.725327 Z-0.125000
G01 X39.924901 Y182.038999 Z-0.125000
G01 X41.131690 Y181.134549 Z-0.125000
G01 X44.160054 Y178.546292 Z-0.125000
G01 X45.753929 Y177.471847 Z-0.125000
G01 X46.603981 Y177.075581 Z-0.125000
G01 X47.347803 Y176.847404 Z-0.125000
G01 X48.091599 Y176.735645 Z-0.125000
G01 X48.941678 Y176.750752 Z-0.125000
G01 X50.323039 Y177.082195 Z-0.125000
G01 X51.856192 Y177.827102 Z-0.125000
G01 X53.313436 Y178.793783 Z-0.125000
G01 X57.138750 Y181.639479 Z-0.125000
G01 X59.233533 Y182.882807 Z-0.125000
G01 X60.311312 Y183.349796 Z-0.125000
G01 X61.480134 Y183.707036 Z-0.125000
G01 X62.542726 Y183.896213 Z-0.125000
G01 X63.711574 Y183.961830 Z-0.125000
G01 X65.517961 Y183.802842 Z-0.125000
G01 X67.536862 Y183.331593 Z-0.125000
G01 X69.449506 Y182.699028 Z-0.125000
G01 X75.399978 Y180.495237 Z-0.125000
G01 X77.418878 Y179.877118 Z-0.125000
G01 X79.437779 Y179.377929 Z-0.125000
G01 X81.562962 Y178.990024 Z-0.125000
G01 X83.794376 Y178.734966 Z-0.125000
G01 X85.919533 Y178.634107 Z-0.125000
G01 X88.150973 Y178.675673 Z-0.125000
G01 X91.338722 Y179.000872 Z-0.125000
G01 X94.420188 Y179.621107 Z-0.125000
G01 X97.714194 Y180.602499 Z-0.125000
G01 X103.239639 Y182.659155 Z-0.125000
G01 X105.258540 Y183.325772 Z-0.125000
G01 X107.489953 Y183.828771 Z-0.125000
G01 X109.402597 Y183.960136 Z-0.125000
G01 X110.465189 Y183.884307 Z-0.125000
G01 X111.421524 Y183.717037 Z-0.125000
G01 X112.484090 Y183.419276 Z-0.125000
G01 X113.546682 Y183.007770 Z-0.125000
G01 X115.702213 Y181.872206 Z-0.125000
G01 X119.891805 Y179.134725 Z-0.125000
G01 X121.713380 Y178.079065 Z-0.125000
G01 X123.747467 Y177.217530 Z-0.125000
G01 X125.660111 Y176.792953 Z-0.125000
G01 X126.616447 Y176.725881 Z-0.125000
G01 X127.679039 Y176.757631 Z-0.125000
G01 X129.910452 Y177.132149 Z-0.125000
G01 X131.929353 Y177.722910 Z-0.125000
G01 X137.454772 Y179.613911 Z-0.125000
G01 X140.855034 Y180.477616 Z-0.125000
G01 X144.042783 Y180.947409 Z-0.125000
G01 X147.230532 Y181.097242 Z-0.125000
G01 X150.630794 Y180.917485 Z-0.125000
G01 X154.031056 Y180.371835 Z-0.125000
G01 X157.218804 Y179.522233 Z-0.125000
G01 X164.019328 Y177.239675 Z-0.125000
G01 X165.825742 Y176.852273 Z-0.125000
G01 X167.525873 Y176.723685 Z-0.125000
G00 Z3.000000

(End cutting path id: polyline562)


(Start cutting path id: polyline558)
(Change tool to Default tool)

G00 Z3.000000
G00 X10.688717 Y176.843912

G00 Z4.875000 (Fast pre-penetrate)
G01 Z-0.125000 F400.0(Penetrate)
G01 X13.876466 Y178.511208 Z-0.125000 F800.000000
G01 X15.257828 Y179.121257 Z-0.125000
G01 X16.639163 Y179.494319 Z-0.125000
G01 X18.020524 Y179.540171 Z-0.125000
G01 X19.189372 Y179.292363 Z-0.125000
G01 X20.525199 Y178.704618 Z-0.125000
G01 X21.709208 Y177.972200 Z-0.125000
G01 X24.259418 Y176.180788 Z-0.125000
G01 X25.564870 Y175.445326 Z-0.125000
G01 X26.839975 Y175.025724 Z-0.125000
G01 X27.477514 Y174.955160 Z-0.125000
G01 X28.115053 Y174.985190 Z-0.125000
G01 X29.268715 Y175.294196 Z-0.125000
G01 X30.452750 Y175.919538 Z-0.125000
G01 X31.568444 Y176.723606 Z-0.125000
G01 X34.198346 Y178.863844 Z-0.125000
G01 X35.553143 Y179.745647 Z-0.125000
G01 X36.828248 Y180.250286 Z-0.125000
G01 X37.465787 Y180.358633 Z-0.125000
G01 X38.103326 Y180.365326 Z-0.125000
G01 X39.378431 Y180.079180 Z-0.125000
G01 X40.744605 Y179.380760 Z-0.125000
G01 X42.008333 Y178.470436 Z-0.125000
G01 X45.116390 Y175.925888 Z-0.125000
G01 X46.755799 Y174.859804 Z-0.125000
G01 X47.560316 Y174.486901 Z-0.125000
G01 X48.304139 Y174.245945 Z-0.125000
G01 X49.047934 Y174.109949 Z-0.125000
G01 X49.897986 Y174.084417 Z-0.125000
G01 X50.641809 Y174.172708 Z-0.125000
G01 X51.491861 Y174.391677 Z-0.125000
G01 X53.131297 Y175.118990 Z-0.125000
G01 X54.770706 Y176.136417 Z-0.125000
G01 X58.687063 Y178.881519 Z-0.125000
G01 X60.781873 Y180.082223 Z-0.125000
G01 X62.648982 Y180.826521 Z-0.125000
G01 X64.561626 Y181.234535 Z-0.125000
G01 X66.474297 Y181.304120 Z-0.125000
G01 X68.599454 Y181.054989 Z-0.125000
G01 X70.830867 Y180.535321 Z-0.125000
G01 X76.887596 Y178.705280 Z-0.125000
G01 X80.075345 Y177.909255 Z-0.125000
G01 X83.688120 Y177.334184 Z-0.125000
G01 X87.194638 Y177.150220 Z-0.125000
G01 X90.382387 Y177.310822 Z-0.125000
G01 X93.570136 Y177.780086 Z-0.125000
G01 X96.970398 Y178.589631 Z-0.125000
G01 X104.514744 Y180.813266 Z-0.125000
G01 X106.639901 Y181.205351 Z-0.125000
G01 X108.552545 Y181.314253 Z-0.125000
G01 X109.721393 Y181.236598 Z-0.125000
G01 X110.890215 Y181.036679 Z-0.125000
G01 X111.952807 Y180.745294 Z-0.125000
G01 X113.121655 Y180.306907 Z-0.125000
G01 X115.337882 Y179.180974 Z-0.125000
G01 X119.709666 Y176.434787 Z-0.125000
G01 X121.531241 Y175.419371 Z-0.125000
G01 X123.534954 Y174.591940 Z-0.125000
G01 X124.597546 Y174.307064 Z-0.125000
G01 X125.553855 Y174.148129 Z-0.125000
G01 X126.616447 Y174.078676 Z-0.125000
G01 X127.679039 Y174.115426 Z-0.125000
G01 X129.910452 Y174.485684 Z-0.125000
G01 X131.929353 Y175.063348 Z-0.125000
G01 X137.667311 Y176.995677 Z-0.125000
G01 X141.173830 Y177.871632 Z-0.125000
G01 X144.467835 Y178.347722 Z-0.125000
G01 X147.761841 Y178.500043 Z-0.125000
G01 X151.480872 Y178.300415 Z-0.125000
G01 X155.093647 Y177.713543 Z-0.125000
G01 X158.387653 Y176.839467 Z-0.125000
G01 X164.656894 Y174.772386 Z-0.125000
G01 X166.144512 Y174.397154 Z-0.125000
G01 X167.525873 Y174.164930 Z-0.125000
G00 Z3.000000

(End cutting path id: polyline558)


(Start cutting path id: polyline552)
(Change tool to Default tool)

G00 Z3.000000
G00 X10.688717 Y174.053646

G00 Z4.875000 (Fast pre-penetrate)
G01 Z-0.125000 F400.0(Penetrate)
G01 X12.920131 Y174.917880 Z-0.125000 F800.000000
G01 X14.620262 Y175.397807 Z-0.125000
G01 X16.214136 Y175.593466 Z-0.125000
G01 X17.701754 Y175.489326 Z-0.125000
G01 X18.976859 Y175.162064 Z-0.125000
G01 X20.343034 Y174.584876 Z-0.125000
G01 X24.350487 Y172.209450 Z-0.125000
G01 X25.777383 Y171.497086 Z-0.125000
G01 X27.158745 Y171.075526 Z-0.125000
G01 X28.540106 Y171.001417 Z-0.125000
G01 X29.921441 Y171.305661 Z-0.125000
G01 X31.272455 Y171.941083 Z-0.125000
G01 X32.547559 Y172.773276 Z-0.125000
G01 X35.462047 Y174.929866 Z-0.125000
G01 X36.934504 Y175.796190 Z-0.125000
G01 X38.422122 Y176.310036 Z-0.125000
G01 X39.803457 Y176.387189 Z-0.125000
G01 X41.184819 Y176.071594 Z-0.125000
G01 X42.657249 Y175.359892 Z-0.125000
G01 X44.023450 Y174.450150 Z-0.125000
G01 X47.302269 Y172.003048 Z-0.125000
G01 X49.123843 Y170.919555 Z-0.125000
G01 X50.004269 Y170.543820 Z-0.125000
G01 X50.854322 Y170.288630 Z-0.125000
G01 X51.704400 Y170.144194 Z-0.125000
G01 X52.660709 Y170.114614 Z-0.125000
G01 X54.360840 Y170.389754 Z-0.125000
G01 X56.319045 Y171.141487 Z-0.125000
G01 X58.049524 Y172.071284 Z-0.125000
G01 X62.421282 Y174.709203 Z-0.125000
G01 X64.880422 Y175.935678 Z-0.125000
G01 X67.005579 Y176.694502 Z-0.125000
G01 X69.236993 Y177.167947 Z-0.125000
G01 X71.362150 Y177.340270 Z-0.125000
G01 X73.699847 Y177.284178 Z-0.125000
G01 X75.931260 Y177.071215 Z-0.125000
G01 X83.263093 Y176.149355 Z-0.125000
G01 X85.707020 Y175.974042 Z-0.125000
G01 X88.150973 Y175.920015 Z-0.125000
G01 X92.295031 Y176.116811 Z-0.125000
G01 X100.901942 Y177.174852 Z-0.125000
G01 X102.814586 Y177.319897 Z-0.125000
G01 X104.408461 Y177.342677 Z-0.125000
G01 X105.896079 Y177.256053 Z-0.125000
G01 X107.383697 Y177.044043 Z-0.125000
G01 X108.765058 Y176.721437 Z-0.125000
G01 X110.146420 Y176.272439 Z-0.125000
G01 X112.878768 Y175.038847 Z-0.125000
G01 X117.705926 Y172.290756 Z-0.125000
G01 X119.618570 Y171.324234 Z-0.125000
G01 X121.728567 Y170.542392 Z-0.125000
G01 X123.747467 Y170.158217 Z-0.125000
G01 X124.810059 Y170.108899 Z-0.125000
G01 X125.978881 Y170.171499 Z-0.125000
G01 X128.316578 Y170.613353 Z-0.125000
G01 X130.441735 Y171.278409 Z-0.125000
G01 X136.285950 Y173.409387 Z-0.125000
G01 X138.198594 Y173.983029 Z-0.125000
G01 X140.004982 Y174.423454 Z-0.125000
G01 X143.617757 Y175.008076 Z-0.125000
G01 X147.443045 Y175.252921 Z-0.125000
G01 X149.886998 Y175.236808 Z-0.125000
G01 X152.224668 Y175.097585 Z-0.125000
G01 X154.562365 Y174.826334 Z-0.125000
G01 X156.793778 Y174.430333 Z-0.125000
G01 X158.706422 Y173.977843 Z-0.125000
G01 X160.725349 Y173.391368 Z-0.125000
G01 X167.525873 Y171.046343 Z-0.125000
G00 Z3.000000

(End cutting path id: polyline552)


(Start cutting path id: polyline546)
(Change tool to Default tool)

G00 Z3.000000
G00 X10.688717 Y171.171305

G00 Z4.875000 (Fast pre-penetrate)
G01 Z-0.125000 F400.0(Penetrate)
G01 X12.707618 Y171.500394 Z-0.125000 F800.000000
G01 X14.407749 Y171.624668 Z-0.125000
G01 X16.001623 Y171.566566 Z-0.125000
G01 X17.489241 Y171.333230 Z-0.125000
G01 X18.870603 Y170.954321 Z-0.125000
G01 X20.358221 Y170.384488 Z-0.125000
G01 X24.714791 Y168.226179 Z-0.125000
G01 X26.308666 Y167.550752 Z-0.125000
G01 X27.902540 Y167.120593 Z-0.125000
G01 X29.390158 Y167.021586 Z-0.125000
G01 X30.984033 Y167.282306 Z-0.125000
G01 X32.547559 Y167.891720 Z-0.125000
G01 X34.095873 Y168.766802 Z-0.125000
G01 X37.556856 Y171.027081 Z-0.125000
G01 X39.272174 Y171.897983 Z-0.125000
G01 X40.122253 Y172.190585 Z-0.125000
G01 X40.972305 Y172.372856 Z-0.125000
G01 X41.716128 Y172.435853 Z-0.125000
G01 X42.566180 Y172.395743 Z-0.125000
G01 X44.053798 Y172.049933 Z-0.125000
G01 X45.571763 Y171.385644 Z-0.125000
G01 X47.029034 Y170.536809 Z-0.125000
G01 X50.763252 Y168.106879 Z-0.125000
G01 X52.766966 Y167.052753 Z-0.125000
G01 X53.829558 Y166.641909 Z-0.125000
G01 X54.785866 Y166.374310 Z-0.125000
G01 X56.698537 Y166.141530 Z-0.125000
G01 X58.717437 Y166.312635 Z-0.125000
G01 X61.055108 Y166.948455 Z-0.125000
G01 X63.180291 Y167.801021 Z-0.125000
G01 X69.343249 Y170.589355 Z-0.125000
G01 X71.468433 Y171.380855 Z-0.125000
G01 X73.593590 Y172.017257 Z-0.125000
G01 X75.825004 Y172.516869 Z-0.125000
G01 X78.162700 Y172.875167 Z-0.125000
G01 X80.819140 Y173.120806 Z-0.125000
G01 X83.900633 Y173.260109 Z-0.125000
G01 X89.638591 Y173.311941 Z-0.125000
G01 X94.632728 Y173.203118 Z-0.125000
G01 X98.245503 Y172.935280 Z-0.125000
G01 X101.326995 Y172.470911 Z-0.125000
G01 X103.983435 Y171.829588 Z-0.125000
G01 X106.533645 Y170.977975 Z-0.125000
G01 X108.871315 Y170.012167 Z-0.125000
G01 X113.759195 Y167.770726 Z-0.125000
G01 X115.778095 Y166.982771 Z-0.125000
G01 X117.903279 Y166.397831 Z-0.125000
G01 X119.815923 Y166.155129 Z-0.125000
G01 X120.984745 Y166.153277 Z-0.125000
G01 X122.153593 Y166.262021 Z-0.125000
G01 X124.597546 Y166.810448 Z-0.125000
G01 X126.828960 Y167.596604 Z-0.125000
G01 X132.673175 Y169.985127 Z-0.125000
G01 X136.073437 Y171.053698 Z-0.125000
G01 X139.367442 Y171.715023 Z-0.125000
G01 X143.086474 Y172.098404 Z-0.125000
G01 X146.699249 Y172.238395 Z-0.125000
G01 X150.737050 Y172.237601 Z-0.125000
G01 X154.243595 Y172.106104 Z-0.125000
G01 X157.218804 Y171.845463 Z-0.125000
G01 X159.769014 Y171.462347 Z-0.125000
G01 X162.212941 Y170.924820 Z-0.125000
G01 X164.656894 Y170.214653 Z-0.125000
G01 X167.525873 Y169.203707 Z-0.125000
G00 Z3.000000

(End cutting path id: polyline546)


(Start cutting path id: polyline542)
(Change tool to Default tool)

G00 Z3.000000
G00 X10.688717 Y168.923779

G00 Z4.875000 (Fast pre-penetrate)
G01 Z-0.125000 F400.0(Penetrate)
G01 X12.601361 Y168.981881 Z-0.125000 F800.000000
G01 X14.407749 Y168.924784 Z-0.125000
G01 X16.001623 Y168.756033 Z-0.125000
G01 X17.595498 Y168.458060 Z-0.125000
G01 X19.083116 Y168.057481 Z-0.125000
G01 X20.570734 Y167.545830 Z-0.125000
G01 X25.246100 Y165.561193 Z-0.125000
G01 X26.946231 Y164.930401 Z-0.125000
G01 X28.752619 Y164.487198 Z-0.125000
G01 X30.346493 Y164.371231 Z-0.125000
G01 X32.152881 Y164.605837 Z-0.125000
G01 X33.959268 Y165.224062 Z-0.125000
G01 X35.644212 Y166.078876 Z-0.125000
G01 X39.560596 Y168.400089 Z-0.125000
G01 X41.397332 Y169.246226 Z-0.125000
G01 X42.353667 Y169.545919 Z-0.125000
G01 X43.309976 Y169.730016 Z-0.125000
G01 X44.160054 Y169.790896 Z-0.125000
G01 X45.116390 Y169.742689 Z-0.125000
G01 X46.710264 Y169.401959 Z-0.125000
G01 X48.395208 Y168.741904 Z-0.125000
G01 X49.943548 Y167.943287 Z-0.125000
G01 X54.133140 Y165.542249 Z-0.125000
G01 X56.485997 Y164.452194 Z-0.125000
G01 X57.761102 Y164.020474 Z-0.125000
G01 X58.929951 Y163.736867 Z-0.125000
G01 X60.098799 Y163.562824 Z-0.125000
G01 X61.373877 Y163.494535 Z-0.125000
G01 X63.499061 Y163.635770 Z-0.125000
G01 X65.942988 Y164.112998 Z-0.125000
G01 X68.174428 Y164.741912 Z-0.125000
G01 X74.656156 Y166.804998 Z-0.125000
G01 X78.587727 Y167.799116 Z-0.125000
G01 X82.413015 Y168.443111 Z-0.125000
G01 X86.344586 Y168.777014 Z-0.125000
G01 X89.107282 Y168.827391 Z-0.125000
G01 X91.870005 Y168.729681 Z-0.125000
G01 X94.632728 Y168.478009 Z-0.125000
G01 X97.289167 Y168.080553 Z-0.125000
G01 X99.626864 Y167.598747 Z-0.125000
G01 X102.070791 Y166.966685 Z-0.125000
G01 X109.083828 Y164.734610 Z-0.125000
G01 X111.315268 Y164.105034 Z-0.125000
G01 X113.652938 Y163.648232 Z-0.125000
G01 X115.778095 Y163.494430 Z-0.125000
G01 X118.009535 Y163.652571 Z-0.125000
G01 X120.240949 Y164.139192 Z-0.125000
G01 X122.684876 Y164.981995 Z-0.125000
G01 X128.210321 Y167.348928 Z-0.125000
G01 X130.866761 Y168.327964 Z-0.125000
G01 X133.948253 Y169.136159 Z-0.125000
G01 X137.136002 Y169.595634 Z-0.125000
G01 X141.705113 Y169.789018 Z-0.125000
G01 X158.493909 Y169.731154 Z-0.125000
G01 X160.937862 Y169.570552 Z-0.125000
G01 X163.169276 Y169.294698 Z-0.125000
G01 X165.294433 Y168.894569 Z-0.125000
G01 X167.525873 Y168.324948 Z-0.125000
G00 Z3.000000

(End cutting path id: polyline542)


(Start cutting path id: polyline540)
(Change tool to Default tool)

G00 Z3.000000
G00 X10.688717 Y167.658728

G00 Z4.875000 (Fast pre-penetrate)
G01 Z-0.125000 F400.0(Penetrate)
G01 X14.514005 Y167.502624 Z-0.125000 F800.000000
G01 X16.214136 Y167.285825 Z-0.125000
G01 X17.914267 Y166.952688 Z-0.125000
G01 X20.995760 Y166.042602 Z-0.125000
G01 X27.158745 Y163.697762 Z-0.125000
G01 X28.858876 Y163.255935 Z-0.125000
G01 X30.346493 Y163.063133 Z-0.125000
G01 X32.259137 Y163.145127 Z-0.125000
G01 X34.171782 Y163.621350 Z-0.125000
G01 X36.281778 Y164.545380 Z-0.125000
G01 X40.289232 Y166.804469 Z-0.125000
G01 X42.034897 Y167.649785 Z-0.125000
G01 X43.947541 Y168.266766 Z-0.125000
G01 X44.903850 Y168.422473 Z-0.125000
G01 X45.860185 Y168.468352 Z-0.125000
G01 X46.816521 Y168.404693 Z-0.125000
G01 X47.772829 Y168.236815 Z-0.125000
G01 X49.791730 Y167.584936 Z-0.125000
G01 X51.674026 Y166.710595 Z-0.125000
G01 X56.319045 Y164.255397 Z-0.125000
G01 X58.717437 Y163.222676 Z-0.125000
G01 X60.842595 Y162.587254 Z-0.125000
G01 X62.967752 Y162.244354 Z-0.125000
G01 X65.199192 Y162.182363 Z-0.125000
G01 X67.536862 Y162.389161 Z-0.125000
G01 X70.193328 Y162.861150 Z-0.125000
G01 X77.100109 Y164.466587 Z-0.125000
G01 X80.712884 Y165.161197 Z-0.125000
G01 X84.750711 Y165.658136 Z-0.125000
G01 X88.788513 Y165.822734 Z-0.125000
G01 X92.401288 Y165.682002 Z-0.125000
G01 X96.120319 Y165.256473 Z-0.125000
G01 X99.945634 Y164.548449 Z-0.125000
G01 X108.340032 Y162.629746 Z-0.125000
G01 X110.677702 Y162.285232 Z-0.125000
G01 X112.802886 Y162.171382 Z-0.125000
G01 X115.353069 Y162.355770 Z-0.125000
G01 X117.903279 Y162.915231 Z-0.125000
G01 X120.453462 Y163.797933 Z-0.125000
G01 X125.872625 Y166.119119 Z-0.125000
G01 X128.422834 Y167.076116 Z-0.125000
G01 X131.185557 Y167.837533 Z-0.125000
G01 X134.054510 Y168.293066 Z-0.125000
G01 X135.967180 Y168.430702 Z-0.125000
G01 X138.198594 Y168.467690 Z-0.125000
G01 X145.849197 Y168.234566 Z-0.125000
G01 X149.355715 Y168.202234 Z-0.125000
G01 X160.725349 Y168.461076 Z-0.125000
G01 X164.231868 Y168.259517 Z-0.125000
G01 X167.525873 Y167.748792 Z-0.125000
G00 Z3.000000

(End cutting path id: polyline540)


(Start cutting path id: polyline538)
(Change tool to Default tool)

G00 Z3.000000
G00 X10.688717 Y166.293400

G00 Z4.875000 (Fast pre-penetrate)
G01 Z-0.125000 F400.0(Penetrate)
G01 X14.726519 Y166.030378 Z-0.125000 F800.000000
G01 X18.233037 Y165.455704 Z-0.125000
