%
(Header)
(Generated by gcodetools from Inkscape.)
(Using default header. To add your own header create file "header" in the output dir.)
M3
(Header end.)
G21 (All units in mm)

(Start cutting path id: polygon19738)
(Change tool to Default tool)

G00 Z3.000000
G00 X101.505970 Y106.949562

G00 Z4.875000 (Fast pre-penetrate)
G01 Z-0.125000 F400.0(Penetrate)
G01 X101.810188 Y107.006209 Z-0.125000 F800.000000
G01 X102.114405 Y106.949562 Z-0.125000
G01 X102.369198 Y106.793775 Z-0.125000
G01 X102.595258 Y106.468709 Z-0.125000
G01 X102.651905 Y106.164491 Z-0.125000
G01 X102.595258 Y105.860273 Z-0.125000
G01 X102.439472 Y105.605480 Z-0.125000
G01 X102.114405 Y105.379420 Z-0.125000
G01 X101.810188 Y105.322773 Z-0.125000
G01 X101.505970 Y105.379420 Z-0.125000
G01 X101.251177 Y105.535207 Z-0.125000
G01 X101.025117 Y105.860273 Z-0.125000
G01 X100.968470 Y106.164491 Z-0.125000
G01 X101.025117 Y106.468709 Z-0.125000
G01 X101.180903 Y106.723502 Z-0.125000
G01 X101.505970 Y106.949562 Z-0.125000
G00 Z3.000000

(End cutting path id: polygon19738)


(Start cutting path id: polygon19736)
(Change tool to Default tool)

G00 Z3.000000
G00 X101.237577 Y108.237710

G00 Z4.875000 (Fast pre-penetrate)
G01 Z-0.125000 F400.0(Penetrate)
G01 X101.064011 Y108.495097 Z-0.125000 F800.000000
G01 X101.000378 Y108.810321 Z-0.125000
G01 X101.064011 Y109.125545 Z-0.125000
G01 X101.237577 Y109.382932 Z-0.125000
G01 X101.494963 Y109.556498 Z-0.125000
G01 X101.810188 Y109.620130 Z-0.125000
G01 X102.125412 Y109.556498 Z-0.125000
G01 X102.382798 Y109.382932 Z-0.125000
G01 X102.556364 Y109.125545 Z-0.125000
G01 X102.619997 Y108.810321 Z-0.125000
G01 X102.556364 Y108.495097 Z-0.125000
G01 X102.382798 Y108.237710 Z-0.125000
G01 X102.125412 Y108.064144 Z-0.125000
G01 X101.810188 Y108.000512 Z-0.125000
G01 X101.494963 Y108.064144 Z-0.125000
G01 X101.237577 Y108.237710 Z-0.125000
G00 Z3.000000

(End cutting path id: polygon19736)


(Start cutting path id: polygon11932)
(Change tool to Default tool)

G00 Z3.000000
G00 X99.963054 Y109.119830

G00 Z4.875000 (Fast pre-penetrate)
G01 Z-0.125000 F400.0(Penetrate)
G01 X100.020680 Y108.810321 Z-0.125000 F800.000000
G01 X99.963054 Y108.500812 Z-0.125000
G01 X99.804569 Y108.241600 Z-0.125000
G01 X99.473867 Y108.011624 Z-0.125000
G01 X99.164358 Y107.953998 Z-0.125000
G01 X98.854848 Y108.011624 Z-0.125000
G01 X98.595636 Y108.170110 Z-0.125000
G01 X98.365661 Y108.500812 Z-0.125000
G01 X98.308035 Y108.810321 Z-0.125000
G01 X98.365661 Y109.119830 Z-0.125000
G01 X98.524146 Y109.379042 Z-0.125000
G01 X98.854848 Y109.609018 Z-0.125000
G01 X99.164358 Y109.666644 Z-0.125000
G01 X99.473867 Y109.609018 Z-0.125000
G01 X99.733079 Y109.450532 Z-0.125000
G01 X99.963054 Y109.119830 Z-0.125000
G00 Z3.000000

(End cutting path id: polygon11932)


(Start cutting path id: polygon11934)
(Change tool to Default tool)

G00 Z3.000000
G00 X98.471864 Y110.974160

G00 Z4.875000 (Fast pre-penetrate)
G01 Z-0.125000 F400.0(Penetrate)
G01 X98.346479 Y111.248427 Z-0.125000 F800.000000
G01 X98.327296 Y111.561984 Z-0.125000
G01 X98.419556 Y111.852761 Z-0.125000
G01 X98.682367 Y112.148644 Z-0.125000
G01 X98.956633 Y112.274030 Z-0.125000
G01 X99.270191 Y112.293212 Z-0.125000
G01 X99.560967 Y112.200952 Z-0.125000
G01 X99.856851 Y111.938142 Z-0.125000
G01 X99.982236 Y111.663875 Z-0.125000
G01 X100.001419 Y111.350318 Z-0.125000
G01 X99.909159 Y111.059541 Z-0.125000
G01 X99.646348 Y110.763658 Z-0.125000
G01 X99.372082 Y110.638272 Z-0.125000
G01 X99.058524 Y110.619090 Z-0.125000
G01 X98.767748 Y110.711350 Z-0.125000
G01 X98.471864 Y110.974160 Z-0.125000
G00 Z3.000000

(End cutting path id: polygon11934)


(Start cutting path id: polygon12046)
(Change tool to Default tool)

G00 Z3.000000
G00 X97.010758 Y112.163355

G00 Z4.875000 (Fast pre-penetrate)
G01 Z-0.125000 F400.0(Penetrate)
G01 X97.279151 Y111.861175 Z-0.125000 F800.000000
G01 X97.373395 Y111.564233 Z-0.125000
G01 X97.353790 Y111.244008 Z-0.125000
G01 X97.225731 Y110.963921 Z-0.125000
G01 X96.923551 Y110.695528 Z-0.125000
G01 X96.626610 Y110.601283 Z-0.125000
G01 X96.306385 Y110.620889 Z-0.125000
G01 X96.026297 Y110.748947 Z-0.125000
G01 X95.757904 Y111.051127 Z-0.125000
G01 X95.663660 Y111.348069 Z-0.125000
G01 X95.683265 Y111.668294 Z-0.125000
G01 X95.811324 Y111.948381 Z-0.125000
G01 X96.113504 Y112.216774 Z-0.125000
G01 X96.410445 Y112.311019 Z-0.125000
G01 X96.730670 Y112.291413 Z-0.125000
G01 X97.010758 Y112.163355 Z-0.125000
G00 Z3.000000

(End cutting path id: polygon12046)


(Start cutting path id: polygon12044)
(Change tool to Default tool)

G00 Z3.000000
G00 X96.838673 Y113.344162

G00 Z4.875000 (Fast pre-penetrate)
G01 Z-0.125000 F400.0(Penetrate)
G01 X96.518528 Y113.279525 Z-0.125000 F800.000000
G01 X96.198382 Y113.344162 Z-0.125000
G01 X95.936974 Y113.520428 Z-0.125000
G01 X95.760709 Y113.781836 Z-0.125000
G01 X95.696071 Y114.101981 Z-0.125000
G01 X95.760709 Y114.422126 Z-0.125000
G01 X95.936974 Y114.683534 Z-0.125000
G01 X96.198382 Y114.859800 Z-0.125000
G01 X96.518528 Y114.924437 Z-0.125000
G01 X96.838673 Y114.859800 Z-0.125000
G01 X97.100081 Y114.683534 Z-0.125000
G01 X97.276346 Y114.422126 Z-0.125000
G01 X97.340984 Y114.101981 Z-0.125000
G01 X97.276346 Y113.781836 Z-0.125000
G01 X97.100081 Y113.520428 Z-0.125000
G01 X96.838673 Y113.344162 Z-0.125000
G00 Z3.000000

(End cutting path id: polygon12044)


(Start cutting path id: polygon11936)
(Change tool to Default tool)

G00 Z3.000000
G00 X98.859293 Y114.824134

G00 Z4.875000 (Fast pre-penetrate)
G01 Z-0.125000 F400.0(Penetrate)
G01 X99.164358 Y114.885702 Z-0.125000 F800.000000
G01 X99.469422 Y114.824134 Z-0.125000
G01 X99.718553 Y114.656177 Z-0.125000
G01 X99.886510 Y114.407045 Z-0.125000
G01 X99.948079 Y114.101981 Z-0.125000
G01 X99.886510 Y113.796917 Z-0.125000
G01 X99.718553 Y113.547785 Z-0.125000
G01 X99.469422 Y113.379828 Z-0.125000
G01 X99.164358 Y113.318260 Z-0.125000
G01 X98.859293 Y113.379828 Z-0.125000
G01 X98.610162 Y113.547785 Z-0.125000
G01 X98.442205 Y113.796917 Z-0.125000
G01 X98.380636 Y114.101981 Z-0.125000
G01 X98.442205 Y114.407045 Z-0.125000
G01 X98.610162 Y114.656177 Z-0.125000
G01 X98.859293 Y114.824134 Z-0.125000
G00 Z3.000000

(End cutting path id: polygon11936)


(Start cutting path id: polygon12042)
(Change tool to Default tool)

G00 Z3.000000
G00 X96.820946 Y116.031955

G00 Z4.875000 (Fast pre-penetrate)
G01 Z-0.125000 F400.0(Penetrate)
G01 X96.518528 Y115.970889 Z-0.125000 F800.000000
G01 X96.216109 Y116.031955 Z-0.125000
G01 X95.969174 Y116.198457 Z-0.125000
G01 X95.802672 Y116.445393 Z-0.125000
G01 X95.741606 Y116.747811 Z-0.125000
G01 X95.802672 Y117.050229 Z-0.125000
G01 X95.969174 Y117.297165 Z-0.125000
G01 X96.216109 Y117.463667 Z-0.125000
G01 X96.518528 Y117.524733 Z-0.125000
G01 X96.820946 Y117.463667 Z-0.125000
G01 X97.067881 Y117.297165 Z-0.125000
G01 X97.234383 Y117.050229 Z-0.125000
G01 X97.295449 Y116.747811 Z-0.125000
G01 X97.234383 Y116.445393 Z-0.125000
G01 X97.067881 Y116.198457 Z-0.125000
G01 X96.820946 Y116.031955 Z-0.125000
G00 Z3.000000

(End cutting path id: polygon12042)


(Start cutting path id: polygon12084)
(Change tool to Default tool)

G00 Z3.000000
G00 X93.976837 Y115.924005

G00 Z4.875000 (Fast pre-penetrate)
G01 Z-0.125000 F400.0(Penetrate)
G01 X93.668254 Y115.942897 Z-0.125000 F800.000000
G01 X93.398353 Y116.066298 Z-0.125000
G01 X93.139697 Y116.357498 Z-0.125000
G01 X93.048892 Y116.643671 Z-0.125000
G01 X93.067783 Y116.952254 Z-0.125000
G01 X93.191185 Y117.222155 Z-0.125000
G01 X93.482385 Y117.480812 Z-0.125000
G01 X93.768558 Y117.571617 Z-0.125000
G01 X94.077141 Y117.552725 Z-0.125000
G01 X94.347042 Y117.429324 Z-0.125000
G01 X94.605698 Y117.138124 Z-0.125000
G01 X94.696503 Y116.851951 Z-0.125000
G01 X94.677612 Y116.543368 Z-0.125000
G01 X94.554210 Y116.273467 Z-0.125000
G01 X94.263010 Y116.014810 Z-0.125000
G01 X93.976837 Y115.924005 Z-0.125000
G00 Z3.000000

(End cutting path id: polygon12084)


(Start cutting path id: polygon12082)
(Change tool to Default tool)

G00 Z3.000000
G00 X93.174622 Y113.616101

G00 Z4.875000 (Fast pre-penetrate)
G01 Z-0.125000 F400.0(Penetrate)
G01 X93.048230 Y113.892590 Z-0.125000 F800.000000
G01 X93.028889 Y114.208661 Z-0.125000
G01 X93.121890 Y114.501766 Z-0.125000
G01 X93.386817 Y114.800057 Z-0.125000
G01 X93.663307 Y114.926448 Z-0.125000
G01 X93.979377 Y114.945789 Z-0.125000
G01 X94.272482 Y114.852788 Z-0.125000
G01 X94.570773 Y114.587861 Z-0.125000
G01 X94.697165 Y114.311372 Z-0.125000
G01 X94.716506 Y113.995301 Z-0.125000
G01 X94.623505 Y113.702196 Z-0.125000
G01 X94.358578 Y113.403905 Z-0.125000
G01 X94.082088 Y113.277514 Z-0.125000
G01 X93.766018 Y113.258173 Z-0.125000
G01 X93.472913 Y113.351174 Z-0.125000
G01 X93.174622 Y113.616101 Z-0.125000
G00 Z3.000000

(End cutting path id: polygon12082)


(Start cutting path id: polygon11286)
(Change tool to Default tool)

G00 Z3.000000
G00 X92.062288 Y114.314177

G00 Z4.875000 (Fast pre-penetrate)
G01 Z-0.125000 F400.0(Penetrate)
G01 X92.081894 Y113.993899 Z-0.125000 F800.000000
G01 X91.987649 Y113.696878 Z-0.125000
G01 X91.719204 Y113.394645 Z-0.125000
G01 X91.439063 Y113.266560 Z-0.125000
G01 X91.118785 Y113.246955 Z-0.125000
G01 X90.821764 Y113.341199 Z-0.125000
G01 X90.519531 Y113.609645 Z-0.125000
G01 X90.391447 Y113.889785 Z-0.125000
G01 X90.371841 Y114.210063 Z-0.125000
G01 X90.466086 Y114.507084 Z-0.125000
G01 X90.734531 Y114.809317 Z-0.125000
G01 X91.014672 Y114.937402 Z-0.125000
G01 X91.334950 Y114.957007 Z-0.125000
G01 X91.631971 Y114.862763 Z-0.125000
G01 X91.934204 Y114.594317 Z-0.125000
G01 X92.062288 Y114.314177 Z-0.125000
G00 Z3.000000

(End cutting path id: polygon11286)


(Start cutting path id: polygon19180)
(Change tool to Default tool)

G00 Z3.000000
G00 X91.952725 Y111.961372

G00 Z4.875000 (Fast pre-penetrate)
G01 Z-0.125000 F400.0(Penetrate)
G01 X92.084169 Y111.673903 Z-0.125000 F800.000000
G01 X92.104278 Y111.345238 Z-0.125000
G01 X92.007573 Y111.040438 Z-0.125000
G01 X91.732089 Y110.730294 Z-0.125000
G01 X91.444619 Y110.598849 Z-0.125000
G01 X91.115954 Y110.578741 Z-0.125000
G01 X90.811155 Y110.675446 Z-0.125000
G01 X90.501010 Y110.950930 Z-0.125000
G01 X90.369566 Y111.238399 Z-0.125000
G01 X90.349457 Y111.567064 Z-0.125000
G01 X90.446162 Y111.871864 Z-0.125000
G01 X90.721646 Y112.182008 Z-0.125000
G01 X91.009116 Y112.313453 Z-0.125000
G01 X91.337781 Y112.333561 Z-0.125000
G01 X91.642580 Y112.236856 Z-0.125000
G01 X91.952725 Y111.961372 Z-0.125000
G00 Z3.000000

(End cutting path id: polygon19180)


(Start cutting path id: polygon12080)
(Change tool to Default tool)

G00 Z3.000000
G00 X93.465928 Y112.220055

G00 Z4.875000 (Fast pre-penetrate)
G01 Z-0.125000 F400.0(Penetrate)
G01 X93.764166 Y112.314696 Z-0.125000 F800.000000
G01 X94.085766 Y112.295011 Z-0.125000
G01 X94.367044 Y112.166398 Z-0.125000
G01 X94.636602 Y111.862921 Z-0.125000
G01 X94.731243 Y111.564683 Z-0.125000
G01 X94.711558 Y111.243082 Z-0.125000
G01 X94.582944 Y110.961804 Z-0.125000
G01 X94.279467 Y110.692247 Z-0.125000
G01 X93.981229 Y110.597606 Z-0.125000
G01 X93.659629 Y110.617291 Z-0.125000
G01 X93.378351 Y110.745904 Z-0.125000
G01 X93.108793 Y111.049381 Z-0.125000
G01 X93.014152 Y111.347619 Z-0.125000
G01 X93.033837 Y111.669220 Z-0.125000
G01 X93.162451 Y111.950498 Z-0.125000
G01 X93.465928 Y112.220055 Z-0.125000
G00 Z3.000000

(End cutting path id: polygon12080)


(Start cutting path id: polygon19178)
(Change tool to Default tool)

G00 Z3.000000
G00 X91.531217 Y109.660162

G00 Z4.875000 (Fast pre-penetrate)
G01 Z-0.125000 F400.0(Penetrate)
G01 X91.864989 Y109.448442 Z-0.125000 F800.000000
G01 X92.076708 Y109.114671 Z-0.125000
G01 X92.129307 Y108.810321 Z-0.125000
G01 X92.076708 Y108.505971 Z-0.125000
G01 X91.864989 Y108.172200 Z-0.125000
G01 X91.531217 Y107.960480 Z-0.125000
G01 X91.226868 Y107.907881 Z-0.125000
G01 X90.922518 Y107.960480 Z-0.125000
G01 X90.588746 Y108.172200 Z-0.125000
G01 X90.377027 Y108.505971 Z-0.125000
G01 X90.324428 Y108.810321 Z-0.125000
G01 X90.377027 Y109.114671 Z-0.125000
G01 X90.588746 Y109.448442 Z-0.125000
G01 X90.922518 Y109.660162 Z-0.125000
G01 X91.226868 Y109.712761 Z-0.125000
G01 X91.531217 Y109.660162 Z-0.125000
G00 Z3.000000

(End cutting path id: polygon19178)


(Start cutting path id: polygon11306)
(Change tool to Default tool)

G00 Z3.000000
G00 X89.143329 Y110.754636

G00 Z4.875000 (Fast pre-penetrate)
G01 Z-0.125000 F400.0(Penetrate)
G01 X88.884250 Y110.609538 Z-0.125000 F800.000000
G01 X88.581038 Y110.557124 Z-0.125000
G01 X88.185671 Y110.648511 Z-0.125000
G01 X87.879522 Y110.893859 Z-0.125000
G01 X87.734425 Y111.152939 Z-0.125000
G01 X87.682011 Y111.456151 Z-0.125000
G01 X87.773398 Y111.851517 Z-0.125000
G01 X88.018746 Y112.157666 Z-0.125000
G01 X88.277825 Y112.302764 Z-0.125000
G01 X88.581037 Y112.355178 Z-0.125000
G01 X88.976404 Y112.263791 Z-0.125000
G01 X89.282553 Y112.018443 Z-0.125000
G01 X89.427650 Y111.759363 Z-0.125000
G01 X89.480064 Y111.456151 Z-0.125000
G01 X89.388677 Y111.060785 Z-0.125000
G01 X89.143329 Y110.754636 Z-0.125000
G00 Z3.000000

(End cutting path id: polygon11306)


(Start cutting path id: polygon11308)
(Change tool to Default tool)

G00 Z3.000000
G00 X87.753766 Y108.405350

G00 Z4.875000 (Fast pre-penetrate)
G01 Z-0.125000 F400.0(Penetrate)
G01 X87.666374 Y108.702927 Z-0.125000 F800.000000
G01 X87.684498 Y109.021458 Z-0.125000
G01 X87.862483 Y109.386265 Z-0.125000
G01 X88.176067 Y109.637593 Z-0.125000
G01 X88.473643 Y109.724984 Z-0.125000
G01 X88.792175 Y109.706860 Z-0.125000
G01 X89.156982 Y109.528876 Z-0.125000
G01 X89.408309 Y109.215292 Z-0.125000
G01 X89.495701 Y108.917715 Z-0.125000
G01 X89.477577 Y108.599184 Z-0.125000
G01 X89.299592 Y108.234377 Z-0.125000
G01 X88.986008 Y107.983049 Z-0.125000
G01 X88.688432 Y107.895658 Z-0.125000
G01 X88.369900 Y107.913782 Z-0.125000
G01 X88.005093 Y108.091766 Z-0.125000
G01 X87.753766 Y108.405350 Z-0.125000
G00 Z3.000000

(End cutting path id: polygon11308)


(Start cutting path id: polygon11256)
(Change tool to Default tool)

G00 Z3.000000
G00 X86.518692 Y106.892438

G00 Z4.875000 (Fast pre-penetrate)
G01 Z-0.125000 F400.0(Penetrate)
G01 X86.773301 Y106.574753 Z-0.125000 F800.000000
G01 X86.868127 Y106.164491 Z-0.125000
G01 X86.813729 Y105.849849 Z-0.125000
G01 X86.663155 Y105.581006 Z-0.125000
G01 X86.345470 Y105.326398 Z-0.125000
G01 X85.935208 Y105.231571 Z-0.125000
G01 X85.620565 Y105.285970 Z-0.125000
G01 X85.351723 Y105.436544 Z-0.125000
G01 X85.097114 Y105.754229 Z-0.125000
G01 X85.002288 Y106.164491 Z-0.125000
G01 X85.056686 Y106.479133 Z-0.125000
G01 X85.207260 Y106.747976 Z-0.125000
G01 X85.524945 Y107.002584 Z-0.125000
G01 X85.935208 Y107.097411 Z-0.125000
G01 X86.249850 Y107.043012 Z-0.125000
G01 X86.518692 Y106.892438 Z-0.125000
G00 Z3.000000

(End cutting path id: polygon11256)


(Start cutting path id: polygon11254)
(Change tool to Default tool)

G00 Z3.000000
G00 X87.665951 Y105.948988

G00 Z4.875000 (Fast pre-penetrate)
G01 Z-0.125000 F400.0(Penetrate)
G01 X87.647456 Y106.274108 Z-0.125000 F800.000000
G01 X87.736647 Y106.577849 Z-0.125000
G01 X87.993161 Y106.897915 Z-0.125000
G01 X88.365535 Y107.079578 Z-0.125000
G01 X88.690654 Y107.098072 Z-0.125000
G01 X88.994396 Y107.008881 Z-0.125000
G01 X89.314462 Y106.752368 Z-0.125000
G01 X89.496124 Y106.379994 Z-0.125000
G01 X89.514619 Y106.054874 Z-0.125000
G01 X89.425428 Y105.751133 Z-0.125000
G01 X89.168914 Y105.431067 Z-0.125000
G01 X88.796540 Y105.249404 Z-0.125000
G01 X88.471421 Y105.230910 Z-0.125000
G01 X88.167679 Y105.320101 Z-0.125000
G01 X87.847613 Y105.576614 Z-0.125000
G01 X87.665951 Y105.948988 Z-0.125000
G00 Z3.000000

(End cutting path id: polygon11254)


(Start cutting path id: polygon11252)
(Change tool to Default tool)

G00 Z3.000000
G00 X87.869759 Y104.160592

G00 Z4.875000 (Fast pre-penetrate)
G01 Z-0.125000 F400.0(Penetrate)
G01 X88.185327 Y104.391494 Z-0.125000 F800.000000
G01 X88.581038 Y104.476769 Z-0.125000
G01 X88.883879 Y104.427927 Z-0.125000
G01 X89.222969 Y104.229939 Z-0.125000
G01 X89.453870 Y103.914371 Z-0.125000
G01 X89.539145 Y103.518661 Z-0.125000
G01 X89.490303 Y103.215819 Z-0.125000
G01 X89.292316 Y102.876730 Z-0.125000
G01 X88.976748 Y102.645828 Z-0.125000
G01 X88.581038 Y102.560553 Z-0.125000
G01 X88.278196 Y102.609395 Z-0.125000
G01 X87.939106 Y102.807383 Z-0.125000
G01 X87.708205 Y103.122951 Z-0.125000
G01 X87.622930 Y103.518661 Z-0.125000
G01 X87.671772 Y103.821503 Z-0.125000
G01 X87.869759 Y104.160592 Z-0.125000
G00 Z3.000000

(End cutting path id: polygon11252)


(Start cutting path id: polygon19168)
(Change tool to Default tool)

G00 Z3.000000
G00 X86.589654 Y102.793518

G00 Z4.875000 (Fast pre-penetrate)
G01 Z-0.125000 F400.0(Penetrate)
G01 X86.243949 Y102.591668 Z-0.125000 F800.000000
G01 X85.935208 Y102.541873 Z-0.125000
G01 X85.531771 Y102.628815 Z-0.125000
G01 X85.210065 Y102.864215 Z-0.125000
G01 X85.008215 Y103.209919 Z-0.125000
G01 X84.958420 Y103.518661 Z-0.125000
G01 X85.045362 Y103.922097 Z-0.125000
G01 X85.280761 Y104.243804 Z-0.125000
G01 X85.626466 Y104.445654 Z-0.125000
G01 X85.935208 Y104.495449 Z-0.125000
G01 X86.338644 Y104.408507 Z-0.125000
G01 X86.660350 Y104.173107 Z-0.125000
G01 X86.862200 Y103.827403 Z-0.125000
G01 X86.911995 Y103.518661 Z-0.125000
G01 X86.825053 Y103.115225 Z-0.125000
G01 X86.589654 Y102.793518 Z-0.125000
G00 Z3.000000

(End cutting path id: polygon19168)


(Start cutting path id: polygon19166)
(Change tool to Default tool)

G00 Z3.000000
G00 X86.254400 Y101.831177

G00 Z4.875000 (Fast pre-penetrate)
G01 Z-0.125000 F400.0(Penetrate)
G01 X86.611799 Y101.622474 Z-0.125000 F800.000000
G01 X86.855136 Y101.289893 Z-0.125000
G01 X86.945015 Y100.872831 Z-0.125000
G01 X86.855136 Y100.455769 Z-0.125000
G01 X86.611799 Y100.123188 Z-0.125000
G01 X86.254400 Y99.914485 Z-0.125000
G01 X85.935208 Y99.863024 Z-0.125000
G01 X85.616015 Y99.914485 Z-0.125000
G01 X85.258616 Y100.123188 Z-0.125000
G01 X85.015279 Y100.455769 Z-0.125000
G01 X84.925400 Y100.872831 Z-0.125000
G01 X84.976861 Y101.192024 Z-0.125000
G01 X85.185564 Y101.549423 Z-0.125000
G01 X85.518145 Y101.792760 Z-0.125000
G01 X85.935208 Y101.882638 Z-0.125000
G01 X86.254400 Y101.831177 Z-0.125000
G00 Z3.000000

(End cutting path id: polygon19166)


(Start cutting path id: polygon11250)
(Change tool to Default tool)

G00 Z3.000000
G00 X89.421512 Y100.381553

G00 Z4.875000 (Fast pre-penetrate)
G01 Z-0.125000 F400.0(Penetrate)
G01 X89.155897 Y100.087284 Z-0.125000 F800.000000
G01 X88.789846 Y99.921920 Z-0.125000
G01 X88.474993 Y99.905198 Z-0.125000
G01 X88.089760 Y100.032357 Z-0.125000
G01 X87.795491 Y100.297972 Z-0.125000
G01 X87.630126 Y100.664022 Z-0.125000
G01 X87.613405 Y100.978876 Z-0.125000
G01 X87.740563 Y101.364109 Z-0.125000
G01 X88.006178 Y101.658378 Z-0.125000
G01 X88.372229 Y101.823742 Z-0.125000
G01 X88.687082 Y101.840464 Z-0.125000
G01 X89.072315 Y101.713305 Z-0.125000
G01 X89.366584 Y101.447690 Z-0.125000
G01 X89.531949 Y101.081640 Z-0.125000
G01 X89.548670 Y100.766786 Z-0.125000
G01 X89.421512 Y100.381553 Z-0.125000
G00 Z3.000000

(End cutting path id: polygon11250)


(Start cutting path id: polygon19182)
(Change tool to Default tool)

G00 Z3.000000
G00 X92.100547 Y101.185727

G00 Z4.875000 (Fast pre-penetrate)
G01 Z-0.125000 F400.0(Penetrate)
G01 X92.154628 Y100.872831 Z-0.125000 F800.000000
G01 X92.100547 Y100.559935 Z-0.125000
G01 X91.882901 Y100.216797 Z-0.125000
G01 X91.539763 Y99.999151 Z-0.125000
G01 X91.226868 Y99.945071 Z-0.125000
G01 X90.913972 Y99.999151 Z-0.125000
G01 X90.570834 Y100.216797 Z-0.125000
G01 X90.353188 Y100.559935 Z-0.125000
G01 X90.299107 Y100.872831 Z-0.125000
G01 X90.353188 Y101.185727 Z-0.125000
G01 X90.570834 Y101.528865 Z-0.125000
G01 X90.913972 Y101.746511 Z-0.125000
G01 X91.226868 Y101.800591 Z-0.125000
G01 X91.539763 Y101.746511 Z-0.125000
G01 X91.882901 Y101.528865 Z-0.125000
G01 X92.100547 Y101.185727 Z-0.125000
G00 Z3.000000

(End cutting path id: polygon19182)


(Start cutting path id: polygon12072)
(Change tool to Default tool)

G00 Z3.000000
G00 X92.963432 Y100.872831

G00 Z4.875000 (Fast pre-penetrate)
G01 Z-0.125000 F400.0(Penetrate)
G01 X93.016428 Y101.179483 Z-0.125000 F800.000000
G01 X93.163192 Y101.441526 Z-0.125000
G01 X93.472833 Y101.689678 Z-0.125000
G01 X93.872698 Y101.782097 Z-0.125000
G01 X94.179349 Y101.729101 Z-0.125000
G01 X94.441392 Y101.582337 Z-0.125000
G01 X94.689545 Y101.272695 Z-0.125000
G01 X94.781963 Y100.872831 Z-0.125000
G01 X94.728967 Y100.566179 Z-0.125000
G01 X94.582203 Y100.304136 Z-0.125000
G01 X94.272562 Y100.055984 Z-0.125000
G01 X93.872698 Y99.963565 Z-0.125000
G01 X93.566046 Y100.016561 Z-0.125000
G01 X93.304003 Y100.163325 Z-0.125000
G01 X93.055850 Y100.472967 Z-0.125000
G01 X92.963432 Y100.872831 Z-0.125000
G00 Z3.000000

(End cutting path id: polygon12072)


(Start cutting path id: polygon12074)
(Change tool to Default tool)

G00 Z3.000000
G00 X93.571152 Y102.676652

G00 Z4.875000 (Fast pre-penetrate)
G01 Z-0.125000 F400.0(Penetrate)
G01 X93.240450 Y102.886413 Z-0.125000 F800.000000
G01 X93.030689 Y103.217116 Z-0.125000
G01 X92.978566 Y103.518661 Z-0.125000
G01 X93.030689 Y103.820206 Z-0.125000
G01 X93.240450 Y104.150909 Z-0.125000
G01 X93.571152 Y104.360670 Z-0.125000
G01 X93.872698 Y104.412793 Z-0.125000
G01 X94.174243 Y104.360670 Z-0.125000
G01 X94.504945 Y104.150909 Z-0.125000
G01 X94.714706 Y103.820206 Z-0.125000
G01 X94.766829 Y103.518661 Z-0.125000
G01 X94.714706 Y103.217116 Z-0.125000
G01 X94.504945 Y102.886413 Z-0.125000
G01 X94.174243 Y102.676652 Z-0.125000
G01 X93.872698 Y102.624529 Z-0.125000
G01 X93.571152 Y102.676652 Z-0.125000
G00 Z3.000000

(End cutting path id: polygon12074)


(Start cutting path id: polygon12052)
(Change tool to Default tool)

G00 Z3.000000
G00 X95.789257 Y103.011059

G00 Z4.875000 (Fast pre-penetrate)
G01 Z-0.125000 F400.0(Penetrate)
G01 X95.657204 Y103.299904 Z-0.125000 F800.000000
G01 X95.636990 Y103.630103 Z-0.125000
G01 X95.734171 Y103.936332 Z-0.125000
G01 X96.010925 Y104.247931 Z-0.125000
G01 X96.299770 Y104.379984 Z-0.125000
G01 X96.629970 Y104.400199 Z-0.125000
G01 X96.936198 Y104.303017 Z-0.125000
G01 X97.247798 Y104.026263 Z-0.125000
G01 X97.379851 Y103.737418 Z-0.125000
G01 X97.400065 Y103.407219 Z-0.125000
G01 X97.302884 Y103.100990 Z-0.125000
G01 X97.026130 Y102.789391 Z-0.125000
G01 X96.737285 Y102.657338 Z-0.125000
G01 X96.407085 Y102.637123 Z-0.125000
G01 X96.100857 Y102.734305 Z-0.125000
G01 X95.789257 Y103.011059 Z-0.125000
G00 Z3.000000

(End cutting path id: polygon12052)


(Start cutting path id: polygon12054)
(Change tool to Default tool)

G00 Z3.000000
G00 X95.694060 Y101.276426

G00 Z4.875000 (Fast pre-penetrate)
G01 Z-0.125000 F400.0(Penetrate)
G01 X95.944515 Y101.588951 Z-0.125000 F800.000000
G01 X96.308105 Y101.766328 Z-0.125000
G01 X96.625551 Y101.784399 Z-0.125000
G01 X96.922122 Y101.697298 Z-0.125000
G01 X97.234648 Y101.446844 Z-0.125000
G01 X97.412024 Y101.083254 Z-0.125000
G01 X97.430095 Y100.765807 Z-0.125000
G01 X97.342995 Y100.469236 Z-0.125000
G01 X97.092540 Y100.156711 Z-0.125000
G01 X96.728950 Y99.979334 Z-0.125000
G01 X96.411504 Y99.961263 Z-0.125000
G01 X96.114933 Y100.048364 Z-0.125000
G01 X95.802407 Y100.298818 Z-0.125000
G01 X95.625031 Y100.662408 Z-0.125000
G01 X95.606960 Y100.979855 Z-0.125000
G01 X95.694060 Y101.276426 Z-0.125000
G00 Z3.000000

(End cutting path id: polygon12054)


(Start cutting path id: polygon12070)
(Change tool to Default tool)

G00 Z3.000000
G00 X94.465946 Y98.967145

G00 Z4.875000 (Fast pre-penetrate)
G01 Z-0.125000 F400.0(Penetrate)
G01 X94.724814 Y98.644143 Z-0.125000 F800.000000
G01 X94.821228 Y98.227001 Z-0.125000
G01 X94.765930 Y97.907094 Z-0.125000
G01 X94.612842 Y97.633753 Z-0.125000
G01 X94.289839 Y97.374885 Z-0.125000
G01 X93.872698 Y97.278471 Z-0.125000
G01 X93.552790 Y97.333769 Z-0.125000
G01 X93.279449 Y97.486857 Z-0.125000
G01 X93.020581 Y97.809859 Z-0.125000
G01 X92.924167 Y98.227001 Z-0.125000
G01 X92.979465 Y98.546908 Z-0.125000
G01 X93.132553 Y98.820249 Z-0.125000
G01 X93.455556 Y99.079117 Z-0.125000
G01 X93.872698 Y99.175531 Z-0.125000
G01 X94.192605 Y99.120233 Z-0.125000
G01 X94.465946 Y98.967145 Z-0.125000
G00 Z3.000000

(End cutting path id: polygon12070)


(Start cutting path id: polygon19184)
(Change tool to Default tool)

G00 Z3.000000
G00 X92.188362 Y98.227001

G00 Z4.875000 (Fast pre-penetrate)
G01 Z-0.125000 F400.0(Penetrate)
G01 X92.139335 Y97.923101 Z-0.125000 F800.000000
G01 X91.940660 Y97.582794 Z-0.125000
G01 X91.623980 Y97.351073 Z-0.125000
G01 X91.226868 Y97.265506 Z-0.125000
G01 X90.922967 Y97.314534 Z-0.125000
G01 X90.582661 Y97.513209 Z-0.125000
G01 X90.350939 Y97.829888 Z-0.125000
G01 X90.265373 Y98.227001 Z-0.125000
G01 X90.314400 Y98.530901 Z-0.125000
G01 X90.513075 Y98.871208 Z-0.125000
G01 X90.829755 Y99.102929 Z-0.125000
G01 X91.226868 Y99.188496 Z-0.125000
G01 X91.530768 Y99.139468 Z-0.125000
G01 X91.871074 Y98.940793 Z-0.125000
G01 X92.102796 Y98.624114 Z-0.125000
G01 X92.188362 Y98.227001 Z-0.125000
G00 Z3.000000

(End cutting path id: polygon19184)


(Start cutting path id: polygon11906)
(Change tool to Default tool)

G00 Z3.000000
G00 X93.011797 Y95.077961

G00 Z4.875000 (Fast pre-penetrate)
G01 Z-0.125000 F400.0(Penetrate)
G01 X92.881517 Y95.472533 Z-0.125000 F800.000000
G01 X92.898662 Y95.795060 Z-0.125000
G01 X93.068048 Y96.170000 Z-0.125000
G01 X93.369487 Y96.442071 Z-0.125000
G01 X93.764060 Y96.572352 Z-0.125000
G01 X94.086586 Y96.555207 Z-0.125000
G01 X94.461527 Y96.385821 Z-0.125000
G01 X94.733598 Y96.084381 Z-0.125000
G01 X94.863878 Y95.689809 Z-0.125000
G01 X94.846733 Y95.367282 Z-0.125000
G01 X94.677347 Y94.992342 Z-0.125000
G01 X94.375908 Y94.720271 Z-0.125000
G01 X93.981335 Y94.589990 Z-0.125000
G01 X93.658809 Y94.607135 Z-0.125000
G01 X93.283868 Y94.776521 Z-0.125000
G01 X93.011797 Y95.077961 Z-0.125000
G00 Z3.000000

(End cutting path id: polygon11906)


(Start cutting path id: polygon19186)
(Change tool to Default tool)

G00 Z3.000000
G00 X91.442873 Y94.597478

G00 Z4.875000 (Fast pre-penetrate)
G01 Z-0.125000 F400.0(Penetrate)
G01 X91.117145 Y94.580148 Z-0.125000 F800.000000
G01 X90.718656 Y94.711725 Z-0.125000
G01 X90.414227 Y94.986494 Z-0.125000
G01 X90.243174 Y95.365165 Z-0.125000
G01 X90.225844 Y95.690894 Z-0.125000
G01 X90.357421 Y96.089382 Z-0.125000
G01 X90.632191 Y96.393811 Z-0.125000
G01 X91.010862 Y96.564864 Z-0.125000
G01 X91.336590 Y96.582194 Z-0.125000
G01 X91.735079 Y96.450617 Z-0.125000
G01 X92.039508 Y96.175848 Z-0.125000
G01 X92.210561 Y95.797177 Z-0.125000
G01 X92.227891 Y95.471448 Z-0.125000
G01 X92.096314 Y95.072960 Z-0.125000
G01 X91.821544 Y94.768531 Z-0.125000
G01 X91.442873 Y94.597478 Z-0.125000
G00 Z3.000000

(End cutting path id: polygon19186)


(Start cutting path id: polygon19188)
(Change tool to Default tool)

G00 Z3.000000
G00 X90.566521 Y93.736419

G00 Z4.875000 (Fast pre-penetrate)
G01 Z-0.125000 F400.0(Penetrate)
G01 X90.918152 Y93.926813 Z-0.125000 F800.000000
G01 X91.333018 Y93.968114 Z-0.125000
G01 X91.721691 Y93.848179 Z-0.125000
G01 X92.027945 Y93.595687 Z-0.125000
G01 X92.218339 Y93.244056 Z-0.125000
G01 X92.259641 Y92.829190 Z-0.125000
G01 X92.139705 Y92.440518 Z-0.125000
G01 X91.887214 Y92.134263 Z-0.125000
G01 X91.535583 Y91.943869 Z-0.125000
G01 X91.120717 Y91.902568 Z-0.125000
G01 X90.732044 Y92.022503 Z-0.125000
G01 X90.425790 Y92.274995 Z-0.125000
G01 X90.235396 Y92.626626 Z-0.125000
G01 X90.194094 Y93.041492 Z-0.125000
G01 X90.314030 Y93.430164 Z-0.125000
G01 X90.566521 Y93.736419 Z-0.125000
G00 Z3.000000

(End cutting path id: polygon19188)


(Start cutting path id: polygon11244)
(Change tool to Default tool)

G00 Z3.000000
G00 X88.980558 Y91.925560

G00 Z4.875000 (Fast pre-penetrate)
G01 Z-0.125000 F400.0(Penetrate)
G01 X88.581038 Y91.849704 Z-0.125000 F800.000000
G01 X88.181517 Y91.925560 Z-0.125000
G01 X87.779483 Y92.203108 Z-0.125000
G01 X87.571256 Y92.535821 Z-0.125000
G01 X87.495401 Y92.935341 Z-0.125000
G01 X87.571256 Y93.334861 Z-0.125000
G01 X87.848804 Y93.736895 Z-0.125000
G01 X88.181517 Y93.945122 Z-0.125000
G01 X88.581038 Y94.020978 Z-0.125000
G01 X88.980558 Y93.945122 Z-0.125000
G01 X89.382592 Y93.667574 Z-0.125000
G01 X89.590819 Y93.334861 Z-0.125000
G01 X89.666674 Y92.935341 Z-0.125000
G01 X89.590819 Y92.535821 Z-0.125000
G01 X89.313271 Y92.133787 Z-0.125000
G01 X88.980558 Y91.925560 Z-0.125000
G00 Z3.000000

(End cutting path id: polygon11244)


(Start cutting path id: polygon19160)
(Change tool to Default tool)

G00 Z3.000000
G00 X86.979570 Y93.348567

G00 Z4.875000 (Fast pre-penetrate)
G01 Z-0.125000 F400.0(Penetrate)
G01 X87.058045 Y92.935341 Z-0.125000 F800.000000
G01 X86.979570 Y92.522115 Z-0.125000
G01 X86.764225 Y92.178025 Z-0.125000
G01 X86.348433 Y91.890979 Z-0.125000
G01 X85.935208 Y91.812504 Z-0.125000
G01 X85.521982 Y91.890979 Z-0.125000
G01 X85.177892 Y92.106323 Z-0.125000
G01 X84.890845 Y92.522115 Z-0.125000
G01 X84.812370 Y92.935341 Z-0.125000
G01 X84.890845 Y93.348567 Z-0.125000
G01 X85.106190 Y93.692657 Z-0.125000
G01 X85.521982 Y93.979703 Z-0.125000
G01 X85.935208 Y94.058178 Z-0.125000
G01 X86.348433 Y93.979703 Z-0.125000
G01 X86.692523 Y93.764359 Z-0.125000
G01 X86.979570 Y93.348567 Z-0.125000
G00 Z3.000000

(End cutting path id: polygon19160)


(Start cutting path id: polygon11246)
(Change tool to Default tool)

G00 Z3.000000
G00 X87.839861 Y94.839995

G00 Z4.875000 (Fast pre-penetrate)
G01 Z-0.125000 F400.0(Penetrate)
G01 X87.615230 Y95.173158 Z-0.125000 F800.000000
G01 X87.532839 Y95.581171 Z-0.125000
G01 X87.615230 Y95.989184 Z-0.125000
G01 X87.839861 Y96.322347 Z-0.125000
G01 X88.173024 Y96.546978 Z-0.125000
G01 X88.581038 Y96.629369 Z-0.125000
G01 X88.989051 Y96.546978 Z-0.125000
G01 X89.322214 Y96.322347 Z-0.125000
G01 X89.546845 Y95.989184 Z-0.125000
G01 X89.629236 Y95.581171 Z-0.125000
G01 X89.546845 Y95.173158 Z-0.125000
G01 X89.322214 Y94.839995 Z-0.125000
G01 X88.989051 Y94.615364 Z-0.125000
G01 X88.581038 Y94.532973 Z-0.125000
G01 X88.173024 Y94.615364 Z-0.125000
G01 X87.839861 Y94.839995 Z-0.125000
G00 Z3.000000

(End cutting path id: polygon11246)


(Start cutting path id: polygon19162)
(Change tool to Default tool)

G00 Z3.000000
G00 X86.141873 Y96.649134

G00 Z4.875000 (Fast pre-penetrate)
G01 Z-0.125000 F400.0(Penetrate)
G01 X86.512289 Y96.503190 Z-0.125000 F800.000000
G01 X86.857226 Y96.158253 Z-0.125000
G01 X87.003170 Y95.787837 Z-0.125000
G01 X87.003170 Y95.374505 Z-0.125000
G01 X86.857226 Y95.004089 Z-0.125000
G01 X86.512289 Y94.659152 Z-0.125000
G01 X86.141873 Y94.513208 Z-0.125000
G01 X85.728542 Y94.513208 Z-0.125000
G01 X85.358126 Y94.659152 Z-0.125000
G01 X85.013189 Y95.004089 Z-0.125000
G01 X84.867245 Y95.374505 Z-0.125000
G01 X84.867245 Y95.787837 Z-0.125000
G01 X85.013189 Y96.158253 Z-0.125000
G01 X85.358126 Y96.503190 Z-0.125000
G01 X85.728542 Y96.649134 Z-0.125000
G01 X86.141873 Y96.649134 Z-0.125000
G00 Z3.000000

(End cutting path id: polygon19162)


(Start cutting path id: polygon19164)
(Change tool to Default tool)

G00 Z3.000000
G00 X86.973616 Y98.333734

G00 Z4.875000 (Fast pre-penetrate)
G01 Z-0.125000 F400.0(Penetrate)
G01 X86.932077 Y97.916592 Z-0.125000 F800.000000
G01 X86.740651 Y97.563056 Z-0.125000
G01 X86.432756 Y97.309189 Z-0.125000
G01 X86.041940 Y97.188592 Z-0.125000
G01 X85.624799 Y97.230132 Z-0.125000
G01 X85.271263 Y97.421557 Z-0.125000
G01 X85.017396 Y97.729453 Z-0.125000
G01 X84.896799 Y98.120268 Z-0.125000
G01 X84.938338 Y98.537410 Z-0.125000
G01 X85.129764 Y98.890946 Z-0.125000
G01 X85.437659 Y99.144813 Z-0.125000
G01 X85.828475 Y99.265410 Z-0.125000
G01 X86.245616 Y99.223870 Z-0.125000
G01 X86.599152 Y99.032445 Z-0.125000
G01 X86.853019 Y98.724549 Z-0.125000
G01 X86.973616 Y98.333734 Z-0.125000
G00 Z3.000000

(End cutting path id: polygon19164)


(Start cutting path id: polygon11248)
(Change tool to Default tool)

G00 Z3.000000
G00 X88.995057 Y97.313766

G00 Z4.875000 (Fast pre-penetrate)
G01 Z-0.125000 F400.0(Penetrate)
G01 X88.581038 Y97.224549 Z-0.125000 F800.000000
G01 X88.264173 Y97.275666 Z-0.125000
G01 X87.909394 Y97.482808 Z-0.125000
G01 X87.667803 Y97.812982 Z-0.125000
G01 X87.578585 Y98.227001 Z-0.125000
G01 X87.629703 Y98.543866 Z-0.125000
G01 X87.836845 Y98.898645 Z-0.125000
G01 X88.167018 Y99.140236 Z-0.125000
G01 X88.581038 Y99.229453 Z-0.125000
G01 X88.897902 Y99.178336 Z-0.125000
G01 X89.252681 Y98.971194 Z-0.125000
G01 X89.494272 Y98.641020 Z-0.125000
G01 X89.583490 Y98.227001 Z-0.125000
G01 X89.532372 Y97.910136 Z-0.125000
G01 X89.325230 Y97.555357 Z-0.125000
G01 X88.995057 Y97.313766 Z-0.125000
G00 Z3.000000

(End cutting path id: polygon11248)


(Start cutting path id: polygon11396)
(Change tool to Default tool)

G00 Z3.000000
G00 X84.304424 Y95.982782

G00 Z4.875000 (Fast pre-penetrate)
G01 Z-0.125000 F400.0(Penetrate)
G01 X84.380703 Y95.581171 Z-0.125000 F800.000000
G01 X84.304424 Y95.179560 Z-0.125000
G01 X84.025447 Y94.775436 Z-0.125000
G01 X83.690988 Y94.566125 Z-0.125000
G01 X83.289378 Y94.489845 Z-0.125000
G01 X82.887767 Y94.566125 Z-0.125000
G01 X82.483643 Y94.845101 Z-0.125000
G01 X82.274331 Y95.179560 Z-0.125000
G01 X82.198052 Y95.581171 Z-0.125000
G01 X82.274331 Y95.982782 Z-0.125000
G01 X82.553308 Y96.386906 Z-0.125000
G01 X82.887767 Y96.596217 Z-0.125000
G01 X83.289378 Y96.672497 Z-0.125000
G01 X83.690988 Y96.596217 Z-0.125000
G01 X84.095112 Y96.317241 Z-0.125000
G01 X84.304424 Y95.982782 Z-0.125000
G00 Z3.000000

(End cutting path id: polygon11396)


(Start cutting path id: polygon11394)
(Change tool to Default tool)

G00 Z3.000000
G00 X81.710346 Y95.690814

G00 Z4.875000 (Fast pre-penetrate)
G01 Z-0.125000 F400.0(Penetrate)
G01 X81.667669 Y95.262296 Z-0.125000 F800.000000
G01 X81.471031 Y94.899050 Z-0.125000
G01 X81.154695 Y94.638250 Z-0.125000
G01 X80.753191 Y94.514372 Z-0.125000
G01 X80.324672 Y94.557050 Z-0.125000
G01 X79.961426 Y94.753688 Z-0.125000
G01 X79.700627 Y95.070023 Z-0.125000
G01 X79.576749 Y95.471528 Z-0.125000
G01 X79.619426 Y95.900046 Z-0.125000
G01 X79.816064 Y96.263292 Z-0.125000
G01 X80.132400 Y96.524092 Z-0.125000
G01 X80.533904 Y96.647970 Z-0.125000
G01 X80.962423 Y96.605292 Z-0.125000
G01 X81.325669 Y96.408654 Z-0.125000
G01 X81.586468 Y96.092319 Z-0.125000
G01 X81.710346 Y95.690814 Z-0.125000
G00 Z3.000000

(End cutting path id: polygon11394)


(Start cutting path id: polygon11360)
(Change tool to Default tool)

G00 Z3.000000
G00 X81.623854 Y97.921752

G00 Z4.875000 (Fast pre-penetrate)
G01 Z-0.125000 F400.0(Penetrate)
G01 X81.435630 Y97.574063 Z-0.125000 F800.000000
G01 X81.132814 Y97.324429 Z-0.125000
G01 X80.748508 Y97.205843 Z-0.125000
G01 X80.338298 Y97.246695 Z-0.125000
G01 X79.990610 Y97.434919 Z-0.125000
G01 X79.740976 Y97.737734 Z-0.125000
G01 X79.622389 Y98.122041 Z-0.125000
G01 X79.663241 Y98.532250 Z-0.125000
G01 X79.851465 Y98.879939 Z-0.125000
G01 X80.154281 Y99.129573 Z-0.125000
G01 X80.538587 Y99.248159 Z-0.125000
G01 X80.948797 Y99.207307 Z-0.125000
G01 X81.296485 Y99.019083 Z-0.125000
G01 X81.546119 Y98.716268 Z-0.125000
G01 X81.664706 Y98.331961 Z-0.125000
G01 X81.623854 Y97.921752 Z-0.125000
G00 Z3.000000

(End cutting path id: polygon11360)


(Start cutting path id: polygon11356)
(Change tool to Default tool)

G00 Z3.000000
G00 X83.289378 Y99.858843

G00 Z4.875000 (Fast pre-penetrate)
G01 Z-0.125000 F400.0(Penetrate)
G01 X82.968888 Y99.910543 Z-0.125000 F800.000000
G01 X82.610008 Y100.120092 Z-0.125000
G01 X82.365639 Y100.454049 Z-0.125000
G01 X82.275390 Y100.872831 Z-0.125000
G01 X82.327089 Y101.193320 Z-0.125000
G01 X82.536639 Y101.552201 Z-0.125000
G01 X82.870596 Y101.796570 Z-0.125000
G01 X83.289378 Y101.886819 Z-0.125000
G01 X83.609867 Y101.835119 Z-0.125000
G01 X83.968747 Y101.625570 Z-0.125000
G01 X84.213116 Y101.291613 Z-0.125000
G01 X84.303365 Y100.872831 Z-0.125000
G01 X84.251666 Y100.552342 Z-0.125000
G01 X84.042116 Y100.193461 Z-0.125000
G01 X83.708159 Y99.949092 Z-0.125000
G01 X83.289378 Y99.858843 Z-0.125000
G00 Z3.000000

(End cutting path id: polygon11356)


(Start cutting path id: polygon11358)
(Change tool to Default tool)

G00 Z3.000000
G00 X84.210682 Y98.726428

G00 Z4.875000 (Fast pre-penetrate)
G01 Z-0.125000 F400.0(Penetrate)
G01 X84.331729 Y98.334131 Z-0.125000 F800.000000
G01 X84.290030 Y97.915428 Z-0.125000
G01 X84.097890 Y97.560516 Z-0.125000
G01 X83.788804 Y97.305697 Z-0.125000
G01 X83.396507 Y97.184650 Z-0.125000
G01 X82.977805 Y97.226348 Z-0.125000
G01 X82.622893 Y97.418488 Z-0.125000
G01 X82.368073 Y97.727574 Z-0.125000
G01 X82.247026 Y98.119871 Z-0.125000
G01 X82.288725 Y98.538574 Z-0.125000
G01 X82.480865 Y98.893486 Z-0.125000
G01 X82.789951 Y99.148305 Z-0.125000
G01 X83.182248 Y99.269352 Z-0.125000
G01 X83.600950 Y99.227654 Z-0.125000
G01 X83.955862 Y99.035514 Z-0.125000
G01 X84.210682 Y98.726428 Z-0.125000
G00 Z3.000000

(End cutting path id: polygon11358)


(Start cutting path id: polygon11354)
(Change tool to Default tool)

G00 Z3.000000
G00 X81.147472 Y101.734948

G00 Z4.875000 (Fast pre-penetrate)
G01 Z-0.125000 F400.0(Penetrate)
G01 X81.449335 Y101.462481 Z-0.125000 F800.000000
G01 X81.618933 Y101.087011 Z-0.125000
G01 X81.636104 Y100.764034 Z-0.125000
G01 X81.505665 Y100.368906 Z-0.125000
G01 X81.233197 Y100.067043 Z-0.125000
G01 X80.857727 Y99.897446 Z-0.125000
G01 X80.534751 Y99.880274 Z-0.125000
G01 X80.139623 Y100.010714 Z-0.125000
G01 X79.837760 Y100.283181 Z-0.125000
G01 X79.668162 Y100.658651 Z-0.125000
G01 X79.650991 Y100.981628 Z-0.125000
G01 X79.781430 Y101.376756 Z-0.125000
G01 X80.053898 Y101.678619 Z-0.125000
G01 X80.429368 Y101.848216 Z-0.125000
G01 X80.752344 Y101.865388 Z-0.125000
G01 X81.147472 Y101.734948 Z-0.125000
G00 Z3.000000

(End cutting path id: polygon11354)


(Start cutting path id: polygon19170)
(Change tool to Default tool)

G00 Z3.000000
G00 X82.639694 Y102.798810

G00 Z4.875000 (Fast pre-penetrate)
G01 Z-0.125000 F400.0(Penetrate)
G01 X82.406014 Y103.118162 Z-0.125000 F800.000000
G01 X82.319707 Y103.518661 Z-0.125000
G01 X82.369131 Y103.825154 Z-0.125000
G01 X82.569527 Y104.168345 Z-0.125000
G01 X82.888878 Y104.402024 Z-0.125000
G01 X83.289378 Y104.488331 Z-0.125000
G01 X83.595870 Y104.438907 Z-0.125000
G01 X83.939061 Y104.238512 Z-0.125000
G01 X84.172741 Y103.919160 Z-0.125000
G01 X84.259048 Y103.518661 Z-0.125000
G01 X84.209624 Y103.212168 Z-0.125000
G01 X84.009228 Y102.868977 Z-0.125000
G01 X83.689877 Y102.635298 Z-0.125000
G01 X83.289378 Y102.548991 Z-0.125000
G01 X82.982885 Y102.598415 Z-0.125000
G01 X82.639694 Y102.798810 Z-0.125000
G00 Z3.000000

(End cutting path id: polygon19170)


(Start cutting path id: polygon19172)
(Change tool to Default tool)

G00 Z3.000000
G00 X79.689488 Y103.518661

G00 Z4.875000 (Fast pre-penetrate)
G01 Z-0.125000 F400.0(Penetrate)
G01 X79.786457 Y103.938237 Z-0.125000 F800.000000
G01 X80.046833 Y104.263118 Z-0.125000
G01 X80.321788 Y104.417105 Z-0.125000
G01 X80.643547 Y104.472721 Z-0.125000
G01 X81.063123 Y104.375751 Z-0.125000
G01 X81.388005 Y104.115375 Z-0.125000
G01 X81.541992 Y103.840420 Z-0.125000
G01 X81.597607 Y103.518661 Z-0.125000
G01 X81.500638 Y103.099085 Z-0.125000
G01 X81.240262 Y102.774204 Z-0.125000
G01 X80.965307 Y102.620217 Z-0.125000
G01 X80.643547 Y102.564601 Z-0.125000
G01 X80.223972 Y102.661571 Z-0.125000
G01 X79.899090 Y102.921947 Z-0.125000
G01 X79.745103 Y103.196902 Z-0.125000
G01 X79.689488 Y103.518661 Z-0.125000
G00 Z3.000000

(End cutting path id: polygon19172)


(Start cutting path id: polygon11318)
(Change tool to Default tool)

G00 Z3.000000
G00 X77.997718 Y104.455549

G00 Z4.875000 (Fast pre-penetrate)
G01 Z-0.125000 F400.0(Penetrate)
G01 X78.313683 Y104.400939 Z-0.125000 F800.000000
G01 X78.583689 Y104.249730 Z-0.125000
G01 X78.839382 Y103.930696 Z-0.125000
G01 X78.934606 Y103.518661 Z-0.125000
G01 X78.879996 Y103.202696 Z-0.125000
G01 X78.728787 Y102.932689 Z-0.125000
G01 X78.409753 Y102.676996 Z-0.125000
G01 X77.997718 Y102.581773 Z-0.125000
G01 X77.681752 Y102.636383 Z-0.125000
G01 X77.411746 Y102.787592 Z-0.125000
G01 X77.156053 Y103.106626 Z-0.125000
G01 X77.060829 Y103.518661 Z-0.125000
G01 X77.115439 Y103.834626 Z-0.125000
G01 X77.266648 Y104.104633 Z-0.125000
G01 X77.585682 Y104.360326 Z-0.125000
G01 X77.997718 Y104.455549 Z-0.125000
G00 Z3.000000

(End cutting path id: polygon11318)


(Start cutting path id: polygon11262)
(Change tool to Default tool)

G00 Z3.000000
G00 X77.157111 Y106.270774

G00 Z4.875000 (Fast pre-penetrate)
G01 Z-0.125000 F400.0(Penetrate)
G01 X77.249768 Y106.562768 Z-0.125000 F800.000000
G01 X77.513689 Y106.859921 Z-0.125000
G01 X77.789120 Y106.985836 Z-0.125000
G01 X78.104000 Y107.005098 Z-0.125000
G01 X78.395994 Y106.912441 Z-0.125000
G01 X78.693147 Y106.648519 Z-0.125000
G01 X78.819063 Y106.373088 Z-0.125000
G01 X78.838324 Y106.058208 Z-0.125000
G01 X78.745667 Y105.766214 Z-0.125000
G01 X78.481746 Y105.469061 Z-0.125000
G01 X78.206315 Y105.343146 Z-0.125000
G01 X77.891435 Y105.323884 Z-0.125000
G01 X77.599441 Y105.416541 Z-0.125000
G01 X77.302288 Y105.680463 Z-0.125000
G01 X77.176372 Y105.955894 Z-0.125000
G01 X77.157111 Y106.270774 Z-0.125000
G00 Z3.000000

(End cutting path id: polygon11262)


(Start cutting path id: polygon11264)
(Change tool to Default tool)

G00 Z3.000000
G00 X74.869500 Y105.471416

G00 Z4.875000 (Fast pre-penetrate)
G01 Z-0.125000 F400.0(Penetrate)
G01 X74.606478 Y105.767564 Z-0.125000 F800.000000
G01 X74.514112 Y106.058578 Z-0.125000
G01 X74.533321 Y106.372400 Z-0.125000
G01 X74.658812 Y106.646879 Z-0.125000
G01 X74.954960 Y106.909901 Z-0.125000
G01 X75.245975 Y107.002267 Z-0.125000
G01 X75.559797 Y106.983058 Z-0.125000
G01 X75.834275 Y106.857566 Z-0.125000
G01 X76.097297 Y106.561418 Z-0.125000
G01 X76.189663 Y106.270404 Z-0.125000
G01 X76.170454 Y105.956582 Z-0.125000
G01 X76.044963 Y105.682103 Z-0.125000
G01 X75.748815 Y105.419081 Z-0.125000
G01 X75.457800 Y105.326715 Z-0.125000
G01 X75.143978 Y105.345924 Z-0.125000
G01 X74.869500 Y105.471416 Z-0.125000
G00 Z3.000000

(End cutting path id: polygon11264)


(Start cutting path id: polygon19064)
(Change tool to Default tool)

G00 Z3.000000
G00 X73.545579 Y106.270615

G00 Z4.875000 (Fast pre-penetrate)
G01 Z-0.125000 F400.0(Penetrate)
G01 X73.526318 Y105.956158 Z-0.125000 F800.000000
G01 X73.400561 Y105.681098 Z-0.125000
G01 X73.103805 Y105.417520 Z-0.125000
G01 X72.812182 Y105.324969 Z-0.125000
G01 X72.497725 Y105.344231 Z-0.125000
G01 X72.222664 Y105.469987 Z-0.125000
G01 X71.959087 Y105.766743 Z-0.125000
G01 X71.866536 Y106.058367 Z-0.125000
G01 X71.885797 Y106.372824 Z-0.125000
G01 X72.011554 Y106.647884 Z-0.125000
G01 X72.308310 Y106.911462 Z-0.125000
G01 X72.599933 Y107.004013 Z-0.125000
G01 X72.914390 Y106.984751 Z-0.125000
G01 X73.189451 Y106.858995 Z-0.125000
G01 X73.453028 Y106.562239 Z-0.125000
G01 X73.545579 Y106.270615 Z-0.125000
G00 Z3.000000

(End cutting path id: polygon19064)


(Start cutting path id: polygon11322)
(Change tool to Default tool)

G00 Z3.000000
G00 X72.146094 Y104.217266

G00 Z4.875000 (Fast pre-penetrate)
G01 Z-0.125000 F400.0(Penetrate)
G01 X72.404115 Y104.361755 Z-0.125000 F800.000000
G01 X72.706058 Y104.413957 Z-0.125000
G01 X73.099783 Y104.322967 Z-0.125000
G01 X73.404662 Y104.078624 Z-0.125000
G01 X73.549151 Y103.820603 Z-0.125000
G01 X73.601353 Y103.518661 Z-0.125000
G01 X73.510363 Y103.124935 Z-0.125000
G01 X73.266021 Y102.820056 Z-0.125000
G01 X73.008000 Y102.675567 Z-0.125000
G01 X72.706058 Y102.623365 Z-0.125000
G01 X72.312332 Y102.714355 Z-0.125000
G01 X72.007453 Y102.958698 Z-0.125000
G01 X71.862964 Y103.216719 Z-0.125000
G01 X71.810762 Y103.518661 Z-0.125000
G01 X71.901752 Y103.912387 Z-0.125000
G01 X72.146094 Y104.217266 Z-0.125000
G00 Z3.000000

(End cutting path id: polygon11322)


(Start cutting path id: polygon11348)
(Change tool to Default tool)

G00 Z3.000000
G00 X72.393717 Y101.744976

G00 Z4.875000 (Fast pre-penetrate)
G01 Z-0.125000 F400.0(Penetrate)
G01 X72.706058 Y101.798977 Z-0.125000 F800.000000
G01 X73.018398 Y101.744976 Z-0.125000
G01 X73.360927 Y101.527700 Z-0.125000
G01 X73.578202 Y101.185171 Z-0.125000
G01 X73.632204 Y100.872831 Z-0.125000
G01 X73.578202 Y100.560491 Z-0.125000
G01 X73.360927 Y100.217962 Z-0.125000
G01 X73.018398 Y100.000686 Z-0.125000
G01 X72.706058 Y99.946685 Z-0.125000
G01 X72.393717 Y100.000686 Z-0.125000
G01 X72.051188 Y100.217962 Z-0.125000
G01 X71.833913 Y100.560491 Z-0.125000
G01 X71.779911 Y100.872831 Z-0.125000
G01 X71.833913 Y101.185171 Z-0.125000
G01 X72.051188 Y101.527700 Z-0.125000
G01 X72.393717 Y101.744976 Z-0.125000
G00 Z3.000000

(End cutting path id: polygon11348)


(Start cutting path id: polygon11346)
(Change tool to Default tool)

G00 Z3.000000
G00 X70.560633 Y101.591756

G00 Z4.875000 (Fast pre-penetrate)
G01 Z-0.125000 F400.0(Penetrate)
G01 X70.833471 Y101.284575 Z-0.125000 F800.000000
G01 X70.929250 Y100.982686 Z-0.125000
G01 X70.909327 Y100.657169 Z-0.125000
G01 X70.779152 Y100.372425 Z-0.125000
G01 X70.471972 Y100.099587 Z-0.125000
G01 X70.170082 Y100.003808 Z-0.125000
G01 X69.844566 Y100.023731 Z-0.125000
G01 X69.559822 Y100.153906 Z-0.125000
G01 X69.286984 Y100.461087 Z-0.125000
G01 X69.191205 Y100.762976 Z-0.125000
G01 X69.211128 Y101.088493 Z-0.125000
G01 X69.341303 Y101.373237 Z-0.125000
G01 X69.648483 Y101.646075 Z-0.125000
G01 X69.950373 Y101.741854 Z-0.125000
G01 X70.275889 Y101.721931 Z-0.125000
G01 X70.560633 Y101.591756 Z-0.125000
G00 Z3.000000

(End cutting path id: polygon11346)


(Start cutting path id: polygon11324)
(Change tool to Default tool)

G00 Z3.000000
G00 X69.351198 Y103.025161

G00 Z4.875000 (Fast pre-penetrate)
G01 Z-0.125000 F400.0(Penetrate)
G01 X69.222796 Y103.305963 Z-0.125000 F800.000000
G01 X69.203164 Y103.627008 Z-0.125000
G01 X69.297620 Y103.924743 Z-0.125000
G01 X69.566727 Y104.227691 Z-0.125000
G01 X69.847529 Y104.356093 Z-0.125000
G01 X70.168574 Y104.375725 Z-0.125000
G01 X70.466309 Y104.281269 Z-0.125000
G01 X70.769257 Y104.012161 Z-0.125000
G01 X70.897659 Y103.731359 Z-0.125000
G01 X70.917291 Y103.410314 Z-0.125000
G01 X70.822835 Y103.112579 Z-0.125000
G01 X70.553728 Y102.809631 Z-0.125000
G01 X70.272926 Y102.681229 Z-0.125000
G01 X69.951881 Y102.661597 Z-0.125000
G01 X69.654146 Y102.756053 Z-0.125000
G01 X69.351198 Y103.025161 Z-0.125000
G00 Z3.000000

(End cutting path id: polygon11324)


(Start cutting path id: polygon11326)
(Change tool to Default tool)

G00 Z3.000000
G00 X68.194362 Y103.820894

G00 Z4.875000 (Fast pre-penetrate)
G01 Z-0.125000 F400.0(Penetrate)
G01 X68.250639 Y103.518661 Z-0.125000 F800.000000
G01 X68.194362 Y103.216428 Z-0.125000
G01 X67.969784 Y102.893478 Z-0.125000
G01 X67.716631 Y102.738697 Z-0.125000
G01 X67.414398 Y102.682420 Z-0.125000
G01 X67.112164 Y102.738697 Z-0.125000
G01 X66.789214 Y102.963275 Z-0.125000
G01 X66.634433 Y103.216428 Z-0.125000
G01 X66.578156 Y103.518661 Z-0.125000
G01 X66.634433 Y103.820894 Z-0.125000
G01 X66.859011 Y104.143844 Z-0.125000
G01 X67.112164 Y104.298625 Z-0.125000
G01 X67.414398 Y104.354902 Z-0.125000
G01 X67.716631 Y104.298625 Z-0.125000
G01 X68.039581 Y104.074047 Z-0.125000
G01 X68.194362 Y103.820894 Z-0.125000
G00 Z3.000000

(End cutting path id: polygon11326)


(Start cutting path id: polygon19060)
(Change tool to Default tool)

G00 Z3.000000
G00 X66.700844 Y105.747402

G00 Z4.875000 (Fast pre-penetrate)
G01 Z-0.125000 F400.0(Penetrate)
G01 X66.595566 Y106.052361 Z-0.125000 F800.000000
G01 X66.617553 Y106.384174 Z-0.125000
G01 X66.760216 Y106.669448 Z-0.125000
G01 X66.997309 Y106.878045 Z-0.125000
G01 X67.302267 Y106.983322 Z-0.125000
G01 X67.634081 Y106.961336 Z-0.125000
G01 X67.919354 Y106.818672 Z-0.125000
G01 X68.127951 Y106.581580 Z-0.125000
G01 X68.233229 Y106.276621 Z-0.125000
G01 X68.211242 Y105.944808 Z-0.125000
G01 X68.068579 Y105.659534 Z-0.125000
G01 X67.831486 Y105.450937 Z-0.125000
G01 X67.526528 Y105.345660 Z-0.125000
G01 X67.194714 Y105.367646 Z-0.125000
G01 X66.909441 Y105.510310 Z-0.125000
G01 X66.700844 Y105.747402 Z-0.125000
G00 Z3.000000

(End cutting path id: polygon19060)


(Start cutting path id: polygon11328)
(Change tool to Default tool)

G00 Z3.000000
G00 X65.604015 Y103.518661

G00 Z4.875000 (Fast pre-penetrate)
G01 Z-0.125000 F400.0(Penetrate)
G01 X65.547764 Y103.216719 Z-0.125000 F800.000000
G01 X65.393169 Y102.963804 Z-0.125000
G01 X65.070510 Y102.739464 Z-0.125000
G01 X64.768568 Y102.683214 Z-0.125000
G01 X64.466625 Y102.739464 Z-0.125000
G01 X64.143966 Y102.963804 Z-0.125000
G01 X63.989371 Y103.216719 Z-0.125000
G01 X63.933120 Y103.518661 Z-0.125000
G01 X63.989371 Y103.820603 Z-0.125000
G01 X64.213710 Y104.143262 Z-0.125000
G01 X64.466625 Y104.297858 Z-0.125000
G01 X64.768568 Y104.354108 Z-0.125000
G01 X65.070510 Y104.297858 Z-0.125000
G01 X65.323425 Y104.143262 Z-0.125000
G01 X65.547764 Y103.820603 Z-0.125000
G01 X65.604015 Y103.518661 Z-0.125000
G00 Z3.000000

(End cutting path id: polygon11328)


(Start cutting path id: polygon11342)
(Change tool to Default tool)

G00 Z3.000000
G00 X64.011675 Y101.192580

G00 Z4.875000 (Fast pre-penetrate)
G01 Z-0.125000 F400.0(Penetrate)
G01 X64.187728 Y101.453670 Z-0.125000 F800.000000
G01 X64.448819 Y101.629724 Z-0.125000
G01 X64.768568 Y101.694282 Z-0.125000
G01 X65.088316 Y101.629724 Z-0.125000
G01 X65.349407 Y101.453670 Z-0.125000
G01 X65.525460 Y101.192580 Z-0.125000
G01 X65.590018 Y100.872831 Z-0.125000
G01 X65.525460 Y100.553082 Z-0.125000
G01 X65.349407 Y100.291992 Z-0.125000
G01 X65.088316 Y100.115938 Z-0.125000
G01 X64.768568 Y100.051380 Z-0.125000
G01 X64.448819 Y100.115938 Z-0.125000
G01 X64.187728 Y100.291992 Z-0.125000
G01 X64.011675 Y100.553082 Z-0.125000
G01 X63.947117 Y100.872831 Z-0.125000
G01 X64.011675 Y101.192580 Z-0.125000
G00 Z3.000000

(End cutting path id: polygon11342)


(Start cutting path id: polygon11340)
(Change tool to Default tool)

G00 Z3.000000
G00 X62.911459 Y100.655397

G00 Z4.875000 (Fast pre-penetrate)
G01 Z-0.125000 F400.0(Penetrate)
G01 X62.770251 Y100.373034 Z-0.125000 F800.000000
G01 X62.535566 Y100.166580 Z-0.125000
G01 X62.233730 Y100.062360 Z-0.125000
G01 X61.905303 Y100.084109 Z-0.125000
G01 X61.622940 Y100.225317 Z-0.125000
G01 X61.416486 Y100.460002 Z-0.125000
G01 X61.312267 Y100.761838 Z-0.125000
G01 X61.334016 Y101.090265 Z-0.125000
G01 X61.475224 Y101.372628 Z-0.125000
G01 X61.709909 Y101.579082 Z-0.125000
G01 X62.011745 Y101.683302 Z-0.125000
G01 X62.340172 Y101.661553 Z-0.125000
G01 X62.622535 Y101.520345 Z-0.125000
G01 X62.828989 Y101.285660 Z-0.125000
G01 X62.933208 Y100.983824 Z-0.125000
G01 X62.911459 Y100.655397 Z-0.125000
G00 Z3.000000

(End cutting path id: polygon11340)


(Start cutting path id: polygon11338)
(Change tool to Default tool)

G00 Z3.000000
G00 X62.756599 Y102.955602

G00 Z4.875000 (Fast pre-penetrate)
G01 Z-0.125000 F400.0(Penetrate)
G01 X62.429151 Y102.727902 Z-0.125000 F800.000000
G01 X62.122738 Y102.670831 Z-0.125000
G01 X61.816324 Y102.727902 Z-0.125000
G01 X61.488876 Y102.955602 Z-0.125000
G01 X61.331978 Y103.212247 Z-0.125000
G01 X61.274908 Y103.518661 Z-0.125000
G01 X61.331978 Y103.825075 Z-0.125000
G01 X61.488876 Y104.081720 Z-0.125000
G01 X61.816324 Y104.309420 Z-0.125000
G01 X62.122738 Y104.366491 Z-0.125000
G01 X62.429151 Y104.309420 Z-0.125000
G01 X62.685797 Y104.152522 Z-0.125000
G01 X62.913497 Y103.825075 Z-0.125000
G01 X62.970567 Y103.518661 Z-0.125000
G01 X62.913497 Y103.212247 Z-0.125000
G01 X62.756599 Y102.955602 Z-0.125000
G00 Z3.000000

(End cutting path id: polygon11338)


(Start cutting path id: polygon11336)
(Change tool to Default tool)

G00 Z3.000000
G00 X62.331361 Y105.343067

G00 Z4.875000 (Fast pre-penetrate)
G01 Z-0.125000 F400.0(Penetrate)
G01 X62.016455 Y105.323779 Z-0.125000 F800.000000
G01 X61.724408 Y105.416462 Z-0.125000
G01 X61.427255 Y105.680410 Z-0.125000
G01 X61.301313 Y105.955867 Z-0.125000
G01 X61.282025 Y106.270774 Z-0.125000
G01 X61.374708 Y106.562821 Z-0.125000
G01 X61.638656 Y106.859974 Z-0.125000
G01 X61.914114 Y106.985915 Z-0.125000
G01 X62.229020 Y107.005203 Z-0.125000
G01 X62.521067 Y106.912520 Z-0.125000
G01 X62.818220 Y106.648572 Z-0.125000
G01 X62.944162 Y106.373115 Z-0.125000
G01 X62.963450 Y106.058208 Z-0.125000
G01 X62.870767 Y105.766161 Z-0.125000
G01 X62.606819 Y105.469008 Z-0.125000
G01 X62.331361 Y105.343067 Z-0.125000
G00 Z3.000000

(End cutting path id: polygon11336)


(Start cutting path id: polygon11330)
(Change tool to Default tool)

G00 Z3.000000
G00 X63.961510 Y105.959519

G00 Z4.875000 (Fast pre-penetrate)
G01 Z-0.125000 F400.0(Penetrate)
G01 X63.942566 Y106.268922 Z-0.125000 F800.000000
G01 X64.033609 Y106.555836 Z-0.125000
G01 X64.292953 Y106.847830 Z-0.125000
G01 X64.563595 Y106.971549 Z-0.125000
G01 X64.872998 Y106.990493 Z-0.125000
G01 X65.159912 Y106.899450 Z-0.125000
G01 X65.451906 Y106.640105 Z-0.125000
G01 X65.575625 Y106.369463 Z-0.125000
G01 X65.594569 Y106.060060 Z-0.125000
G01 X65.503526 Y105.773146 Z-0.125000
G01 X65.244182 Y105.481152 Z-0.125000
G01 X64.973540 Y105.357433 Z-0.125000
G01 X64.664137 Y105.338489 Z-0.125000
G01 X64.377223 Y105.429532 Z-0.125000
G01 X64.085229 Y105.688877 Z-0.125000
G01 X63.961510 Y105.959519 Z-0.125000
G00 Z3.000000

(End cutting path id: polygon11330)


(Start cutting path id: polygon11334)
(Change tool to Default tool)

G00 Z3.000000
G00 X62.773400 Y108.308063

G00 Z4.875000 (Fast pre-penetrate)
G01 Z-0.125000 F400.0(Penetrate)
G01 X62.537577 Y108.100604 Z-0.125000 F800.000000
G01 X62.234259 Y107.995882 Z-0.125000
G01 X61.904245 Y108.017736 Z-0.125000
G01 X61.620480 Y108.159658 Z-0.125000
G01 X61.413020 Y108.395481 Z-0.125000
G01 X61.308298 Y108.698799 Z-0.125000
G01 X61.330153 Y109.028814 Z-0.125000
G01 X61.472075 Y109.312579 Z-0.125000
G01 X61.707898 Y109.520038 Z-0.125000
G01 X62.011216 Y109.624760 Z-0.125000
G01 X62.341230 Y109.602906 Z-0.125000
G01 X62.624995 Y109.460984 Z-0.125000
G01 X62.832455 Y109.225161 Z-0.125000
G01 X62.937177 Y108.921843 Z-0.125000
G01 X62.915322 Y108.591828 Z-0.125000
G01 X62.773400 Y108.308063 Z-0.125000
G00 Z3.000000

(End cutting path id: polygon11334)


(Start cutting path id: polygon11332)
(Change tool to Default tool)

G00 Z3.000000
G00 X64.880830 Y109.629999

G00 Z4.875000 (Fast pre-penetrate)
G01 Z-0.125000 F400.0(Penetrate)
G01 X65.186079 Y109.524616 Z-0.125000 F800.000000
G01 X65.423437 Y109.315833 Z-0.125000
G01 X65.566259 Y109.030242 Z-0.125000
G01 X65.588246 Y108.698058 Z-0.125000
G01 X65.482862 Y108.392809 Z-0.125000
G01 X65.274080 Y108.155452 Z-0.125000
G01 X64.988489 Y108.012630 Z-0.125000
G01 X64.656305 Y107.990643 Z-0.125000
G01 X64.351056 Y108.096026 Z-0.125000
G01 X64.113698 Y108.304809 Z-0.125000
G01 X63.970876 Y108.590400 Z-0.125000
G01 X63.948889 Y108.922584 Z-0.125000
G01 X64.054273 Y109.227833 Z-0.125000
G01 X64.263055 Y109.465190 Z-0.125000
G01 X64.548646 Y109.608012 Z-0.125000
G01 X64.880830 Y109.629999 Z-0.125000
G00 Z3.000000

(End cutting path id: polygon11332)


(Start cutting path id: polygon19058)
(Change tool to Default tool)

G00 Z3.000000
G00 X66.911743 Y109.461513

G00 Z4.875000 (Fast pre-penetrate)
G01 Z-0.125000 F400.0(Penetrate)
G01 X67.195720 Y109.603541 Z-0.125000 F800.000000
G01 X67.526025 Y109.625395 Z-0.125000
G01 X67.829581 Y109.520594 Z-0.125000
G01 X68.065589 Y109.312976 Z-0.125000
G01 X68.207617 Y109.028999 Z-0.125000
G01 X68.229472 Y108.698693 Z-0.125000
G01 X68.124671 Y108.395137 Z-0.125000
G01 X67.917052 Y108.159129 Z-0.125000
G01 X67.633075 Y108.017101 Z-0.125000
G01 X67.302770 Y107.995247 Z-0.125000
G01 X66.999214 Y108.100048 Z-0.125000
G01 X66.763206 Y108.307666 Z-0.125000
G01 X66.621178 Y108.591643 Z-0.125000
G01 X66.599323 Y108.921949 Z-0.125000
G01 X66.704124 Y109.225505 Z-0.125000
G01 X66.911743 Y109.461513 Z-0.125000
G00 Z3.000000

(End cutting path id: polygon19058)


(Start cutting path id: polygon19056)
(Change tool to Default tool)

G00 Z3.000000
G00 X68.105330 Y111.052292

G00 Z4.875000 (Fast pre-penetrate)
G01 Z-0.125000 F400.0(Penetrate)
G01 X67.903347 Y110.822713 Z-0.125000 F800.000000
G01 X67.627122 Y110.684574 Z-0.125000
G01 X67.305813 Y110.663275 Z-0.125000
G01 X67.010538 Y110.765219 Z-0.125000
G01 X66.780959 Y110.967202 Z-0.125000
G01 X66.642821 Y111.243426 Z-0.125000
G01 X66.621522 Y111.564736 Z-0.125000
G01 X66.723465 Y111.860010 Z-0.125000
G01 X66.925448 Y112.089589 Z-0.125000
G01 X67.201673 Y112.227728 Z-0.125000
G01 X67.522982 Y112.249027 Z-0.125000
G01 X67.818257 Y112.147083 Z-0.125000
G01 X68.047836 Y111.945100 Z-0.125000
G01 X68.185974 Y111.668876 Z-0.125000
G01 X68.207273 Y111.347566 Z-0.125000
G01 X68.105330 Y111.052292 Z-0.125000
G00 Z3.000000

(End cutting path id: polygon19056)


(Start cutting path id: polygon19054)
(Change tool to Default tool)

G00 Z3.000000
G00 X68.051778 Y113.688279

G00 Z4.875000 (Fast pre-penetrate)
G01 Z-0.125000 F400.0(Penetrate)
G01 X67.828099 Y113.464601 Z-0.125000 F800.000000
G01 X67.302108 Y113.350433 Z-0.125000
G01 X67.000696 Y113.464601 Z-0.125000
G01 X66.777017 Y113.688279 Z-0.125000
G01 X66.662849 Y114.214270 Z-0.125000
G01 X66.777017 Y114.515683 Z-0.125000
G01 X67.000696 Y114.739361 Z-0.125000
G01 X67.526687 Y114.853529 Z-0.125000
G01 X67.828099 Y114.739361 Z-0.125000
G01 X68.051778 Y114.515683 Z-0.125000
G01 X68.165946 Y113.989692 Z-0.125000
G01 X68.051778 Y113.688279 Z-0.125000
G00 Z3.000000

(End cutting path id: polygon19054)


(Start cutting path id: polygon19084)
(Change tool to Default tool)

G00 Z3.000000
G00 X69.750692 Y113.435973

G00 Z4.875000 (Fast pre-penetrate)
G01 Z-0.125000 F400.0(Penetrate)
G01 X69.506085 Y113.620255 Z-0.125000 F800.000000
G01 X69.325983 Y114.101981 Z-0.125000
G01 X69.506085 Y114.583707 Z-0.125000
G01 X69.750692 Y114.767989 Z-0.125000
G01 X70.060228 Y114.836225 Z-0.125000
G01 X70.541954 Y114.656124 Z-0.125000
G01 X70.726236 Y114.411517 Z-0.125000
G01 X70.794472 Y114.101981 Z-0.125000
G01 X70.614370 Y113.620255 Z-0.125000
G01 X70.369763 Y113.435973 Z-0.125000
G01 X70.060228 Y113.367737 Z-0.125000
G01 X69.750692 Y113.435973 Z-0.125000
G00 Z3.000000

(End cutting path id: polygon19084)


(Start cutting path id: polygon19086)
(Change tool to Default tool)

G00 Z3.000000
G00 X70.542827 Y112.081361

G00 Z4.875000 (Fast pre-penetrate)
G01 Z-0.125000 F400.0(Penetrate)
G01 X70.742164 Y111.854772 Z-0.125000 F800.000000
G01 X70.842785 Y111.563307 Z-0.125000
G01 X70.821777 Y111.246204 Z-0.125000
G01 X70.685437 Y110.973552 Z-0.125000
G01 X70.458848 Y110.774215 Z-0.125000
G01 X70.167384 Y110.673594 Z-0.125000
G01 X69.850281 Y110.694602 Z-0.125000
G01 X69.577628 Y110.830941 Z-0.125000
G01 X69.378291 Y111.057530 Z-0.125000
G01 X69.277670 Y111.348995 Z-0.125000
G01 X69.298678 Y111.666098 Z-0.125000
G01 X69.435018 Y111.938750 Z-0.125000
G01 X69.661607 Y112.138087 Z-0.125000
G01 X69.953071 Y112.238708 Z-0.125000
G01 X70.270174 Y112.217700 Z-0.125000
G01 X70.542827 Y112.081361 Z-0.125000
G00 Z3.000000

(End cutting path id: polygon19086)


(Start cutting path id: polygon19068)
(Change tool to Default tool)

G00 Z3.000000
G00 X71.938449 Y111.561270

G00 Z4.875000 (Fast pre-penetrate)
G01 Z-0.125000 F400.0(Penetrate)
G01 X72.037139 Y111.847152 Z-0.125000 F800.000000
G01 X72.232666 Y112.069428 Z-0.125000
G01 X72.500106 Y112.203175 Z-0.125000
G01 X72.811176 Y112.223759 Z-0.125000
G01 X73.097058 Y112.125070 Z-0.125000
G01 X73.319334 Y111.929543 Z-0.125000
G01 X73.453081 Y111.662102 Z-0.125000
G01 X73.473666 Y111.351032 Z-0.125000
G01 X73.374976 Y111.065150 Z-0.125000
G01 X73.179449 Y110.842874 Z-0.125000
G01 X72.912009 Y110.709127 Z-0.125000
G01 X72.600939 Y110.688543 Z-0.125000
G01 X72.315057 Y110.787232 Z-0.125000
G01 X72.092781 Y110.982759 Z-0.125000
G01 X71.959034 Y111.250200 Z-0.125000
G01 X71.938449 Y111.561270 Z-0.125000
G00 Z3.000000

(End cutting path id: polygon19068)


(Start cutting path id: polygon19066)
(Change tool to Default tool)

G00 Z3.000000
G00 X73.345052 Y109.303557

G00 Z4.875000 (Fast pre-penetrate)
G01 Z-0.125000 F400.0(Penetrate)
G01 X73.484408 Y109.024898 Z-0.125000 F800.000000
G01 X73.505865 Y108.700784 Z-0.125000
G01 X73.403048 Y108.402916 Z-0.125000
G01 X73.199293 Y108.171327 Z-0.125000
G01 X72.920634 Y108.031971 Z-0.125000
G01 X72.596520 Y108.010513 Z-0.125000
G01 X72.298653 Y108.113330 Z-0.125000
G01 X72.067063 Y108.317085 Z-0.125000
G01 X71.927707 Y108.595744 Z-0.125000
G01 X71.906250 Y108.919858 Z-0.125000
G01 X72.009067 Y109.217726 Z-0.125000
G01 X72.212822 Y109.449315 Z-0.125000
G01 X72.491481 Y109.588671 Z-0.125000
G01 X72.815595 Y109.610129 Z-0.125000
G01 X73.113462 Y109.507312 Z-0.125000
G01 X73.345052 Y109.303557 Z-0.125000
G00 Z3.000000

(End cutting path id: polygon19066)


(Start cutting path id: polygon11266)
(Change tool to Default tool)

G00 Z3.000000
G00 X76.072876 Y108.505733

G00 Z4.875000 (Fast pre-penetrate)
G01 Z-0.125000 F400.0(Penetrate)
G01 X75.905183 Y108.257025 Z-0.125000 F800.000000
G01 X75.656475 Y108.089332 Z-0.125000
G01 X75.351888 Y108.027843 Z-0.125000
G01 X75.047300 Y108.089332 Z-0.125000
G01 X74.798592 Y108.257025 Z-0.125000
G01 X74.630899 Y108.505733 Z-0.125000
G01 X74.569410 Y108.810321 Z-0.125000
G01 X74.630899 Y109.114909 Z-0.125000
G01 X74.798592 Y109.363617 Z-0.125000
G01 X75.047300 Y109.531310 Z-0.125000
G01 X75.351888 Y109.592799 Z-0.125000
G01 X75.656475 Y109.531310 Z-0.125000
G01 X75.905183 Y109.363617 Z-0.125000
G01 X76.072876 Y109.114909 Z-0.125000
G01 X76.134365 Y108.810321 Z-0.125000
G01 X76.072876 Y108.505733 Z-0.125000
G00 Z3.000000

(End cutting path id: polygon11266)


(Start cutting path id: polygon11316)
(Change tool to Default tool)

G00 Z3.000000
G00 X77.363512 Y109.221959

G00 Z4.875000 (Fast pre-penetrate)
G01 Z-0.125000 F400.0(Penetrate)
G01 X77.586079 Y109.444526 Z-0.125000 F800.000000
G01 X78.109424 Y109.558112 Z-0.125000
G01 X78.409356 Y109.444526 Z-0.125000
G01 X78.631923 Y109.221959 Z-0.125000
G01 X78.745508 Y108.698614 Z-0.125000
G01 X78.631923 Y108.398683 Z-0.125000
G01 X78.409356 Y108.176116 Z-0.125000
G01 X77.886011 Y108.062530 Z-0.125000
G01 X77.586079 Y108.176116 Z-0.125000
G01 X77.363512 Y108.398683 Z-0.125000
G01 X77.249927 Y108.922028 Z-0.125000
G01 X77.363512 Y109.221959 Z-0.125000
G00 Z3.000000

(End cutting path id: polygon11316)


(Start cutting path id: polygon11298)
(Change tool to Default tool)

G00 Z3.000000
G00 X77.698818 Y112.099273

G00 Z4.875000 (Fast pre-penetrate)
G01 Z-0.125000 F400.0(Penetrate)
G01 X77.997718 Y112.165154 Z-0.125000 F800.000000
G01 X78.462881 Y111.991244 Z-0.125000
G01 X78.640839 Y111.755050 Z-0.125000
G01 X78.706721 Y111.456151 Z-0.125000
G01 X78.532810 Y110.990988 Z-0.125000
G01 X78.296617 Y110.813029 Z-0.125000
G01 X77.997718 Y110.747148 Z-0.125000
G01 X77.532554 Y110.921058 Z-0.125000
G01 X77.354596 Y111.157252 Z-0.125000
G01 X77.288714 Y111.456151 Z-0.125000
G01 X77.462625 Y111.921314 Z-0.125000
G01 X77.698818 Y112.099273 Z-0.125000
G00 Z3.000000

(End cutting path id: polygon11298)


(Start cutting path id: polygon11296)
(Change tool to Default tool)

G00 Z3.000000
G00 X77.442331 Y113.695555

G00 Z4.875000 (Fast pre-penetrate)
G01 Z-0.125000 F400.0(Penetrate)
G01 X77.318559 Y113.990353 Z-0.125000 F800.000000
G01 X77.318559 Y114.213609 Z-0.125000
G01 X77.591292 Y114.657367 Z-0.125000
G01 X77.886090 Y114.781139 Z-0.125000
G01 X78.109345 Y114.781139 Z-0.125000
G01 X78.553104 Y114.508407 Z-0.125000
G01 X78.676876 Y114.213609 Z-0.125000
G01 X78.676876 Y113.990353 Z-0.125000
G01 X78.404143 Y113.546595 Z-0.125000
G01 X78.109345 Y113.422823 Z-0.125000
G01 X77.886090 Y113.422823 Z-0.125000
G01 X77.442331 Y113.695555 Z-0.125000
G00 Z3.000000

(End cutting path id: polygon11296)


(Start cutting path id: polygon11270)
(Change tool to Default tool)

G00 Z3.000000
G00 X75.570989 Y114.759840

G00 Z4.875000 (Fast pre-penetrate)
G01 Z-0.125000 F400.0(Penetrate)
G01 X75.842054 Y114.592147 Z-0.125000 F800.000000
G01 X76.009747 Y114.321082 Z-0.125000
G01 X76.045095 Y114.101981 Z-0.125000
G01 X76.009747 Y113.882880 Z-0.125000
G01 X75.842054 Y113.611815 Z-0.125000
G01 X75.570989 Y113.444122 Z-0.125000
G01 X75.351888 Y113.408774 Z-0.125000
G01 X75.132786 Y113.444122 Z-0.125000
G01 X74.861721 Y113.611815 Z-0.125000
G01 X74.694028 Y113.882880 Z-0.125000
G01 X74.658680 Y114.101981 Z-0.125000
G01 X74.694028 Y114.321082 Z-0.125000
G01 X74.861721 Y114.592147 Z-0.125000
G01 X75.132786 Y114.759840 Z-0.125000
G01 X75.351888 Y114.795188 Z-0.125000
G01 X75.570989 Y114.759840 Z-0.125000
G00 Z3.000000

(End cutting path id: polygon11270)


(Start cutting path id: polygon11272)
(Change tool to Default tool)

G00 Z3.000000
G00 X75.900209 Y116.427322

G00 Z4.875000 (Fast pre-penetrate)
G01 Z-0.125000 F400.0(Penetrate)
G01 X75.672377 Y116.199489 Z-0.125000 F800.000000
G01 X75.466029 Y116.123025 Z-0.125000
G01 X75.031398 Y116.199489 Z-0.125000
G01 X74.803566 Y116.427322 Z-0.125000
G01 X74.727101 Y116.633670 Z-0.125000
G01 X74.803566 Y117.068300 Z-0.125000
G01 X75.031398 Y117.296133 Z-0.125000
G01 X75.237746 Y117.372597 Z-0.125000
G01 X75.672377 Y117.296133 Z-0.125000
G01 X75.900209 Y117.068300 Z-0.125000
G01 X75.976674 Y116.861952 Z-0.125000
G01 X75.900209 Y116.427322 Z-0.125000
G00 Z3.000000

(End cutting path id: polygon11272)


(Start cutting path id: polygon11274)
(Change tool to Default tool)

G00 Z3.000000
G00 X77.997718 Y117.412258

G00 Z4.875000 (Fast pre-penetrate)
G01 Z-0.125000 F400.0(Penetrate)
G01 X78.303073 Y117.338096 Z-0.125000 F800.000000
G01 X78.628298 Y116.957837 Z-0.125000
G01 X78.662165 Y116.747811 Z-0.125000
G01 X78.588002 Y116.442456 Z-0.125000
G01 X78.207743 Y116.117230 Z-0.125000
G01 X77.997718 Y116.083364 Z-0.125000
G01 X77.692362 Y116.157526 Z-0.125000
G01 X77.367137 Y116.537785 Z-0.125000
G01 X77.333270 Y116.747811 Z-0.125000
G01 X77.407433 Y117.053166 Z-0.125000
G01 X77.787692 Y117.378392 Z-0.125000
G01 X77.997718 Y117.412258 Z-0.125000
G00 Z3.000000

(End cutting path id: polygon11274)


(Start cutting path id: polygon12098)
(Change tool to Default tool)

G00 Z3.000000
G00 X78.312677 Y119.932464

G00 Z4.875000 (Fast pre-penetrate)
G01 Z-0.125000 F400.0(Penetrate)
G01 X78.536541 Y119.708601 Z-0.125000 F800.000000
G01 X78.611709 Y119.505824 Z-0.125000
G01 X78.536541 Y119.078681 Z-0.125000
G01 X78.312677 Y118.854818 Z-0.125000
G01 X78.109901 Y118.779650 Z-0.125000
G01 X77.682758 Y118.854818 Z-0.125000
G01 X77.458894 Y119.078681 Z-0.125000
G01 X77.383726 Y119.281458 Z-0.125000
G01 X77.458894 Y119.708601 Z-0.125000
G01 X77.682758 Y119.932464 Z-0.125000
G01 X77.885534 Y120.007632 Z-0.125000
G01 X78.312677 Y119.932464 Z-0.125000
G00 Z3.000000

(End cutting path id: polygon12098)


(Start cutting path id: polygon12096)
(Change tool to Default tool)

G00 Z3.000000
G00 X80.002992 Y119.498919

G00 Z4.875000 (Fast pre-penetrate)
G01 Z-0.125000 F400.0(Penetrate)
G01 X80.260246 Y119.917462 Z-0.125000 F800.000000
G01 X80.748825 Y120.034196 Z-0.125000
G01 X81.167369 Y119.776942 Z-0.125000
G01 X81.284103 Y119.288363 Z-0.125000
G01 X81.026849 Y118.869820 Z-0.125000
G01 X80.538270 Y118.753086 Z-0.125000
G01 X80.119726 Y119.010340 Z-0.125000
G01 X80.002992 Y119.498919 Z-0.125000
G00 Z3.000000

(End cutting path id: polygon12096)


(Start cutting path id: polygon12110)
(Change tool to Default tool)

G00 Z3.000000
G00 X80.263289 Y121.588092

G00 Z4.875000 (Fast pre-penetrate)
G01 Z-0.125000 F400.0(Penetrate)
G01 X80.090278 Y121.833546 Z-0.125000 F800.000000
G01 X80.053369 Y122.039471 Z-0.125000
G01 X80.090278 Y122.245396 Z-0.125000
G01 X80.263289 Y122.490850 Z-0.125000
G01 X80.643548 Y122.629650 Z-0.125000
G01 X80.849472 Y122.592741 Z-0.125000
G01 X81.094926 Y122.419730 Z-0.125000
G01 X81.233726 Y122.039471 Z-0.125000
G01 X81.094926 Y121.659212 Z-0.125000
G01 X80.849472 Y121.486201 Z-0.125000
G01 X80.643548 Y121.449292 Z-0.125000
G01 X80.263289 Y121.588092 Z-0.125000
G00 Z3.000000

(End cutting path id: polygon12110)


(Start cutting path id: polygon12132)
(Change tool to Default tool)

G00 Z3.000000
G00 X80.342849 Y124.239346

G00 Z4.875000 (Fast pre-penetrate)
G01 Z-0.125000 F400.0(Penetrate)
G01 X80.116657 Y124.576901 Z-0.125000 F800.000000
G01 X80.197593 Y124.986000 Z-0.125000
G01 X80.535148 Y125.212192 Z-0.125000
G01 X80.944246 Y125.131256 Z-0.125000
G01 X81.170438 Y124.793701 Z-0.125000
G01 X81.089502 Y124.384602 Z-0.125000
G01 X80.751947 Y124.158410 Z-0.125000
G01 X80.342849 Y124.239346 Z-0.125000
G00 Z3.000000

(End cutting path id: polygon12132)


(Start cutting path id: polygon12134)
(Change tool to Default tool)

G00 Z3.000000
G00 X77.567558 Y124.975337

G00 Z4.875000 (Fast pre-penetrate)
G01 Z-0.125000 F400.0(Penetrate)
G01 X77.893181 Y125.193512 Z-0.125000 F800.000000
G01 X78.287753 Y125.115460 Z-0.125000
G01 X78.505929 Y124.789838 Z-0.125000
G01 X78.427877 Y124.395265 Z-0.125000
G01 X78.102254 Y124.177090 Z-0.125000
G01 X77.707682 Y124.255142 Z-0.125000
G01 X77.489506 Y124.580764 Z-0.125000
G01 X77.567558 Y124.975337 Z-0.125000
G00 Z3.000000

(End cutting path id: polygon12134)


(Start cutting path id: polygon12136)
(Change tool to Default tool)

G00 Z3.000000
G00 X78.293124 Y126.962593

G00 Z4.875000 (Fast pre-penetrate)
G01 Z-0.125000 F400.0(Penetrate)
G01 X77.997718 Y126.858824 Z-0.125000 F800.000000
G01 X77.702311 Y126.962593 Z-0.125000
G01 X77.525410 Y127.331131 Z-0.125000
G01 X77.629180 Y127.626538 Z-0.125000
G01 X77.997718 Y127.803438 Z-0.125000
G01 X78.293124 Y127.699669 Z-0.125000
G01 X78.470025 Y127.331131 Z-0.125000
G01 X78.293124 Y126.962593 Z-0.125000
G00 Z3.000000

(End cutting path id: polygon12136)


(Start cutting path id: polygon12162)
(Change tool to Default tool)

G00 Z3.000000
G00 X78.113314 Y129.557650

G00 Z4.875000 (Fast pre-penetrate)
G01 Z-0.125000 F400.0(Penetrate)
G01 X77.778246 Y129.601465 Z-0.125000 F800.000000
G01 X77.578406 Y129.861365 Z-0.125000
G01 X77.622221 Y130.196433 Z-0.125000
G01 X77.882121 Y130.396272 Z-0.125000
G01 X78.217189 Y130.352457 Z-0.125000
G01 X78.417029 Y130.092557 Z-0.125000
G01 X78.373214 Y129.757489 Z-0.125000
G01 X78.113314 Y129.557650 Z-0.125000
G00 Z3.000000

(End cutting path id: polygon12162)


(Start cutting path id: polygon18996)
(Change tool to Default tool)

G00 Z3.000000
G00 X75.660947 Y129.667902

G00 Z4.875000 (Fast pre-penetrate)
G01 Z-0.125000 F400.0(Penetrate)
G01 X75.351888 Y129.539870 Z-0.125000 F800.000000
G01 X75.042828 Y129.667902 Z-0.125000
G01 X74.914796 Y129.976961 Z-0.125000
G01 X75.042828 Y130.286020 Z-0.125000
G01 X75.351888 Y130.414052 Z-0.125000
G01 X75.660947 Y130.286020 Z-0.125000
G01 X75.788979 Y129.976961 Z-0.125000
G01 X75.660947 Y129.667902 Z-0.125000
G00 Z3.000000

(End cutting path id: polygon18996)


(Start cutting path id: polygon19730)
(Change tool to Default tool)

G00 Z3.000000
G00 X75.242191 Y126.865359

G00 Z4.875000 (Fast pre-penetrate)
G01 Z-0.125000 F400.0(Penetrate)
G01 X74.922099 Y127.120735 Z-0.125000 F800.000000
G01 X74.886116 Y127.440827 Z-0.125000
G01 X75.141491 Y127.760920 Z-0.125000
G01 X75.461584 Y127.796903 Z-0.125000
G01 X75.781676 Y127.541527 Z-0.125000
G01 X75.817659 Y127.221435 Z-0.125000
G01 X75.562284 Y126.901342 Z-0.125000
G01 X75.242191 Y126.865359 Z-0.125000
G00 Z3.000000

(End cutting path id: polygon19730)


(Start cutting path id: polygon19728)
(Change tool to Default tool)

G00 Z3.000000
G00 X74.978376 Y125.058813

G00 Z4.875000 (Fast pre-penetrate)
G01 Z-0.125000 F400.0(Penetrate)
G01 X75.351888 Y125.213541 Z-0.125000 F800.000000
G01 X75.725399 Y125.058813 Z-0.125000
G01 X75.880127 Y124.685301 Z-0.125000
G01 X75.725399 Y124.311789 Z-0.125000
G01 X75.351888 Y124.157061 Z-0.125000
G01 X74.978376 Y124.311789 Z-0.125000
G01 X74.823648 Y124.685301 Z-0.125000
G01 X74.978376 Y125.058813 Z-0.125000
G00 Z3.000000

(End cutting path id: polygon19728)


(Start cutting path id: polygon18962)
(Change tool to Default tool)

G00 Z3.000000
G00 X72.266506 Y124.981660

G00 Z4.875000 (Fast pre-penetrate)
G01 Z-0.125000 F400.0(Penetrate)
G01 X72.599219 Y125.204598 Z-0.125000 F800.000000
G01 X73.002417 Y125.124853 Z-0.125000
G01 X73.225355 Y124.792140 Z-0.125000
G01 X73.145609 Y124.388942 Z-0.125000
G01 X72.812896 Y124.166004 Z-0.125000
G01 X72.409698 Y124.245749 Z-0.125000
G01 X72.186760 Y124.578462 Z-0.125000
G01 X72.266506 Y124.981660 Z-0.125000
G00 Z3.000000

(End cutting path id: polygon18962)


(Start cutting path id: polygon12104)
(Change tool to Default tool)

G00 Z3.000000
G00 X72.591572 Y122.596021

G00 Z4.875000 (Fast pre-penetrate)
G01 Z-0.125000 F400.0(Penetrate)
G01 X73.023689 Y122.510535 Z-0.125000 F800.000000
G01 X73.262608 Y122.153956 Z-0.125000
G01 X73.177121 Y121.721839 Z-0.125000
G01 X72.820543 Y121.482921 Z-0.125000
G01 X72.388426 Y121.568407 Z-0.125000
G01 X72.149507 Y121.924986 Z-0.125000
G01 X72.234994 Y122.357103 Z-0.125000
G01 X72.591572 Y122.596021 Z-0.125000
G00 Z3.000000

(End cutting path id: polygon12104)


(Start cutting path id: polygon19078)
(Change tool to Default tool)

G00 Z3.000000
G00 X69.658934 Y122.440764

G00 Z4.875000 (Fast pre-penetrate)
G01 Z-0.125000 F400.0(Penetrate)
G01 X70.060228 Y122.606975 Z-0.125000 F800.000000
G01 X70.461521 Y122.440764 Z-0.125000
G01 X70.627732 Y122.039471 Z-0.125000
G01 X70.461521 Y121.638178 Z-0.125000
G01 X70.060228 Y121.471967 Z-0.125000
G01 X69.658934 Y121.638178 Z-0.125000
G01 X69.492723 Y122.039471 Z-0.125000
G01 X69.658934 Y122.440764 Z-0.125000
G00 Z3.000000

(End cutting path id: polygon19078)


(Start cutting path id: polygon19080)
(Change tool to Default tool)

G00 Z3.000000
G00 X67.941315 Y122.262065

G00 Z4.875000 (Fast pre-penetrate)
G01 Z-0.125000 F400.0(Penetrate)
G01 X67.941315 Y121.816877 Z-0.125000 F800.000000
G01 X67.636991 Y121.512554 Z-0.125000
G01 X67.191804 Y121.512554 Z-0.125000
G01 X66.887480 Y121.816877 Z-0.125000
G01 X66.887480 Y122.262065 Z-0.125000
G01 X67.191804 Y122.566388 Z-0.125000
G01 X67.636991 Y122.566388 Z-0.125000
G01 X67.941315 Y122.262065 Z-0.125000
G00 Z3.000000

(End cutting path id: polygon19080)


(Start cutting path id: polygon18958)
(Change tool to Default tool)

G00 Z3.000000
G00 X67.517929 Y124.182011

G00 Z4.875000 (Fast pre-penetrate)
G01 Z-0.125000 F400.0(Penetrate)
G01 X67.127166 Y124.259296 Z-0.125000 F800.000000
G01 X66.911108 Y124.581770 Z-0.125000
G01 X66.988392 Y124.972532 Z-0.125000
G01 X67.310866 Y125.188591 Z-0.125000
G01 X67.701629 Y125.111306 Z-0.125000
G01 X67.917687 Y124.788832 Z-0.125000
G01 X67.840403 Y124.398070 Z-0.125000
G01 X67.517929 Y124.182011 Z-0.125000
G00 Z3.000000

(End cutting path id: polygon18958)


(Start cutting path id: polygon18960)
(Change tool to Default tool)

G00 Z3.000000
G00 X69.857874 Y125.164329

G00 Z4.875000 (Fast pre-penetrate)
G01 Z-0.125000 F400.0(Penetrate)
G01 X70.262581 Y125.164329 Z-0.125000 F800.000000
G01 X70.539255 Y124.887654 Z-0.125000
G01 X70.539255 Y124.482948 Z-0.125000
G01 X70.262581 Y124.206273 Z-0.125000
G01 X69.857874 Y124.206273 Z-0.125000
G01 X69.581200 Y124.482948 Z-0.125000
G01 X69.581200 Y124.887654 Z-0.125000
G01 X69.857874 Y125.164329 Z-0.125000
G00 Z3.000000

(End cutting path id: polygon18960)


(Start cutting path id: polygon18966)
(Change tool to Default tool)

G00 Z3.000000
G00 X69.691743 Y127.035777

G00 Z4.875000 (Fast pre-penetrate)
G01 Z-0.125000 F400.0(Penetrate)
G01 X69.588000 Y127.331131 Z-0.125000 F800.000000
G01 X69.691743 Y127.626485 Z-0.125000
G01 X70.060228 Y127.803359 Z-0.125000
G01 X70.355582 Y127.699616 Z-0.125000
G01 X70.532455 Y127.331131 Z-0.125000
G01 X70.355582 Y126.962646 Z-0.125000
G01 X70.060228 Y126.858903 Z-0.125000
G01 X69.691743 Y127.035777 Z-0.125000
G00 Z3.000000

(End cutting path id: polygon18966)


(Start cutting path id: polygon18968)
(Change tool to Default tool)

G00 Z3.000000
G00 X67.206726 Y127.755337

G00 Z4.875000 (Fast pre-penetrate)
G01 Z-0.125000 F400.0(Penetrate)
G01 X67.522665 Y127.790870 Z-0.125000 F800.000000
G01 X67.838603 Y127.538802 Z-0.125000
G01 X67.874137 Y127.222864 Z-0.125000
G01 X67.622069 Y126.906925 Z-0.125000
G01 X67.306130 Y126.871392 Z-0.125000
G01 X66.990192 Y127.123460 Z-0.125000
G01 X66.954658 Y127.439398 Z-0.125000
G01 X67.206726 Y127.755337 Z-0.125000
G00 Z3.000000

(End cutting path id: polygon18968)


(Start cutting path id: polygon18970)
(Change tool to Default tool)

G00 Z3.000000
G00 X67.035224 Y129.755320

G00 Z4.875000 (Fast pre-penetrate)
G01 Z-0.125000 F400.0(Penetrate)
G01 X66.990959 Y130.093695 Z-0.125000 F800.000000
G01 X67.192756 Y130.356135 Z-0.125000
G01 X67.531132 Y130.400400 Z-0.125000
G01 X67.793571 Y130.198602 Z-0.125000
G01 X67.837836 Y129.860227 Z-0.125000
G01 X67.636039 Y129.597787 Z-0.125000
G01 X67.297663 Y129.553522 Z-0.125000
G01 X67.035224 Y129.755320 Z-0.125000
G00 Z3.000000

(End cutting path id: polygon18970)


(Start cutting path id: polygon19016)
(Change tool to Default tool)

G00 Z3.000000
G00 X65.202431 Y130.079143

G00 Z4.875000 (Fast pre-penetrate)
G01 Z-0.125000 F400.0(Penetrate)
G01 X65.168908 Y129.780984 Z-0.125000 F800.000000
G01 X64.870749 Y129.543098 Z-0.125000
G01 X64.572591 Y129.576620 Z-0.125000
G01 X64.334704 Y129.874779 Z-0.125000
G01 X64.368227 Y130.172938 Z-0.125000
G01 X64.666386 Y130.410824 Z-0.125000
G01 X64.964544 Y130.377302 Z-0.125000
G01 X65.202431 Y130.079143 Z-0.125000
G00 Z3.000000

(End cutting path id: polygon19016)


(Start cutting path id: polygon19014)
(Change tool to Default tool)

G00 Z3.000000
G00 X64.661120 Y132.233087

G00 Z4.875000 (Fast pre-penetrate)
G01 Z-0.125000 F400.0(Penetrate)
G01 X64.419609 Y132.418824 Z-0.125000 F800.000000
G01 X64.378863 Y132.730238 Z-0.125000
G01 X64.564600 Y132.971750 Z-0.125000
G01 X64.876015 Y133.012495 Z-0.125000
G01 X65.117526 Y132.826758 Z-0.125000
G01 X65.158272 Y132.515344 Z-0.125000
G01 X64.972535 Y132.273832 Z-0.125000
G01 X64.661120 Y132.233087 Z-0.125000
G00 Z3.000000

(End cutting path id: polygon19014)


(Start cutting path id: polygon18948)
(Change tool to Default tool)

G00 Z3.000000
G00 X61.691335 Y132.622791

G00 Z4.875000 (Fast pre-penetrate)
G01 Z-0.125000 F400.0(Penetrate)
G01 X61.817700 Y132.927829 Z-0.125000 F800.000000
G01 X62.122737 Y133.054194 Z-0.125000
G01 X62.427775 Y132.927829 Z-0.125000
G01 X62.554140 Y132.622791 Z-0.125000
G01 X62.427775 Y132.317753 Z-0.125000
G01 X62.122737 Y132.191388 Z-0.125000
G01 X61.817700 Y132.317753 Z-0.125000
G01 X61.691335 Y132.622791 Z-0.125000
G00 Z3.000000

(End cutting path id: polygon18948)


(Start cutting path id: polygon18930)
(Change tool to Default tool)

G00 Z3.000000
G00 X59.270215 Y133.045013

G00 Z4.875000 (Fast pre-penetrate)
G01 Z-0.125000 F400.0(Penetrate)
G01 X59.584672 Y133.080361 Z-0.125000 F800.000000
G01 X59.899129 Y132.829483 Z-0.125000
G01 X59.934477 Y132.515026 Z-0.125000
G01 X59.683600 Y132.200569 Z-0.125000
G01 X59.369143 Y132.165221 Z-0.125000
G01 X59.054686 Y132.416099 Z-0.125000
G01 X59.019338 Y132.730556 Z-0.125000
G01 X59.270215 Y133.045013 Z-0.125000
G00 Z3.000000

(End cutting path id: polygon18930)


(Start cutting path id: polygon18932)
(Change tool to Default tool)

G00 Z3.000000
G00 X59.373376 Y134.829016

G00 Z4.875000 (Fast pre-penetrate)
G01 Z-0.125000 F400.0(Penetrate)
G01 X59.071275 Y135.070051 Z-0.125000 F800.000000
G01 X59.037303 Y135.372152 Z-0.125000
G01 X59.278338 Y135.674253 Z-0.125000
G01 X59.580439 Y135.708226 Z-0.125000
G01 X59.882540 Y135.467191 Z-0.125000
G01 X59.916512 Y135.165090 Z-0.125000
G01 X59.675477 Y134.862989 Z-0.125000
G01 X59.373376 Y134.829016 Z-0.125000
G00 Z3.000000

(End cutting path id: polygon18932)


(Start cutting path id: polygon18730)
(Change tool to Default tool)

G00 Z3.000000
G00 X57.122648 Y135.632396

G00 Z4.875000 (Fast pre-penetrate)
G01 Z-0.125000 F400.0(Penetrate)
G01 X57.297246 Y135.268621 Z-0.125000 F800.000000
G01 X57.122648 Y134.904846 Z-0.125000
G01 X56.831078 Y134.802452 Z-0.125000
G01 X56.467302 Y134.977051 Z-0.125000
G01 X56.364909 Y135.268621 Z-0.125000
G01 X56.467302 Y135.560191 Z-0.125000
G01 X56.831078 Y135.734790 Z-0.125000
G01 X57.122648 Y135.632396 Z-0.125000
G00 Z3.000000

(End cutting path id: polygon18730)


(Start cutting path id: polygon18724)
(Change tool to Default tool)

G00 Z3.000000
G00 X57.246870 Y137.710907

G00 Z4.875000 (Fast pre-penetrate)
G01 Z-0.125000 F400.0(Penetrate)
G01 X56.937202 Y137.463840 Z-0.125000 F800.000000
G01 X56.627534 Y137.498659 Z-0.125000
G01 X56.380466 Y137.808327 Z-0.125000
G01 X56.415285 Y138.117995 Z-0.125000
G01 X56.724953 Y138.365062 Z-0.125000
G01 X57.034621 Y138.330243 Z-0.125000
G01 X57.281689 Y138.020575 Z-0.125000
G01 X57.246870 Y137.710907 Z-0.125000
G00 Z3.000000

(End cutting path id: polygon18724)


(Start cutting path id: polygon18934)
(Change tool to Default tool)

G00 Z3.000000
G00 X59.476908 Y137.468814

G00 Z4.875000 (Fast pre-penetrate)
G01 Z-0.125000 F400.0(Penetrate)
G01 X59.198196 Y137.566710 Z-0.125000 F800.000000
G01 X59.031270 Y137.914451 Z-0.125000
G01 X59.129166 Y138.193163 Z-0.125000
G01 X59.476908 Y138.360088 Z-0.125000
G01 X59.755619 Y138.262192 Z-0.125000
G01 X59.922545 Y137.914451 Z-0.125000
G01 X59.824649 Y137.635739 Z-0.125000
G01 X59.476908 Y137.468814 Z-0.125000
G00 Z3.000000

(End cutting path id: polygon18934)


(Start cutting path id: polygon18944)
(Change tool to Default tool)

G00 Z3.000000
G00 X62.019153 Y138.290212

G00 Z4.875000 (Fast pre-penetrate)
G01 Z-0.125000 F400.0(Penetrate)
G01 X62.319429 Y138.250921 Z-0.125000 F800.000000
G01 X62.498498 Y138.018035 Z-0.125000
G01 X62.459208 Y137.717760 Z-0.125000
G01 X62.226322 Y137.538690 Z-0.125000
G01 X61.926046 Y137.577981 Z-0.125000
G01 X61.746977 Y137.810867 Z-0.125000
G01 X61.786267 Y138.111142 Z-0.125000
G01 X62.019153 Y138.290212 Z-0.125000
G00 Z3.000000

(End cutting path id: polygon18944)


(Start cutting path id: polygon19010)
(Change tool to Default tool)

G00 Z3.000000
G00 X64.505334 Y138.107067

G00 Z4.875000 (Fast pre-penetrate)
G01 Z-0.125000 F400.0(Penetrate)
G01 X64.768568 Y138.240602 Z-0.125000 F800.000000
G01 X64.961184 Y138.177685 Z-0.125000
G01 X65.094719 Y137.914451 Z-0.125000
G01 X65.031801 Y137.721835 Z-0.125000
G01 X64.768568 Y137.588300 Z-0.125000
G01 X64.575951 Y137.651217 Z-0.125000
G01 X64.442416 Y137.914451 Z-0.125000
G01 X64.505334 Y138.107067 Z-0.125000
G00 Z3.000000

(End cutting path id: polygon19010)


(Start cutting path id: polygon19012)
(Change tool to Default tool)

G00 Z3.000000
G00 X65.048179 Y140.764909

G00 Z4.875000 (Fast pre-penetrate)
G01 Z-0.125000 F400.0(Penetrate)
G01 X65.115039 Y140.560281 Z-0.125000 F800.000000
G01 X65.048179 Y140.355653 Z-0.125000
G01 X64.768568 Y140.213810 Z-0.125000
G01 X64.488956 Y140.355653 Z-0.125000
G01 X64.422096 Y140.560281 Z-0.125000
G01 X64.563939 Y140.839892 Z-0.125000
G01 X64.768568 Y140.906752 Z-0.125000
G01 X65.048179 Y140.764909 Z-0.125000
G00 Z3.000000

(End cutting path id: polygon19012)


(Start cutting path id: polygon16126)
(Change tool to Default tool)

G00 Z3.000000
G00 X67.738353 Y140.668178

G00 Z4.875000 (Fast pre-penetrate)
G01 Z-0.125000 F400.0(Penetrate)
G01 X67.738353 Y140.452384 Z-0.125000 F800.000000
G01 X67.522294 Y140.236326 Z-0.125000
G01 X67.306501 Y140.236326 Z-0.125000
G01 X67.090442 Y140.452384 Z-0.125000
G01 X67.090442 Y140.668178 Z-0.125000
G01 X67.306501 Y140.884236 Z-0.125000
G01 X67.522294 Y140.884236 Z-0.125000
G01 X67.738353 Y140.668178 Z-0.125000
G00 Z3.000000

(End cutting path id: polygon16126)


(Start cutting path id: polygon12422)
(Change tool to Default tool)

G00 Z3.000000
G00 X67.534650 Y142.845035

G00 Z4.875000 (Fast pre-penetrate)
G01 Z-0.125000 F400.0(Penetrate)
G01 X67.294145 Y142.845035 Z-0.125000 F800.000000
G01 X67.053321 Y143.085858 Z-0.125000
G01 X67.053321 Y143.326364 Z-0.125000
G01 X67.294145 Y143.567187 Z-0.125000
G01 X67.534650 Y143.567187 Z-0.125000
G01 X67.775474 Y143.326364 Z-0.125000
G01 X67.775474 Y143.085858 Z-0.125000
G01 X67.534650 Y142.845035 Z-0.125000
G00 Z3.000000

(End cutting path id: polygon12422)


(Start cutting path id: polygon12432)
(Change tool to Default tool)

G00 Z3.000000
G00 X67.522030 Y145.461496

G00 Z4.875000 (Fast pre-penetrate)
G01 Z-0.125000 F400.0(Penetrate)
G01 X67.210034 Y145.502321 Z-0.125000 F800.000000
G01 X67.023952 Y145.744309 Z-0.125000
G01 X67.064778 Y146.056305 Z-0.125000
G01 X67.306765 Y146.242386 Z-0.125000
G01 X67.618761 Y146.201561 Z-0.125000
G01 X67.804843 Y145.959573 Z-0.125000
G01 X67.764017 Y145.647577 Z-0.125000
G01 X67.522030 Y145.461496 Z-0.125000
G00 Z3.000000

(End cutting path id: polygon12432)


(Start cutting path id: polygon12434)
(Change tool to Default tool)

G00 Z3.000000
G00 X70.176829 Y146.274877

G00 Z4.875000 (Fast pre-penetrate)
G01 Z-0.125000 F400.0(Penetrate)
G01 X70.438952 Y146.073318 Z-0.125000 F800.000000
G01 X70.483163 Y145.735339 Z-0.125000
G01 X70.281604 Y145.473217 Z-0.125000
G01 X69.943626 Y145.429005 Z-0.125000
G01 X69.681503 Y145.630564 Z-0.125000
G01 X69.637292 Y145.968543 Z-0.125000
G01 X69.838851 Y146.230665 Z-0.125000
G01 X70.176829 Y146.274877 Z-0.125000
G00 Z3.000000

(End cutting path id: polygon12434)


(Start cutting path id: polygon12436)
(Change tool to Default tool)

G00 Z3.000000
G00 X72.215574 Y145.851941

G00 Z4.875000 (Fast pre-penetrate)
G01 Z-0.125000 F400.0(Penetrate)
G01 X72.399300 Y146.234660 Z-0.125000 F800.000000
G01 X72.706058 Y146.342425 Z-0.125000
G01 X73.088777 Y146.158699 Z-0.125000
G01 X73.196541 Y145.851941 Z-0.125000
G01 X73.012815 Y145.469222 Z-0.125000
G01 X72.706058 Y145.361457 Z-0.125000
G01 X72.323338 Y145.545183 Z-0.125000
G01 X72.215574 Y145.851941 Z-0.125000
G00 Z3.000000

(End cutting path id: polygon12436)


(Start cutting path id: polygon12438)
(Change tool to Default tool)

G00 Z3.000000
G00 X75.051797 Y145.406859

G00 Z4.875000 (Fast pre-penetrate)
G01 Z-0.125000 F400.0(Penetrate)
G01 X74.826055 Y145.743779 Z-0.125000 F800.000000
G01 X74.906806 Y146.152031 Z-0.125000
G01 X75.243726 Y146.377773 Z-0.125000
G01 X75.651978 Y146.297023 Z-0.125000
G01 X75.877720 Y145.960103 Z-0.125000
G01 X75.796969 Y145.551851 Z-0.125000
G01 X75.460049 Y145.326109 Z-0.125000
G01 X75.051797 Y145.406859 Z-0.125000
G00 Z3.000000

(End cutting path id: polygon12438)


(Start cutting path id: polygon12416)
(Change tool to Default tool)

G00 Z3.000000
G00 X75.062381 Y142.844902

G00 Z4.875000 (Fast pre-penetrate)
G01 Z-0.125000 F400.0(Penetrate)
G01 X74.889000 Y143.206111 Z-0.125000 F800.000000
G01 X74.990679 Y143.495618 Z-0.125000
G01 X75.351888 Y143.668999 Z-0.125000
G01 X75.713096 Y143.495618 Z-0.125000
G01 X75.814775 Y143.206111 Z-0.125000
G01 X75.641394 Y142.844902 Z-0.125000
G01 X75.351888 Y142.743223 Z-0.125000
G01 X75.062381 Y142.844902 Z-0.125000
G00 Z3.000000

(End cutting path id: polygon12416)


(Start cutting path id: polygon16120)
(Change tool to Default tool)

G00 Z3.000000
G00 X74.943133 Y140.672967

G00 Z4.875000 (Fast pre-penetrate)
G01 Z-0.125000 F400.0(Penetrate)
G01 X75.137946 Y140.926305 Z-0.125000 F800.000000
G01 X75.464573 Y140.969035 Z-0.125000
G01 X75.717912 Y140.774223 Z-0.125000
G01 X75.760642 Y140.447595 Z-0.125000
G01 X75.565829 Y140.194257 Z-0.125000
G01 X75.239202 Y140.151527 Z-0.125000
G01 X74.985863 Y140.346339 Z-0.125000
G01 X74.943133 Y140.672967 Z-0.125000
G00 Z3.000000

(End cutting path id: polygon16120)


(Start cutting path id: polygon16122)
(Change tool to Default tool)

G00 Z3.000000
G00 X72.910263 Y140.909636

G00 Z4.875000 (Fast pre-penetrate)
G01 Z-0.125000 F400.0(Penetrate)
G01 X73.096212 Y140.667834 Z-0.125000 F800.000000
G01 X73.055413 Y140.356076 Z-0.125000
G01 X72.813610 Y140.170127 Z-0.125000
G01 X72.501852 Y140.210926 Z-0.125000
G01 X72.315903 Y140.452728 Z-0.125000
G01 X72.356702 Y140.764486 Z-0.125000
G01 X72.598505 Y140.950435 Z-0.125000
G01 X72.910263 Y140.909636 Z-0.125000
G00 Z3.000000

(End cutting path id: polygon16122)


(Start cutting path id: polygon12418)
(Change tool to Default tool)

G00 Z3.000000
G00 X72.821442 Y142.787541

G00 Z4.875000 (Fast pre-penetrate)
G01 Z-0.125000 F400.0(Penetrate)
G01 X72.486983 Y142.831303 Z-0.125000 F800.000000
G01 X72.287487 Y143.090726 Z-0.125000
G01 X72.331249 Y143.425186 Z-0.125000
G01 X72.590673 Y143.624681 Z-0.125000
G01 X72.925132 Y143.580919 Z-0.125000
G01 X73.124628 Y143.321496 Z-0.125000
G01 X73.080866 Y142.987036 Z-0.125000
G01 X72.821442 Y142.787541 Z-0.125000
G00 Z3.000000

(End cutting path id: polygon12418)


(Start cutting path id: polygon12420)
(Change tool to Default tool)

G00 Z3.000000
G00 X70.262316 Y143.551842

G00 Z4.875000 (Fast pre-penetrate)
G01 Z-0.125000 F400.0(Penetrate)
G01 X70.446307 Y143.312553 Z-0.125000 F800.000000
G01 X70.405958 Y143.004023 Z-0.125000
G01 X70.166669 Y142.820031 Z-0.125000
G01 X69.858139 Y142.860380 Z-0.125000
G01 X69.674148 Y143.099669 Z-0.125000
G01 X69.714497 Y143.408199 Z-0.125000
G01 X69.953786 Y143.592191 Z-0.125000
G01 X70.262316 Y143.551842 Z-0.125000
G00 Z3.000000

(End cutting path id: polygon12420)


(Start cutting path id: polygon16124)
(Change tool to Default tool)

G00 Z3.000000
G00 X70.060228 Y140.930036

G00 Z4.875000 (Fast pre-penetrate)
G01 Z-0.125000 F400.0(Penetrate)
G01 X70.358651 Y140.778668 Z-0.125000 F800.000000
G01 X70.429982 Y140.560281 Z-0.125000
G01 X70.278614 Y140.261858 Z-0.125000
G01 X70.060228 Y140.190526 Z-0.125000
G01 X69.761804 Y140.341894 Z-0.125000
G01 X69.690473 Y140.560281 Z-0.125000
G01 X69.841841 Y140.858704 Z-0.125000
G01 X70.060228 Y140.930036 Z-0.125000
G00 Z3.000000

(End cutting path id: polygon16124)


(Start cutting path id: polygon16130)
(Change tool to Default tool)

G00 Z3.000000
G00 X70.345580 Y138.123260

G00 Z4.875000 (Fast pre-penetrate)
G01 Z-0.125000 F400.0(Penetrate)
G01 X70.413790 Y137.914451 Z-0.125000 F800.000000
G01 X70.345580 Y137.705642 Z-0.125000
G01 X70.060228 Y137.560889 Z-0.125000
G01 X69.851419 Y137.629098 Z-0.125000
G01 X69.706665 Y137.914451 Z-0.125000
G01 X69.851419 Y138.199804 Z-0.125000
G01 X70.060228 Y138.268013 Z-0.125000
G01 X70.345580 Y138.123260 Z-0.125000
G00 Z3.000000

(End cutting path id: polygon16130)


(Start cutting path id: polygon16132)
(Change tool to Default tool)

G00 Z3.000000
G00 X72.600701 Y138.296562

G00 Z4.875000 (Fast pre-penetrate)
G01 Z-0.125000 F400.0(Penetrate)
G01 X72.906056 Y138.256610 Z-0.125000 F800.000000
G01 X73.088168 Y138.019808 Z-0.125000
G01 X73.048216 Y137.714453 Z-0.125000
G01 X72.811414 Y137.532340 Z-0.125000
G01 X72.506059 Y137.572292 Z-0.125000
G01 X72.323947 Y137.809094 Z-0.125000
G01 X72.363899 Y138.114449 Z-0.125000
G01 X72.600701 Y138.296562 Z-0.125000
G00 Z3.000000

(End cutting path id: polygon16132)


(Start cutting path id: polygon16134)
(Change tool to Default tool)

G00 Z3.000000
G00 X74.953267 Y138.024359

G00 Z4.875000 (Fast pre-penetrate)
G01 Z-0.125000 F400.0(Penetrate)
G01 X75.143237 Y138.271400 Z-0.125000 F800.000000
G01 X75.461795 Y138.313072 Z-0.125000
G01 X75.708836 Y138.123101 Z-0.125000
G01 X75.750508 Y137.804543 Z-0.125000
G01 X75.560538 Y137.557502 Z-0.125000
G01 X75.241980 Y137.515830 Z-0.125000
G01 X74.994939 Y137.705801 Z-0.125000
G01 X74.953267 Y138.024359 Z-0.125000
G00 Z3.000000

(End cutting path id: polygon16134)


(Start cutting path id: polygon18980)
(Change tool to Default tool)

G00 Z3.000000
G00 X75.764319 Y135.268621

G00 Z4.875000 (Fast pre-penetrate)
G01 Z-0.125000 F400.0(Penetrate)
G01 X75.643511 Y134.976998 Z-0.125000 F800.000000
G01 X75.351888 Y134.856189 Z-0.125000
G01 X75.060264 Y134.976998 Z-0.125000
G01 X74.939456 Y135.268621 Z-0.125000
G01 X75.060264 Y135.560244 Z-0.125000
G01 X75.351888 Y135.681053 Z-0.125000
G01 X75.643511 Y135.560244 Z-0.125000
G01 X75.764319 Y135.268621 Z-0.125000
G00 Z3.000000

(End cutting path id: polygon18980)


(Start cutting path id: polygon18978)
(Change tool to Default tool)

G00 Z3.000000
G00 X75.752757 Y132.733307

G00 Z4.875000 (Fast pre-penetrate)
G01 Z-0.125000 F400.0(Penetrate)
G01 X75.710847 Y132.412977 Z-0.125000 F800.000000
G01 X75.462404 Y132.221921 Z-0.125000
G01 X75.142073 Y132.263831 Z-0.125000
G01 X74.951018 Y132.512275 Z-0.125000
G01 X74.992928 Y132.832605 Z-0.125000
G01 X75.241371 Y133.023661 Z-0.125000
G01 X75.561702 Y132.981751 Z-0.125000
G01 X75.752757 Y132.733307 Z-0.125000
G00 Z3.000000

(End cutting path id: polygon18978)


(Start cutting path id: polygon12164)
(Change tool to Default tool)

G00 Z3.000000
G00 X78.109054 Y132.218932

G00 Z4.875000 (Fast pre-penetrate)
G01 Z-0.125000 F400.0(Penetrate)
G01 X77.786342 Y132.261159 Z-0.125000 F800.000000
G01 X77.593858 Y132.511454 Z-0.125000
G01 X77.636085 Y132.834166 Z-0.125000
G01 X77.886381 Y133.026650 Z-0.125000
G01 X78.209093 Y132.984423 Z-0.125000
G01 X78.401577 Y132.734128 Z-0.125000
G01 X78.359350 Y132.411416 Z-0.125000
G01 X78.109054 Y132.218932 Z-0.125000
G00 Z3.000000

(End cutting path id: polygon12164)


(Start cutting path id: polygon18982)
(Change tool to Default tool)

G00 Z3.000000
G00 X78.410546 Y135.154797

G00 Z4.875000 (Fast pre-penetrate)
G01 Z-0.125000 F400.0(Penetrate)
G01 X78.213802 Y134.898946 Z-0.125000 F800.000000
G01 X77.883894 Y134.855792 Z-0.125000
G01 X77.628042 Y135.052536 Z-0.125000
G01 X77.584889 Y135.382445 Z-0.125000
G01 X77.781633 Y135.638296 Z-0.125000
G01 X78.111541 Y135.681450 Z-0.125000
G01 X78.367393 Y135.484706 Z-0.125000
G01 X78.410546 Y135.154797 Z-0.125000
G00 Z3.000000

(End cutting path id: polygon18982)


(Start cutting path id: polygon18984)
(Change tool to Default tool)

G00 Z3.000000
G00 X80.236196 Y135.468037

G00 Z4.875000 (Fast pre-penetrate)
G01 Z-0.125000 F400.0(Penetrate)
G01 X80.539566 Y135.710104 Z-0.125000 F800.000000
G01 X80.842964 Y135.675973 Z-0.125000
G01 X81.085031 Y135.372602 Z-0.125000
G01 X81.050899 Y135.069205 Z-0.125000
G01 X80.747529 Y134.827138 Z-0.125000
G01 X80.444131 Y134.861269 Z-0.125000
G01 X80.202064 Y135.164640 Z-0.125000
G01 X80.236196 Y135.468037 Z-0.125000
G00 Z3.000000

(End cutting path id: polygon18984)


(Start cutting path id: polygon16138)
(Change tool to Default tool)

G00 Z3.000000
G00 X80.643548 Y137.454712

G00 Z4.875000 (Fast pre-penetrate)
G01 Z-0.125000 F400.0(Penetrate)
G01 X80.284799 Y137.626902 Z-0.125000 F800.000000
G01 X80.183808 Y137.914451 Z-0.125000
G01 X80.355999 Y138.273199 Z-0.125000
G01 X80.643547 Y138.374190 Z-0.125000
G01 X81.002296 Y138.202000 Z-0.125000
G01 X81.103287 Y137.914451 Z-0.125000
G01 X80.931096 Y137.555703 Z-0.125000
G01 X80.643548 Y137.454712 Z-0.125000
G00 Z3.000000

(End cutting path id: polygon16138)


(Start cutting path id: polygon16140)
(Change tool to Default tool)

G00 Z3.000000
G00 X82.858927 Y137.703737

G00 Z4.875000 (Fast pre-penetrate)
G01 Z-0.125000 F400.0(Penetrate)
G01 X82.822891 Y138.024306 Z-0.125000 F800.000000
G01 X83.078664 Y138.344901 Z-0.125000
G01 X83.399232 Y138.380937 Z-0.125000
G01 X83.719828 Y138.125165 Z-0.125000
G01 X83.755864 Y137.804596 Z-0.125000
G01 X83.500091 Y137.484001 Z-0.125000
G01 X83.179523 Y137.447965 Z-0.125000
G01 X82.858927 Y137.703737 Z-0.125000
G00 Z3.000000

(End cutting path id: polygon16140)


(Start cutting path id: polygon16114)
(Change tool to Default tool)

G00 Z3.000000
G00 X83.289378 Y140.064664

G00 Z4.875000 (Fast pre-penetrate)
G01 Z-0.125000 F400.0(Penetrate)
G01 X82.902637 Y140.250296 Z-0.125000 F800.000000
G01 X82.793761 Y140.560281 Z-0.125000
G01 X82.979392 Y140.947022 Z-0.125000
G01 X83.289378 Y141.055898 Z-0.125000
G01 X83.676118 Y140.870266 Z-0.125000
G01 X83.784994 Y140.560281 Z-0.125000
G01 X83.599363 Y140.173540 Z-0.125000
G01 X83.289378 Y140.064664 Z-0.125000
G00 Z3.000000

(End cutting path id: polygon16114)


(Start cutting path id: polygon16112)
(Change tool to Default tool)

G00 Z3.000000
G00 X85.557833 Y140.182906

G00 Z4.875000 (Fast pre-penetrate)
G01 Z-0.125000 F400.0(Penetrate)
G01 X85.401517 Y140.560281 Z-0.125000 F800.000000
G01 X85.557833 Y140.937656 Z-0.125000
G01 X85.935208 Y141.093971 Z-0.125000
G01 X86.312582 Y140.937656 Z-0.125000
G01 X86.468898 Y140.560281 Z-0.125000
G01 X86.312582 Y140.182906 Z-0.125000
G01 X85.935208 Y140.026591 Z-0.125000
G01 X85.557833 Y140.182906 Z-0.125000
G00 Z3.000000

(End cutting path id: polygon16112)


(Start cutting path id: polygon16142)
(Change tool to Default tool)

G00 Z3.000000
G00 X85.435146 Y137.811581

G00 Z4.875000 (Fast pre-penetrate)
G01 Z-0.125000 F400.0(Penetrate)
G01 X85.511954 Y138.199830 Z-0.125000 F800.000000
G01 X85.832338 Y138.414513 Z-0.125000
G01 X86.220587 Y138.337704 Z-0.125000
G01 X86.435269 Y138.017321 Z-0.125000
G01 X86.358461 Y137.629072 Z-0.125000
G01 X86.038077 Y137.414389 Z-0.125000
G01 X85.649828 Y137.491198 Z-0.125000
G01 X85.435146 Y137.811581 Z-0.125000
G00 Z3.000000

(End cutting path id: polygon16142)


(Start cutting path id: polygon18988)
(Change tool to Default tool)

G00 Z3.000000
G00 X85.429378 Y135.164561

G00 Z4.875000 (Fast pre-penetrate)
G01 Z-0.125000 F400.0(Penetrate)
G01 X85.507059 Y135.557308 Z-0.125000 F800.000000
G01 X85.831147 Y135.774451 Z-0.125000
G01 X86.223894 Y135.696769 Z-0.125000
G01 X86.441037 Y135.372681 Z-0.125000
G01 X86.363356 Y134.979934 Z-0.125000
G01 X86.039268 Y134.762791 Z-0.125000
G01 X85.646521 Y134.840473 Z-0.125000
G01 X85.429378 Y135.164561 Z-0.125000
G00 Z3.000000

(End cutting path id: polygon18988)


(Start cutting path id: polygon18986)
(Change tool to Default tool)

G00 Z3.000000
G00 X83.289378 Y134.789382

G00 Z4.875000 (Fast pre-penetrate)
G01 Z-0.125000 F400.0(Penetrate)
G01 X82.989631 Y134.894659 Z-0.125000 F800.000000
G01 X82.810138 Y135.268621 Z-0.125000
G01 X82.915416 Y135.568367 Z-0.125000
G01 X83.289378 Y135.747860 Z-0.125000
G01 X83.589124 Y135.642583 Z-0.125000
G01 X83.768617 Y135.268621 Z-0.125000
G01 X83.663339 Y134.968875 Z-0.125000
G01 X83.289378 Y134.789382 Z-0.125000
G00 Z3.000000

(End cutting path id: polygon18986)


(Start cutting path id: polygon12168)
(Change tool to Default tool)

G00 Z3.000000
G00 X83.774940 Y132.622791

G00 Z4.875000 (Fast pre-penetrate)
G01 Z-0.125000 F400.0(Penetrate)
G01 X83.593066 Y132.243908 Z-0.125000 F800.000000
G01 X83.289377 Y132.137228 Z-0.125000
G01 X82.910495 Y132.319103 Z-0.125000
G01 X82.803815 Y132.622791 Z-0.125000
G01 X82.985689 Y133.001674 Z-0.125000
G01 X83.289377 Y133.108354 Z-0.125000
G01 X83.668260 Y132.926479 Z-0.125000
G01 X83.774940 Y132.622791 Z-0.125000
G00 Z3.000000

(End cutting path id: polygon12168)


(Start cutting path id: polygon12170)
(Change tool to Default tool)

G00 Z3.000000
G00 X86.381824 Y132.321669

G00 Z4.875000 (Fast pre-penetrate)
G01 Z-0.125000 F400.0(Penetrate)
G01 X86.043739 Y132.095133 Z-0.125000 F800.000000
G01 X85.634086 Y132.176175 Z-0.125000
G01 X85.407550 Y132.514259 Z-0.125000
G01 X85.488591 Y132.923913 Z-0.125000
G01 X85.826676 Y133.150449 Z-0.125000
G01 X86.236329 Y133.069407 Z-0.125000
G01 X86.462865 Y132.731323 Z-0.125000
G01 X86.381824 Y132.321669 Z-0.125000
G00 Z3.000000

(End cutting path id: polygon12170)


(Start cutting path id: polygon12156)
(Change tool to Default tool)

G00 Z3.000000
G00 X86.335918 Y129.576250

G00 Z4.875000 (Fast pre-penetrate)
G01 Z-0.125000 F400.0(Penetrate)
G01 X85.935208 Y129.410251 Z-0.125000 F800.000000
G01 X85.534497 Y129.576250 Z-0.125000
G01 X85.368497 Y129.976961 Z-0.125000
G01 X85.534497 Y130.377672 Z-0.125000
G01 X85.935208 Y130.543671 Z-0.125000
G01 X86.335918 Y130.377672 Z-0.125000
G01 X86.501918 Y129.976961 Z-0.125000
G01 X86.335918 Y129.576250 Z-0.125000
G00 Z3.000000

(End cutting path id: polygon12156)


(Start cutting path id: polygon12154)
(Change tool to Default tool)

G00 Z3.000000
G00 X88.896897 Y129.436603

G00 Z4.875000 (Fast pre-penetrate)
G01 Z-0.125000 F400.0(Penetrate)
G01 X88.693538 Y129.361223 Z-0.125000 F800.000000
G01 X88.265178 Y129.436603 Z-0.125000
G01 X88.040680 Y129.661102 Z-0.125000
G01 X87.965300 Y129.864460 Z-0.125000
G01 X88.040680 Y130.292820 Z-0.125000
G01 X88.265178 Y130.517319 Z-0.125000
G01 X88.468537 Y130.592699 Z-0.125000
G01 X88.896897 Y130.517319 Z-0.125000
G01 X89.121395 Y130.292820 Z-0.125000
G01 X89.196775 Y130.089462 Z-0.125000
G01 X89.121395 Y129.661102 Z-0.125000
G01 X88.896897 Y129.436603 Z-0.125000
G00 Z3.000000

(End cutting path id: polygon12154)


(Start cutting path id: polygon12144)
(Change tool to Default tool)

G00 Z3.000000
G00 X88.789423 Y127.956817

G00 Z4.875000 (Fast pre-penetrate)
G01 Z-0.125000 F400.0(Penetrate)
G01 X89.166745 Y127.634105 Z-0.125000 F800.000000
G01 X89.206723 Y127.122745 Z-0.125000
G01 X88.884011 Y126.745424 Z-0.125000
G01 X88.372652 Y126.705445 Z-0.125000
G01 X87.995330 Y127.028157 Z-0.125000
G01 X87.955352 Y127.539517 Z-0.125000
G01 X88.278064 Y127.916838 Z-0.125000
G01 X88.789423 Y127.956817 Z-0.125000
G00 Z3.000000

(End cutting path id: polygon12144)


(Start cutting path id: polygon12146)
(Change tool to Default tool)

G00 Z3.000000
G00 X90.632958 Y126.945634

G00 Z4.875000 (Fast pre-penetrate)
G01 Z-0.125000 F400.0(Penetrate)
G01 X90.526569 Y127.226515 Z-0.125000 F800.000000
