%
(Header)
(Generated by gcodetools from Inkscape.)
(Using default header. To add your own header create file "header" in the output dir.)
M3
(Header end.)
G21 (All units in mm)

(Start cutting path id: polyline136)
(Change tool to Default tool)

G00 Z3.000000
G00 X140.415933 Y136.908664

G00 Z4.875000 (Fast pre-penetrate)
G01 Z-0.125000 F400.0(Penetrate)
G01 X141.721033 Y139.507724 Z-0.125000 F800.000000
G01 X142.024863 Y140.653164 Z-0.125000
G01 X142.080163 Y141.584864 Z-0.125000
G01 X141.921833 Y142.406064 Z-0.125000
G01 X141.507303 Y143.181544 Z-0.125000
G01 X140.857013 Y143.829094 Z-0.125000
G01 X139.996043 Y144.360204 Z-0.125000
G01 X136.950993 Y145.319814 Z-0.125000
G01 X132.271993 Y145.959194 Z-0.125000
G01 X127.137313 Y146.170584 Z-0.125000
G01 X122.751073 Y145.855994 Z-0.125000
G01 X118.448713 Y144.904404 Z-0.125000
G01 X114.642973 Y143.262794 Z-0.125000
G01 X111.127033 Y141.052654 Z-0.125000
G01 X102.552313 Y134.801374 Z-0.125000
G01 X100.146150 Y133.410094 Z-0.125000
G01 X96.138023 Y131.494724 Z-0.125000
G01 X94.799044 Y130.613034 Z-0.125000
G01 X93.790091 Y129.583834 Z-0.125000
G01 X93.064347 Y128.371424 Z-0.125000
G01 X92.675758 Y127.067024 Z-0.125000
G01 X92.647578 Y125.718124 Z-0.125000
G01 X93.132616 Y123.805924 Z-0.125000
G01 X94.776253 Y120.301764 Z-0.125000
G01 X95.442064 Y116.638874 Z-0.125000
G01 X96.288440 Y114.893184 Z-0.125000
G01 X97.152908 Y113.928874 Z-0.125000
G01 X98.334366 Y113.032324 Z-0.125000
G01 X99.704326 Y112.303954 Z-0.125000
G01 X101.300793 Y111.710884 Z-0.125000
G01 X105.087943 Y110.990674 Z-0.125000
G01 X108.739233 Y111.070874 Z-0.125000
G01 X111.101053 Y111.562224 Z-0.125000
G01 X113.489163 Y112.422204 Z-0.125000
G01 X115.882133 Y113.644714 Z-0.125000
G01 X118.429693 Y115.310104 Z-0.125000
G01 X123.694293 Y119.608404 Z-0.125000
G01 X135.416923 Y130.343794 Z-0.125000
G01 X139.376453 Y134.594664 Z-0.125000
G01 X140.749203 Y136.448724 Z-0.125000
G01 X141.885113 Y138.358124 Z-0.125000
G01 X142.575113 Y140.001634 Z-0.125000
G01 X142.848533 Y141.359924 Z-0.125000
G01 X142.747203 Y142.532264 Z-0.125000
G01 X142.223343 Y143.579764 Z-0.125000
G01 X140.974183 Y144.618334 Z-0.125000
G01 X139.085613 Y145.399844 Z-0.125000
G01 X136.268803 Y146.039464 Z-0.125000
G01 X132.558603 Y146.526464 Z-0.125000
G01 X128.762833 Y146.776394 Z-0.125000
G01 X125.399253 Y146.744694 Z-0.125000
G01 X122.229443 Y146.425804 Z-0.125000
G01 X119.344333 Y145.832024 Z-0.125000
G01 X116.380633 Y144.819734 Z-0.125000
G01 X113.384223 Y143.289164 Z-0.125000
G01 X110.325053 Y141.276694 Z-0.125000
G01 X101.726933 Y134.955904 Z-0.125000
G01 X99.159023 Y133.481104 Z-0.125000
G01 X95.120308 Y131.598794 Z-0.125000
G01 X93.792832 Y130.720934 Z-0.125000
G01 X92.806135 Y129.679304 Z-0.125000
G01 X92.114441 Y128.442694 Z-0.125000
G01 X91.786219 Y127.203774 Z-0.125000
G01 X91.798649 Y125.834084 Z-0.125000
G01 X92.368115 Y123.896334 Z-0.125000
G01 X94.200960 Y120.342014 Z-0.125000
G01 X94.916134 Y116.457524 Z-0.125000
G01 X95.871786 Y114.532834 Z-0.125000
G01 X96.814776 Y113.512644 Z-0.125000
G01 X97.988732 Y112.632324 Z-0.125000
G01 X99.435121 Y111.860354 Z-0.125000
G01 X101.113513 Y111.232484 Z-0.125000
G01 X104.914693 Y110.484084 Z-0.125000
G01 X106.781883 Y110.404284 Z-0.125000
G01 X108.698403 Y110.534844 Z-0.125000
G01 X111.138293 Y111.027544 Z-0.125000
G01 X113.598193 Y111.905734 Z-0.125000
G01 X116.055253 Y113.163024 Z-0.125000
G01 X118.663083 Y114.881534 Z-0.125000
G01 X123.872023 Y119.174404 Z-0.125000
G01 X136.322193 Y130.634894 Z-0.125000
G01 X140.201793 Y134.841114 Z-0.125000
G01 X141.675223 Y136.875914 Z-0.125000
G01 X142.724593 Y138.700534 Z-0.125000
G01 X143.396993 Y140.384184 Z-0.125000
G01 X143.636053 Y141.773894 Z-0.125000
G01 X143.483113 Y142.972114 Z-0.125000
G01 X142.943973 Y143.973344 Z-0.125000
G01 X141.618913 Y145.054354 Z-0.125000
G01 X139.514473 Y145.910264 Z-0.125000
G01 X136.553133 Y146.583094 Z-0.125000
G01 X132.547373 Y147.132394 Z-0.125000
G01 X128.769543 Y147.406654 Z-0.125000
G01 X125.289663 Y147.388054 Z-0.125000
G01 X122.168613 Y147.079144 Z-0.125000
G01 X119.171643 Y146.465584 Z-0.125000
G01 X116.088573 Y145.410954 Z-0.125000
G01 X112.970033 Y143.812054 Z-0.125000
G01 X109.785593 Y141.705434 Z-0.125000
G01 X100.880681 Y135.111364 Z-0.125000
G01 X98.248462 Y133.602384 Z-0.125000
G01 X94.156383 Y131.744984 Z-0.125000
G01 X92.767896 Y130.830984 Z-0.125000
G01 X91.856261 Y129.846514 Z-0.125000
G01 X91.183819 Y128.600224 Z-0.125000
G01 X90.881522 Y127.344204 Z-0.125000
G01 X90.920482 Y126.045374 Z-0.125000
G01 X91.554378 Y124.070174 Z-0.125000
G01 X93.623452 Y120.386044 Z-0.125000
G01 X94.388612 Y116.266504 Z-0.125000
G01 X94.813883 Y115.176894 Z-0.125000
G01 X95.405855 Y114.228204 Z-0.125000
G01 X96.408011 Y113.146924 Z-0.125000
G01 X97.651411 Y112.214634 Z-0.125000
G01 X99.177214 Y111.398134 Z-0.125000
G01 X100.797371 Y110.780074 Z-0.125000
G01 X104.746543 Y109.961714 Z-0.125000
G01 X106.682163 Y109.862214 Z-0.125000
G01 X108.665453 Y109.981994 Z-0.125000
G01 X111.184693 Y110.475634 Z-0.125000
G01 X113.717083 Y111.372014 Z-0.125000
G01 X116.238513 Y112.664674 Z-0.125000
G01 X118.906113 Y114.437314 Z-0.125000
G01 X123.884143 Y118.569024 Z-0.125000
G01 X137.094463 Y130.781204 Z-0.125000
G01 X141.035963 Y135.083314 Z-0.125000
G01 X142.433893 Y137.032194 Z-0.125000
G01 X143.507263 Y138.910774 Z-0.125000
G01 X144.190083 Y140.647664 Z-0.125000
G01 X144.422853 Y142.083714 Z-0.125000
G01 X144.246703 Y143.323944 Z-0.125000
G01 X143.667533 Y144.362344 Z-0.125000
G01 X142.264273 Y145.487744 Z-0.125000
G01 X140.053533 Y146.386714 Z-0.125000
G01 X136.964713 Y147.107424 Z-0.125000
G01 X132.664563 Y147.736224 Z-0.125000
G01 X128.923093 Y148.044824 Z-0.125000
G01 X125.501213 Y148.061424 Z-0.125000
G01 X122.277623 Y147.772814 Z-0.125000
G01 X119.166983 Y147.159474 Z-0.125000
G01 X115.954623 Y146.086464 Z-0.125000
G01 X112.705813 Y144.442554 Z-0.125000
G01 X109.232413 Y142.143924 Z-0.125000
G01 X100.013435 Y135.267574 Z-0.125000
G01 X97.211427 Y133.671584 Z-0.125000
G01 X93.095019 Y131.852774 Z-0.125000
G01 X91.724064 Y130.942734 Z-0.125000
G01 X90.838541 Y129.945404 Z-0.125000
G01 X90.205722 Y128.673924 Z-0.125000
G01 X89.955152 Y127.393444 Z-0.125000
G01 X90.058149 Y126.077384 Z-0.125000
G01 X90.764702 Y124.169964 Z-0.125000
G01 X93.044805 Y120.433044 Z-0.125000
G01 X93.367162 Y119.317384 Z-0.125000
G01 X93.884322 Y115.983584 Z-0.125000
G01 X94.356262 Y114.828484 Z-0.125000
G01 X95.072970 Y113.741514 Z-0.125000
G01 X96.097984 Y112.684584 Z-0.125000
G01 X97.437626 Y111.706874 Z-0.125000
G01 X99.066508 Y110.856564 Z-0.125000
G01 X100.781414 Y110.218214 Z-0.125000
G01 X102.799923 Y109.705484 Z-0.125000
G01 X104.914713 Y109.388504 Z-0.125000
G01 X106.928893 Y109.304104 Z-0.125000
G01 X108.813503 Y109.431144 Z-0.125000
G01 X111.414763 Y109.952754 Z-0.125000
G01 X114.019813 Y110.895534 Z-0.125000
G01 X116.603893 Y112.250644 Z-0.125000
G01 X119.159313 Y113.976134 Z-0.125000
G01 X124.061913 Y118.086284 Z-0.125000
G01 X138.179633 Y131.219014 Z-0.125000
G01 X141.989973 Y135.463804 Z-0.125000
G01 X143.376063 Y137.458124 Z-0.125000
G01 X144.420993 Y139.376014 Z-0.125000
G01 X145.020893 Y141.021724 Z-0.125000
G01 X145.214663 Y142.490544 Z-0.125000
G01 X145.014473 Y143.668104 Z-0.125000
G01 X144.394003 Y144.745054 Z-0.125000
G01 X142.910043 Y145.916804 Z-0.125000
G01 X140.590343 Y146.861104 Z-0.125000
G01 X137.223793 Y147.661304 Z-0.125000
G01 X132.610163 Y148.369914 Z-0.125000
G01 X128.745613 Y148.711234 Z-0.125000
G01 X125.377803 Y148.735934 Z-0.125000
G01 X122.040423 Y148.433594 Z-0.125000
G01 X118.993333 Y147.826764 Z-0.125000
G01 X115.656203 Y146.710734 Z-0.125000
G01 X112.278733 Y144.996154 Z-0.125000
G01 X108.666553 Y142.593434 Z-0.125000
G01 X101.735803 Y137.262074 Z-0.125000
G01 X99.003176 Y135.346424 Z-0.125000
G01 X96.255630 Y133.792394 Z-0.125000
G01 X92.013263 Y131.963814 Z-0.125000
G01 X90.662824 Y131.057304 Z-0.125000
G01 X89.806231 Y130.046194 Z-0.125000
G01 X89.243438 Y128.837174 Z-0.125000
G01 X89.026047 Y127.635194 Z-0.125000
G01 X89.146866 Y126.298974 Z-0.125000
G01 X89.919113 Y124.355904 Z-0.125000
G01 X92.492291 Y120.421534 Z-0.125000
G01 X92.814088 Y119.334384 Z-0.125000
G01 X93.357691 Y115.766184 Z-0.125000
G01 X93.859951 Y114.545574 Z-0.125000
G01 X94.622769 Y113.396634 Z-0.125000
G01 X95.710679 Y112.280044 Z-0.125000
G01 X97.127019 Y111.248504 Z-0.125000
G01 X98.700258 Y110.416174 Z-0.125000
G01 X100.482495 Y109.732084 Z-0.125000
G01 X102.578203 Y109.178784 Z-0.125000
G01 X104.770713 Y108.830444 Z-0.125000
G01 X106.855723 Y108.725994 Z-0.125000
G01 X108.803563 Y108.843084 Z-0.125000
G01 X111.486243 Y109.365794 Z-0.125000
G01 X113.986883 Y110.250224 Z-0.125000
G01 X116.637483 Y111.615314 Z-0.125000
G01 X119.250043 Y113.370524 Z-0.125000
G01 X123.897493 Y117.267444 Z-0.125000
G01 X138.978863 Y131.359994 Z-0.125000
G01 X142.842193 Y135.699514 Z-0.125000
G01 X144.237373 Y137.743694 Z-0.125000
G01 X145.277253 Y139.709134 Z-0.125000
G01 X145.854243 Y141.393754 Z-0.125000
G01 X146.009873 Y142.787534 Z-0.125000
G01 X145.785833 Y144.006044 Z-0.125000
G01 X145.122693 Y145.122904 Z-0.125000
G01 X143.555733 Y146.342944 Z-0.125000
G01 X141.124343 Y147.335014 Z-0.125000
G01 X137.466703 Y148.222524 Z-0.125000
G01 X132.694883 Y148.999204 Z-0.125000
G01 X128.885083 Y149.376564 Z-0.125000
G01 X125.420063 Y149.432064 Z-0.125000
G01 X122.158813 Y149.160684 Z-0.125000
G01 X119.002763 Y148.557004 Z-0.125000
G01 X115.352533 Y147.349894 Z-0.125000
G01 X111.843273 Y145.562994 Z-0.125000
G01 X108.088633 Y143.053354 Z-0.125000
G01 X100.907559 Y137.489394 Z-0.125000
G01 X98.093945 Y135.503774 Z-0.125000
G01 X95.171822 Y133.861634 Z-0.125000
G01 X90.912027 Y132.077264 Z-0.125000
G01 X89.644152 Y131.227854 Z-0.125000
G01 X88.804739 Y130.220994 Z-0.125000
G01 X88.265633 Y129.003194 Z-0.125000
G01 X88.076840 Y127.785824 Z-0.125000
G01 X88.240764 Y126.431324 Z-0.125000
G01 X89.105999 Y124.465324 Z-0.125000
G01 X91.293508 Y121.550494 Z-0.125000
G01 X91.915136 Y120.473054 Z-0.125000
G01 X92.274381 Y119.283724 Z-0.125000
G01 X92.831082 Y115.536044 Z-0.125000
G01 X93.416588 Y114.154294 Z-0.125000
G01 X94.253742 Y112.942184 Z-0.125000
G01 X95.434495 Y111.769394 Z-0.125000
G01 X96.827541 Y110.770634 Z-0.125000
G01 X98.482245 Y109.895974 Z-0.125000
G01 X100.348641 Y109.178894 Z-0.125000
G01 X102.533023 Y108.599704 Z-0.125000
G01 X104.632693 Y108.256234 Z-0.125000
G01 X106.789923 Y108.130854 Z-0.125000
G01 X108.802063 Y108.237374 Z-0.125000
G01 X111.567313 Y108.760724 Z-0.125000
G01 X114.137543 Y109.662814 Z-0.125000
G01 X116.852803 Y111.065074 Z-0.125000
G01 X119.520133 Y112.873804 Z-0.125000
G01 X124.073873 Y116.732074 Z-0.125000
G01 X139.942143 Y131.649504 Z-0.125000
G01 X143.701443 Y135.929814 Z-0.125000
G01 X145.104513 Y138.024854 Z-0.125000
G01 X146.137423 Y140.038394 Z-0.125000
G01 X146.688883 Y141.762454 Z-0.125000
G01 X146.803283 Y143.187624 Z-0.125000
G01 X146.521663 Y144.433014 Z-0.125000
G01 X145.852953 Y145.494434 Z-0.125000
G01 X144.200493 Y146.764784 Z-0.125000
G01 X141.654733 Y147.806954 Z-0.125000
G01 X137.852723 Y148.757234 Z-0.125000
G01 X132.598163 Y149.664214 Z-0.125000
G01 X128.673933 Y150.076694 Z-0.125000
G01 X125.278333 Y150.137394 Z-0.125000
G01 X121.907233 Y149.852274 Z-0.125000
G01 X118.830983 Y149.257634 Z-0.125000
G01 X115.229273 Y148.081104 Z-0.125000
G01 X111.579953 Y146.249674 Z-0.125000
G01 X107.499253 Y143.523684 Z-0.125000
G01 X100.062612 Y137.720654 Z-0.125000
G01 X97.166581 Y135.662894 Z-0.125000
G01 X94.174536 Y133.982304 Z-0.125000
G01 X89.792243 Y132.193274 Z-0.125000
G01 X88.549278 Y131.346564 Z-0.125000
G01 X87.786625 Y130.398084 Z-0.125000
G01 X87.272864 Y129.171944 Z-0.125000
G01 X87.113914 Y127.939444 Z-0.125000
G01 X87.295660 Y126.663574 Z-0.125000
G01 X88.228889 Y124.662114 Z-0.125000
G01 X90.616901 Y121.693164 Z-0.125000
G01 X91.338582 Y120.526564 Z-0.125000
G01 X91.723629 Y119.299864 Z-0.125000
G01 X92.305218 Y115.292464 Z-0.125000
G01 X92.928545 Y113.835424 Z-0.125000
G01 X93.818897 Y112.557684 Z-0.125000
G01 X94.961021 Y111.414954 Z-0.125000
G01 X96.406871 Y110.355994 Z-0.125000
G01 X98.125134 Y109.426204 Z-0.125000
G01 X100.062281 Y108.661314 Z-0.125000
G01 X102.327093 Y108.039854 Z-0.125000
G01 X104.501223 Y107.665964 Z-0.125000
G01 X106.731913 Y107.518824 Z-0.125000
G01 X108.809423 Y107.614124 Z-0.125000
G01 X111.658473 Y108.137704 Z-0.125000
G01 X114.298883 Y109.057544 Z-0.125000
G01 X117.078983 Y110.497534 Z-0.125000
G01 X119.800543 Y112.360984 Z-0.125000
G01 X124.075323 Y116.009184 Z-0.125000
G01 X140.762653 Y131.780634 Z-0.125000
G01 X142.817903 Y133.978714 Z-0.125000
G01 X144.567403 Y136.154704 Z-0.125000
G01 X145.977333 Y138.301574 Z-0.125000
G01 X146.942913 Y140.221334 Z-0.125000
G01 X147.500073 Y141.998514 Z-0.125000
G01 X147.604103 Y143.470244 Z-0.125000
G01 X147.295673 Y144.758784 Z-0.125000
G01 X146.584463 Y145.859474 Z-0.125000
G01 X144.844063 Y147.182004 Z-0.125000
G01 X142.181113 Y148.276664 Z-0.125000
G01 X138.067333 Y149.328874 Z-0.125000
G01 X132.650703 Y150.320434 Z-0.125000
G01 X128.799843 Y150.769084 Z-0.125000
G01 X125.313833 Y150.863184 Z-0.125000
G01 X122.036543 Y150.611384 Z-0.125000
G01 X118.857203 Y150.022834 Z-0.125000
G01 X114.923703 Y148.752824 Z-0.125000
G01 X111.136503 Y146.847284 Z-0.125000
G01 X106.899303 Y144.004364 Z-0.125000
G01 X99.201999 Y137.955934 Z-0.125000
G01 X96.222410 Y135.823854 Z-0.125000
G01 X93.159241 Y134.103184 Z-0.125000
G01 X88.727439 Y132.347544 Z-0.125000
G01 X87.496245 Y131.520684 Z-0.125000
G01 X86.752845 Y130.577134 Z-0.125000
G01 X86.266004 Y129.343064 Z-0.125000
G01 X86.138346 Y128.095574 Z-0.125000
G01 X86.362452 Y126.803204 Z-0.125000
G01 X87.393891 Y124.779374 Z-0.125000
G01 X89.984289 Y121.774624 Z-0.125000
G01 X90.763003 Y120.581434 Z-0.125000
G01 X91.174181 Y119.315864 Z-0.125000
G01 X91.479317 Y116.392874 Z-0.125000
G01 X91.812098 Y114.934004 Z-0.125000
G01 X92.503834 Y113.395994 Z-0.125000
G01 X93.478904 Y112.052354 Z-0.125000
G01 X94.715694 Y110.856474 Z-0.125000
G01 X96.265763 Y109.755074 Z-0.125000
G01 X97.929793 Y108.868784 Z-0.125000
G01 X99.954891 Y108.070324 Z-0.125000
G01 X102.311213 Y107.422994 Z-0.125000
G01 X104.566333 Y107.035814 Z-0.125000
G01 X106.681493 Y106.889924 Z-0.125000
G01 X108.825403 Y106.973624 Z-0.125000
G01 X111.759443 Y107.497004 Z-0.125000
G01 X114.470643 Y108.434664 Z-0.125000
G01 X117.128303 Y109.800024 Z-0.125000
G01 X119.907833 Y111.692264 Z-0.125000
G01 X124.074073 Y115.256014 Z-0.125000
G01 X141.749543 Y132.066234 Z-0.125000
G01 X143.811323 Y134.308184 Z-0.125000
G01 X145.439243 Y136.374344 Z-0.125000
G01 X146.854733 Y138.573914 Z-0.125000
G01 X147.810553 Y140.539714 Z-0.125000
G01 X148.314223 Y142.224364 Z-0.125000
G01 X148.407523 Y143.743784 Z-0.125000
G01 X148.071443 Y145.076634 Z-0.125000
G01 X147.316413 Y146.217784 Z-0.125000
G01 X145.485543 Y147.594554 Z-0.125000
G01 X142.702803 Y148.743974 Z-0.125000
G01 X138.264183 Y149.907244 Z-0.125000
G01 X132.336193 Y151.046194 Z-0.125000
G01 X128.556133 Y151.503044 Z-0.125000
G01 X125.154813 Y151.599244 Z-0.125000
G01 X121.975103 Y151.360134 Z-0.125000
G01 X118.689753 Y150.756494 Z-0.125000
G01 X114.614753 Y149.439544 Z-0.125000
G01 X110.686673 Y147.458274 Z-0.125000
G01 X106.289363 Y144.495784 Z-0.125000
G01 X98.171782 Y138.076454 Z-0.125000
G01 X95.126229 Y135.898664 Z-0.125000
G01 X92.012888 Y134.172734 Z-0.125000
G01 X87.572921 Y132.467964 Z-0.125000
G01 X86.371610 Y131.643184 Z-0.125000
G01 X85.664352 Y130.684734 Z-0.125000
G01 X85.226792 Y129.424314 Z-0.125000
G01 X85.158192 Y128.153724 Z-0.125000
G01 X85.418440 Y126.945784 Z-0.125000
G01 X86.551197 Y124.900134 Z-0.125000
G01 X89.351278 Y121.858684 Z-0.125000
G01 X90.188929 Y120.637534 Z-0.125000
G01 X90.641079 Y119.254584 Z-0.125000
G01 X90.924931 Y116.288314 Z-0.125000
G01 X91.256821 Y114.761254 Z-0.125000
G01 X91.963706 Y113.146854 Z-0.125000
G01 X93.063243 Y111.625444 Z-0.125000
G01 X94.371902 Y110.370354 Z-0.125000
G01 X96.004908 Y109.216854 Z-0.125000
G01 X97.750298 Y108.291094 Z-0.125000
G01 X99.864923 Y107.459404 Z-0.125000
G01 X102.122003 Y106.830004 Z-0.125000
G01 X104.454103 Y106.411364 Z-0.125000
G01 X106.638803 Y106.244544 Z-0.125000
G01 X108.850163 Y106.315844 Z-0.125000
G01 X111.870273 Y106.838554 Z-0.125000
G01 X114.652963 Y107.794104 Z-0.125000
G01 X117.371683 Y109.195354 Z-0.125000
G01 X120.204923 Y111.143464 Z-0.125000
G01 X124.253193 Y114.643804 Z-0.125000
G01 X132.212393 Y122.411664 Z-0.125000
G01 X142.588473 Y132.187004 Z-0.125000
G01 X144.675533 Y134.475164 Z-0.125000
G01 X146.316313 Y136.588424 Z-0.125000
G01 X147.736213 Y138.841734 Z-0.125000
G01 X148.680103 Y140.854044 Z-0.125000
G01 X149.154483 Y142.577014 Z-0.125000
G01 X149.199483 Y144.130064 Z-0.125000
G01 X148.848243 Y145.386084 Z-0.125000
G01 X148.048033 Y146.569014 Z-0.125000
G01 X146.124383 Y148.001874 Z-0.125000
G01 X143.219023 Y149.208384 Z-0.125000
G01 X138.619603 Y150.451304 Z-0.125000
G01 X132.352913 Y151.733954 Z-0.125000
G01 X128.668903 Y152.222954 Z-0.125000
G01 X125.383243 Y152.357034 Z-0.125000
G01 X122.122573 Y152.149284 Z-0.125000
G01 X118.735253 Y151.556044 Z-0.125000
G01 X114.509563 Y150.225234 Z-0.125000
G01 X110.230953 Y148.082324 Z-0.125000
G01 X105.670143 Y144.997554 Z-0.125000
G01 X97.277911 Y138.316074 Z-0.125000
G01 X94.147640 Y136.061564 Z-0.125000
G01 X91.432588 Y134.514124 Z-0.125000
G01 X86.618123 Y132.690694 Z-0.125000
G01 X85.287476 Y131.820694 Z-0.125000
G01 X84.602786 Y130.867384 Z-0.125000
G01 X84.212289 Y129.692244 Z-0.125000
G01 X84.150949 Y128.415504 Z-0.125000
G01 X84.427009 Y127.191434 Z-0.125000
G01 X85.630848 Y125.110424 Z-0.125000
G01 X88.718181 Y121.944404 Z-0.125000
G01 X89.653606 Y120.622464 Z-0.125000
G01 X90.096534 Y119.265994 Z-0.125000
G01 X90.383847 Y116.076844 Z-0.125000
G01 X90.734927 Y114.471984 Z-0.125000
G01 X91.487818 Y112.775644 Z-0.125000
G01 X92.655515 Y111.178734 Z-0.125000
G01 X94.039174 Y109.863674 Z-0.125000
G01 X95.602921 Y108.752724 Z-0.125000
G01 X97.411913 Y107.773874 Z-0.125000
G01 X99.602323 Y106.892124 Z-0.125000
G01 X101.937823 Y106.221754 Z-0.125000
G01 X104.348153 Y105.770834 Z-0.125000
G01 X106.603433 Y105.582454 Z-0.125000
G01 X108.883313 Y105.640854 Z-0.125000
G01 X111.784563 Y106.111134 Z-0.125000
G01 X114.643793 Y107.050854 Z-0.125000
G01 X117.429513 Y108.456454 Z-0.125000
G01 X120.321913 Y110.432124 Z-0.125000
G01 X124.249783 Y113.833114 Z-0.125000
G01 X132.880743 Y122.346834 Z-0.125000
G01 X143.434193 Y132.300814 Z-0.125000
G01 X145.545153 Y134.635654 Z-0.125000
G01 X147.197663 Y136.796944 Z-0.125000
G01 X148.532083 Y138.941954 Z-0.125000
G01 X149.494553 Y141.010674 Z-0.125000
G01 X149.972393 Y142.785414 Z-0.125000
G01 X150.004493 Y144.388134 Z-0.125000
G01 X149.625673 Y145.686874 Z-0.125000
G01 X148.779063 Y146.912804 Z-0.125000
G01 X146.760013 Y148.403704 Z-0.125000
G01 X143.729423 Y149.669544 Z-0.125000
G01 X138.785103 Y151.040274 Z-0.125000
G01 X132.171283 Y152.468474 Z-0.125000
G01 X128.587023 Y152.972864 Z-0.125000
G01 X125.213683 Y153.123114 Z-0.125000
G01 X121.853173 Y152.902734 Z-0.125000
G01 X118.574243 Y152.321684 Z-0.125000
G01 X114.202813 Y150.943824 Z-0.125000
G01 X109.979143 Y148.842754 Z-0.125000
G01 X105.042443 Y145.509764 Z-0.125000
G01 X96.371356 Y138.560434 Z-0.125000
G01 X93.155434 Y136.227194 Z-0.125000
G01 X90.255133 Y134.582314 Z-0.125000
G01 X85.502549 Y132.845184 Z-0.125000
G01 X84.188584 Y131.999244 Z-0.125000
G01 X83.527913 Y131.051594 Z-0.125000
G01 X83.167072 Y129.869704 Z-0.125000
G01 X83.140542 Y128.578594 Z-0.125000
G01 X83.458775 Y127.339834 Z-0.125000
G01 X84.693699 Y125.325764 Z-0.125000
G01 X88.085670 Y122.031614 Z-0.125000
G01 X89.086354 Y120.676674 Z-0.125000
G01 X89.554772 Y119.275564 Z-0.125000
G01 X89.843349 Y115.850854 Z-0.125000
G01 X90.215277 Y114.165934 Z-0.125000
G01 X91.089278 Y112.265534 Z-0.125000
G01 X92.364448 Y110.594334 Z-0.125000
G01 X93.856471 Y109.226054 Z-0.125000
G01 X95.525805 Y108.077664 Z-0.125000
G01 X97.440135 Y107.073434 Z-0.125000
G01 X99.540729 Y106.243064 Z-0.125000
G01 X101.964113 Y105.549234 Z-0.125000
G01 X104.458723 Y105.085684 Z-0.125000
G01 X106.788613 Y104.897104 Z-0.125000
G01 X109.138803 Y104.966904 Z-0.125000
G01 X112.120653 Y105.469274 Z-0.125000
G01 X115.048143 Y106.460944 Z-0.125000
G01 X117.889133 Y107.935904 Z-0.125000
G01 X120.635213 Y109.848104 Z-0.125000
G01 X124.431993 Y113.171234 Z-0.125000
G01 X133.362393 Y122.089984 Z-0.125000
G01 X144.449253 Y132.578094 Z-0.125000
G01 X146.419623 Y134.789824 Z-0.125000
G01 X148.082653 Y137.000194 Z-0.125000
G01 X149.419233 Y139.196844 Z-0.125000
G01 X150.366783 Y141.313504 Z-0.125000
G01 X150.811173 Y143.127754 Z-0.125000
G01 X150.810173 Y144.636394 Z-0.125000
G01 X150.402993 Y145.978944 Z-0.125000
G01 X149.508703 Y147.249054 Z-0.125000
G01 X147.391753 Y148.799974 Z-0.125000
G01 X144.233253 Y150.127434 Z-0.125000
G01 X138.931493 Y151.636284 Z-0.125000
G01 X132.158233 Y153.186474 Z-0.125000
G01 X128.494483 Y153.738204 Z-0.125000
G01 X125.243273 Y153.905234 Z-0.125000
G01 X122.014623 Y153.721624 Z-0.125000
G01 X118.641453 Y153.154264 Z-0.125000
G01 X113.894483 Y151.676564 Z-0.125000
G01 X109.521623 Y149.497244 Z-0.125000
G01 X104.407153 Y146.032284 Z-0.125000
G01 X95.453196 Y138.809494 Z-0.125000
G01 X92.150690 Y136.395604 Z-0.125000
G01 X89.183100 Y134.708714 Z-0.125000
G01 X84.299811 Y132.970064 Z-0.125000
G01 X83.025532 Y132.126484 Z-0.125000
G01 X82.440420 Y131.237124 Z-0.125000
G01 X82.110561 Y130.048704 Z-0.125000
G01 X82.106461 Y128.847664 Z-0.125000
G01 X82.439615 Y127.593634 Z-0.125000
G01 X83.024334 Y126.484994 Z-0.125000
G01 X83.820372 Y125.455964 Z-0.125000
G01 X87.455266 Y122.119734 Z-0.125000
G01 X88.523054 Y120.730094 Z-0.125000
G01 X89.032048 Y119.196514 Z-0.125000
G01 X89.290369 Y115.722294 Z-0.125000
G01 X89.699082 Y113.842344 Z-0.125000
G01 X90.629948 Y111.850534 Z-0.125000
G01 X91.982252 Y110.101634 Z-0.125000
G01 X93.556692 Y108.672714 Z-0.125000
G01 X95.310041 Y107.476524 Z-0.125000
G01 X97.311700 Y106.433524 Z-0.125000
G01 X99.498547 Y105.573824 Z-0.125000
G01 X102.010483 Y104.857174 Z-0.125000
G01 X104.373233 Y104.411454 Z-0.125000
G01 X106.775673 Y104.200634 Z-0.125000
G01 X109.195993 Y104.257434 Z-0.125000
G01 X112.261013 Y104.758694 Z-0.125000
G01 X115.261883 Y105.768644 Z-0.125000
G01 X118.164113 Y107.281434 Z-0.125000
G01 X120.958973 Y109.248624 Z-0.125000
G01 X124.618153 Y112.486414 Z-0.125000
G01 X133.847263 Y121.821754 Z-0.125000
G01 X145.309613 Y132.680774 Z-0.125000
G01 X147.299173 Y134.937314 Z-0.125000
G01 X148.971533 Y137.197694 Z-0.125000
G01 X150.309033 Y139.446874 Z-0.125000
G01 X151.239183 Y141.611874 Z-0.125000
G01 X151.647083 Y143.466234 Z-0.125000
G01 X151.594483 Y145.007494 Z-0.125000
G01 X151.119973 Y146.379094 Z-0.125000
G01 X150.237083 Y147.577174 Z-0.125000
G01 X148.164733 Y149.110514 Z-0.125000
G01 X144.909393 Y150.519144 Z-0.125000
G01 X139.252593 Y152.188114 Z-0.125000
G01 X131.940223 Y153.957064 Z-0.125000
G01 X128.392413 Y154.518554 Z-0.125000
G01 X125.059273 Y154.700714 Z-0.125000
G01 X121.735813 Y154.503834 Z-0.125000
G01 X118.489803 Y153.950804 Z-0.125000
G01 X115.903243 Y153.255424 Z-0.125000
G01 X113.585953 Y152.423134 Z-0.125000
G01 X109.061373 Y150.164424 Z-0.125000
G01 X103.765763 Y146.565064 Z-0.125000
G01 X94.352791 Y138.927144 Z-0.125000
G01 X90.986125 Y136.468904 Z-0.125000
G01 X87.973812 Y134.778494 Z-0.125000
G01 X83.156197 Y133.126584 Z-0.125000
G01 X81.901875 Y132.307424 Z-0.125000
G01 X81.341942 Y131.423744 Z-0.125000
G01 X81.044371 Y130.229144 Z-0.125000
G01 X81.073591 Y129.015334 Z-0.125000
G01 X81.449954 Y127.746924 Z-0.125000
G01 X82.016954 Y126.725614 Z-0.125000
G01 X82.855497 Y125.678944 Z-0.125000
G01 X86.749726 Y122.281424 Z-0.125000
G01 X87.962497 Y120.782234 Z-0.125000
G01 X88.497811 Y119.197324 Z-0.125000
G01 X88.751241 Y115.470104 Z-0.125000
G01 X89.185174 Y113.500444 Z-0.125000
G01 X90.176533 Y111.415534 Z-0.125000
G01 X91.609783 Y109.587954 Z-0.125000
G01 X93.116810 Y108.217774 Z-0.125000
G01 X94.930920 Y106.961144 Z-0.125000
G01 X97.001569 Y105.863534 Z-0.125000
G01 X99.262046 Y104.956964 Z-0.125000
G01 X101.856013 Y104.198304 Z-0.125000
G01 X104.293423 Y103.721874 Z-0.125000
G01 X106.769353 Y103.488234 Z-0.125000
G01 X109.260733 Y103.531334 Z-0.125000
G01 X112.409973 Y104.031194 Z-0.125000
G01 X115.268553 Y104.968424 Z-0.125000
G01 X118.240643 Y106.483574 Z-0.125000
G01 X121.091973 Y108.475884 Z-0.125000
G01 X124.614063 Y111.592004 Z-0.125000
G01 X134.333103 Y121.542584 Z-0.125000
G01 X146.173893 Y132.776234 Z-0.125000
G01 X148.181273 Y135.078214 Z-0.125000
G01 X149.861823 Y137.389764 Z-0.125000
G01 X151.198873 Y139.692124 Z-0.125000
G01 X152.056873 Y141.740904 Z-0.125000
G01 X152.465483 Y143.649574 Z-0.125000
G01 X152.397683 Y145.239084 Z-0.125000
G01 X151.891753 Y146.656314 Z-0.125000
G01 X150.962153 Y147.897104 Z-0.125000
G01 X148.793333 Y149.490774 Z-0.125000
G01 X145.405033 Y150.965454 Z-0.125000
G01 X139.563693 Y152.739584 Z-0.125000
G01 X131.899073 Y154.705684 Z-0.125000
G01 X128.279643 Y155.313924 Z-0.125000
G01 X125.084903 Y155.509554 Z-0.125000
G01 X121.912453 Y155.350604 Z-0.125000
G01 X118.580733 Y154.814524 Z-0.125000
G01 X115.912143 Y154.118834 Z-0.125000
G01 X113.513333 Y153.278154 Z-0.125000
G01 X111.159243 Y152.232564 Z-0.125000
G01 X108.597463 Y150.843644 Z-0.125000
G01 X103.117553 Y147.107734 Z-0.125000
G01 X93.410082 Y139.181364 Z-0.125000
G01 X89.956480 Y136.640594 Z-0.125000
G01 X86.748619 Y134.849534 Z-0.125000
G01 X81.998853 Y133.282984 Z-0.125000
G01 X80.765358 Y132.488644 Z-0.125000
G01 X80.231744 Y131.611024 Z-0.125000
G01 X79.967849 Y130.410434 Z-0.125000
G01 X80.031889 Y129.183964 Z-0.125000
G01 X80.403630 Y128.007374 Z-0.125000
G01 X81.065607 Y126.869794 Z-0.125000
G01 X81.964518 Y125.813524 Z-0.125000
G01 X86.117462 Y122.371364 Z-0.125000
G01 X87.405874 Y120.832194 Z-0.125000
G01 X87.967631 Y119.193884 Z-0.125000
G01 X88.199011 Y115.323734 Z-0.125000
G01 X88.630479 Y113.272654 Z-0.125000
G01 X89.643722 Y111.097324 Z-0.125000
G01 X91.248315 Y109.052664 Z-0.125000
G01 X92.836227 Y107.626104 Z-0.125000
G01 X94.738599 Y106.321224 Z-0.125000
G01 X96.899997 Y105.185124 Z-0.125000
G01 X99.249151 Y104.249804 Z-0.125000
G01 X101.933363 Y103.469124 Z-0.125000
G01 X104.450443 Y102.982654 Z-0.125000
G01 X107.003133 Y102.750174 Z-0.125000
G01 X109.333533 Y102.788974 Z-0.125000
G01 X112.567913 Y103.287004 Z-0.125000
G01 X115.496193 Y104.240854 Z-0.125000
G01 X118.530623 Y105.793784 Z-0.125000
G01 X121.430543 Y107.842274 Z-0.125000
G01 X125.387073 Y111.435394 Z-0.125000
G01 X135.432343 Y121.854454 Z-0.125000
G01 X144.160683 Y129.979424 Z-0.125000
G01 X147.042083 Y132.864324 Z-0.125000
G01 X149.065913 Y135.212594 Z-0.125000
G01 X150.753573 Y137.576434 Z-0.125000
G01 X152.088653 Y139.932654 Z-0.125000
G01 X152.926633 Y142.027164 Z-0.125000
G01 X153.282933 Y143.821354 Z-0.125000
G01 X153.199633 Y145.459994 Z-0.125000
G01 X152.661623 Y146.923984 Z-0.125000
G01 X151.684043 Y148.208514 Z-0.125000
G01 X149.416543 Y149.864254 Z-0.125000
G01 X146.083713 Y151.337694 Z-0.125000
G01 X139.661593 Y153.349194 Z-0.125000
G01 X131.645663 Y155.513164 Z-0.125000
G01 X128.367903 Y156.097674 Z-0.125000
G01 X125.111363 Y156.330854 Z-0.125000
G01 X121.863753 Y156.185374 Z-0.125000
G01 X118.438983 Y155.640234 Z-0.125000
G01 X115.687933 Y154.923054 Z-0.125000
G01 X113.211743 Y154.054354 Z-0.125000
G01 X110.779963 Y152.973184 Z-0.125000
G01 X108.131433 Y151.535024 Z-0.125000
G01 X105.271213 Y149.700954 Z-0.125000
G01 X102.233813 Y147.483954 Z-0.125000
G01 X92.459304 Y139.440904 Z-0.125000
G01 X88.918227 Y136.815964 Z-0.125000
G01 X85.638206 Y134.979154 Z-0.125000
G01 X80.759643 Y133.413114 Z-0.125000
G01 X79.617830 Y132.670274 Z-0.125000
G01 X79.111695 Y131.798884 Z-0.125000
G01 X78.888128 Y130.688874 Z-0.125000
G01 X78.961078 Y129.461084 Z-0.125000
G01 X79.344736 Y128.271624 Z-0.125000
G01 X80.032431 Y127.116714 Z-0.125000
G01 X80.973514 Y126.042734 Z-0.125000
G01 X85.488045 Y122.460934 Z-0.125000
G01 X86.854068 Y120.879654 Z-0.125000
G01 X87.442144 Y119.186004 Z-0.125000
G01 X87.662167 Y115.042344 Z-0.125000
G01 X88.121218 Y112.898004 Z-0.125000
G01 X89.200300 Y110.626504 Z-0.125000
G01 X90.898979 Y108.495794 Z-0.125000
G01 X92.570573 Y107.012894 Z-0.125000
G01 X94.563528 Y105.660134 Z-0.125000
G01 X96.603527 Y104.584574 Z-0.125000
G01 X99.028613 Y103.601544 Z-0.125000
G01 X101.796843 Y102.778154 Z-0.125000
G01 X104.390373 Y102.260374 Z-0.125000
G01 X107.018163 Y102.004684 Z-0.125000
G01 X109.414693 Y102.030784 Z-0.125000
G01 X112.735233 Y102.526724 Z-0.125000
G01 X115.733673 Y103.497294 Z-0.125000
G01 X118.614313 Y104.957174 Z-0.125000
G01 X121.572573 Y107.029154 Z-0.125000
G01 X125.586403 Y110.692274 Z-0.125000
G01 X135.928703 Y121.566284 Z-0.125000
G01 X144.998693 Y130.011804 Z-0.125000
G01 X147.913753 Y132.945344 Z-0.125000
G01 X149.952613 Y135.340814 Z-0.125000
G01 X151.646333 Y137.758004 Z-0.125000
G01 X152.977873 Y140.168774 Z-0.125000
G01 X153.793163 Y142.309384 Z-0.125000
G01 X154.109533 Y144.141964 Z-0.125000
G01 X153.967573 Y145.815254 Z-0.125000
G01 X153.428943 Y147.182104 Z-0.125000
G01 X152.402353 Y148.511534 Z-0.125000
G01 X150.195593 Y150.140034 Z-0.125000
G01 X146.766553 Y151.697564 Z-0.125000
G01 X140.365813 Y153.776834 Z-0.125000
G01 X131.578633 Y156.293214 Z-0.125000
G01 X128.240883 Y156.920764 Z-0.125000
G01 X124.909213 Y157.167774 Z-0.125000
G01 X121.571953 Y157.007994 Z-0.125000
G01 X118.299793 Y156.479314 Z-0.125000
G01 X115.465593 Y155.740404 Z-0.125000
G01 X112.911213 Y154.843424 Z-0.125000
G01 X110.400663 Y153.726164 Z-0.125000
G01 X107.664183 Y152.238204 Z-0.125000
G01 X104.707553 Y150.338304 Z-0.125000
G01 X101.568673 Y148.040044 Z-0.125000
G01 X91.501728 Y139.706054 Z-0.125000
G01 X87.872720 Y136.995234 Z-0.125000
G01 X84.388177 Y135.053174 Z-0.125000
G01 X82.567290 Y134.381704 Z-0.125000
G01 X79.580074 Y133.571244 Z-0.125000
G01 X78.460290 Y132.852134 Z-0.125000
G01 X77.982672 Y131.987334 Z-0.125000
G01 X77.792428 Y130.872544 Z-0.125000
G01 X77.901642 Y129.632704 Z-0.125000
G01 X78.325980 Y128.430524 Z-0.125000
G01 X79.064883 Y127.264364 Z-0.125000
G01 X80.068096 Y126.180884 Z-0.125000
G01 X84.861879 Y122.549614 Z-0.125000
G01 X86.307294 Y120.924034 Z-0.125000
G01 X86.921689 Y119.172944 Z-0.125000
G01 X87.112969 Y114.876134 Z-0.125000
G01 X87.568558 Y112.648174 Z-0.125000
G01 X88.765372 Y110.134534 Z-0.125000
G01 X90.562364 Y107.917204 Z-0.125000
G01 X92.320417 Y106.377974 Z-0.125000
G01 X94.204594 Y105.098054 Z-0.125000
G01 X96.531408 Y103.868334 Z-0.125000
G01 X99.046974 Y102.857514 Z-0.125000
G01 X101.665883 Y102.073204 Z-0.125000
G01 X104.336613 Y101.523594 Z-0.125000
G01 X107.040463 Y101.244154 Z-0.125000
G01 X109.503823 Y101.256554 Z-0.125000
G01 X112.911443 Y101.750084 Z-0.125000
G01 X115.980683 Y102.737604 Z-0.125000
G01 X118.919863 Y104.233344 Z-0.125000
G01 X121.926603 Y106.362614 Z-0.125000
G01 X125.987403 Y110.130574 Z-0.125000
G01 X136.215933 Y121.059524 Z-0.125000
G01 X145.840883 Y130.036074 Z-0.125000
G01 X148.788083 Y133.018754 Z-0.125000
G01 X150.840473 Y135.462304 Z-0.125000
G01 X152.421253 Y137.743234 Z-0.125000
G01 X153.779153 Y140.212584 Z-0.125000
G01 X154.608203 Y142.409894 Z-0.125000
G01 X154.923103 Y144.294614 Z-0.125000
G01 X154.763323 Y146.018784 Z-0.125000
G01 X154.193343 Y147.429874 Z-0.125000
G01 X153.116453 Y148.805264 Z-0.125000
G01 X150.813103 Y150.495494 Z-0.125000
G01 X147.250593 Y152.121684 Z-0.125000
G01 X136.644233 Y155.586104 Z-0.125000
G01 X131.501193 Y157.086724 Z-0.125000
G01 X128.105163 Y157.757694 Z-0.125000
G01 X124.933713 Y158.013424 Z-0.125000
G01 X121.774053 Y157.892814 Z-0.125000
G01 X118.426763 Y157.386014 Z-0.125000
G01 X115.511543 Y156.650344 Z-0.125000
G01 X112.612443 Y155.644184 Z-0.125000
G01 X110.022083 Y154.490584 Z-0.125000
G01 X107.196343 Y152.952224 Z-0.125000
G01 X104.141893 Y150.985644 Z-0.125000
G01 X100.900148 Y148.604974 Z-0.125000
G01 X90.348558 Y139.821794 Z-0.125000
G01 X86.658623 Y137.069484 Z-0.125000
G01 X83.259855 Y135.185804 Z-0.125000
G01 X81.404028 Y134.508144 Z-0.125000
G01 X78.323162 Y133.704274 Z-0.125000
G01 X77.293795 Y133.033344 Z-0.125000
G01 X76.804261 Y132.022854 Z-0.125000
G01 X76.702714 Y130.656454 Z-0.125000
G01 X77.005985 Y129.252344 Z-0.125000
G01 X77.695317 Y127.938524 Z-0.125000
G01 X79.600218 Y125.945234 Z-0.125000
G01 X84.522984 Y122.395124 Z-0.125000
G01 X85.401441 Y121.484794 Z-0.125000
G01 X85.963944 Y120.604864 Z-0.125000
G01 X86.435221 Y118.945934 Z-0.125000
G01 X86.565988 Y114.701004 Z-0.125000
G01 X87.017101 Y112.388874 Z-0.125000
G01 X88.239343 Y109.775834 Z-0.125000
G01 X90.089678 Y107.466384 Z-0.125000
G01 X91.903726 Y105.860584 Z-0.125000
G01 X93.848644 Y104.523574 Z-0.125000
G01 X96.021958 Y103.345314 Z-0.125000
G01 X98.601601 Y102.264794 Z-0.125000
G01 X101.540513 Y101.354114 Z-0.125000
G01 X104.289223 Y100.772074 Z-0.125000
G01 X107.069833 Y100.468364 Z-0.125000
G01 X109.600793 Y100.467364 Z-0.125000
G01 X112.849933 Y100.903164 Z-0.125000
G01 X116.000163 Y101.866614 Z-0.125000
G01 X119.009863 Y103.359274 Z-0.125000
G01 X122.077203 Y105.510204 Z-0.125000
G01 X126.195373 Y109.348464 Z-0.125000
G01 X136.710503 Y120.747194 Z-0.125000
G01 X146.487653 Y129.863814 Z-0.125000
G01 X149.491193 Y132.895004 Z-0.125000
G01 X151.582633 Y135.384894 Z-0.125000
G01 X153.193253 Y137.714964 Z-0.125000
G01 X154.577863 Y140.243334 Z-0.125000
G01 X155.420843 Y142.497944 Z-0.125000
G01 X155.734143 Y144.435594 Z-0.125000
G01 X155.555923 Y146.211574 Z-0.125000
G01 X154.953943 Y147.667944 Z-0.125000
G01 X153.825663 Y149.090274 Z-0.125000
G01 X151.423553 Y150.843834 Z-0.125000
G01 X147.935113 Y152.459014 Z-0.125000
G01 X135.578803 Y156.633384 Z-0.125000
G01 X131.203203 Y157.948904 Z-0.125000
G01 X127.961023 Y158.608854 Z-0.125000
G01 X124.719653 Y158.875814 Z-0.125000
G01 X121.476063 Y158.739864 Z-0.125000
G01 X118.301053 Y158.251204 Z-0.125000
G01 X115.302483 Y157.494584 Z-0.125000
G01 X112.315703 Y156.457014 Z-0.125000
G01 X109.644643 Y155.266744 Z-0.125000
G01 X106.728493 Y153.677444 Z-0.125000
G01 X103.574893 Y151.643414 Z-0.125000
G01 X100.228970 Y149.179474 Z-0.125000
G01 X89.376534 Y140.093024 Z-0.125000
G01 X85.599083 Y137.253674 Z-0.125000
G01 X81.990177 Y135.263184 Z-0.125000
G01 X80.118621 Y134.602904 Z-0.125000
G01 X77.125809 Y133.863074 Z-0.125000
G01 X76.119218 Y133.214524 Z-0.125000
G01 X75.665328 Y132.210894 Z-0.125000
G01 X75.617668 Y130.732634 Z-0.125000
G01 X75.999398 Y129.306404 Z-0.125000
G01 X76.773407 Y127.984094 Z-0.125000
G01 X78.714926 Y126.081124 Z-0.125000
G01 X83.823129 Y122.556554 Z-0.125000
G01 X84.774906 Y121.624694 Z-0.125000
G01 X85.390213 Y120.722724 Z-0.125000
G01 X85.912698 Y119.020704 Z-0.125000
G01 X86.021290 Y114.517244 Z-0.125000
G01 X86.515447 Y111.964394 Z-0.125000
G01 X87.817081 Y109.245834 Z-0.125000
G01 X89.772485 Y106.848834 Z-0.125000
G01 X91.677593 Y105.186664 Z-0.125000
G01 X93.710152 Y103.806674 Z-0.125000
G01 X95.971334 Y102.594404 Z-0.125000
G01 X98.643488 Y101.486534 Z-0.125000
G01 X101.420313 Y100.621904 Z-0.125000
G01 X104.247713 Y100.006974 Z-0.125000
G01 X107.105913 Y99.678414 Z-0.125000
G01 X109.705203 Y99.663914 Z-0.125000
G01 X113.037293 Y100.096314 Z-0.125000
G01 X116.260353 Y101.075544 Z-0.125000
G01 X119.329923 Y102.604024 Z-0.125000
G01 X122.445873 Y104.813394 Z-0.125000
G01 X126.608623 Y108.759494 Z-0.125000
G01 X133.845873 Y116.883764 Z-0.125000
G01 X137.204683 Y120.426044 Z-0.125000
G01 X147.333803 Y129.871084 Z-0.125000
G01 X150.367083 Y132.951624 Z-0.125000
G01 X152.469983 Y135.491084 Z-0.125000
G01 X154.204903 Y138.072754 Z-0.125000
G01 X155.462623 Y140.458094 Z-0.125000
G01 X156.278223 Y142.760744 Z-0.125000
G01 X156.545433 Y144.738614 Z-0.125000
G01 X156.344833 Y146.393874 Z-0.125000
G01 X155.710103 Y147.896304 Z-0.125000
G01 X154.529353 Y149.366774 Z-0.125000
G01 X152.206143 Y151.081514 Z-0.125000
G01 X148.623023 Y152.782724 Z-0.125000
G01 X134.899603 Y157.587544 Z-0.125000
G01 X131.103233 Y158.774374 Z-0.125000
G01 X127.808853 Y159.474134 Z-0.125000
G01 X124.743073 Y159.745214 Z-0.125000
G01 X121.432833 Y159.623984 Z-0.125000
G01 X118.179093 Y159.128684 Z-0.125000
G01 X115.096843 Y158.351074 Z-0.125000
G01 X112.021673 Y157.281794 Z-0.125000
G01 X109.269093 Y156.054454 Z-0.125000
G01 X106.261313 Y154.413794 Z-0.125000
G01 X103.007273 Y152.311714 Z-0.125000
G01 X99.555972 Y149.763594 Z-0.125000
G01 X88.203350 Y140.208164 Z-0.125000
G01 X84.536376 Y137.443134 Z-0.125000
G01 X80.848907 Y135.400894 Z-0.125000
G01 X78.940897 Y134.733194 Z-0.125000
G01 X75.921042 Y134.022254 Z-0.125000
G01 X74.937641 Y133.395854 Z-0.125000
G01 X74.520431 Y132.399254 Z-0.125000
G01 X74.519331 Y130.912324 Z-0.125000
G01 X74.946260 Y129.471744 Z-0.125000
G01 X75.773383 Y128.136864 Z-0.125000
G01 X77.828137 Y126.217714 Z-0.125000
G01 X83.220814 Y122.635144 Z-0.125000
G01 X84.223177 Y121.676134 Z-0.125000
G01 X84.869051 Y120.744934 Z-0.125000
G01 X85.409670 Y118.984454 Z-0.125000
G01 X85.479090 Y114.324714 Z-0.125000
G01 X85.966822 Y111.681414 Z-0.125000
G01 X86.549282 Y110.201074 Z-0.125000
G01 X87.295541 Y108.862134 Z-0.125000
G01 X89.469456 Y106.209734 Z-0.125000
G01 X91.271049 Y104.642094 Z-0.125000
G01 X93.366649 Y103.204424 Z-0.125000
G01 X95.696862 Y101.940014 Z-0.125000
G01 X98.448471 Y100.782904 Z-0.125000
G01 X101.305253 Y99.877404 Z-0.125000
G01 X104.211973 Y99.229024 Z-0.125000
G01 X107.148463 Y98.875204 Z-0.125000
G01 X109.816743 Y98.845804 Z-0.125000
G01 X113.232633 Y99.274534 Z-0.125000
G01 X116.529083 Y100.269894 Z-0.125000
G01 X119.658693 Y101.834774 Z-0.125000
G01 X122.822913 Y104.103874 Z-0.125000
G01 X126.824573 Y107.940304 Z-0.125000
G01 X134.103663 Y116.253804 Z-0.125000
G01 X137.698253 Y120.095514 Z-0.125000
G01 X148.181903 Y129.870524 Z-0.125000
G01 X151.243123 Y133.000964 Z-0.125000
G01 X153.206823 Y135.389974 Z-0.125000
G01 X154.973373 Y138.026214 Z-0.125000
G01 X156.255213 Y140.467294 Z-0.125000
G01 X157.083953 Y142.828514 Z-0.125000
G01 X157.348073 Y144.860714 Z-0.125000
G01 X157.129503 Y146.564724 Z-0.125000
G01 X156.461333 Y148.114194 Z-0.125000
G01 X155.227023 Y149.633734 Z-0.125000
G01 X152.808033 Y151.410774 Z-0.125000
G01 X149.314163 Y153.091524 Z-0.125000
G01 X130.994443 Y159.613064 Z-0.125000
G01 X127.879843 Y160.315444 Z-0.125000
G01 X124.768553 Y160.624044 Z-0.125000
G01 X121.662303 Y160.542444 Z-0.125000
G01 X118.345263 Y160.073694 Z-0.125000
G01 X115.184743 Y159.303584 Z-0.125000
G01 X112.016133 Y158.229104 Z-0.125000
G01 X108.896013 Y156.852234 Z-0.125000
G01 X105.795623 Y155.159794 Z-0.125000
G01 X102.439973 Y152.989074 Z-0.125000
G01 X98.613742 Y150.145474 Z-0.125000
G01 X87.222014 Y140.486594 Z-0.125000
G01 X83.471980 Y137.637004 Z-0.125000
G01 X81.490215 Y136.413874 Z-0.125000
G01 X79.704683 Y135.541074 Z-0.125000
G01 X77.758873 Y134.864784 Z-0.125000
G01 X74.645160 Y134.159364 Z-0.125000
G01 X73.750104 Y133.576014 Z-0.125000
G01 X73.360084 Y132.507194 Z-0.125000
G01 X73.437384 Y130.983814 Z-0.125000
G01 X73.889968 Y129.636214 Z-0.125000
G01 X74.770787 Y128.288944 Z-0.125000
G01 X76.940578 Y126.353684 Z-0.125000
G01 X82.513198 Y122.796984 Z-0.125000
G01 X83.595244 Y121.814904 Z-0.125000
G01 X84.354664 Y120.760594 Z-0.125000
G01 X84.926264 Y118.824334 Z-0.125000
G01 X84.950094 Y113.968464 Z-0.125000
G01 X85.419879 Y111.387994 Z-0.125000
G01 X86.011582 Y109.855394 Z-0.125000
G01 X86.775374 Y108.467874 Z-0.125000
G01 X89.010962 Y105.715524 Z-0.125000
G01 X90.867059 Y104.086314 Z-0.125000
G01 X93.026322 Y102.590514 Z-0.125000
G01 X95.426353 Y101.273504 Z-0.125000
G01 X98.258017 Y100.066684 Z-0.125000
G01 X101.195263 Y99.119904 Z-0.125000
G01 X104.181883 Y98.437734 Z-0.125000
G01 X107.197353 Y98.058084 Z-0.125000
G01 X109.935303 Y98.013884 Z-0.125000
G01 X113.435783 Y98.438824 Z-0.125000
G01 X116.806323 Y99.450414 Z-0.125000
G01 X119.996153 Y101.052544 Z-0.125000
G01 X122.986173 Y103.197544 Z-0.125000
G01 X124.947443 Y104.951664 Z-0.125000
G01 X127.249423 Y107.324984 Z-0.125000
G01 X134.568373 Y115.842224 Z-0.125000
G01 X138.190813 Y119.756414 Z-0.125000
G01 X141.749913 Y123.219344 Z-0.125000
G01 X149.031473 Y129.862614 Z-0.125000
G01 X152.118763 Y133.043654 Z-0.125000
G01 X154.090663 Y135.480264 Z-0.125000
G01 X155.860013 Y138.174774 Z-0.125000
G01 X157.132983 Y140.669064 Z-0.125000
G01 X157.930283 Y143.079394 Z-0.125000
G01 X158.146163 Y144.970964 Z-0.125000
G01 X157.909233 Y146.724374 Z-0.125000
G01 X157.207053 Y148.321784 Z-0.125000
G01 X155.918143 Y149.891434 Z-0.125000
G01 X153.592463 Y151.619234 Z-0.125000
G01 X150.008303 Y153.385344 Z-0.125000
G01 X130.877333 Y160.465134 Z-0.125000
G01 X127.717073 Y161.204644 Z-0.125000
G01 X124.796203 Y161.511974 Z-0.125000
G01 X121.632313 Y161.446674 Z-0.125000
G01 X118.239083 Y160.973694 Z-0.125000
G01 X114.995473 Y160.183584 Z-0.125000
G01 X111.737433 Y159.077724 Z-0.125000
G01 X108.526033 Y157.660064 Z-0.125000
G01 X105.332033 Y155.915564 Z-0.125000
G01 X101.873653 Y153.675644 Z-0.125000
G01 X97.931971 Y150.739634 Z-0.125000
G01 X86.240268 Y140.771334 Z-0.125000
G01 X82.230897 Y137.716784 Z-0.125000
G01 X80.222958 Y136.490854 Z-0.125000
G01 X78.416164 Y135.625084 Z-0.125000
G01 X76.453900 Y134.966214 Z-0.125000
G01 X73.429464 Y134.318554 Z-0.125000
G01 X72.557598 Y133.755374 Z-0.125000
G01 X72.209129 Y132.693574 Z-0.125000
G01 X72.335751 Y131.160764 Z-0.125000
G01 X72.831441 Y129.800004 Z-0.125000
G01 X73.766411 Y128.440514 Z-0.125000
G01 X76.053000 Y126.489124 Z-0.125000
G01 X81.916726 Y122.870524 Z-0.125000
G01 X83.052985 Y121.858814 Z-0.125000
G01 X83.789919 Y120.872474 Z-0.125000
G01 X84.209325 Y119.916594 Z-0.125000
G01 X84.423277 Y118.886474 Z-0.125000
G01 X84.412917 Y113.750404 Z-0.125000
G01 X84.928066 Y110.910734 Z-0.125000
G01 X85.560097 Y109.320964 Z-0.125000
G01 X86.371658 Y107.883404 Z-0.125000
G01 X88.730179 Y105.037214 Z-0.125000
G01 X90.675097 Y103.357434 Z-0.125000
G01 X92.926602 Y101.819624 Z-0.125000
G01 X95.417589 Y100.470284 Z-0.125000
G01 X98.343546 Y99.238014 Z-0.125000
G01 X101.367403 Y98.273644 Z-0.125000
G01 X104.438063 Y97.583584 Z-0.125000
G01 X107.534133 Y97.208314 Z-0.125000
G01 X110.340013 Y97.180714 Z-0.125000
G01 X113.917543 Y97.647064 Z-0.125000
G01 X117.091903 Y98.618074 Z-0.125000
G01 X120.342143 Y100.258124 Z-0.125000
G01 X123.376793 Y102.460324 Z-0.125000
G01 X127.473513 Y106.470524 Z-0.125000
G01 X134.825693 Y115.182144 Z-0.125000
G01 X138.462293 Y119.181994 Z-0.125000
G01 X142.051483 Y122.709684 Z-0.125000
G01 X149.881913 Y129.847634 Z-0.125000
G01 X152.993323 Y133.080214 Z-0.125000
G01 X154.972143 Y135.565464 Z-0.125000
G01 X156.743463 Y138.319414 Z-0.125000
G01 X158.005413 Y140.867224 Z-0.125000
G01 X158.726883 Y143.127244 Z-0.125000
G01 X158.935183 Y145.256454 Z-0.125000
G01 X158.631573 Y147.045074 Z-0.125000
G01 X157.847123 Y148.674874 Z-0.125000
G01 X156.602333 Y150.140074 Z-0.125000
G01 X154.184373 Y151.928674 Z-0.125000
G01 X150.938733 Y153.563094 Z-0.125000
G01 X130.752603 Y161.330514 Z-0.125000
G01 X127.547703 Y162.106394 Z-0.125000
G01 X124.568343 Y162.420354 Z-0.125000
G01 X121.326303 Y162.337254 Z-0.125000
G01 X118.137923 Y161.883694 Z-0.125000
G01 X114.811193 Y161.073444 Z-0.125000
G01 X111.463343 Y159.936024 Z-0.125000
G01 X108.159973 Y158.477404 Z-0.125000
G01 X104.871453 Y156.680514 Z-0.125000
G01 X101.309333 Y154.371024 Z-0.125000
G01 X97.251262 Y151.342034 Z-0.125000
G01 X85.049341 Y140.886934 Z-0.125000
G01 X81.163878 Y137.917974 Z-0.125000
G01 X79.112958 Y136.657994 Z-0.125000
G01 X77.267514 Y135.770834 Z-0.125000
G01 X75.265440 Y135.101564 Z-0.125000
G01 X72.209960 Y134.477244 Z-0.125000
G01 X71.361512 Y133.933704 Z-0.125000
G01 X71.055443 Y132.878864 Z-0.125000
G01 X71.232424 Y131.336734 Z-0.125000
G01 X71.771633 Y129.962814 Z-0.125000
G01 X72.761272 Y128.591194 Z-0.125000
G01 X75.166298 Y126.623754 Z-0.125000
G01 X81.202134 Y123.031404 Z-0.125000
G01 X82.424334 Y121.994924 Z-0.125000
G01 X83.288367 Y120.877734 Z-0.125000
G01 X83.723461 Y119.889134 Z-0.125000
G01 X83.940811 Y118.823914 Z-0.125000
G01 X83.879261 Y113.521614 Z-0.125000
G01 X84.385852 Y110.591034 Z-0.125000
G01 X85.027768 Y108.948954 Z-0.125000
G01 X85.857959 Y107.462694 Z-0.125000
G01 X87.097256 Y105.791364 Z-0.125000
G01 X88.465641 Y104.337024 Z-0.125000
G01 X90.501578 Y102.607464 Z-0.125000
G01 X92.846608 Y101.028874 Z-0.125000
G01 X95.429173 Y99.648434 Z-0.125000
G01 X98.449402 Y98.392144 Z-0.125000
G01 X101.559753 Y97.411204 Z-0.125000
G01 X104.714713 Y96.714684 Z-0.125000
G01 X107.602623 Y96.364144 Z-0.125000
G01 X110.479133 Y96.322044 Z-0.125000
G01 X114.142213 Y96.785734 Z-0.125000
G01 X117.385593 Y97.773034 Z-0.125000
G01 X120.696433 Y99.451854 Z-0.125000
G01 X123.775433 Y101.712334 Z-0.125000
G01 X127.909953 Y105.831494 Z-0.125000
G01 X135.291893 Y114.751704 Z-0.125000
G01 X138.950683 Y118.823754 Z-0.125000
G01 X142.806103 Y122.616774 Z-0.125000
G01 X150.521213 Y129.622584 Z-0.125000
G01 X153.866143 Y133.110524 Z-0.125000
G01 X155.850563 Y135.645524 Z-0.125000
G01 X157.623203 Y138.459934 Z-0.125000
G01 X158.871823 Y141.061454 Z-0.125000
G01 X159.559583 Y143.367234 Z-0.125000
G01 X159.721643 Y145.348174 Z-0.125000
G01 X159.397523 Y147.187604 Z-0.125000
G01 X158.576223 Y148.866934 Z-0.125000
G01 X157.279173 Y150.379344 Z-0.125000
G01 X154.969953 Y152.107244 Z-0.125000
G01 X151.645253 Y153.820884 Z-0.125000
G01 X130.621023 Y162.208614 Z-0.125000
G01 X127.613793 Y162.975994 Z-0.125000
G01 X124.597663 Y163.327004 Z-0.125000
G01 X121.585393 Y163.283104 Z-0.125000
G01 X118.346283 Y162.860274 Z-0.125000
G01 X114.945983 Y162.062704 Z-0.125000
G01 X111.194623 Y160.803394 Z-0.125000
G01 X107.798523 Y159.303704 Z-0.125000
G01 X104.414713 Y157.454134 Z-0.125000
G01 X100.747929 Y155.074724 Z-0.125000
G01 X96.572624 Y151.952404 Z-0.125000
G01 X84.067039 Y141.179844 Z-0.125000
G01 X80.099779 Y138.124964 Z-0.125000
G01 X78.005443 Y136.830064 Z-0.125000
G01 X75.973112 Y135.860364 Z-0.125000
G01 X73.954107 Y135.208204 Z-0.125000
G01 X70.988009 Y134.635254 Z-0.125000
G01 X70.163061 Y134.110804 Z-0.125000
G01 X69.900139 Y132.981054 Z-0.125000
G01 X70.161133 Y131.399874 Z-0.125000
G01 X70.780461 Y130.006954 Z-0.125000
G01 X71.756132 Y128.740774 Z-0.125000
G01 X74.127253 Y126.854574 Z-0.125000
G01 X80.613105 Y123.098734 Z-0.125000
G01 X81.893145 Y122.030014 Z-0.125000
G01 X82.795019 Y120.875204 Z-0.125000
G01 X83.245676 Y119.852724 Z-0.125000
G01 X83.465886 Y118.751364 Z-0.125000
G01 X83.349419 Y113.281654 Z-0.125000
G01 X83.846145 Y110.260674 Z-0.125000
G01 X84.497594 Y108.566434 Z-0.125000
G01 X85.346436 Y107.031704 Z-0.125000
G01 X86.618083 Y105.304234 Z-0.125000
G01 X88.024621 Y103.799554 Z-0.125000
G01 X90.118791 Y102.008384 Z-0.125000
G01 X92.530841 Y100.371774 Z-0.125000
G01 X95.185608 Y98.939284 Z-0.125000
G01 X98.287592 Y97.633984 Z-0.125000
G01 X101.479663 Y96.612304 Z-0.125000
G01 X104.715853 Y95.882174 Z-0.125000
G01 X107.676983 Y95.508214 Z-0.125000
G01 X110.624723 Y95.451414 Z-0.125000
G01 X114.374093 Y95.912394 Z-0.125000
G01 X117.687063 Y96.916354 Z-0.125000
G01 X120.808233 Y98.480084 Z-0.125000
G01 X123.950173 Y100.757114 Z-0.125000
G01 X125.987273 Y102.634824 Z-0.125000
G01 X128.142143 Y104.943714 Z-0.125000
G01 X135.759113 Y114.315234 Z-0.125000
G01 X139.437523 Y118.458694 Z-0.125000
G01 X143.329023 Y122.302374 Z-0.125000
G01 X151.369503 Y129.590894 Z-0.125000
G01 X154.555333 Y132.923164 Z-0.125000
G01 X156.572743 Y135.502864 Z-0.125000
G01 X158.375863 Y138.374054 Z-0.125000
G01 X159.647353 Y141.033664 Z-0.125000
G01 X160.344863 Y143.395464 Z-0.125000
G01 X160.501953 Y145.428294 Z-0.125000
G01 X160.157043 Y147.319364 Z-0.125000
G01 X159.298343 Y149.048964 Z-0.125000
G01 X157.948213 Y150.609524 Z-0.125000
G01 X155.550833 Y152.396254 Z-0.125000
G01 X152.354643 Y154.062694 Z-0.125000
G01 X141.338133 Y158.457544 Z-0.125000
G01 X133.357983 Y161.992964 Z-0.125000
G01 X130.483043 Y163.099354 Z-0.125000
G01 X127.436793 Y163.899294 Z-0.125000
G01 X124.630183 Y164.241214 Z-0.125000
G01 X121.569163 Y164.214014 Z-0.125000
G01 X118.263433 Y163.789244 Z-0.125000
G01 X114.781473 Y162.972854 Z-0.125000
G01 X110.931593 Y161.679274 Z-0.125000
G01 X107.442353 Y160.138344 Z-0.125000
G01 X103.962453 Y158.236014 Z-0.125000
G01 X100.190109 Y155.786434 Z-0.125000
G01 X95.896866 Y152.570414 Z-0.125000
G01 X91.547316 Y148.941274 Z-0.125000
G01 X83.088736 Y141.479754 Z-0.125000
G01 X79.040052 Y138.338084 Z-0.125000
G01 X76.901886 Y137.007334 Z-0.125000
G01 X74.825911 Y136.012474 Z-0.125000
G01 X72.764754 Y135.347864 Z-0.125000
G01 X69.703782 Y134.775314 Z-0.125000
G01 X68.991903 Y134.328384 Z-0.125000
G01 X68.744566 Y133.245244 Z-0.125000
G01 X69.060892 Y131.571944 Z-0.125000
G01 X69.724962 Y130.165944 Z-0.125000
G01 X70.751883 Y128.888994 Z-0.125000
G01 X73.236964 Y126.987434 Z-0.125000
G01 X80.031453 Y123.161034 Z-0.125000
G01 X81.370099 Y122.058464 Z-0.125000
G01 X82.310188 Y120.864414 Z-0.125000
G01 X82.776264 Y119.806754 Z-0.125000
G01 X82.998878 Y118.668364 Z-0.125000
G01 X82.830187 Y112.855574 Z-0.125000
G01 X83.366868 Y109.728144 Z-0.125000
G01 X84.063350 Y107.976724 Z-0.125000
G01 X84.964830 Y106.391874 Z-0.125000
G01 X86.307477 Y104.610574 Z-0.125000
G01 X87.784972 Y103.061584 Z-0.125000
G01 X89.973683 Y101.221814 Z-0.125000
G01 X92.481726 Y99.546124 Z-0.125000
G01 X95.229211 Y98.084544 Z-0.125000
G01 X98.130299 Y96.865634 Z-0.125000
G01 X101.404223 Y95.802944 Z-0.125000
G01 X104.722073 Y95.038864 Z-0.125000
G01 X107.756893 Y94.641234 Z-0.125000
G01 X110.776393 Y94.569534 Z-0.125000
G01 X114.612843 Y95.027754 Z-0.125000
G01 X117.995993 Y96.048664 Z-0.125000
G01 X121.174193 Y97.648904 Z-0.125000
G01 X124.361143 Y99.985274 Z-0.125000
G01 X126.419463 Y101.913324 Z-0.125000
G01 X128.589653 Y104.283634 Z-0.125000
G01 X136.227113 Y113.873424 Z-0.125000
G01 X139.922523 Y118.087334 Z-0.125000
G01 X143.847923 Y121.979964 Z-0.125000
G01 X151.999973 Y129.344544 Z-0.125000
G01 X155.421723 Y132.938594 Z-0.125000
G01 X157.442823 Y135.569834 Z-0.125000
G01 X159.246163 Y138.502984 Z-0.125000
G01 X160.415993 Y140.993374 Z-0.125000
G01 X161.123433 Y143.411554 Z-0.125000
G01 X161.275343 Y145.496894 Z-0.125000
G01 X160.909443 Y147.440344 Z-0.125000
G01 X160.012793 Y149.221044 Z-0.125000
G01 X158.608723 Y150.830634 Z-0.125000
G01 X156.336073 Y152.544274 Z-0.125000
G01 X153.066683 Y154.288134 Z-0.125000
G01 X141.508713 Y158.997444 Z-0.125000
G01 X133.232683 Y162.840344 Z-0.125000
G01 X130.339223 Y164.002344 Z-0.125000
G01 X127.501983 Y164.784354 Z-0.125000
G01 X124.665823 Y165.162184 Z-0.125000
G01 X121.557873 Y165.151784 Z-0.125000
G01 X118.186603 Y164.725454 Z-0.125000
G01 X114.623233 Y163.890204 Z-0.125000
G01 X110.674703 Y162.562254 Z-0.125000
G01 X107.091743 Y160.980044 Z-0.125000
G01 X103.515203 Y159.024844 Z-0.125000
G01 X99.316212 Y156.279554 Z-0.125000
G01 X94.917360 Y152.948934 Z-0.125000
G01 X82.115655 Y141.786074 Z-0.125000
G01 X77.985963 Y138.556824 Z-0.125000
G01 X75.803613 Y137.189394 Z-0.125000
G01 X73.683021 Y136.168044 Z-0.125000
G01 X71.451929 Y135.459134 Z-0.125000
G01 X68.480712 Y134.932214 Z-0.125000
G01 X67.789618 Y134.501014 Z-0.125000
G01 X67.589220 Y133.425104 Z-0.125000
G01 X67.961791 Y131.741404 Z-0.125000
G01 X68.670831 Y130.322354 Z-0.125000
G01 X69.749250 Y129.034704 Z-0.125000
G01 X72.349410 Y127.117784 Z-0.125000
G01 X79.311636 Y123.316504 Z-0.125000
G01 X80.745135 Y122.186084 Z-0.125000
G01 X81.763207 Y120.960654 Z-0.125000
G01 X82.275497 Y119.875374 Z-0.125000
G01 X82.539889 Y118.573474 Z-0.125000
G01 X82.306686 Y112.586414 Z-0.125000
G01 X82.469781 Y110.919714 Z-0.125000
G01 X82.832757 Y109.369584 Z-0.125000
G01 X83.539538 Y107.566564 Z-0.125000
G01 X84.460768 Y105.933684 Z-0.125000
G01 X85.837422 Y104.096544 Z-0.125000
G01 X87.354707 Y102.497544 Z-0.125000
G01 X89.603683 Y100.596434 Z-0.125000
G01 X92.180259 Y98.863154 Z-0.125000
G01 X95.001063 Y97.350034 Z-0.125000
G01 X97.977047 Y96.086654 Z-0.125000
G01 X101.333163 Y94.982914 Z-0.125000
G01 X104.732933 Y94.184674 Z-0.125000
G01 X107.841813 Y93.763014 Z-0.125000
G01 X110.933643 Y93.676214 Z-0.125000
G01 X114.857943 Y94.131584 Z-0.125000
G01 X118.311773 Y95.169814 Z-0.125000
G01 X121.547263 Y96.807364 Z-0.125000
G01 X124.779143 Y99.204204 Z-0.125000
G01 X126.858123 Y101.183624 Z-0.125000
G01 X129.042673 Y103.616374 Z-0.125000
G01 X136.695383 Y113.426054 Z-0.125000
G01 X140.405153 Y117.709374 Z-0.125000
G01 X144.362173 Y121.649114 Z-0.125000
G01 X152.843343 Y129.296504 Z-0.125000
G01 X156.099223 Y132.728744 Z-0.125000
G01 X158.152503 Y135.405124 Z-0.125000
G01 X159.986013 Y138.395844 Z-0.125000
G01 X161.176943 Y140.939964 Z-0.125000
G01 X161.894483 Y143.414954 Z-0.125000
G01 X162.041413 Y145.553264 Z-0.125000
G01 X161.654253 Y147.549844 Z-0.125000
G01 X160.719223 Y149.382464 Z-0.125000
G01 X159.260373 Y151.041834 Z-0.125000
G01 X156.904363 Y152.811944 Z-0.125000
G01 X153.781343 Y154.496154 Z-0.125000
G01 X141.666113 Y159.532534 Z-0.125000
G01 X133.100073 Y163.699014 Z-0.125000
G01 X130.190223 Y164.916254 Z-0.125000
G01 X127.318813 Y165.726344 Z-0.125000
G01 X124.430513 Y166.106644 Z-0.125000
G01 X121.250523 Y166.076644 Z-0.125000
G01 X118.116183 Y165.669864 Z-0.125000
G01 X114.471803 Y164.815794 Z-0.125000
G01 X110.424483 Y163.453364 Z-0.125000
G01 X106.747543 Y161.829904 Z-0.125000
G01 X103.073623 Y159.821764 Z-0.125000
G01 X98.758993 Y156.999754 Z-0.125000
G01 X94.241913 Y153.574544 Z-0.125000
G01 X89.982284 Y149.987144 Z-0.125000
G01 X80.922654 Y141.906964 Z-0.125000
G01 X76.745215 Y138.649424 Z-0.125000
G01 X74.536277 Y137.280734 Z-0.125000
G01 X72.390277 Y136.267054 Z-0.125000
G01 X70.266596 Y135.603604 Z-0.125000
G01 X67.258615 Y135.089284 Z-0.125000
G01 X66.588183 Y134.672884 Z-0.125000
G01 X66.435242 Y133.603894 Z-0.125000
G01 X66.864803 Y131.909774 Z-0.125000
G01 X67.618896 Y130.477724 Z-0.125000
G01 X68.748856 Y129.179484 Z-0.125000
G01 X71.291175 Y127.347954 Z-0.125000
G01 X78.739082 Y123.370534 Z-0.125000
G01 X80.234669 Y122.203334 Z-0.125000
G01 X81.293525 Y120.935644 Z-0.125000
G01 X81.822415 Y119.813024 Z-0.125000
G01 X82.089128 Y118.467784 Z-0.125000
G01 X81.787433 Y112.306054 Z-0.125000
G01 X81.939959 Y110.593714 Z-0.125000
G01 X82.301795 Y109.000754 Z-0.125000
G01 X83.018503 Y107.146744 Z-0.125000
G01 X84.097751 Y105.255444 Z-0.125000
G01 X85.549673 Y103.365294 Z-0.125000
G01 X87.141211 Y101.722924 Z-0.125000
G01 X89.487899 Y99.774984 Z-0.125000
G01 X92.162395 Y98.004594 Z-0.125000
G01 X95.076581 Y96.464704 Z-0.125000
G01 X98.138423 Y95.183064 Z-0.125000
G01 X101.581393 Y94.065394 Z-0.125000
G01 X104.748413 Y93.321934 Z-0.125000
G01 X107.931823 Y92.875984 Z-0.125000
G01 X111.096473 Y92.773604 Z-0.125000
G01 X114.806693 Y93.166324 Z-0.125000
G01 X118.348913 Y94.170214 Z-0.125000
G01 X121.662823 Y95.795204 Z-0.125000
G01 X124.962613 Y98.205824 Z-0.125000
G01 X127.076263 Y100.210884 Z-0.125000
G01 X129.286893 Y102.685604 Z-0.125000
G01 X136.952943 Y112.708844 Z-0.125000
G01 X140.885513 Y117.326904 Z-0.125000
G01 X144.871963 Y121.311824 Z-0.125000
G01 X153.462613 Y129.029744 Z-0.125000
G01 X156.956423 Y132.730364 Z-0.125000
G01 X159.011503 Y135.460094 Z-0.125000
G01 X160.844183 Y138.514144 Z-0.125000
G01 X162.018143 Y141.109164 Z-0.125000
G01 X162.695473 Y143.631944 Z-0.125000
G01 X162.784373 Y145.811014 Z-0.125000
G01 X162.391293 Y147.649494 Z-0.125000
G01 X161.417383 Y149.534834 Z-0.125000
G01 X159.903033 Y151.244914 Z-0.125000
G01 X157.688463 Y152.928774 Z-0.125000
G01 X154.760843 Y154.560124 Z-0.125000
G01 X141.810473 Y160.064004 Z-0.125000
G01 X132.961063 Y164.570154 Z-0.125000
G01 X130.036973 Y165.842134 Z-0.125000
G01 X127.384603 Y166.624354 Z-0.125000
G01 X124.470253 Y167.041454 Z-0.125000
G01 X121.551473 Y167.047454 Z-0.125000
G01 X118.381783 Y166.676954 Z-0.125000
G01 X114.672433 Y165.842974 Z-0.125000
G01 X110.525643 Y164.481784 Z-0.125000
G01 X106.753183 Y162.852364 Z-0.125000
G01 X102.638803 Y160.623694 Z-0.125000
G01 X98.207868 Y157.724904 Z-0.125000
G01 X93.572207 Y154.205334 Z-0.125000
G01 X88.909729 Y150.256934 Z-0.125000
G01 X79.960143 Y142.222534 Z-0.125000
G01 X75.703456 Y138.877874 Z-0.125000
G01 X73.449672 Y137.471504 Z-0.125000
G01 X71.257189 Y136.429654 Z-0.125000
G01 X68.957502 Y135.719744 Z-0.125000
G01 X65.981580 Y135.228344 Z-0.125000
G01 X65.388841 Y134.841394 Z-0.125000
G01 X65.296201 Y133.696634 Z-0.125000
G01 X65.820511 Y131.957424 Z-0.125000
G01 X66.659198 Y130.507744 Z-0.125000
G01 X67.751896 Y129.320374 Z-0.125000
G01 X70.403699 Y127.474144 Z-0.125000
G01 X78.013209 Y123.521724 Z-0.125000
G01 X79.733420 Y122.210924 Z-0.125000
G01 X80.833289 Y120.899204 Z-0.125000
G01 X81.378695 Y119.737864 Z-0.125000
G01 X81.646984 Y118.348284 Z-0.125000
G01 X81.272714 Y112.011584 Z-0.125000
G01 X81.413842 Y110.254234 Z-0.125000
G01 X81.774041 Y108.618984 Z-0.125000
G01 X82.500385 Y106.714754 Z-0.125000
G01 X83.602450 Y104.770434 Z-0.125000
G01 X85.090017 Y102.825284 Z-0.125000
G01 X86.722836 Y101.133444 Z-0.125000
G01 X89.131426 Y99.124864 Z-0.125000
G01 X91.875843 Y97.297674 Z-0.125000
G01 X94.864096 Y95.706904 Z-0.125000
G01 X98.001185 Y94.381624 Z-0.125000
G01 X101.526453 Y93.223314 Z-0.125000
G01 X104.768313 Y92.448704 Z-0.125000
G01 X108.026503 Y91.978264 Z-0.125000
G01 X111.264463 Y91.860344 Z-0.125000
G01 X115.057433 Y92.249694 Z-0.125000
G01 X118.672573 Y93.269984 Z-0.125000
G01 X122.045643 Y94.932114 Z-0.125000
G01 X125.391503 Y97.404174 Z-0.125000
G01 X127.525883 Y99.461794 Z-0.125000
G01 X129.750113 Y102.000524 Z-0.125000
G01 X137.421633 Y112.248304 Z-0.125000
G01 X141.363293 Y116.938364 Z-0.125000
G01 X145.376743 Y120.966494 Z-0.125000
G01 X154.299083 Y128.966294 Z-0.125000
G01 X157.808353 Y132.726254 Z-0.125000
G01 X159.864303 Y135.510544 Z-0.125000
G01 X161.695113 Y138.628524 Z-0.125000
G01 X162.849593 Y141.274624 Z-0.125000
G01 X163.450563 Y143.616594 Z-0.125000
G01 X163.533063 Y145.849814 Z-0.125000
G01 X163.119853 Y147.737224 Z-0.125000
G01 X162.106563 Y149.676114 Z-0.125000
G01 X160.536083 Y151.437644 Z-0.125000
G01 X158.243483 Y153.175084 Z-0.125000
G01 X155.486613 Y154.727904 Z-0.125000
G01 X142.203913 Y160.465864 Z-0.125000
G01 X132.816283 Y165.451334 Z-0.125000
G01 X129.879783 Y166.777324 Z-0.125000
G01 X127.197323 Y167.582854 Z-0.125000
G01 X124.513983 Y167.979504 Z-0.125000
G01 X121.556923 Y168.004204 Z-0.125000
G01 X118.331793 Y167.634144 Z-0.125000
G01 X114.191643 Y166.684024 Z-0.125000
G01 X109.946803 Y165.252494 Z-0.125000
G01 X106.080863 Y163.546514 Z-0.125000
G01 X101.859333 Y161.221014 Z-0.125000
G01 X97.317261 Y158.210704 Z-0.125000
G01 X92.578728 Y154.575714 Z-0.125000
G01 X88.135632 Y150.790324 Z-0.125000
G01 X79.006951 Y142.547124 Z-0.125000
G01 X74.671763 Y139.114784 Z-0.125000
G01 X72.190930 Y137.570014 Z-0.125000
G01 X69.971838 Y136.535414 Z-0.125000
G01 X67.781717 Y135.868774 Z-0.125000
G01 X64.765757 Y135.383834 Z-0.125000
G01 X64.215087 Y135.045754 Z-0.125000
G01 X64.136337 Y133.952634 Z-0.125000
G01 X64.734547 Y132.119464 Z-0.125000
G01 X65.618993 Y130.656764 Z-0.125000
G01 X66.759148 Y129.459974 Z-0.125000
G01 X69.521056 Y127.598924 Z-0.125000
G01 X77.451224 Y123.565694 Z-0.125000
G01 X79.241688 Y122.211094 Z-0.125000
G01 X80.382776 Y120.853464 Z-0.125000
G01 X80.944367 Y119.652154 Z-0.125000
G01 X81.213651 Y118.217054 Z-0.125000
G01 X80.762827 Y111.705324 Z-0.125000
G01 X80.891729 Y109.903734 Z-0.125000
G01 X81.249730 Y108.227034 Z-0.125000
G01 X81.985401 Y106.273294 Z-0.125000
G01 X83.110158 Y104.276714 Z-0.125000
G01 X84.633473 Y102.277184 Z-0.125000
G01 X86.307802 Y100.536334 Z-0.125000
G01 X88.778688 Y98.467484 Z-0.125000
G01 X91.593172 Y96.583584 Z-0.125000
G01 X94.655677 Y94.942204 Z-0.125000
G01 X97.867973 Y93.573344 Z-0.125000
G01 X101.475493 Y92.374394 Z-0.125000
G01 X104.792323 Y91.568484 Z-0.125000
G01 X108.125633 Y91.073424 Z-0.125000
G01 X111.437273 Y90.939964 Z-0.125000
G01 X115.629363 Y91.386994 Z-0.125000
G01 X119.298903 Y92.479664 Z-0.125000
G01 X122.708103 Y94.233724 Z-0.125000
G01 X125.826803 Y96.597834 Z-0.125000
G01 X127.981573 Y98.708854 Z-0.125000
G01 X130.218573 Y101.312784 Z-0.125000
G01 X137.890543 Y111.786414 Z-0.125000
G01 X141.838343 Y116.547204 Z-0.125000
G01 X146.121783 Y120.844304 Z-0.125000
G01 X154.905433 Y128.680424 Z-0.125000
G01 X158.466303 Y132.488504 Z-0.125000
G01 X160.552873 Y135.318904 Z-0.125000
G01 X162.413403 Y138.495684 Z-0.125000
G01 X163.587933 Y141.196564 Z-0.125000
G01 X164.196843 Y143.591324 Z-0.125000
G01 X164.272943 Y145.879184 Z-0.125000
G01 X163.839443 Y147.816204 Z-0.125000
G01 X162.786583 Y149.809324 Z-0.125000
G01 X161.159233 Y151.623144 Z-0.125000
G01 X159.025193 Y153.260294 Z-0.125000
G01 X156.214643 Y154.879744 Z-0.125000
G01 X142.058813 Y161.111344 Z-0.125000
G01 X132.666523 Y166.345174 Z-0.125000
G01 X129.953853 Y167.631514 Z-0.125000
G01 X127.264853 Y168.491544 Z-0.125000
G01 X124.561843 Y168.922904 Z-0.125000
G01 X121.568433 Y168.965804 Z-0.125000
G01 X118.289113 Y168.596574 Z-0.125000
G01 X114.063433 Y167.627034 Z-0.125000
G01 X109.720073 Y166.160854 Z-0.125000
G01 X105.759423 Y164.413864 Z-0.125000
G01 X101.430363 Y162.030354 Z-0.125000
G01 X96.771346 Y158.942664 Z-0.125000
G01 X91.914812 Y155.213374 Z-0.125000
G01 X87.059708 Y151.054904 Z-0.125000
G01 X77.827409 Y142.673744 Z-0.125000
G01 X73.651627 Y139.359634 Z-0.125000
G01 X71.121368 Y137.772654 Z-0.125000
G01 X68.853700 Y136.707764 Z-0.125000
G01 X66.613904 Y136.020944 Z-0.125000
G01 X63.554528 Y135.538434 Z-0.125000
G01 X63.021121 Y135.210714 Z-0.125000
G01 X62.993351 Y134.123894 Z-0.125000
G01 X63.653752 Y132.278804 Z-0.125000
G01 X64.583790 Y130.803134 Z-0.125000
G01 X65.771278 Y129.597014 Z-0.125000
G01 X68.643954 Y127.720904 Z-0.125000
G01 X76.719644 Y123.713874 Z-0.125000
G01 X78.626223 Y122.324164 Z-0.125000
G01 X79.856547 Y120.929814 Z-0.125000
G01 X80.519725 Y119.554424 Z-0.125000
G01 X80.789341 Y118.072654 Z-0.125000
G01 X80.257737 Y111.386074 Z-0.125000
G01 X80.373789 Y109.541104 Z-0.125000
G01 X80.792926 Y107.604504 Z-0.125000
G01 X81.580944 Y105.595484 Z-0.125000
G01 X82.774131 Y103.544684 Z-0.125000
G01 X84.378227 Y101.493834 Z-0.125000
G01 X86.131140 Y99.711534 Z-0.125000
G01 X88.429501 Y97.802194 Z-0.125000
G01 X91.314404 Y95.861984 Z-0.125000
G01 X94.451142 Y94.170104 Z-0.125000
G01 X97.738623 Y92.757864 Z-0.125000
G01 X101.428333 Y91.518334 Z-0.125000
G01 X104.820163 Y90.681064 Z-0.125000
G01 X108.228753 Y90.161104 Z-0.125000
G01 X111.614653 Y90.011684 Z-0.125000
G01 X115.897433 Y90.456144 Z-0.125000
G01 X119.640003 Y91.567844 Z-0.125000
G01 X123.107763 Y93.362374 Z-0.125000
G01 X126.268123 Y95.786194 Z-0.125000
G01 X128.442973 Y97.951554 Z-0.125000
G01 X130.692153 Y100.621614 Z-0.125000
G01 X138.359403 Y111.322414 Z-0.125000
G01 X142.310433 Y116.152504 Z-0.125000
G01 X146.617943 Y120.490284 Z-0.125000
G01 X155.503053 Y128.384304 Z-0.125000
G01 X159.305603 Y132.474334 Z-0.125000
G01 X161.391403 Y135.361104 Z-0.125000
G01 X163.248863 Y138.602744 Z-0.125000
G01 X164.400603 Y141.355284 Z-0.125000
G01 X164.966673 Y143.794664 Z-0.125000
G01 X164.977073 Y146.124794 Z-0.125000
G01 X164.467473 Y148.097734 Z-0.125000
G01 X163.456103 Y149.933214 Z-0.125000
G01 X161.771343 Y151.800064 Z-0.125000
G01 X159.565273 Y153.487494 Z-0.125000
G01 X156.944093 Y155.013994 Z-0.125000
G01 X142.162053 Y161.628214 Z-0.125000
G01 X138.595963 Y163.565794 Z-0.125000
G01 X132.511983 Y167.249734 Z-0.125000
G01 X129.791693 Y168.584734 Z-0.125000
G01 X127.074403 Y169.465974 Z-0.125000
G01 X124.324723 Y169.894594 Z-0.125000
G01 X121.265403 Y169.913294 Z-0.125000
G01 X118.253303 Y169.562584 Z-0.125000
G01 X113.942943 Y168.573644 Z-0.125000
G01 X109.501273 Y167.072964 Z-0.125000
G01 X105.445943 Y165.285094 Z-0.125000
G01 X101.009063 Y162.843814 Z-0.125000
G01 X96.232880 Y159.679124 Z-0.125000
G01 X91.258469 Y155.856064 Z-0.125000
G01 X86.295167 Y151.594174 Z-0.125000
G01 X76.892291 Y143.009154 Z-0.125000
G01 X72.643687 Y139.611754 Z-0.125000
G01 X70.063650 Y137.981614 Z-0.125000
G01 X67.746202 Y136.884874 Z-0.125000
G01 X65.318754 Y136.145404 Z-0.125000
G01 X62.348366 Y135.691084 Z-0.125000
G01 X61.831745 Y135.372724 Z-0.125000
G01 X61.855375 Y134.291574 Z-0.125000
G01 X62.641383 Y132.313244 Z-0.125000
G01 X63.553785 Y130.945814 Z-0.125000
G01 X64.788481 Y129.730304 Z-0.125000
G01 X67.570512 Y127.944544 Z-0.125000
G01 X73.934404 Y124.955694 Z-0.125000
G01 X76.168293 Y123.746444 Z-0.125000
G01 X78.148421 Y122.309464 Z-0.125000
G01 X79.422430 Y120.865814 Z-0.125000
G01 X80.104033 Y119.443114 Z-0.125000
G01 X80.373316 Y117.913644 Z-0.125000
G01 X79.757077 Y111.052754 Z-0.125000
G01 X79.859244 Y109.165244 Z-0.125000
G01 X80.275583 Y107.183744 Z-0.125000
G01 X81.073756 Y105.126894 Z-0.125000
G01 X82.290962 Y103.025334 Z-0.125000
G01 X83.932278 Y100.921374 Z-0.125000
G01 X85.728006 Y99.091104 Z-0.125000
G01 X88.083253 Y97.128464 Z-0.125000
G01 X91.038555 Y95.132384 Z-0.125000
G01 X94.249586 Y93.390284 Z-0.125000
G01 X97.612129 Y91.934904 Z-0.125000
G01 X101.383823 Y90.654864 Z-0.125000
G01 X104.850693 Y89.786164 Z-0.125000
G01 X108.334803 Y89.241194 Z-0.125000
G01 X111.795223 Y89.076024 Z-0.125000
G01 X115.840403 Y89.455744 Z-0.125000
G01 X119.677823 Y90.527704 Z-0.125000
G01 X123.230733 Y92.306104 Z-0.125000
G01 X126.460043 Y94.740394 Z-0.125000
G01 X128.673253 Y96.930804 Z-0.125000
G01 X130.950683 Y99.643744 Z-0.125000
G01 X138.827223 Y110.856504 Z-0.125000
G01 X142.778523 Y115.754544 Z-0.125000
G01 X147.107473 Y120.130644 Z-0.125000
G01 X156.323253 Y128.300784 Z-0.125000
G01 X159.946023 Y132.217734 Z-0.125000
G01 X162.061543 Y135.150944 Z-0.125000
G01 X163.948493 Y138.451794 Z-0.125000
G01 X165.119863 Y141.259604 Z-0.125000
G01 X165.693073 Y143.752494 Z-0.125000
G01 X165.697073 Y146.138264 Z-0.125000
G01 X165.165423 Y148.161934 Z-0.125000
G01 X164.116993 Y150.047584 Z-0.125000
G01 X162.374213 Y151.968274 Z-0.125000
G01 X160.344413 Y153.540684 Z-0.125000
G01 X157.676883 Y155.130234 Z-0.125000
G01 X142.526993 Y161.998474 Z-0.125000
G01 X138.653443 Y164.164764 Z-0.125000
G01 X132.355493 Y168.164374 Z-0.125000
G01 X129.628943 Y169.546464 Z-0.125000
G01 X127.145743 Y170.382304 Z-0.125000
G01 X124.379613 Y170.845984 Z-0.125000
G01 X121.610243 Y170.899284 Z-0.125000
G01 X118.578223 Y170.589484 Z-0.125000
G01 X114.208223 Y169.630474 Z-0.125000
G01 X109.292973 Y167.989424 Z-0.125000
G01 X104.764873 Y165.972744 Z-0.125000
G01 X100.598117 Y163.662074 Z-0.125000
G01 X95.704695 Y160.420824 Z-0.125000
G01 X90.612554 Y156.504714 Z-0.125000
G01 X85.541965 Y152.140464 Z-0.125000
G01 X75.728780 Y143.140484 Z-0.125000
G01 X71.440200 Y139.723664 Z-0.125000
G01 X68.829388 Y138.093044 Z-0.125000
G01 X66.482451 Y137.001934 Z-0.125000
G01 X64.168403 Y136.302904 Z-0.125000
G01 X61.150474 Y135.843024 Z-0.125000
G01 X60.669105 Y135.565804 Z-0.125000
G01 X60.586625 Y135.137784 Z-0.125000
G01 X60.725267 Y134.456784 Z-0.125000
G01 X61.577632 Y132.465084 Z-0.125000
G01 X62.531647 Y131.085694 Z-0.125000
G01 X63.813386 Y129.860924 Z-0.125000
G01 X66.699160 Y128.060804 Z-0.125000
G01 X73.082408 Y125.126664 Z-0.125000
G01 X75.431438 Y123.889504 Z-0.125000
G01 X77.534063 Y122.415034 Z-0.125000
G01 X78.999705 Y120.790604 Z-0.125000
G01 X79.699461 Y119.319144 Z-0.125000
G01 X79.967750 Y117.740864 Z-0.125000
G01 X79.921540 Y116.228074 Z-0.125000
G01 X79.262630 Y110.706274 Z-0.125000
G01 X79.350500 Y108.777254 Z-0.125000
G01 X79.763440 Y106.752044 Z-0.125000
G01 X80.571477 Y104.648514 Z-0.125000
G01 X81.812536 Y102.497184 Z-0.125000
G01 X83.491155 Y100.341114 Z-0.125000
G01 X85.329802 Y98.463464 Z-0.125000
G01 X87.741956 Y96.448124 Z-0.125000
G01 X90.767759 Y94.396564 Z-0.125000
G01 X94.053044 Y92.604734 Z-0.125000
G01 X97.490441 Y91.106344 Z-0.125000
G01 X101.343923 Y89.786004 Z-0.125000
G01 X104.885723 Y88.885844 Z-0.125000
G01 X108.445493 Y88.315824 Z-0.125000
G01 X111.980843 Y88.134694 Z-0.125000
G01 X116.111303 Y88.511394 Z-0.125000
G01 X120.024123 Y89.601534 Z-0.125000
G01 X123.637733 Y91.420314 Z-0.125000
G01 X126.910293 Y93.915074 Z-0.125000
G01 X129.144083 Y96.160914 Z-0.125000
G01 X131.433343 Y98.941534 Z-0.125000
G01 X139.295993 Y110.390504 Z-0.125000
G01 X143.244623 Y115.354884 Z-0.125000
G01 X147.592163 Y119.766894 Z-0.125000
G01 X156.905553 Y127.987924 Z-0.125000
G01 X160.770793 Y132.193874 Z-0.125000
G01 X162.884213 Y135.185324 Z-0.125000
G01 X164.638803 Y138.290704 Z-0.125000
G01 X165.829963 Y141.153724 Z-0.125000
G01 X166.410473 Y143.700414 Z-0.125000
G01 X166.406473 Y146.142284 Z-0.125000
G01 X165.852833 Y148.217224 Z-0.125000
G01 X164.767123 Y150.153644 Z-0.125000
G01 X162.965963 Y152.128944 Z-0.125000
G01 X160.613433 Y153.919014 Z-0.125000
G01 X157.527733 Y155.696384 Z-0.125000
G01 X145.817113 Y160.923954 Z-0.125000
G01 X141.782333 Y162.941034 Z-0.125000
G01 X138.457133 Y164.914034 Z-0.125000
G01 X132.415703 Y168.955334 Z-0.125000
G01 X129.464343 Y170.517154 Z-0.125000
G01 X126.955653 Y171.368694 Z-0.125000
G01 X124.438953 Y171.799724 Z-0.125000
G01 X121.641273 Y171.870224 Z-0.125000
G01 X118.565173 Y171.562894 Z-0.125000
G01 X114.114243 Y170.586514 Z-0.125000
G01 X109.093863 Y168.908764 Z-0.125000
G01 X104.462363 Y166.847444 Z-0.125000
G01 X100.196473 Y164.483934 Z-0.125000
G01 X95.185713 Y161.166584 Z-0.125000
G01 X89.616160 Y156.862094 Z-0.125000
G01 X84.472748 Y152.397834 Z-0.125000
G01 X74.818846 Y143.488594 Z-0.125000
G01 X70.459432 Y139.989484 Z-0.125000
G01 X67.797785 Y138.314494 Z-0.125000
G01 X65.398645 Y137.189014 Z-0.125000
G01 X63.029430 Y136.463664 Z-0.125000
G01 X59.960355 Y135.993584 Z-0.125000
G01 X59.492808 Y135.722834 Z-0.125000
G01 X59.602644 Y134.618564 Z-0.125000
G01 X60.521491 Y132.613224 Z-0.125000
G01 X61.516808 Y131.221934 Z-0.125000
G01 X62.845259 Y129.987904 Z-0.125000
G01 X65.834878 Y128.173254 Z-0.125000
G01 X72.220551 Y125.296634 Z-0.125000
G01 X74.893140 Y123.910824 Z-0.125000
G01 X77.072360 Y122.385414 Z-0.125000
G01 X78.587075 Y120.703134 Z-0.125000
G01 X79.304612 Y119.181284 Z-0.125000
G01 X79.571140 Y117.553104 Z-0.125000
G01 X79.490520 Y115.818744 Z-0.125000
G01 X78.773543 Y110.345744 Z-0.125000
G01 X78.846283 Y108.376434 Z-0.125000
G01 X79.255265 Y106.308664 Z-0.125000
G01 X80.072856 Y104.159654 Z-0.125000
G01 X81.337643 Y101.959714 Z-0.125000
G01 X83.053482 Y99.752474 Z-0.125000
G01 X84.935131 Y97.828284 Z-0.125000
G01 X87.404317 Y95.760904 Z-0.125000
G01 X90.500643 Y93.654444 Z-0.125000
G01 X93.859932 Y91.813214 Z-0.125000
G01 X97.371954 Y90.272234 Z-0.125000
G01 X101.306923 Y88.911754 Z-0.125000
G01 X104.923503 Y87.980114 Z-0.125000
G01 X108.559103 Y87.385034 Z-0.125000
G01 X112.169683 Y87.187744 Z-0.125000
G01 X116.386003 Y87.561604 Z-0.125000
G01 X120.374833 Y88.670404 Z-0.125000
G01 X124.049683 Y90.530394 Z-0.125000
G01 X127.365623 Y93.086744 Z-0.125000
G01 X129.619673 Y95.388934 Z-0.125000
G01 X131.920193 Y98.238094 Z-0.125000
G01 X139.764213 Y109.924164 Z-0.125000
G01 X143.707143 Y114.953344 Z-0.125000
G01 X148.070513 Y119.398804 Z-0.125000
G01 X157.477613 Y127.665894 Z-0.125000
G01 X161.393773 Y131.920824 Z-0.125000
G01 X163.536103 Y134.959034 Z-0.125000
G01 X165.447903 Y138.384894 Z-0.125000
G01 X166.612083 Y141.300564 Z-0.125000
G01 X167.144223 Y143.893104 Z-0.125000
G01 X167.105523 Y146.136254 Z-0.125000
G01 X166.529893 Y148.263004 Z-0.125000
G01 X165.406843 Y150.250904 Z-0.125000
G01 X163.546783 Y152.281534 Z-0.125000
G01 X161.119953 Y154.123934 Z-0.125000
G01 X157.940713 Y155.955134 Z-0.125000
G01 X146.246213 Y161.212264 Z-0.125000
G01 X141.839803 Y163.453484 Z-0.125000
G01 X138.250543 Y165.672144 Z-0.125000
G01 X132.254323 Y169.885004 Z-0.125000
G01 X129.537723 Y171.388694 Z-0.125000
G01 X127.031313 Y172.290994 Z-0.125000
G01 X124.503483 Y172.754274 Z-0.125000
G01 X121.679273 Y172.842574 Z-0.125000
G01 X118.560463 Y172.537974 Z-0.125000
G01 X114.029793 Y171.544374 Z-0.125000
G01 X108.904973 Y169.830074 Z-0.125000
G01 X104.170283 Y167.724374 Z-0.125000
G01 X99.805255 Y165.308454 Z-0.125000
G01 X94.677200 Y161.915714 Z-0.125000
G01 X88.982973 Y157.513234 Z-0.125000
G01 X83.735984 Y152.949304 Z-0.125000
G01 X73.925038 Y143.845304 Z-0.125000
G01 X69.495826 Y140.263874 Z-0.125000
G01 X66.782930 Y138.543474 Z-0.125000
G01 X64.330198 Y137.381874 Z-0.125000
G01 X61.760420 Y136.595494 Z-0.125000
G01 X58.727031 Y136.129374 Z-0.125000
G01 X58.325344 Y135.876924 Z-0.125000
G01 X58.488854 Y134.776574 Z-0.125000
G01 X59.551171 Y132.631844 Z-0.125000
G01 X60.628160 Y131.226934 Z-0.125000
G01 X61.885383 Y130.110744 Z-0.125000
G01 X64.757355 Y128.390674 Z-0.125000
G01 X71.595219 Y125.351874 Z-0.125000
G01 X74.150532 Y124.047984 Z-0.125000
G01 X76.458094 Y122.482764 Z-0.125000
G01 X78.083308 Y120.754034 Z-0.125000
G01 X78.868922 Y119.191014 Z-0.125000
G01 X79.184150 Y117.349774 Z-0.125000
G01 X79.085500 Y115.566874 Z-0.125000
G01 X78.290125 Y109.970844 Z-0.125000
G01 X78.346905 Y107.962304 Z-0.125000
G01 X78.751411 Y105.853434 Z-0.125000
G01 X79.578203 Y103.660294 Z-0.125000
G01 X80.866574 Y101.413014 Z-0.125000
G01 X82.619653 Y99.155664 Z-0.125000
G01 X84.807204 Y96.944094 Z-0.125000
G01 X87.371781 Y94.840604 Z-0.125000
G01 X90.570544 Y92.704194 Z-0.125000
G01 X94.023940 Y90.843824 Z-0.125000
G01 X97.619831 Y89.291504 Z-0.125000
G01 X101.640183 Y87.922414 Z-0.125000
G01 X105.705763 Y86.916194 Z-0.125000
G01 X109.416423 Y86.371984 Z-0.125000
G01 X112.726493 Y86.239774 Z-0.125000
G01 X117.013663 Y86.671774 Z-0.125000
G01 X119.071313 Y87.170704 Z-0.125000
G01 X121.054673 Y87.864594 Z-0.125000
G01 X124.466333 Y89.637444 Z-0.125000
G01 X127.825813 Y92.256484 Z-0.125000
G01 X130.099983 Y94.615874 Z-0.125000
G01 X132.411253 Y97.534554 Z-0.125000
G01 X140.231863 Y109.458464 Z-0.125000
G01 X144.166123 Y114.550774 Z-0.125000
G01 X148.542493 Y119.027094 Z-0.125000
G01 X158.279123 Y127.565064 Z-0.125000
G01 X160.341113 Y129.678594 Z-0.125000
G01 X162.201433 Y131.888894 Z-0.125000
G01 X164.340473 Y134.986984 Z-0.125000
G01 X166.246243 Y138.478924 Z-0.125000
G01 X167.301143 Y141.179364 Z-0.125000
G01 X167.839753 Y143.826294 Z-0.125000
G01 X167.793753 Y146.120784 Z-0.125000
G01 X167.196243 Y148.299884 Z-0.125000
G01 X166.035683 Y150.339894 Z-0.125000
G01 X164.116413 Y152.426544 Z-0.125000
G01 X161.614733 Y154.321974 Z-0.125000
G01 X158.341013 Y156.207454 Z-0.125000
G01 X146.674863 Y161.484804 Z-0.125000
G01 X142.162963 Y163.800124 Z-0.125000
G01 X138.514413 Y166.102394 Z-0.125000
G01 X132.092123 Y170.823814 Z-0.125000
G01 X129.373753 Y172.371104 Z-0.125000
G01 X127.109923 Y173.212884 Z-0.125000
G01 X124.573193 Y173.709154 Z-0.125000
G01 X121.724373 Y173.815674 Z-0.125000
G01 X118.564213 Y173.514164 Z-0.125000
G01 X113.955103 Y172.503514 Z-0.125000
G01 X108.726433 Y170.752794 Z-0.125000
G01 X103.888863 Y168.603184 Z-0.125000
G01 X99.018793 Y165.888154 Z-0.125000
G01 X93.781565 Y162.380964 Z-0.125000
G01 X87.988134 Y157.858474 Z-0.125000
G01 X82.676073 Y153.199724 Z-0.125000
G01 X73.048386 Y144.211034 Z-0.125000
G01 X68.550455 Y140.547374 Z-0.125000
G01 X65.785915 Y138.780534 Z-0.125000
G01 X63.278349 Y137.581094 Z-0.125000
G01 X61.093720 Y136.868904 Z-0.125000
G01 X57.664882 Y136.301674 Z-0.125000
G01 X57.167679 Y136.028164 Z-0.125000
G01 X57.351498 Y135.011744 Z-0.125000
G01 X58.436549 Y132.897454 Z-0.125000
G01 X59.513394 Y131.482084 Z-0.125000
G01 X60.771342 Y130.351464 Z-0.125000
G01 X63.902318 Y128.495574 Z-0.125000
G01 X70.724991 Y125.516924 Z-0.125000
G01 X73.625085 Y124.056274 Z-0.125000
G01 X76.012060 Y122.436324 Z-0.125000
G01 X77.688793 Y120.645654 Z-0.125000
G01 X78.493556 Y119.029224 Z-0.125000
G01 X78.806442 Y117.130564 Z-0.125000
G01 X78.688939 Y115.298754 Z-0.125000
G01 X77.812348 Y109.581484 Z-0.125000
G01 X77.852348 Y107.535184 Z-0.125000
G01 X78.251901 Y105.386514 Z-0.125000
G01 X79.087584 Y103.150694 Z-0.125000
G01 X80.399331 Y100.857434 Z-0.125000
G01 X82.189505 Y98.551214 Z-0.125000
G01 X84.425985 Y96.289084 Z-0.125000
G01 X87.048402 Y94.135204 Z-0.125000
G01 X90.317936 Y91.945664 Z-0.125000
G01 X93.845087 Y90.037594 Z-0.125000
G01 X97.514838 Y88.444084 Z-0.125000
G01 X101.615853 Y87.035914 Z-0.125000
G01 X105.763513 Y85.996184 Z-0.125000
G01 X109.550233 Y85.428414 Z-0.125000
G01 X112.928293 Y85.283564 Z-0.125000
G01 X117.301923 Y85.714904 Z-0.125000
G01 X119.399263 Y86.221724 Z-0.125000
G01 X121.419163 Y86.929374 Z-0.125000
G01 X124.887253 Y88.742484 Z-0.125000
G01 X128.290353 Y91.425274 Z-0.125000
G01 X130.584563 Y93.842734 Z-0.125000
G01 X132.683273 Y96.521804 Z-0.125000
G01 X140.698763 Y108.994194 Z-0.125000
G01 X144.621403 Y114.147864 Z-0.125000
G01 X149.007803 Y118.652424 Z-0.125000
G01 X158.832883 Y127.228714 Z-0.125000
G01 X160.920213 Y129.362864 Z-0.125000
G01 X162.804053 Y131.600854 Z-0.125000
G01 X164.971213 Y134.746054 Z-0.125000
G01 X166.906043 Y138.297594 Z-0.125000
G01 X167.978433 Y141.048644 Z-0.125000
G01 X168.523733 Y143.750134 Z-0.125000
G01 X168.430233 Y146.350464 Z-0.125000
G01 X167.746533 Y148.568064 Z-0.125000
G01 X166.485043 Y150.644204 Z-0.125000
G01 X164.674393 Y152.564504 Z-0.125000
G01 X162.097363 Y154.513484 Z-0.125000
G01 X159.052573 Y156.285094 Z-0.125000
G01 X146.776483 Y161.896154 Z-0.125000
G01 X142.197063 Y164.295144 Z-0.125000
G01 X138.285573 Y166.864154 Z-0.125000
G01 X131.929663 Y171.771404 Z-0.125000
G01 X129.209923 Y173.359874 Z-0.125000
G01 X126.923933 Y174.211454 Z-0.125000
G01 X124.345433 Y174.698254 Z-0.125000
G01 X121.436573 Y174.776754 Z-0.125000
G01 X118.576413 Y174.490804 Z-0.125000
G01 X113.890123 Y173.463264 Z-0.125000
G01 X108.558443 Y171.676364 Z-0.125000
G01 X103.618383 Y169.483264 Z-0.125000
G01 X98.640405 Y166.711484 Z-0.125000
G01 X93.286772 Y163.129624 Z-0.125000
G01 X87.371237 Y158.511334 Z-0.125000
G01 X81.960033 Y153.756534 Z-0.125000
G01 X71.933996 Y144.356994 Z-0.125000
G01 X67.624360 Y140.840364 Z-0.125000
G01 X64.807721 Y139.026174 Z-0.125000
G01 X62.243911 Y137.786874 Z-0.125000
G01 X59.849371 Y137.004314 Z-0.125000
G01 X56.505812 Y136.447344 Z-0.125000
G01 X56.034969 Y136.205744 Z-0.125000
G01 X56.254392 Y135.162364 Z-0.125000
G01 X57.493150 Y132.905564 Z-0.125000
G01 X58.526019 Y131.605934 Z-0.125000
G01 X59.824316 Y130.466874 Z-0.125000
G01 X62.823200 Y128.708104 Z-0.125000
G01 X70.110353 Y125.561874 Z-0.125000
G01 X73.109858 Y124.055884 Z-0.125000
G01 X75.576557 Y122.378924 Z-0.125000
G01 X77.304685 Y120.524024 Z-0.125000
G01 X78.128244 Y118.852474 Z-0.125000
G01 X78.438043 Y116.895264 Z-0.125000
G01 X78.300645 Y115.014074 Z-0.125000
G01 X77.340102 Y109.177644 Z-0.125000
G01 X77.362902 Y107.094934 Z-0.125000
G01 X77.757025 Y104.908084 Z-0.125000
G01 X78.601204 Y102.631154 Z-0.125000
G01 X79.936141 Y100.293314 Z-0.125000
G01 X81.763328 Y97.939494 Z-0.125000
G01 X84.048591 Y95.627874 Z-0.125000
G01 X86.728765 Y93.424534 Z-0.125000
G01 X90.068864 Y91.182584 Z-0.125000
G01 X93.669439 Y89.227404 Z-0.125000
G01 X97.412489 Y87.593194 Z-0.125000
G01 X101.593663 Y86.146304 Z-0.125000
G01 X105.823203 Y85.073154 Z-0.125000
G01 X109.685913 Y84.481904 Z-0.125000
G01 X113.132343 Y84.324204 Z-0.125000
G01 X117.592933 Y84.755294 Z-0.125000
G01 X121.450373 Y85.857294 Z-0.125000
G01 X125.005583 Y87.650004 Z-0.125000
G01 X128.487933 Y90.338774 Z-0.125000
G01 X130.826833 Y92.780194 Z-0.125000
G01 X133.181293 Y95.813204 Z-0.125000
G01 X141.164903 Y108.531724 Z-0.125000
G01 X145.072853 Y113.744934 Z-0.125000
G01 X149.466373 Y118.275214 Z-0.125000
G01 X159.375473 Y126.884784 Z-0.125000
G01 X161.710243 Y129.284924 Z-0.125000
G01 X163.592653 Y131.563054 Z-0.125000
G01 X165.755693 Y134.769714 Z-0.125000
G01 X167.553573 Y138.107034 Z-0.125000
G01 X168.643563 Y140.908594 Z-0.125000
G01 X169.195823 Y143.664734 Z-0.125000
G01 X169.094073 Y146.322964 Z-0.125000
G01 X168.387023 Y148.594034 Z-0.125000
G01 X167.086253 Y150.723414 Z-0.125000
G01 X165.221063 Y152.695374 Z-0.125000
G01 X162.568203 Y154.698584 Z-0.125000
G01 X159.436503 Y156.520634 Z-0.125000
G01 X146.864333 Y162.301504 Z-0.125000
G01 X142.218513 Y164.784104 Z-0.125000
G01 X138.287583 Y167.451924 Z-0.125000
G01 X131.982793 Y172.571654 Z-0.125000
G01 X129.287353 Y174.237374 Z-0.125000
G01 X127.009053 Y175.135064 Z-0.125000
G01 X124.424393 Y175.654484 Z-0.125000
G01 X121.492673 Y175.750384 Z-0.125000
G01 X118.597573 Y175.466904 Z-0.125000
G01 X113.835523 Y174.422684 Z-0.125000
G01 X108.401663 Y172.599864 Z-0.125000
G01 X103.359693 Y170.363674 Z-0.125000
G01 X98.274201 Y167.535864 Z-0.125000
G01 X92.804494 Y163.880194 Z-0.125000
G01 X86.767767 Y159.167664 Z-0.125000
G01 X81.258913 Y154.318694 Z-0.125000
G01 X71.091561 Y144.736584 Z-0.125000
G01 X66.490281 Y140.977924 Z-0.125000
G01 X63.638930 Y139.161804 Z-0.125000
G01 X61.039205 Y137.923004 Z-0.125000
G01 X58.774023 Y137.181634 Z-0.125000
G01 X55.359506 Y136.591424 Z-0.125000
G01 X54.898051 Y136.350714 Z-0.125000
G01 X55.169013 Y135.308794 Z-0.125000
G01 X56.480636 Y133.035754 Z-0.125000
G01 X57.549523 Y131.725194 Z-0.125000
G01 X58.887693 Y130.577724 Z-0.125000
G01 X61.979791 Y128.804914 Z-0.125000
G01 X69.232502 Y125.721744 Z-0.125000
G01 X72.364431 Y124.182414 Z-0.125000
G01 X75.151954 Y122.309964 Z-0.125000
G01 X76.931393 Y120.388464 Z-0.125000
G01 X77.773272 Y118.660274 Z-0.125000
G01 X78.079237 Y116.643304 Z-0.125000
G01 X77.921115 Y114.712304 Z-0.125000
G01 X76.873988 Y108.759094 Z-0.125000
G01 X76.878088 Y106.641404 Z-0.125000
G01 X77.266201 Y104.418044 Z-0.125000
G01 X78.118608 Y102.101634 Z-0.125000
G01 X79.476569 Y99.720754 Z-0.125000
G01 X81.340603 Y97.320654 Z-0.125000
G01 X83.674567 Y94.960704 Z-0.125000
G01 X86.412290 Y92.708784 Z-0.125000
G01 X89.822704 Y90.415364 Z-0.125000
G01 X93.496247 Y88.413684 Z-0.125000
G01 X97.312121 Y86.739354 Z-0.125000
G01 X101.572853 Y85.254024 Z-0.125000
G01 X105.883883 Y84.147584 Z-0.125000
G01 X109.822693 Y83.532964 Z-0.125000
G01 X113.337613 Y83.362614 Z-0.125000
G01 X117.885693 Y83.793684 Z-0.125000
G01 X121.814703 Y84.915744 Z-0.125000
G01 X125.428703 Y86.748614 Z-0.125000
G01 X127.248323 Y88.033524 Z-0.125000
G01 X128.956933 Y89.501694 Z-0.125000
G01 X131.316983 Y92.002064 Z-0.125000
G01 X133.682143 Y95.106724 Z-0.125000
G01 X141.629633 Y108.071734 Z-0.125000
G01 X145.519963 Y113.342614 Z-0.125000
G01 X149.917573 Y117.895924 Z-0.125000
G01 X160.152403 Y126.769884 Z-0.125000
G01 X162.267793 Y128.955864 Z-0.125000
G01 X164.172793 Y131.261744 Z-0.125000
G01 X166.363213 Y134.515594 Z-0.125000
G01 X168.319043 Y138.193034 Z-0.125000
G01 X169.378673 Y141.043494 Z-0.125000
G01 X169.875933 Y143.847304 Z-0.125000
G01 X169.745373 Y146.286984 Z-0.125000
G01 X169.015203 Y148.612054 Z-0.125000
G01 X167.675223 Y150.795334 Z-0.125000
G01 X165.755363 Y152.819484 Z-0.125000
G01 X163.026343 Y154.877534 Z-0.125000
G01 X159.807183 Y156.750414 Z-0.125000
G01 X147.276563 Y162.536384 Z-0.125000
G01 X142.226643 Y165.266934 Z-0.125000
G01 X138.278883 Y168.033834 Z-0.125000
G01 X131.820903 Y173.530134 Z-0.125000
G01 X129.126633 Y175.234014 Z-0.125000
G01 X126.826243 Y176.138024 Z-0.125000
G01 X124.508263 Y176.608804 Z-0.125000
G01 X121.555693 Y176.722574 Z-0.125000
G01 X118.626923 Y176.441834 Z-0.125000
G01 X113.370133 Y175.261434 Z-0.125000
G01 X107.828593 Y173.354774 Z-0.125000
G01 X102.680943 Y171.026694 Z-0.125000
G01 X97.486490 Y168.094244 Z-0.125000
G01 X91.911403 Y164.324814 Z-0.125000
G01 X85.784383 Y159.497294 Z-0.125000
G01 X80.222498 Y154.562134 Z-0.125000
G01 X70.268828 Y145.125684 Z-0.125000
G01 X65.602122 Y141.286394 Z-0.125000
G01 X62.697428 Y139.421264 Z-0.125000
G01 X60.038600 Y138.139464 Z-0.125000
G01 X57.715723 Y137.363154 Z-0.125000
G01 X54.226041 Y136.733854 Z-0.125000
G01 X53.773124 Y136.492554 Z-0.125000
G01 X54.095212 Y135.450914 Z-0.125000
G01 X55.573412 Y133.030264 Z-0.125000
G01 X56.583733 Y131.839714 Z-0.125000
G01 X57.961216 Y130.683804 Z-0.125000
G01 X61.145991 Y128.896694 Z-0.125000
G01 X68.629273 Y125.755564 Z-0.125000
G01 X71.862230 Y124.168034 Z-0.125000
G01 X74.546735 Y122.386664 Z-0.125000
G01 X76.448610 Y120.411464 Z-0.125000
G01 X77.368307 Y118.635594 Z-0.125000
G01 X77.726122 Y116.567744 Z-0.125000
G01 X77.581885 Y114.595284 Z-0.125000
G01 X76.661546 Y110.149114 Z-0.125000
G01 X76.395786 Y108.092004 Z-0.125000
G01 X76.420866 Y105.929004 Z-0.125000
G01 X76.781562 Y103.916494 Z-0.125000
G01 X77.641802 Y101.562304 Z-0.125000
G01 X79.022456 Y99.140054 Z-0.125000
G01 X80.923253 Y96.695134 Z-0.125000
G01 X83.305773 Y94.288074 Z-0.125000
G01 X86.100818 Y91.988554 Z-0.125000
G01 X89.581175 Y89.644454 Z-0.125000
G01 X93.327209 Y87.597124 Z-0.125000
G01 X97.215243 Y85.883194 Z-0.125000
G01 X101.554993 Y84.359874 Z-0.125000
G01 X105.947113 Y83.220424 Z-0.125000
G01 X109.961913 Y82.582514 Z-0.125000
G01 X113.545593 Y82.399724 Z-0.125000
G01 X115.891223 Y82.513084 Z-0.125000
G01 X118.181753 Y82.831114 Z-0.125000
G01 X122.182913 Y83.973754 Z-0.125000
G01 X125.856173 Y85.847504 Z-0.125000
G01 X127.701533 Y87.162734 Z-0.125000
G01 X129.430693 Y88.665944 Z-0.125000
G01 X131.811843 Y91.226134 Z-0.125000
G01 X134.187423 Y94.403244 Z-0.125000
G01 X142.094713 Y107.614864 Z-0.125000
G01 X143.969133 Y110.377494 Z-0.125000
G01 X145.964513 Y112.941464 Z-0.125000
G01 X148.097723 Y115.311384 Z-0.125000
G01 X150.363073 Y117.515164 Z-0.125000
G01 X160.675283 Y126.414084 Z-0.125000
G01 X163.039563 Y128.872284 Z-0.125000
G01 X164.941543 Y131.220014 Z-0.125000
G01 X167.127353 Y134.536714 Z-0.125000
G01 X168.943803 Y137.990214 Z-0.125000
G01 X170.020583 Y140.891344 Z-0.125000
G01 X170.524093 Y143.750424 Z-0.125000
G01 X170.385863 Y146.243004 Z-0.125000
G01 X169.632763 Y148.622524 Z-0.125000
G01 X168.253683 Y150.860244 Z-0.125000
G01 X166.279093 Y152.937354 Z-0.125000
G01 X163.779443 Y154.848414 Z-0.125000
G01 X160.514773 Y156.790034 Z-0.125000
G01 X147.343443 Y162.925014 Z-0.125000
G01 X142.516693 Y165.560114 Z-0.125000
G01 X138.261493 Y168.609724 Z-0.125000
G01 X131.662433 Y174.495544 Z-0.125000
G01 X128.968993 Y176.234474 Z-0.125000
G01 X126.645183 Y177.141714 Z-0.125000
G01 X124.288253 Y177.598234 Z-0.125000
G01 X121.627523 Y177.692534 Z-0.125000
G01 X118.666563 Y177.414754 Z-0.125000
G01 X113.329823 Y176.215874 Z-0.125000
G01 X107.687173 Y174.272964 Z-0.125000
G01 X102.438213 Y171.901904 Z-0.125000
G01 X97.136886 Y168.913794 Z-0.125000
G01 X91.447260 Y165.071974 Z-0.125000
G01 X85.202612 Y160.153504 Z-0.125000
G01 X79.548444 Y155.128914 Z-0.125000
G01 X69.205210 Y145.285354 Z-0.125000
G01 X64.738053 Y141.604904 Z-0.125000
G01 X61.779498 Y139.689814 Z-0.125000
G01 X59.060095 Y138.362894 Z-0.125000
G01 X56.677596 Y137.549134 Z-0.125000
G01 X53.052090 Y136.861714 Z-0.125000
G01 X52.663024 Y136.631104 Z-0.125000
G01 X52.991846 Y135.667654 Z-0.125000
G01 X54.589353 Y133.149854 Z-0.125000
G01 X55.768448 Y131.817114 Z-0.125000
G01 X57.047389 Y130.784904 Z-0.125000
G01 X60.072923 Y129.099224 Z-0.125000
G01 X67.744936 Y125.909944 Z-0.125000
G01 X71.111603 Y124.288324 Z-0.125000
G01 X74.138463 Y122.299534 Z-0.125000
G01 X76.093743 Y120.253434 Z-0.125000
G01 X77.033106 Y118.417464 Z-0.125000
G01 X77.387875 Y116.286984 Z-0.125000
G01 X77.222500 Y114.263384 Z-0.125000
G01 X76.232302 Y109.729534 Z-0.125000
G01 X75.939600 Y107.640234 Z-0.125000
G01 X75.945800 Y105.445454 Z-0.125000
G01 X76.301004 Y103.403524 Z-0.125000
G01 X77.168829 Y101.013424 Z-0.125000
G01 X78.571968 Y98.551494 Z-0.125000
G01 X80.509260 Y96.063234 Z-0.125000
G01 X82.940003 Y93.610364 Z-0.125000
G01 X85.792101 Y91.264394 Z-0.125000
G01 X89.342110 Y88.870624 Z-0.125000
G01 X93.160035 Y86.778254 Z-0.125000
G01 X97.119669 Y85.025344 Z-0.125000
G01 X101.537603 Y83.464524 Z-0.125000
G01 X106.010423 Y82.292324 Z-0.125000
G01 X110.101133 Y81.631344 Z-0.125000
G01 X113.753723 Y81.436334 Z-0.125000
G01 X116.144433 Y81.547414 Z-0.125000
G01 X118.478433 Y81.868504 Z-0.125000
G01 X122.552363 Y83.032414 Z-0.125000
G01 X126.285503 Y84.947834 Z-0.125000
G01 X128.156733 Y86.293844 Z-0.125000
G01 X129.906683 Y87.832684 Z-0.125000
G01 X132.309013 Y90.453414 Z-0.125000
G01 X134.694783 Y93.703764 Z-0.125000
G01 X136.843833 Y97.170814 Z-0.125000
G01 X142.558033 Y107.161974 Z-0.125000
G01 X144.418693 Y109.956834 Z-0.125000
G01 X146.404353 Y112.542304 Z-0.125000
G01 X148.533293 Y114.924504 Z-0.125000
G01 X150.800793 Y117.133674 Z-0.125000
G01 X161.185373 Y126.052484 Z-0.125000
G01 X163.575193 Y128.532134 Z-0.125000
G01 X165.498903 Y130.907544 Z-0.125000
G01 X167.711343 Y134.271664 Z-0.125000
G01 X169.554513 Y137.779664 Z-0.125000
G01 X170.648663 Y140.731364 Z-0.125000
G01 X171.158713 Y143.645754 Z-0.125000
G01 X171.013023 Y146.191514 Z-0.125000
G01 X170.237313 Y148.626094 Z-0.125000
G01 X168.819383 Y150.918924 Z-0.125000
G01 X166.790073 Y153.049504 Z-0.125000
G01 X164.222033 Y155.011104 Z-0.125000
G01 X160.869923 Y157.004724 Z-0.125000
G01 X147.750083 Y163.134274 Z-0.125000
G01 X142.503153 Y166.024874 Z-0.125000
G01 X138.233643 Y169.179594 Z-0.125000
G01 X131.714803 Y175.296654 Z-0.125000
G01 X129.053873 Y177.112774 Z-0.125000
G01 X127.015783 Y177.979544 Z-0.125000
G01 X124.695003 Y178.509174 Z-0.125000
G01 X122.058433 Y178.667094 Z-0.125000
G01 X119.104603 Y178.440244 Z-0.125000
G01 X113.733873 Y177.292194 Z-0.125000
G01 X107.999813 Y175.363214 Z-0.125000
G01 X102.207213 Y172.775734 Z-0.125000
G01 X96.799508 Y169.732754 Z-0.125000
G01 X90.996150 Y165.819814 Z-0.125000
G01 X84.635097 Y160.812324 Z-0.125000
G01 X78.890574 Y155.700784 Z-0.125000
G01 X68.423537 Y145.689674 Z-0.125000
G01 X63.896655 Y141.933934 Z-0.125000
G01 X60.883949 Y139.967674 Z-0.125000
G01 X58.102560 Y138.593714 Z-0.125000
G01 X55.488474 Y137.692564 Z-0.125000
G01 X52.005030 Y137.013684 Z-0.125000
G01 X51.578060 Y136.793384 Z-0.125000
G01 X51.855114 Y135.950554 Z-0.125000
G01 X53.617623 Y133.264474 Z-0.125000
G01 X54.831326 Y131.920664 Z-0.125000
G01 X56.144648 Y130.881064 Z-0.125000
G01 X59.254341 Y129.181784 Z-0.125000
G01 X67.154626 Y125.932374 Z-0.125000
G01 X70.623419 Y124.259784 Z-0.125000
G01 X73.739888 Y122.200424 Z-0.125000
G01 X75.748241 Y120.080974 Z-0.125000
G01 X76.706919 Y118.183204 Z-0.125000
G01 X77.057833 Y115.988854 Z-0.125000
G01 X76.870906 Y113.913814 Z-0.125000
G01 X75.809148 Y109.293824 Z-0.125000
G01 X75.488843 Y107.173764 Z-0.125000
G01 X75.478483 Y104.949094 Z-0.125000
G01 X75.827864 Y102.879384 Z-0.125000
G01 X76.702859 Y100.455234 Z-0.125000
G01 X78.128214 Y97.955454 Z-0.125000
G01 X80.101710 Y95.425524 Z-0.125000
G01 X82.580512 Y92.928174 Z-0.125000
G01 X85.489371 Y90.536874 Z-0.125000
G01 X89.108411 Y88.094424 Z-0.125000
G01 X92.997729 Y85.957914 Z-0.125000
G01 X97.028155 Y84.166684 Z-0.125000
G01 X101.523623 Y82.568784 Z-0.125000
G01 X106.076623 Y81.364134 Z-0.125000
G01 X110.243143 Y80.680274 Z-0.125000
G01 X113.964783 Y80.473244 Z-0.125000
G01 X116.400773 Y80.582244 Z-0.125000
G01 X118.778523 Y80.906674 Z-0.125000
G01 X122.925773 Y82.092464 Z-0.125000
G01 X124.698513 Y82.888294 Z-0.125000
G01 X126.719383 Y84.050374 Z-0.125000
G01 X128.616823 Y85.427634 Z-0.125000
G01 X130.387663 Y87.002574 Z-0.125000
G01 X132.811263 Y89.684594 Z-0.125000
G01 X135.207063 Y93.008914 Z-0.125000
G01 X137.353763 Y96.550474 Z-0.125000
G01 X143.022623 Y106.713474 Z-0.125000
G01 X144.868193 Y109.539644 Z-0.125000
G01 X146.842563 Y112.145524 Z-0.125000
G01 X148.965703 Y114.538634 Z-0.125000
G01 X151.233743 Y116.751844 Z-0.125000
G01 X161.685593 Y125.685424 Z-0.125000
G01 X164.100313 Y128.185784 Z-0.125000
G01 X166.045363 Y130.588544 Z-0.125000
G01 X168.284243 Y133.999734 Z-0.125000
G01 X170.287293 Y137.861834 Z-0.125000
G01 X171.346723 Y140.863204 Z-0.125000
G01 X171.782653 Y143.533704 Z-0.125000
G01 X171.629913 Y146.132934 Z-0.125000
G01 X170.831953 Y148.622984 Z-0.125000
G01 X169.375343 Y150.971534 Z-0.125000
G01 X167.291433 Y153.156234 Z-0.125000
G01 X164.654863 Y155.168934 Z-0.125000
G01 X161.214953 Y157.214864 Z-0.125000
G01 X147.797923 Y163.507214 Z-0.125000
G01 X142.479933 Y166.483614 Z-0.125000
G01 X138.198653 Y169.743184 Z-0.125000
G01 X131.562613 Y176.270254 Z-0.125000
G01 X128.904013 Y178.117314 Z-0.125000
G01 X126.845473 Y178.984244 Z-0.125000
G01 X124.486243 Y179.497424 Z-0.125000
G01 X121.794833 Y179.623424 Z-0.125000
G01 X119.168253 Y179.407544 Z-0.125000
G01 X113.723373 Y178.243434 Z-0.125000
G01 X107.891503 Y176.279764 Z-0.125000
G01 X101.991213 Y173.647464 Z-0.125000
G01 X96.477899 Y170.550534 Z-0.125000
G01 X90.561597 Y166.567734 Z-0.125000
G01 X84.085569 Y161.473414 Z-0.125000
G01 X78.252701 Y156.277464 Z-0.125000
G01 X67.667269 Y146.104144 Z-0.125000
G01 X63.082112 Y142.273514 Z-0.125000
G01 X60.014841 Y140.255174 Z-0.125000
G01 X57.170017 Y138.831974 Z-0.125000
G01 X54.487564 Y137.884864 Z-0.125000
G01 X50.920167 Y137.151014 Z-0.125000
G01 X50.497591 Y136.925434 Z-0.125000
G01 X50.815927 Y136.080094 Z-0.125000
G01 X52.769093 Y133.238674 Z-0.125000
G01 X53.909476 Y132.019064 Z-0.125000
G01 X55.256620 Y130.971894 Z-0.125000
G01 X58.449622 Y129.258894 Z-0.125000
G01 X66.265395 Y126.081144 Z-0.125000
G01 X69.868042 Y124.374074 Z-0.125000
G01 X73.140499 Y122.262624 Z-0.125000
G01 X75.280178 Y120.083964 Z-0.125000
G01 X76.392605 Y117.932534 Z-0.125000
G01 X76.739022 Y115.673154 Z-0.125000
G01 X76.529568 Y113.546234 Z-0.125000
G01 X75.394677 Y108.841874 Z-0.125000
G01 X75.046208 Y106.692644 Z-0.125000
G01 X75.015948 Y104.439834 Z-0.125000
G01 X75.359153 Y102.344194 Z-0.125000
G01 X76.240946 Y99.888004 Z-0.125000
G01 X77.688226 Y97.352164 Z-0.125000
G01 X79.697678 Y94.782264 Z-0.125000
G01 X82.224206 Y92.241874 Z-0.125000
G01 X85.189434 Y89.806384 Z-0.125000
G01 X88.877007 Y87.316264 Z-0.125000
G01 X92.836993 Y85.136484 Z-0.125000
G01 X96.937506 Y83.307644 Z-0.125000
G01 X101.509673 Y81.673284 Z-0.125000
G01 X106.142333 Y80.436504 Z-0.125000
G01 X110.384423 Y79.730004 Z-0.125000
G01 X114.175243 Y79.511224 Z-0.125000
G01 X116.656703 Y79.618374 Z-0.125000
G01 X119.078493 Y79.946484 Z-0.125000
G01 X121.421053 Y80.506584 Z-0.125000
G01 X123.299673 Y81.154704 Z-0.125000
G01 X125.102053 Y81.967664 Z-0.125000
G01 X127.154323 Y83.155984 Z-0.125000
G01 X130.580693 Y85.894764 Z-0.125000
G01 X133.057423 Y88.598714 Z-0.125000
G01 X135.493533 Y91.967054 Z-0.125000
G01 X137.864883 Y95.935934 Z-0.125000
G01 X143.485443 Y106.269904 Z-0.125000
G01 X145.314613 Y109.126554 Z-0.125000
G01 X147.276153 Y111.751604 Z-0.125000
G01 X149.391873 Y114.154334 Z-0.125000
G01 X151.658943 Y116.370174 Z-0.125000
G01 X162.427013 Y125.557504 Z-0.125000
G01 X164.841513 Y128.096194 Z-0.125000
G01 X166.781563 Y130.542834 Z-0.125000
G01 X169.186063 Y134.316324 Z-0.125000
G01 X171.005273 Y137.946954 Z-0.125000
G01 X172.026893 Y140.998244 Z-0.125000
G01 X172.406053 Y143.713464 Z-0.125000
G01 X172.175313 Y146.356494 Z-0.125000
G01 X171.280423 Y148.888394 Z-0.125000
G01 X169.918403 Y151.018474 Z-0.125000
G01 X167.779983 Y153.257964 Z-0.125000
G01 X165.074923 Y155.322254 Z-0.125000
G01 X161.547023 Y157.420874 Z-0.125000
G01 X147.832253 Y163.874914 Z-0.125000
G01 X142.444303 Y166.936264 Z-0.125000
G01 X138.633133 Y169.865514 Z-0.125000
G01 X132.019023 Y176.694504 Z-0.125000
G01 X130.576633 Y177.940104 Z-0.125000
G01 X128.996623 Y178.991494 Z-0.125000
G01 X126.952223 Y179.898574 Z-0.125000
G01 X124.594703 Y180.440584 Z-0.125000
G01 X122.247683 Y180.587724 Z-0.125000
G01 X119.240073 Y180.371074 Z-0.125000
G01 X113.722823 Y179.191174 Z-0.125000
G01 X107.335513 Y177.013154 Z-0.125000
G01 X101.321103 Y174.279094 Z-0.125000
G01 X95.700882 Y171.076394 Z-0.125000
G01 X89.685998 Y166.982724 Z-0.125000
G01 X83.133520 Y161.782734 Z-0.125000
G01 X77.265463 Y156.514524 Z-0.125000
G01 X66.663929 Y146.280564 Z-0.125000
G01 X62.045697 Y142.442704 Z-0.125000
G01 X59.169891 Y140.552664 Z-0.125000
G01 X56.260265 Y139.078134 Z-0.125000
G01 X53.507227 Y138.082064 Z-0.125000
G01 X49.851506 Y137.286854 Z-0.125000
G01 X49.432328 Y137.054314 Z-0.125000
G01 X49.745421 Y136.275774 Z-0.125000
G01 X51.830100 Y133.342004 Z-0.125000
G01 X52.852006 Y132.247624 Z-0.125000
G01 X54.188518 Y131.186574 Z-0.125000
G01 X57.388089 Y129.450444 Z-0.125000
G01 X65.689729 Y126.092024 Z-0.125000
G01 X69.394917 Y124.331384 Z-0.125000
G01 X72.758434 Y122.145204 Z-0.125000
G01 X73.977546 Y121.042554 Z-0.125000
G01 X74.953010 Y119.888684 Z-0.125000
G01 X76.086865 Y117.665484 Z-0.125000
G01 X76.428185 Y115.339874 Z-0.125000
G01 X76.195603 Y113.160754 Z-0.125000
G01 X74.986065 Y108.373814 Z-0.125000
G01 X74.608935 Y106.197104 Z-0.125000
G01 X74.559195 Y103.918154 Z-0.125000
G01 X74.895872 Y101.798314 Z-0.125000
G01 X75.784193 Y99.312194 Z-0.125000
G01 X77.253067 Y96.742314 Z-0.125000
G01 X79.298184 Y94.134094 Z-0.125000
G01 X81.872066 Y91.552124 Z-0.125000
G01 X84.893166 Y89.073694 Z-0.125000
G01 X88.648733 Y86.537074 Z-0.125000
G01 X92.678641 Y84.314874 Z-0.125000
G01 X96.848392 Y82.449184 Z-0.125000
G01 X101.496463 Y80.778894 Z-0.125000
G01 X106.208063 Y79.510374 Z-0.125000
G01 X110.525653 Y78.781564 Z-0.125000
G01 X114.385693 Y78.551264 Z-0.125000
G01 X116.912863 Y78.656744 Z-0.125000
G01 X119.378903 Y78.988804 Z-0.125000
G01 X121.763413 Y79.558934 Z-0.125000
G01 X123.674673 Y80.220204 Z-0.125000
G01 X125.506913 Y81.050684 Z-0.125000
G01 X127.590913 Y82.265594 Z-0.125000
G01 X129.225963 Y83.451524 Z-0.125000
G01 X131.062233 Y85.067184 Z-0.125000
G01 X133.561983 Y87.833054 Z-0.125000
G01 X136.009393 Y91.276314 Z-0.125000
G01 X138.378003 Y95.328064 Z-0.125000
G01 X143.947453 Y105.832014 Z-0.125000
G01 X145.758803 Y108.718114 Z-0.125000
G01 X147.706083 Y111.361174 Z-0.125000
G01 X149.812813 Y113.772204 Z-0.125000
G01 X152.077253 Y115.989314 Z-0.125000
G01 X162.904093 Y125.182854 Z-0.125000
G01 X165.342233 Y127.741884 Z-0.125000
G01 X167.302673 Y130.215934 Z-0.125000
G01 X169.735263 Y134.040634 Z-0.125000
G01 X171.580793 Y137.725604 Z-0.125000
G01 X172.618673 Y140.827954 Z-0.125000
G01 X173.002893 Y143.593764 Z-0.125000
G01 X172.764363 Y146.291234 Z-0.125000
G01 X171.846223 Y148.879794 Z-0.125000
G01 X170.449613 Y151.060484 Z-0.125000
G01 X168.256963 Y153.355244 Z-0.125000
G01 X165.483423 Y155.471664 Z-0.125000
G01 X162.248913 Y157.416714 Z-0.125000
G01 X158.297923 Y159.409934 Z-0.125000
G01 X147.854403 Y164.237784 Z-0.125000
G01 X142.397733 Y167.383144 Z-0.125000
G01 X138.577593 Y170.402154 Z-0.125000
G01 X136.543773 Y172.441234 Z-0.125000
G01 X131.869333 Y177.666504 Z-0.125000
G01 X130.437373 Y178.935254 Z-0.125000
G01 X128.854103 Y179.997384 Z-0.125000
G01 X126.788223 Y180.900624 Z-0.125000
G01 X124.709443 Y181.378804 Z-0.125000
G01 X122.353513 Y181.541074 Z-0.125000
G01 X119.321163 Y181.329754 Z-0.125000
G01 X113.733353 Y180.134434 Z-0.125000
G01 X107.243133 Y177.919564 Z-0.125000
G01 X101.122343 Y175.141144 Z-0.125000
G01 X95.397878 Y171.885364 Z-0.125000
G01 X89.272557 Y167.724154 Z-0.125000
G01 X82.609726 Y162.441814 Z-0.125000
G01 X76.659624 Y157.095414 Z-0.125000
G01 X65.953186 Y146.711594 Z-0.125000
G01 X61.278378 Y142.800144 Z-0.125000
G01 X58.351095 Y140.860104 Z-0.125000
G01 X55.375174 Y139.332124 Z-0.125000
G01 X52.733443 Y138.340554 Z-0.125000
G01 X48.800771 Y137.420754 Z-0.125000
G01 X48.383996 Y137.179594 Z-0.125000
G01 X48.687826 Y136.464174 Z-0.125000
G01 X50.906028 Y133.439884 Z-0.125000
G01 X51.953631 Y132.336444 Z-0.125000
G01 X53.321622 Y131.267684 Z-0.125000
G01 X56.600441 Y129.517674 Z-0.125000
G01 X65.125524 Y126.094994 Z-0.125000
G01 X68.932735 Y124.278744 Z-0.125000
G01 X72.386959 Y122.015264 Z-0.125000
G01 X73.637219 Y120.873014 Z-0.125000
G01 X74.635852 Y119.678464 Z-0.125000
G01 X75.790617 Y117.381574 Z-0.125000
G01 X76.126237 Y114.988564 Z-0.125000
G01 X75.822677 Y112.531234 Z-0.125000
G01 X74.584437 Y107.889414 Z-0.125000
G01 X74.178066 Y105.686904 Z-0.125000
G01 X74.108636 Y103.383754 Z-0.125000
G01 X74.438454 Y101.241714 Z-0.125000
G01 X75.332971 Y98.727704 Z-0.125000
G01 X76.823129 Y96.125784 Z-0.125000
G01 X78.903497 Y93.481044 Z-0.125000
G01 X81.524256 Y90.859104 Z-0.125000
G01 X84.600853 Y88.339004 Z-0.125000
G01 X88.423710 Y85.756994 Z-0.125000
G01 X92.522793 Y83.493384 Z-0.125000
G01 X96.760933 Y81.591514 Z-0.125000
G01 X101.483883 Y79.885974 Z-0.125000
G01 X106.273963 Y78.586144 Z-0.125000
G01 X110.666683 Y77.835324 Z-0.125000
G01 X114.596063 Y77.593914 Z-0.125000
G01 X117.169093 Y77.697944 Z-0.125000
G01 X119.679663 Y78.034234 Z-0.125000
G01 X122.106423 Y78.614744 Z-0.125000
G01 X124.050533 Y79.289484 Z-0.125000
G01 X125.912953 Y80.137854 Z-0.125000
G01 X128.029053 Y81.379714 Z-0.125000
G01 X129.687053 Y82.592594 Z-0.125000
G01 X131.545843 Y84.245034 Z-0.125000
G01 X134.330333 Y87.409914 Z-0.125000
G01 X136.755793 Y90.959804 Z-0.125000
G01 X138.893133 Y94.727224 Z-0.125000
G01 X144.408903 Y105.399984 Z-0.125000
G01 X146.201173 Y108.314564 Z-0.125000
G01 X148.132763 Y110.974494 Z-0.125000
G01 X150.228923 Y113.392484 Z-0.125000
G01 X152.749303 Y115.845924 Z-0.125000
G01 X160.701623 Y122.412644 Z-0.125000
G01 X163.369013 Y124.804174 Z-0.125000
G01 X165.830053 Y127.382844 Z-0.125000
