%
(Header)
(Generated by gcodetools from Inkscape.)
(Using default header. To add your own header create file "header" in the output dir.)
M3
(Header end.)
G21 (All units in mm)

(Start cutting path id: polyline159251)
(Change tool to Default tool)

G00 Z5.000000
G00 X63.889641 Y252.287624

G01 Z-0.125000 F400.0(Penetrate)
G01 X63.857731 Y249.091140 Z-0.125000 F800.000000
G01 X63.601429 Y245.894708 Z-0.125000
G01 X63.246623 Y243.763728 Z-0.125000
G01 X62.094177 Y238.436290 Z-0.125000
G01 X61.819937 Y236.305335 Z-0.125000
G01 X61.777017 Y235.239858 Z-0.125000
G01 X61.806417 Y234.174355 Z-0.125000
G01 X62.080976 Y232.043401 Z-0.125000
G01 X62.885150 Y228.846943 Z-0.125000
G01 X62.843530 Y227.781440 Z-0.125000
G01 X62.313940 Y225.650485 Z-0.125000
G01 X61.936274 Y223.519531 Z-0.125000
G01 X61.828853 Y222.454028 Z-0.125000
G01 X61.788023 Y220.323047 Z-0.125000
G01 X61.948995 Y218.192093 Z-0.125000
G01 X62.983278 Y210.733673 Z-0.125000
G01 X63.138562 Y208.602723 Z-0.125000
G01 X63.180102 Y206.471713 Z-0.125000
G01 X63.106022 Y204.340763 Z-0.125000
G01 X62.920179 Y202.209803 Z-0.125000
G01 X61.886822 Y194.751384 Z-0.125000
G01 X61.776835 Y192.620434 Z-0.125000
G01 X61.800435 Y191.554954 Z-0.125000
G01 X61.882295 Y190.489454 Z-0.125000
G01 X62.215220 Y188.358494 Z-0.125000
G01 X63.529961 Y183.031064 Z-0.125000
G01 X63.861510 Y180.900104 Z-0.125000
G01 X63.861775 Y179.834604 Z-0.125000
G01 X63.641880 Y177.703644 Z-0.125000
G01 X62.624848 Y171.310734 Z-0.125000
G01 X62.166616 Y167.048794 Z-0.125000
G01 X61.972835 Y162.786814 Z-0.125000
G01 X61.974735 Y157.459394 Z-0.125000
G01 X62.101815 Y154.262944 Z-0.125000
G01 X62.368488 Y151.066484 Z-0.125000
G01 X62.796743 Y147.870024 Z-0.125000
G01 X63.653755 Y142.542614 Z-0.125000
G01 X63.904024 Y139.346154 Z-0.125000
G01 X63.787263 Y137.215174 Z-0.125000
G01 X63.370571 Y135.084224 Z-0.125000
G01 X62.641406 Y132.953244 Z-0.125000
G01 X61.225965 Y129.756784 Z-0.125000
G01 X62.525227 Y126.560324 Z-0.125000
G01 X63.164461 Y124.429374 Z-0.125000
G01 X63.405099 Y123.363894 Z-0.125000
G01 X63.733262 Y121.232914 Z-0.125000
G01 X63.903865 Y118.036454 Z-0.125000
G01 X63.824965 Y114.839974 Z-0.125000
G01 X63.447986 Y107.381584 Z-0.125000
G01 X63.414416 Y102.054164 Z-0.125000
G01 X62.753063 Y97.792234 Z-0.125000
G01 X62.374868 Y94.595774 Z-0.125000
G01 X62.148067 Y91.399314 Z-0.125000
G01 X62.040831 Y87.137384 Z-0.125000
G01 X62.112721 Y82.875444 Z-0.125000
G01 X62.304014 Y79.678964 Z-0.125000
G01 X62.644348 Y76.482534 Z-0.125000
G01 X63.740728 Y69.024144 Z-0.125000
G01 X63.898605 Y65.827654 Z-0.125000
G01 X63.708105 Y63.696674 Z-0.125000
G01 X63.220028 Y61.565724 Z-0.125000
G01 X62.433951 Y59.434744 Z-0.125000
G01 X60.848065 Y56.238284 Z-0.125000
G01 X61.508227 Y51.976344 Z-0.125000
G01 X61.882904 Y47.714414 Z-0.125000
G01 X61.941404 Y43.452474 Z-0.125000
G01 X61.781146 Y40.256024 Z-0.125000
G00 Z5.000000

(End cutting path id: polyline159251)


(Start cutting path id: polyline159249)
(Change tool to Default tool)

G00 Z5.000000
G00 X62.101507 Y252.287624

G01 Z-0.125000 F400.0(Penetrate)
G01 X62.081027 Y249.091140 Z-0.125000 F800.000000
G01 X61.845284 Y245.894708 Z-0.125000
G01 X61.495187 Y243.763728 Z-0.125000
G01 X60.319326 Y238.436290 Z-0.125000
G01 X60.027490 Y236.305335 Z-0.125000
G01 X59.975820 Y235.239858 Z-0.125000
G01 X59.997090 Y234.174355 Z-0.125000
G01 X60.259027 Y232.043401 Z-0.125000
G01 X61.057407 Y228.846943 Z-0.125000
G01 X60.157295 Y224.585008 Z-0.125000
G01 X59.978542 Y222.454028 Z-0.125000
G01 X60.054402 Y220.323047 Z-0.125000
G01 X60.333934 Y218.192093 Z-0.125000
G01 X61.449761 Y211.799151 Z-0.125000
G01 X61.664100 Y209.668193 Z-0.125000
G01 X61.759880 Y207.537213 Z-0.125000
G01 X61.694820 Y204.340763 Z-0.125000
G01 X61.506728 Y202.209803 Z-0.125000
G01 X61.202087 Y200.078823 Z-0.125000
G01 X60.239400 Y194.751384 Z-0.125000
G01 X60.009133 Y192.620434 Z-0.125000
G01 X59.974233 Y191.554954 Z-0.125000
G01 X60.002513 Y190.489454 Z-0.125000
G01 X60.253364 Y188.358494 Z-0.125000
G01 X61.816708 Y181.965584 Z-0.125000
G01 X62.090472 Y179.834604 Z-0.125000
G01 X61.994592 Y176.638144 Z-0.125000
G01 X61.085642 Y169.179754 Z-0.125000
G01 X60.785129 Y165.983324 Z-0.125000
G01 X60.577299 Y160.655854 Z-0.125000
G01 X60.620289 Y157.459394 Z-0.125000
G01 X60.791686 Y154.262944 Z-0.125000
G01 X61.095746 Y151.066484 Z-0.125000
G01 X62.001917 Y143.608094 Z-0.125000
G01 X62.082797 Y140.411634 Z-0.125000
G01 X61.867955 Y138.280674 Z-0.125000
G01 X61.383265 Y136.149694 Z-0.125000
G01 X60.625499 Y134.018744 Z-0.125000
G01 X59.645456 Y131.887764 Z-0.125000
G01 X59.815001 Y130.822284 Z-0.125000
G01 X60.723924 Y128.691304 Z-0.125000
G01 X61.418111 Y126.560324 Z-0.125000
G01 X61.864145 Y124.429374 Z-0.125000
G01 X62.073325 Y122.298394 Z-0.125000
G01 X62.088435 Y120.167434 Z-0.125000
G01 X61.968235 Y118.036454 Z-0.125000
G01 X61.350512 Y111.643514 Z-0.125000
G01 X61.120880 Y108.447054 Z-0.125000
G01 X60.969988 Y100.988664 Z-0.125000
G01 X60.470243 Y97.792234 Z-0.125000
G01 X60.166925 Y94.595774 Z-0.125000
G01 X60.033231 Y91.399314 Z-0.125000
G01 X59.991741 Y86.071904 Z-0.125000
G01 X60.072831 Y80.744464 Z-0.125000
G01 X60.268861 Y77.548014 Z-0.125000
G01 X60.656131 Y74.351554 Z-0.125000
G01 X61.796697 Y67.958614 Z-0.125000
G01 X62.050168 Y65.827654 Z-0.125000
G01 X62.099778 Y64.762174 Z-0.125000
G01 X61.988786 Y62.631194 Z-0.125000
G01 X61.812203 Y61.565724 Z-0.125000
G01 X61.202259 Y59.434744 Z-0.125000
G01 X60.280503 Y57.303764 Z-0.125000
G01 X58.554335 Y54.107324 Z-0.125000
G01 X58.255436 Y53.041824 Z-0.125000
G01 X58.613284 Y49.845364 Z-0.125000
G01 X58.804446 Y46.648914 Z-0.125000
G01 X58.819526 Y43.452474 Z-0.125000
G01 X58.657945 Y40.256024 Z-0.125000
G00 Z5.000000

(End cutting path id: polyline159249)


(Start cutting path id: polyline159243)
(Change tool to Default tool)

G00 Z5.000000
G00 X58.362548 Y252.287624

G01 Z-0.125000 F400.0(Penetrate)
G01 X58.309948 Y249.091140 Z-0.125000 F800.000000
G01 X58.140350 Y246.960186 Z-0.125000
G01 X57.839942 Y244.829205 Z-0.125000
G01 X56.591744 Y238.436290 Z-0.125000
G01 X56.383675 Y236.305335 Z-0.125000
G01 X56.373095 Y235.239858 Z-0.125000
G01 X56.559997 Y233.108878 Z-0.125000
G01 X57.275456 Y229.912447 Z-0.125000
G01 X57.313216 Y228.846943 Z-0.125000
G01 X56.571563 Y225.650485 Z-0.125000
G01 X56.373575 Y223.519531 Z-0.125000
G01 X56.384215 Y222.454028 Z-0.125000
G01 X56.606016 Y220.323047 Z-0.125000
G01 X57.952507 Y213.930132 Z-0.125000
G01 X58.267890 Y211.799151 Z-0.125000
G01 X58.468920 Y208.602723 Z-0.125000
G01 X58.451800 Y204.340763 Z-0.125000
G01 X58.194334 Y201.144303 Z-0.125000
G01 X57.837940 Y199.013343 Z-0.125000
G01 X56.683828 Y193.685914 Z-0.125000
G01 X56.411042 Y191.554954 Z-0.125000
G01 X56.369262 Y190.489454 Z-0.125000
G01 X56.399982 Y189.423974 Z-0.125000
G01 X56.677212 Y187.293024 Z-0.125000
G01 X58.059210 Y181.965584 Z-0.125000
G01 X58.438093 Y179.834604 Z-0.125000
G01 X58.496883 Y178.769124 Z-0.125000
G01 X58.303896 Y176.638144 Z-0.125000
G01 X58.463122 Y174.507164 Z-0.125000
G01 X58.495582 Y172.376214 Z-0.125000
G01 X58.122388 Y160.655854 Z-0.125000
G01 X58.153868 Y157.459394 Z-0.125000
G01 X58.449540 Y150.001004 Z-0.125000
G01 X58.490970 Y146.804544 Z-0.125000
G01 X58.293855 Y143.608094 Z-0.125000
G01 X57.718545 Y140.411634 Z-0.125000
G01 X57.087646 Y138.280674 Z-0.125000
G01 X55.814656 Y135.084224 Z-0.125000
G01 X56.143904 Y134.018744 Z-0.125000
G01 X57.165619 Y131.887764 Z-0.125000
G01 X57.926534 Y129.756784 Z-0.125000
G01 X58.188048 Y128.691304 Z-0.125000
G01 X58.468612 Y126.560324 Z-0.125000
G01 X58.496812 Y125.494844 Z-0.125000
G01 X58.372087 Y123.363894 Z-0.125000
G01 X57.028798 Y114.839974 Z-0.125000
G01 X56.789218 Y112.709014 Z-0.125000
G01 X56.571492 Y109.512564 Z-0.125000
G01 X56.469416 Y105.250624 Z-0.125000
G01 X56.499336 Y99.923184 Z-0.125000
G01 X56.369584 Y96.726754 Z-0.125000
G01 X56.690789 Y89.268334 Z-0.125000
G01 X56.732909 Y86.071904 Z-0.125000
G01 X56.369028 Y76.482534 Z-0.125000
G01 X56.436208 Y74.351554 Z-0.125000
G01 X56.653246 Y72.220594 Z-0.125000
G01 X57.021970 Y70.089614 Z-0.125000
G01 X58.198995 Y64.762174 Z-0.125000
G01 X58.468949 Y62.631194 Z-0.125000
G01 X58.495509 Y61.565724 Z-0.125000
G01 X58.271434 Y59.434744 Z-0.125000
G01 X57.647097 Y57.303764 Z-0.125000
G01 X56.662714 Y55.172804 Z-0.125000
G01 X54.216536 Y50.910874 Z-0.125000
G01 X53.203367 Y48.779894 Z-0.125000
G01 X53.061232 Y47.714414 Z-0.125000
G01 X53.154552 Y43.452474 Z-0.125000
G01 X53.111242 Y40.256024 Z-0.125000
G00 Z5.000000

(End cutting path id: polyline159243)


(Start cutting path id: polyline159235)
(Change tool to Default tool)

G00 Z5.000000
G00 X52.940997 Y252.287624

G01 Z-0.125000 F400.0(Penetrate)
G01 X52.927187 Y250.156643 Z-0.125000 F800.000000
G01 X52.807516 Y248.025663 Z-0.125000
G01 X52.074752 Y241.632747 Z-0.125000
G01 X51.864038 Y238.436290 Z-0.125000
G01 X51.941458 Y236.305335 Z-0.125000
G01 X52.059198 Y235.239858 Z-0.125000
G01 X52.442156 Y233.108878 Z-0.125000
G01 X53.158436 Y229.912447 Z-0.125000
G01 X52.568203 Y227.781440 Z-0.125000
G01 X52.100288 Y225.650485 Z-0.125000
G01 X51.874889 Y223.519531 Z-0.125000
G01 X51.868689 Y222.454028 Z-0.125000
G01 X51.931239 Y221.388524 Z-0.125000
G01 X52.228711 Y219.257570 Z-0.125000
G01 X53.342897 Y213.930132 Z-0.125000
G01 X53.668097 Y211.799151 Z-0.125000
G01 X53.901248 Y208.602723 Z-0.125000
G01 X53.913978 Y205.406233 Z-0.125000
G01 X53.815208 Y203.275283 Z-0.125000
G01 X53.590339 Y201.144303 Z-0.125000
G01 X53.228362 Y199.013343 Z-0.125000
G01 X52.125314 Y193.685914 Z-0.125000
G01 X51.887851 Y191.554954 Z-0.125000
G01 X51.863431 Y190.489454 Z-0.125000
G01 X51.910051 Y189.423974 Z-0.125000
G01 X52.211544 Y187.293024 Z-0.125000
G01 X53.591108 Y181.965584 Z-0.125000
G01 X53.946047 Y179.834604 Z-0.125000
G01 X53.990307 Y178.769124 Z-0.125000
G01 X53.924217 Y177.703644 Z-0.125000
G01 X53.739062 Y176.638144 Z-0.125000
G01 X53.433257 Y175.572664 Z-0.125000
G01 X52.632019 Y173.441684 Z-0.125000
G01 X53.163911 Y170.245254 Z-0.125000
G01 X53.482734 Y167.048794 Z-0.125000
G01 X53.675800 Y162.786814 Z-0.125000
G01 X53.673700 Y157.459394 Z-0.125000
G01 X53.388427 Y152.131964 Z-0.125000
G01 X52.820155 Y147.870024 Z-0.125000
G01 X52.378539 Y145.739074 Z-0.125000
G01 X51.822623 Y143.608094 Z-0.125000
G01 X50.429512 Y139.346154 Z-0.125000
G01 X50.693169 Y138.280674 Z-0.125000
G01 X52.486145 Y135.084224 Z-0.125000
G01 X53.372102 Y132.953244 Z-0.125000
G01 X53.674415 Y131.887764 Z-0.125000
G01 X53.975775 Y129.756784 Z-0.125000
G01 X53.982675 Y128.691304 Z-0.125000
G01 X53.762568 Y126.560324 Z-0.125000
G01 X52.384380 Y120.167434 Z-0.125000
G01 X52.060054 Y118.036454 Z-0.125000
G01 X51.892626 Y115.905444 Z-0.125000
G01 X51.895926 Y112.709014 Z-0.125000
G01 X52.234090 Y105.250624 Z-0.125000
G01 X52.211680 Y102.054164 Z-0.125000
G01 X52.064784 Y98.857714 Z-0.125000
G01 X52.142594 Y97.792234 Z-0.125000
G01 X53.129807 Y91.399314 Z-0.125000
G01 X53.324646 Y89.268334 Z-0.125000
G01 X53.404606 Y87.137384 Z-0.125000
G01 X53.368416 Y85.006404 Z-0.125000
G01 X53.216281 Y82.875444 Z-0.125000
G01 X52.955455 Y80.744464 Z-0.125000
G01 X52.106486 Y75.417054 Z-0.125000
G01 X51.862831 Y72.220594 Z-0.125000
G01 X51.886831 Y71.155094 Z-0.125000
G01 X52.116410 Y69.024144 Z-0.125000
G01 X52.559455 Y66.893134 Z-0.125000
G01 X53.644723 Y62.631194 Z-0.125000
G01 X53.959524 Y60.500214 Z-0.125000
G01 X53.988254 Y59.434744 Z-0.125000
G01 X53.911654 Y58.369264 Z-0.125000
G01 X53.721709 Y57.303764 Z-0.125000
G01 X53.416936 Y56.238284 Z-0.125000
G01 X52.492349 Y54.107324 Z-0.125000
G01 X51.266323 Y51.976344 Z-0.125000
G01 X51.178033 Y50.910874 Z-0.125000
G01 X51.519451 Y47.714414 Z-0.125000
G01 X51.679550 Y44.517954 Z-0.125000
G01 X51.614380 Y40.256024 Z-0.125000
G00 Z5.000000

(End cutting path id: polyline159235)


(Start cutting path id: polyline159157)
(Change tool to Default tool)

G00 Z5.000000
G00 X51.789822 Y252.287624

G01 Z-0.125000 F400.0(Penetrate)
G01 X51.735022 Y249.091140 Z-0.125000 F800.000000
G01 X51.071024 Y241.632747 Z-0.125000
G01 X50.968022 Y238.436290 Z-0.125000
G01 X51.256603 Y235.239858 Z-0.125000
G01 X51.674036 Y233.108878 Z-0.125000
G01 X52.196006 Y230.977924 Z-0.125000
G01 X52.307581 Y229.912447 Z-0.125000
G01 X51.719465 Y227.781440 Z-0.125000
G01 X51.237870 Y225.650485 Z-0.125000
G01 X50.985431 Y223.519531 Z-0.125000
G01 X50.962331 Y222.454028 Z-0.125000
G01 X51.006831 Y221.388524 Z-0.125000
G01 X51.268557 Y219.257570 Z-0.125000
G01 X52.333955 Y213.930132 Z-0.125000
G01 X52.663996 Y211.799151 Z-0.125000
G01 X52.864418 Y209.668193 Z-0.125000
G01 X52.951708 Y206.471713 Z-0.125000
G01 X52.891488 Y204.340763 Z-0.125000
G01 X52.718847 Y202.209803 Z-0.125000
G01 X52.416084 Y200.078823 Z-0.125000
G01 X51.174898 Y193.685914 Z-0.125000
G01 X50.973682 Y191.554954 Z-0.125000
G01 X50.966782 Y190.489454 Z-0.125000
G01 X51.029272 Y189.423974 Z-0.125000
G01 X51.354472 Y187.293024 Z-0.125000
G01 X52.469055 Y183.031064 Z-0.125000
G01 X52.931785 Y180.900104 Z-0.125000
G01 X53.086646 Y178.769124 Z-0.125000
G01 X53.004886 Y177.703644 Z-0.125000
G01 X52.804517 Y176.638144 Z-0.125000
G01 X52.484900 Y175.572664 Z-0.125000
G01 X51.523325 Y173.441684 Z-0.125000
G01 X51.420719 Y172.376214 Z-0.125000
G01 X52.076621 Y168.114274 Z-0.125000
G01 X52.399175 Y163.852284 Z-0.125000
G01 X52.463205 Y158.524874 Z-0.125000
G01 X52.176370 Y153.197464 Z-0.125000
G01 X51.782644 Y150.001004 Z-0.125000
G01 X51.174764 Y146.804544 Z-0.125000
G01 X50.341511 Y143.608094 Z-0.125000
G01 X49.336148 Y140.411634 Z-0.125000
G01 X49.385418 Y139.346154 Z-0.125000
G01 X51.251022 Y136.149694 Z-0.125000
G01 X52.248792 Y134.018744 Z-0.125000
G01 X52.875828 Y131.887764 Z-0.125000
G01 X53.033070 Y130.822284 Z-0.125000
G01 X53.089030 Y129.756784 Z-0.125000
G01 X53.052520 Y128.691304 Z-0.125000
G01 X52.757165 Y126.560324 Z-0.125000
G01 X51.337094 Y120.167434 Z-0.125000
G01 X51.062350 Y118.036454 Z-0.125000
G01 X50.962470 Y115.905444 Z-0.125000
G01 X51.010730 Y113.774494 Z-0.125000
G01 X51.401678 Y108.447054 Z-0.125000
G01 X51.551671 Y105.250624 Z-0.125000
G01 X51.553571 Y103.119644 Z-0.125000
G01 X51.330421 Y98.857714 Z-0.125000
G01 X51.345821 Y97.792234 Z-0.125000
G01 X52.112874 Y93.530274 Z-0.125000
G01 X52.420294 Y91.399314 Z-0.125000
G01 X52.615583 Y89.268334 Z-0.125000
G01 X52.693453 Y87.137384 Z-0.125000
G01 X52.658393 Y85.006404 Z-0.125000
G01 X52.507793 Y82.875444 Z-0.125000
G01 X52.240325 Y80.744464 Z-0.125000
G01 X51.148972 Y74.351554 Z-0.125000
G01 X50.971463 Y72.220594 Z-0.125000
G01 X50.967063 Y71.155094 Z-0.125000
G01 X51.026333 Y70.089614 Z-0.125000
G01 X51.332614 Y67.958614 Z-0.125000
G01 X52.674951 Y62.631194 Z-0.125000
G01 X53.033991 Y60.500214 Z-0.125000
G01 X53.089231 Y59.434744 Z-0.125000
G01 X53.040101 Y58.369264 Z-0.125000
G01 X52.876985 Y57.303764 Z-0.125000
G01 X52.596844 Y56.238284 Z-0.125000
G01 X52.203885 Y55.172804 Z-0.125000
G01 X51.132772 Y53.041824 Z-0.125000
G01 X50.768203 Y51.976344 Z-0.125000
G01 X51.050619 Y49.845364 Z-0.125000
G01 X51.319912 Y46.648914 Z-0.125000
G01 X51.414392 Y43.452474 Z-0.125000
G01 X51.340282 Y40.256024 Z-0.125000
G00 Z5.000000

(End cutting path id: polyline159157)


(Start cutting path id: polyline159159)
(Change tool to Default tool)

G00 Z5.000000
G00 X50.646134 Y252.287624

G01 Z-0.125000 F400.0(Penetrate)
G01 X50.545566 Y248.025663 Z-0.125000 F800.000000
G01 X50.096647 Y241.632747 Z-0.125000
G01 X50.103547 Y238.436290 Z-0.125000
G01 X50.480076 Y235.239858 Z-0.125000
G01 X51.439587 Y230.977924 Z-0.125000
G01 X51.469007 Y229.912447 Z-0.125000
G01 X50.617022 Y226.715962 Z-0.125000
G01 X50.215173 Y224.585008 Z-0.125000
G01 X50.104524 Y223.519531 Z-0.125000
G01 X50.083224 Y221.388524 Z-0.125000
G01 X50.300262 Y219.257570 Z-0.125000
G01 X51.627782 Y211.799151 Z-0.125000
G01 X51.838655 Y209.668193 Z-0.125000
G01 X51.936185 Y206.471713 Z-0.125000
G01 X51.868315 Y204.340763 Z-0.125000
G01 X51.684350 Y202.209803 Z-0.125000
G01 X51.378545 Y200.078823 Z-0.125000
G01 X50.218876 Y193.685914 Z-0.125000
G01 X50.062746 Y191.554954 Z-0.125000
G01 X50.077216 Y190.489454 Z-0.125000
G01 X50.158836 Y189.423974 Z-0.125000
G01 X50.511737 Y187.293024 Z-0.125000
G01 X51.873151 Y181.965584 Z-0.125000
G01 X52.169590 Y179.834604 Z-0.125000
G01 X52.179290 Y178.769124 Z-0.125000
G01 X52.077770 Y177.703644 Z-0.125000
G01 X51.858430 Y176.638144 Z-0.125000
G01 X51.521695 Y175.572664 Z-0.125000
G01 X51.075528 Y174.507164 Z-0.125000
G01 X49.939910 Y172.376214 Z-0.125000
G01 X50.515352 Y169.179754 Z-0.125000
G01 X50.975251 Y164.917794 Z-0.125000
G01 X51.137308 Y160.655854 Z-0.125000
G01 X51.036608 Y156.393924 Z-0.125000
G01 X50.650290 Y152.131964 Z-0.125000
G01 X50.137818 Y148.935524 Z-0.125000
G01 X49.419924 Y145.739074 Z-0.125000
G01 X48.210540 Y141.477134 Z-0.125000
G01 X48.060257 Y140.411634 Z-0.125000
G01 X49.962003 Y137.215174 Z-0.125000
G01 X51.066903 Y135.084224 Z-0.125000
G01 X51.828268 Y132.953244 Z-0.125000
G01 X52.051603 Y131.887764 Z-0.125000
G01 X52.167702 Y130.822284 Z-0.125000
G01 X52.182362 Y129.756784 Z-0.125000
G01 X51.955137 Y127.625824 Z-0.125000
G01 X50.496860 Y121.232914 Z-0.125000
G01 X50.183302 Y119.101934 Z-0.125000
G01 X50.062229 Y116.970974 Z-0.125000
G01 X50.115729 Y114.839974 Z-0.125000
G01 X50.713925 Y108.447054 Z-0.125000
G01 X50.892572 Y105.250624 Z-0.125000
G01 X50.859292 Y102.054164 Z-0.125000
G01 X50.546661 Y97.792234 Z-0.125000
G01 X51.371393 Y93.530274 Z-0.125000
G01 X51.682623 Y91.399314 Z-0.125000
G01 X51.871800 Y89.268334 Z-0.125000
G01 X51.944350 Y87.137384 Z-0.125000
G01 X51.855080 Y83.940924 Z-0.125000
G01 X51.650636 Y81.809944 Z-0.125000
G01 X51.325490 Y79.678964 Z-0.125000
G01 X50.320020 Y74.351554 Z-0.125000
G01 X50.090177 Y72.220594 Z-0.125000
G01 X50.060197 Y71.155094 Z-0.125000
G01 X50.095997 Y70.089614 Z-0.125000
G01 X50.366242 Y67.958614 Z-0.125000
G01 X51.942339 Y61.565724 Z-0.125000
G01 X52.184379 Y59.434744 Z-0.125000
G01 X52.158719 Y58.369264 Z-0.125000
G01 X52.018807 Y57.303764 Z-0.125000
G01 X51.760309 Y56.238284 Z-0.125000
G01 X51.386136 Y55.172804 Z-0.125000
G01 X50.339920 Y53.041824 Z-0.125000
G01 X50.735472 Y49.845364 Z-0.125000
G01 X50.979683 Y46.648914 Z-0.125000
G01 X51.063663 Y43.452474 Z-0.125000
G01 X50.997863 Y40.256024 Z-0.125000
G00 Z5.000000

(End cutting path id: polyline159159)


(Start cutting path id: polyline159161)
(Change tool to Default tool)

G00 Z5.000000
G00 X49.526258 Y252.287624

G01 Z-0.125000 F400.0(Penetrate)
G01 X49.489688 Y249.091140 Z-0.125000 F800.000000
G01 X49.182533 Y242.698224 Z-0.125000
G01 X49.201613 Y239.501793 Z-0.125000
G01 X49.540465 Y236.305335 Z-0.125000
G01 X50.687592 Y230.977924 Z-0.125000
G01 X50.641502 Y229.912447 Z-0.125000
G01 X49.793512 Y226.715962 Z-0.125000
G01 X49.365919 Y224.585008 Z-0.125000
G01 X49.168355 Y222.454028 Z-0.125000
G01 X49.165055 Y221.388524 Z-0.125000
G01 X49.478163 Y218.192093 Z-0.125000
G01 X50.560732 Y211.799151 Z-0.125000
G01 X50.776262 Y209.668193 Z-0.125000
G01 X50.880217 Y206.471713 Z-0.125000
G01 X50.807507 Y204.340763 Z-0.125000
G01 X50.617642 Y202.209803 Z-0.125000
G01 X49.389737 Y194.751384 Z-0.125000
G01 X49.182622 Y192.620434 Z-0.125000
G01 X49.159232 Y191.554954 Z-0.125000
G01 X49.198232 Y190.489454 Z-0.125000
G01 X49.466017 Y188.358494 Z-0.125000
G01 X51.024174 Y181.965584 Z-0.125000
G01 X51.279603 Y179.834604 Z-0.125000
G01 X51.265763 Y178.769124 Z-0.125000
G01 X51.140510 Y177.703644 Z-0.125000
G01 X50.898628 Y176.638144 Z-0.125000
G01 X50.541811 Y175.572664 Z-0.125000
G01 X49.692710 Y173.441684 Z-0.125000
G01 X48.726425 Y171.310734 Z-0.125000
G01 X49.306550 Y167.048794 Z-0.125000
G01 X49.589628 Y163.852284 Z-0.125000
G01 X49.697657 Y159.590374 Z-0.125000
G01 X49.584178 Y156.393924 Z-0.125000
G01 X49.158834 Y152.131964 Z-0.125000
G01 X48.619401 Y148.935524 Z-0.125000
G01 X47.899867 Y145.739074 Z-0.125000
G01 X46.768720 Y141.477134 Z-0.125000
G01 X49.248421 Y137.215174 Z-0.125000
G01 X50.318952 Y135.084224 Z-0.125000
G01 X50.721860 Y134.018744 Z-0.125000
G01 X51.018987 Y132.953244 Z-0.125000
G01 X51.205597 Y131.887764 Z-0.125000
G01 X51.283547 Y130.822284 Z-0.125000
G01 X51.149906 Y128.691304 Z-0.125000
G01 X50.734590 Y126.560324 Z-0.125000
G01 X49.927770 Y123.363894 Z-0.125000
G01 X49.480783 Y121.232914 Z-0.125000
G01 X49.217628 Y119.101934 Z-0.125000
G01 X49.165528 Y118.036454 Z-0.125000
G01 X49.290438 Y114.839974 Z-0.125000
G01 X50.039632 Y108.447054 Z-0.125000
G01 X50.240398 Y105.250624 Z-0.125000
G01 X50.203458 Y102.054164 Z-0.125000
G01 X49.813357 Y97.792234 Z-0.125000
G01 X50.604329 Y93.530274 Z-0.125000
G01 X50.912753 Y91.399314 Z-0.125000
G01 X51.090421 Y89.268334 Z-0.125000
G01 X51.154711 Y87.137384 Z-0.125000
G01 X51.075201 Y83.940924 Z-0.125000
G01 X50.881764 Y81.809944 Z-0.125000
G01 X50.557755 Y79.678964 Z-0.125000
G01 X49.487330 Y74.351554 Z-0.125000
G01 X49.213486 Y72.220594 Z-0.125000
G01 X49.161526 Y71.155094 Z-0.125000
G01 X49.176816 Y70.089614 Z-0.125000
G01 X49.414650 Y67.958614 Z-0.125000
G01 X49.886587 Y65.827654 Z-0.125000
G01 X50.999981 Y61.565724 Z-0.125000
G01 X51.276206 Y59.434744 Z-0.125000
G01 X51.269906 Y58.369264 Z-0.125000
G01 X51.149362 Y57.303764 Z-0.125000
G01 X50.909120 Y56.238284 Z-0.125000
G01 X50.550954 Y55.172804 Z-0.125000
G01 X50.084467 Y54.107324 Z-0.125000
G01 X49.961356 Y53.041824 Z-0.125000
G01 X50.340610 Y49.845364 Z-0.125000
G01 X50.547673 Y46.648914 Z-0.125000
G01 X50.616943 Y43.452474 Z-0.125000
G01 X50.562753 Y40.256024 Z-0.125000
G00 Z5.000000

(End cutting path id: polyline159161)


(Start cutting path id: polyline159163)
(Change tool to Default tool)

G00 Z5.000000
G00 X48.446150 Y252.287624

G01 Z-0.125000 F400.0(Penetrate)
G01 X48.257581 Y242.698224 Z-0.125000 F800.000000
G01 X48.380480 Y239.501793 Z-0.125000
G01 X48.799713 Y236.305335 Z-0.125000
G01 X49.934537 Y230.977924 Z-0.125000
G01 X49.823359 Y229.912447 Z-0.125000
G01 X48.738197 Y225.650485 Z-0.125000
G01 X48.381512 Y223.519531 Z-0.125000
G01 X48.289202 Y222.454028 Z-0.125000
G01 X48.257582 Y221.388524 Z-0.125000
G01 X48.361722 Y219.257570 Z-0.125000
G01 X49.587405 Y210.733673 Z-0.125000
G01 X49.744858 Y208.602723 Z-0.125000
G01 X49.786558 Y206.471713 Z-0.125000
G01 X49.712078 Y204.340763 Z-0.125000
G01 X49.522769 Y202.209803 Z-0.125000
G01 X48.409508 Y194.751384 Z-0.125000
G01 X48.262215 Y192.620434 Z-0.125000
G01 X48.268015 Y191.554954 Z-0.125000
G01 X48.333795 Y190.489454 Z-0.125000
G01 X48.642828 Y188.358494 Z-0.125000
G01 X49.965374 Y183.031064 Z-0.125000
G01 X50.324970 Y180.900104 Z-0.125000
G01 X50.384920 Y179.834604 Z-0.125000
G01 X50.236277 Y177.703644 Z-0.125000
G01 X49.830459 Y175.572664 Z-0.125000
G01 X49.149078 Y173.441684 Z-0.125000
G01 X47.700563 Y170.245254 Z-0.125000
G01 X47.471328 Y169.179754 Z-0.125000
G01 X47.889688 Y165.983324 Z-0.125000
G01 X48.125934 Y162.786814 Z-0.125000
G01 X48.182684 Y159.590374 Z-0.125000
G01 X48.061532 Y156.393924 Z-0.125000
G01 X47.759563 Y153.197434 Z-0.125000
G01 X47.276566 Y150.001004 Z-0.125000
G01 X46.631406 Y146.804544 Z-0.125000
G01 X45.629958 Y142.542614 Z-0.125000
G01 X45.973466 Y141.477134 Z-0.125000
G01 X48.512620 Y137.215174 Z-0.125000
G01 X49.547749 Y135.084224 Z-0.125000
G01 X49.923563 Y134.018744 Z-0.125000
G01 X50.189258 Y132.953244 Z-0.125000
G01 X50.341896 Y131.887764 Z-0.125000
G01 X50.385186 Y130.822284 Z-0.125000
G01 X50.187701 Y128.691304 Z-0.125000
G01 X48.674178 Y122.298394 Z-0.125000
G01 X48.354006 Y120.167434 Z-0.125000
G01 X48.258126 Y118.036454 Z-0.125000
G01 X48.486514 Y114.839974 Z-0.125000
G01 X49.242402 Y109.512564 Z-0.125000
G01 X49.535746 Y106.316104 Z-0.125000
G01 X49.595756 Y104.185124 Z-0.125000
G01 X49.540986 Y102.054164 Z-0.125000
G01 X49.114133 Y97.792234 Z-0.125000
G01 X49.150543 Y96.726754 Z-0.125000
G01 X49.977075 Y92.464794 Z-0.125000
G01 X50.207712 Y90.333814 Z-0.125000
G01 X50.310529 Y88.202864 Z-0.125000
G01 X50.303429 Y85.006404 Z-0.125000
G01 X50.080624 Y81.809944 Z-0.125000
G01 X49.762304 Y79.678964 Z-0.125000
G01 X48.645736 Y74.351554 Z-0.125000
G01 X48.336967 Y72.220594 Z-0.125000
G01 X48.267167 Y71.155094 Z-0.125000
G01 X48.265567 Y70.089614 Z-0.125000
G01 X48.476228 Y67.958614 Z-0.125000
G01 X48.933931 Y65.827654 Z-0.125000
G01 X50.064416 Y61.565724 Z-0.125000
G01 X50.367020 Y59.434744 Z-0.125000
G01 X50.375920 Y58.369264 Z-0.125000
G01 X50.270748 Y57.303764 Z-0.125000
G01 X50.045058 Y56.238284 Z-0.125000
G01 X49.385029 Y54.107324 Z-0.125000
G01 X49.761848 Y50.910874 Z-0.125000
G01 X49.967059 Y47.714414 Z-0.125000
G01 X50.051119 Y44.517954 Z-0.125000
G01 X50.017859 Y40.256024 Z-0.125000
G00 Z5.000000

(End cutting path id: polyline159163)


(Start cutting path id: polyline159165)
(Change tool to Default tool)

G00 Z5.000000
G00 X47.419990 Y252.287624

G01 Z-0.125000 F400.0(Penetrate)
G01 X47.362390 Y243.763728 Z-0.125000 F800.000000
G01 X47.502328 Y240.567270 Z-0.125000
G01 X47.896663 Y237.370813 Z-0.125000
G01 X49.173489 Y230.977924 Z-0.125000
G01 X49.012252 Y229.912447 Z-0.125000
G01 X47.719101 Y224.585008 Z-0.125000
G01 X47.427874 Y222.454028 Z-0.125000
G01 X47.366304 Y221.388524 Z-0.125000
G01 X47.492881 Y218.192093 Z-0.125000
G01 X48.468558 Y210.733673 Z-0.125000
G01 X48.620958 Y208.602723 Z-0.125000
G01 X48.661998 Y206.471713 Z-0.125000
G01 X48.510762 Y203.275283 Z-0.125000
G01 X47.542202 Y195.816864 Z-0.125000
G01 X47.357073 Y192.620434 Z-0.125000
G01 X47.394033 Y191.554954 Z-0.125000
G01 X47.637503 Y189.423974 Z-0.125000
G01 X48.079886 Y187.293024 Z-0.125000
G01 X49.143670 Y183.031064 Z-0.125000
G01 X49.308241 Y181.965584 Z-0.125000
G01 X49.482389 Y178.769124 Z-0.125000
G01 X49.326682 Y176.638144 Z-0.125000
G01 X49.144781 Y175.572664 Z-0.125000
G01 X48.558438 Y173.441684 Z-0.125000
G01 X47.695579 Y171.310734 Z-0.125000
G01 X46.071408 Y168.114274 Z-0.125000
G01 X46.424812 Y164.917794 Z-0.125000
G01 X46.602294 Y161.721334 Z-0.125000
G01 X46.620654 Y159.590374 Z-0.125000
G01 X46.498020 Y156.393924 Z-0.125000
G01 X46.316992 Y154.262944 Z-0.125000
G01 X45.903184 Y151.066484 Z-0.125000
G01 X44.482027 Y143.608094 Z-0.125000
G01 X44.631623 Y142.542614 Z-0.125000
G01 X47.754949 Y137.215174 Z-0.125000
G01 X48.755207 Y135.084224 Z-0.125000
G01 X49.105594 Y134.018744 Z-0.125000
G01 X49.342396 Y132.953244 Z-0.125000
G01 X49.464316 Y131.887764 Z-0.125000
G01 X49.476756 Y130.822284 Z-0.125000
G01 X49.224079 Y128.691304 Z-0.125000
G01 X47.682669 Y122.298394 Z-0.125000
G01 X47.406391 Y120.167434 Z-0.125000
G01 X47.358771 Y119.101934 Z-0.125000
G01 X47.370731 Y118.036454 Z-0.125000
G01 X47.548399 Y115.905444 Z-0.125000
G01 X48.547836 Y109.512564 Z-0.125000
G01 X48.853483 Y106.316104 Z-0.125000
G01 X48.914183 Y104.185124 Z-0.125000
G01 X48.858803 Y102.054164 Z-0.125000
G01 X48.366546 Y96.726754 Z-0.125000
G01 X49.149077 Y92.464794 Z-0.125000
G01 X49.366591 Y90.333814 Z-0.125000
G01 X49.453741 Y88.202864 Z-0.125000
G01 X49.448241 Y85.006404 Z-0.125000
G01 X49.248560 Y81.809944 Z-0.125000
G01 X48.937701 Y79.678964 Z-0.125000
G01 X47.599889 Y73.286074 Z-0.125000
G01 X47.373696 Y71.155094 Z-0.125000
G01 X47.359616 Y70.089614 Z-0.125000
G01 X47.418616 Y69.024144 Z-0.125000
G01 X47.746118 Y66.893134 Z-0.125000
G01 X49.137429 Y61.565724 Z-0.125000
G01 X49.458898 Y59.434744 Z-0.125000
G01 X49.478798 Y58.369264 Z-0.125000
G01 X49.384818 Y57.303764 Z-0.125000
G01 X49.169844 Y56.238284 Z-0.125000
G01 X48.834220 Y55.172804 Z-0.125000
G01 X49.287266 Y48.779894 Z-0.125000
G01 X49.373886 Y44.517954 Z-0.125000
G01 X49.353856 Y40.256024 Z-0.125000
G00 Z5.000000

(End cutting path id: polyline159165)


(Start cutting path id: polyline159167)
(Change tool to Default tool)

G00 Z5.000000
G00 X46.459050 Y252.287624

G01 Z-0.125000 F400.0(Penetrate)
G01 X46.465750 Y245.894708 Z-0.125000 F800.000000
G01 X46.644026 Y241.632747 Z-0.125000
G01 X47.020343 Y238.436290 Z-0.125000
G01 X48.396494 Y230.977924 Z-0.125000
G01 X47.961810 Y228.846943 Z-0.125000
G01 X46.925411 Y224.585008 Z-0.125000
G01 X46.588517 Y222.454028 Z-0.125000
G01 X46.496517 Y221.388524 Z-0.125000
G01 X46.519407 Y218.192093 Z-0.125000
G01 X47.336969 Y210.733673 Z-0.125000
G01 X47.478389 Y208.602723 Z-0.125000
G01 X47.517039 Y206.471713 Z-0.125000
G01 X47.280767 Y202.209803 Z-0.125000
G01 X46.553797 Y195.816864 Z-0.125000
G01 X46.472967 Y192.620434 Z-0.125000
G01 X46.541887 Y191.554954 Z-0.125000
G01 X46.835945 Y189.423974 Z-0.125000
G01 X47.558443 Y186.227514 Z-0.125000
G01 X48.251519 Y181.965584 Z-0.125000
G01 X48.503164 Y179.834604 Z-0.125000
G01 X48.580024 Y177.703644 Z-0.125000
G01 X48.402224 Y175.572664 Z-0.125000
G01 X47.918910 Y173.441684 Z-0.125000
G01 X47.560082 Y172.376214 Z-0.125000
G01 X46.637321 Y170.245254 Z-0.125000
G01 X44.952058 Y167.048794 Z-0.125000
G01 X44.763966 Y165.983324 Z-0.125000
G01 X44.989523 Y162.786814 Z-0.125000
G01 X45.045803 Y160.655854 Z-0.125000
G01 X44.927216 Y156.393924 Z-0.125000
G01 X44.755370 Y154.262944 Z-0.125000
G01 X44.371618 Y151.066484 Z-0.125000
G01 X43.335880 Y144.673564 Z-0.125000
G01 X43.331580 Y143.608094 Z-0.125000
G01 X44.415366 Y141.477134 Z-0.125000
G01 X46.371960 Y138.280674 Z-0.125000
G01 X47.506890 Y136.149694 Z-0.125000
G01 X47.943241 Y135.084224 Z-0.125000
G01 X48.270504 Y134.018744 Z-0.125000
G01 X48.481430 Y132.953244 Z-0.125000
G01 X48.576200 Y131.887764 Z-0.125000
G01 X48.561830 Y130.822284 Z-0.125000
G01 X48.262454 Y128.691304 Z-0.125000
G01 X47.164592 Y124.429374 Z-0.125000
G01 X46.709455 Y122.298394 Z-0.125000
G01 X46.476437 Y120.167434 Z-0.125000
G01 X46.456007 Y119.101934 Z-0.125000
G01 X46.497147 Y118.036454 Z-0.125000
G01 X46.733393 Y115.905444 Z-0.125000
G01 X47.834404 Y109.512564 Z-0.125000
G01 X48.068930 Y107.381584 Z-0.125000
G01 X48.185241 Y105.250624 Z-0.125000
G01 X48.146881 Y102.054164 Z-0.125000
G01 X47.692088 Y96.726754 Z-0.125000
G01 X47.704128 Y95.661254 Z-0.125000
G01 X48.292059 Y92.464794 Z-0.125000
G01 X48.499095 Y90.333814 Z-0.125000
G01 X48.580135 Y87.137384 Z-0.125000
G01 X48.539525 Y83.940924 Z-0.125000
G01 X48.388316 Y81.809944 Z-0.125000
G01 X48.083833 Y79.678964 Z-0.125000
G01 X46.721229 Y73.286074 Z-0.125000
G01 X46.478501 Y71.155094 Z-0.125000
G01 X46.456431 Y70.089614 Z-0.125000
G01 X46.508241 Y69.024144 Z-0.125000
G01 X46.825106 Y66.893134 Z-0.125000
G01 X48.219698 Y61.565724 Z-0.125000
G01 X48.552782 Y59.434744 Z-0.125000
G01 X48.579502 Y58.369264 Z-0.125000
G01 X48.492502 Y57.303764 Z-0.125000
G01 X48.284248 Y56.238284 Z-0.125000
G01 X48.183521 Y55.172804 Z-0.125000
G01 X48.374471 Y53.041824 Z-0.125000
G01 X48.518537 Y49.845364 Z-0.125000
G01 X48.568807 Y40.256024 Z-0.125000
G00 Z5.000000

(End cutting path id: polyline159167)


(Start cutting path id: polyline159169)
(Change tool to Default tool)

G00 Z5.000000
G00 X45.570367 Y252.287624

G01 Z-0.125000 F400.0(Penetrate)
G01 X45.636117 Y245.894708 Z-0.125000 F800.000000
G01 X45.908162 Y241.632747 Z-0.125000
G01 X46.336681 Y238.436290 Z-0.125000
G01 X47.309157 Y233.108878 Z-0.125000
G01 X47.566200 Y230.977924 Z-0.125000
G01 X47.177738 Y228.846943 Z-0.125000
G01 X45.942954 Y223.519531 Z-0.125000
G01 X45.580131 Y220.323047 Z-0.125000
G01 X45.621561 Y217.126589 Z-0.125000
G01 X46.205576 Y210.733673 Z-0.125000
G01 X46.365252 Y206.471713 Z-0.125000
G01 X46.239628 Y203.275283 Z-0.125000
G01 X45.653152 Y196.882363 Z-0.125000
G01 X45.563172 Y193.685914 Z-0.125000
G01 X45.715730 Y191.554954 Z-0.125000
G01 X46.247119 Y187.293024 Z-0.125000
G01 X47.494074 Y179.834604 Z-0.125000
G01 X47.671927 Y177.703644 Z-0.125000
G01 X47.674827 Y176.638144 Z-0.125000
G01 X47.460223 Y174.507164 Z-0.125000
G01 X47.230856 Y173.441684 Z-0.125000
G01 X46.525238 Y171.310734 Z-0.125000
G01 X45.537284 Y169.179754 Z-0.125000
G01 X43.801274 Y165.983324 Z-0.125000
G01 X43.322404 Y164.917794 Z-0.125000
G01 X43.492822 Y160.655854 Z-0.125000
G01 X43.385216 Y156.393924 Z-0.125000
G01 X43.019853 Y152.131964 Z-0.125000
G01 X42.100532 Y144.673564 Z-0.125000
G01 X42.498254 Y143.608094 Z-0.125000
G01 X43.013106 Y142.542614 Z-0.125000
G01 X45.580226 Y138.280674 Z-0.125000
G01 X46.694545 Y136.149694 Z-0.125000
G01 X47.113804 Y135.084224 Z-0.125000
G01 X47.420694 Y134.018744 Z-0.125000
G01 X47.609157 Y132.953244 Z-0.125000
G01 X47.680677 Y131.887764 Z-0.125000
G01 X47.512270 Y129.756784 Z-0.125000
G01 X47.046180 Y127.625824 Z-0.125000
G01 X45.943581 Y123.363894 Z-0.125000
G01 X45.622880 Y121.232914 Z-0.125000
G01 X45.559990 Y120.167434 Z-0.125000
G01 X45.564190 Y119.101934 Z-0.125000
G01 X45.753102 Y116.970974 Z-0.125000
G01 X47.094963 Y109.512564 Z-0.125000
G01 X47.325204 Y107.381584 Z-0.125000
G01 X47.434450 Y105.250624 Z-0.125000
G01 X47.398920 Y102.054164 Z-0.125000
G01 X46.882136 Y95.661254 Z-0.125000
G01 X47.407784 Y92.464794 Z-0.125000
G01 X47.610084 Y90.333814 Z-0.125000
G01 X47.681394 Y86.071904 Z-0.125000
G01 X47.593474 Y82.875444 Z-0.125000
G01 X47.200991 Y79.678964 Z-0.125000
G01 X45.829073 Y73.286074 Z-0.125000
G01 X45.579809 Y71.155094 Z-0.125000
G01 X45.554589 Y70.089614 Z-0.125000
G01 X45.603509 Y69.024144 Z-0.125000
G01 X45.916141 Y66.893134 Z-0.125000
G01 X47.311818 Y61.565724 Z-0.125000
G01 X47.649426 Y59.434744 Z-0.125000
G01 X47.678846 Y58.369264 Z-0.125000
G01 X47.424687 Y56.238284 Z-0.125000
G01 X47.659769 Y51.976344 Z-0.125000
G01 X47.668469 Y40.256024 Z-0.125000
G00 Z5.000000

(End cutting path id: polyline159169)


(Start cutting path id: polyline159171)
(Change tool to Default tool)

G00 Z5.000000
G00 X44.756138 Y252.287624

G01 Z-0.125000 F400.0(Penetrate)
G01 X44.827498 Y246.960186 Z-0.125000 F800.000000
G01 X45.103035 Y242.698224 Z-0.125000
G01 X45.505228 Y239.501793 Z-0.125000
G01 X46.560677 Y233.108878 Z-0.125000
G01 X46.720274 Y230.977924 Z-0.125000
G01 X46.394334 Y228.846943 Z-0.125000
G01 X45.401008 Y224.585008 Z-0.125000
G01 X44.988417 Y222.454028 Z-0.125000
G01 X44.673351 Y219.257570 Z-0.125000
G01 X44.710451 Y216.061112 Z-0.125000
G01 X45.149051 Y209.668193 Z-0.125000
G01 X45.222211 Y206.471713 Z-0.125000
G01 X45.116880 Y203.275283 Z-0.125000
G01 X44.682937 Y196.882363 Z-0.125000
G01 X44.714897 Y192.620434 Z-0.125000
G01 X44.895978 Y189.423974 Z-0.125000
G01 X45.127118 Y187.293024 Z-0.125000
G01 X46.609128 Y178.769124 Z-0.125000
G01 X46.776715 Y176.638144 Z-0.125000
G01 X46.763645 Y175.572664 Z-0.125000
G01 X46.496231 Y173.441684 Z-0.125000
G01 X45.881392 Y171.310734 Z-0.125000
G01 X44.949212 Y169.179754 Z-0.125000
G01 X42.083245 Y163.852284 Z-0.125000
G01 X41.955848 Y162.786814 Z-0.125000
G01 X41.998738 Y159.590374 Z-0.125000
G01 X41.850201 Y155.328444 Z-0.125000
G01 X41.016790 Y145.739074 Z-0.125000
G01 X41.240072 Y144.673564 Z-0.125000
G01 X41.654965 Y143.608094 Z-0.125000
G01 X42.184211 Y142.542614 Z-0.125000
G01 X44.768159 Y138.280674 Z-0.125000
G01 X45.864169 Y136.149694 Z-0.125000
G01 X46.268769 Y135.084224 Z-0.125000
G01 X46.558435 Y134.018744 Z-0.125000
G01 X46.728139 Y132.953244 Z-0.125000
G01 X46.780419 Y131.887764 Z-0.125000
G01 X46.576689 Y129.756784 Z-0.125000
G01 X44.988184 Y123.363894 Z-0.125000
G01 X44.696560 Y121.232914 Z-0.125000
G01 X44.652980 Y120.167434 Z-0.125000
G01 X44.678460 Y119.101934 Z-0.125000
G01 X44.911240 Y116.970974 Z-0.125000
G01 X45.976003 Y111.643514 Z-0.125000
G01 X46.325491 Y109.512564 Z-0.125000
G01 X46.545651 Y107.381584 Z-0.125000
G01 X46.643891 Y105.250624 Z-0.125000
G01 X46.612621 Y102.054164 Z-0.125000
G01 X46.137085 Y94.595774 Z-0.125000
G01 X46.497210 Y92.464794 Z-0.125000
G01 X46.702156 Y90.333814 Z-0.125000
G01 X46.778596 Y86.071904 Z-0.125000
G01 X46.685116 Y82.875444 Z-0.125000
G01 X46.289590 Y79.678964 Z-0.125000
G01 X44.922779 Y73.286074 Z-0.125000
G01 X44.677113 Y71.155094 Z-0.125000
G01 X44.653643 Y70.089614 Z-0.125000
G01 X44.704153 Y69.024144 Z-0.125000
G01 X45.019113 Y66.893134 Z-0.125000
G01 X46.414208 Y61.565724 Z-0.125000
G01 X46.749329 Y59.434744 Z-0.125000
G01 X46.777269 Y58.369264 Z-0.125000
G01 X46.691519 Y57.303764 Z-0.125000
G01 X46.780499 Y53.041824 Z-0.125000
G01 X46.645032 Y44.517954 Z-0.125000
G01 X46.665382 Y40.256024 Z-0.125000
G00 Z5.000000

(End cutting path id: polyline159171)


(Start cutting path id: polyline159173)
(Change tool to Default tool)

G00 Z5.000000
G00 X44.012977 Y252.287624

G01 Z-0.125000 F400.0(Penetrate)
G01 X44.067767 Y248.025663 Z-0.125000 F800.000000
G01 X44.331266 Y243.763728 Z-0.125000
G01 X44.703032 Y240.567270 Z-0.125000
G01 X45.666353 Y234.174355 Z-0.125000
G01 X45.854366 Y232.043401 Z-0.125000
G01 X45.859266 Y230.977924 Z-0.125000
G01 X45.606403 Y228.846943 Z-0.125000
G01 X44.230597 Y222.454028 Z-0.125000
G01 X43.924765 Y220.323047 Z-0.125000
G01 X43.773820 Y218.192093 Z-0.125000
G01 X43.759160 Y216.061112 Z-0.125000
G01 X44.047371 Y209.668193 Z-0.125000
G01 X44.104261 Y206.471713 Z-0.125000
G01 X43.771971 Y197.947843 Z-0.125000
G01 X43.772765 Y191.554954 Z-0.125000
G01 X43.938209 Y188.358494 Z-0.125000
G01 X44.177921 Y186.227514 Z-0.125000
G01 X45.736952 Y177.703644 Z-0.125000
G01 X45.879192 Y175.572664 Z-0.125000
G01 X45.841512 Y174.507164 Z-0.125000
G01 X45.504354 Y172.376214 Z-0.125000
G01 X44.804266 Y170.245254 Z-0.125000
G01 X43.792949 Y168.114274 Z-0.125000
G01 X41.425960 Y163.852284 Z-0.125000
G01 X40.913595 Y162.786814 Z-0.125000
G01 X40.589348 Y161.721334 Z-0.125000
G01 X40.530288 Y156.393924 Z-0.125000
G01 X40.002338 Y146.804544 Z-0.125000
G01 X40.083698 Y145.739074 Z-0.125000
G01 X40.372199 Y144.673564 Z-0.125000
G01 X40.800322 Y143.608094 Z-0.125000
G01 X41.960202 Y141.477134 Z-0.125000
G01 X44.519146 Y137.215174 Z-0.125000
G01 X45.409654 Y135.084224 Z-0.125000
G01 X45.685562 Y134.018744 Z-0.125000
G01 X45.840396 Y132.953244 Z-0.125000
G01 X45.877596 Y131.887764 Z-0.125000
G01 X45.646562 Y129.756784 Z-0.125000
G01 X44.046547 Y123.363894 Z-0.125000
G01 X43.779371 Y121.232914 Z-0.125000
G01 X43.751641 Y120.167434 Z-0.125000
G01 X43.794341 Y119.101934 Z-0.125000
G01 X44.061967 Y116.970974 Z-0.125000
G01 X45.178138 Y111.643514 Z-0.125000
G01 X45.524451 Y109.512564 Z-0.125000
G01 X45.731011 Y107.381584 Z-0.125000
G01 X45.815411 Y105.250624 Z-0.125000
G01 X45.789531 Y102.054164 Z-0.125000
G01 X45.606334 Y97.792234 Z-0.125000
G01 X45.265974 Y94.595774 Z-0.125000
G01 X45.685576 Y91.399314 Z-0.125000
G01 X45.828292 Y89.268334 Z-0.125000
G01 X45.865652 Y86.071904 Z-0.125000
G01 X45.755294 Y82.875444 Z-0.125000
G01 X45.349317 Y79.678964 Z-0.125000
G01 X44.002615 Y73.286074 Z-0.125000
G01 X43.770628 Y71.155094 Z-0.125000
G01 X43.753748 Y70.089614 Z-0.125000
G01 X43.810238 Y69.024144 Z-0.125000
G01 X44.134035 Y66.893134 Z-0.125000
G01 X45.526590 Y61.565724 Z-0.125000
G01 X45.852133 Y59.434744 Z-0.125000
G01 X45.862263 Y54.107324 Z-0.125000
G01 X45.546165 Y44.517954 Z-0.125000
G01 X45.577495 Y40.256024 Z-0.125000
G00 Z5.000000

(End cutting path id: polyline159173)


(Start cutting path id: polyline159175)
(Change tool to Default tool)

G00 Z5.000000
G00 X43.331886 Y252.287624

G01 Z-0.125000 F400.0(Penetrate)
G01 X43.397796 Y248.025663 Z-0.125000 F800.000000
G01 X43.594937 Y244.829205 Z-0.125000
G01 X43.929450 Y241.632747 Z-0.125000
G01 X44.787388 Y235.239858 Z-0.125000
G01 X44.955478 Y233.108878 Z-0.125000
G01 X44.977178 Y230.977924 Z-0.125000
G01 X44.926958 Y229.912447 Z-0.125000
G01 X44.634462 Y227.781440 Z-0.125000
G01 X43.310010 Y221.388524 Z-0.125000
G01 X43.027938 Y219.257570 Z-0.125000
G01 X42.882311 Y217.126589 Z-0.125000
G01 X42.865321 Y213.930132 Z-0.125000
G01 X43.027352 Y206.471713 Z-0.125000
G01 X42.854129 Y190.489454 Z-0.125000
G01 X42.925829 Y188.358494 Z-0.125000
G01 X43.112519 Y186.227514 Z-0.125000
G01 X43.628986 Y183.031064 Z-0.125000
G01 X44.727721 Y177.703644 Z-0.125000
G01 X44.960316 Y175.572664 Z-0.125000
G01 X44.973386 Y174.507164 Z-0.125000
G01 X44.737695 Y172.376214 Z-0.125000
G01 X44.123438 Y170.245254 Z-0.125000
G01 X43.165144 Y168.114274 Z-0.125000
G01 X40.218982 Y162.786814 Z-0.125000
G01 X39.383137 Y160.655854 Z-0.125000
G01 X39.049709 Y147.870024 Z-0.125000
G01 X39.057109 Y146.804544 Z-0.125000
G01 X39.196783 Y145.739074 Z-0.125000
G01 X39.495868 Y144.673564 Z-0.125000
G01 X39.933462 Y143.608094 Z-0.125000
G01 X40.481494 Y142.542614 Z-0.125000
G01 X43.662870 Y137.215174 Z-0.125000
G01 X44.537794 Y135.084224 Z-0.125000
G01 X44.803648 Y134.018744 Z-0.125000
G01 X44.947713 Y132.953244 Z-0.125000
G01 X44.973983 Y131.887764 Z-0.125000
G01 X44.723449 Y129.756784 Z-0.125000
G01 X43.117402 Y123.363894 Z-0.125000
G01 X42.868773 Y121.232914 Z-0.125000
G01 X42.852873 Y120.167434 Z-0.125000
G01 X42.908273 Y119.101934 Z-0.125000
G01 X43.201299 Y116.970974 Z-0.125000
G01 X44.351813 Y111.643514 Z-0.125000
G01 X44.692861 Y109.512564 Z-0.125000
G01 X44.885292 Y107.381584 Z-0.125000
G01 X44.954852 Y105.250624 Z-0.125000
G01 X44.810919 Y97.792234 Z-0.125000
G01 X44.426426 Y93.530274 Z-0.125000
G01 X44.725167 Y91.399314 Z-0.125000
G01 X44.883203 Y89.268334 Z-0.125000
G01 X44.931653 Y86.071904 Z-0.125000
G01 X44.870503 Y83.940924 Z-0.125000
G01 X44.555728 Y80.744464 Z-0.125000
G01 X44.173537 Y78.613484 Z-0.125000
G01 X43.253131 Y74.351554 Z-0.125000
G01 X42.935975 Y72.220594 Z-0.125000
G01 X42.861895 Y71.155094 Z-0.125000
G01 X42.856295 Y70.089614 Z-0.125000
G01 X43.060263 Y67.958614 Z-0.125000
G01 X43.514341 Y65.827654 Z-0.125000
G01 X44.648556 Y61.565724 Z-0.125000
G01 X44.957378 Y59.434744 Z-0.125000
G01 X44.919408 Y55.172804 Z-0.125000
G01 X44.407598 Y45.583434 Z-0.125000
G01 X44.426888 Y40.256024 Z-0.125000
G00 Z5.000000

(End cutting path id: polyline159175)


(Start cutting path id: polyline159177)
(Change tool to Default tool)

G00 Z5.000000
G00 X42.698527 Y252.287624

G01 Z-0.125000 F400.0(Penetrate)
G01 X42.730757 Y249.091140 Z-0.125000 F800.000000
G01 X42.892841 Y245.894708 Z-0.125000
G01 X44.006763 Y235.239858 Z-0.125000
G01 X44.065923 Y229.912447 Z-0.125000
G01 X43.991253 Y228.846943 Z-0.125000
G01 X43.676902 Y226.715962 Z-0.125000
G01 X42.415051 Y220.323047 Z-0.125000
G01 X42.149859 Y218.192093 Z-0.125000
G01 X42.002725 Y216.061112 Z-0.125000
G01 X41.949465 Y212.864655 Z-0.125000
G01 X42.018445 Y205.406233 Z-0.125000
G01 X42.212490 Y199.013343 Z-0.125000
G01 X41.958623 Y190.489454 Z-0.125000
G01 X41.963223 Y188.358494 Z-0.125000
G01 X42.087048 Y186.227514 Z-0.125000
G01 X42.355917 Y184.096534 Z-0.125000
G01 X43.884865 Y176.638144 Z-0.125000
G01 X44.074095 Y174.507164 Z-0.125000
G01 X44.051445 Y173.441684 Z-0.125000
G01 X43.722118 Y171.310734 Z-0.125000
G01 X43.001234 Y169.179754 Z-0.125000
G01 X41.950706 Y167.048794 Z-0.125000
G01 X39.524503 Y162.786814 Z-0.125000
G01 X38.603118 Y160.655854 Z-0.125000
G01 X38.313108 Y159.590374 Z-0.125000
G01 X38.200634 Y158.524874 Z-0.125000
G01 X38.158064 Y146.804544 Z-0.125000
G01 X38.304563 Y145.739074 Z-0.125000
G01 X38.610104 Y144.673564 Z-0.125000
G01 X39.053440 Y143.608094 Z-0.125000
G01 X40.234831 Y141.477134 Z-0.125000
G01 X42.213227 Y138.280674 Z-0.125000
G01 X43.275343 Y136.149694 Z-0.125000
G01 X43.654015 Y135.084224 Z-0.125000
G01 X43.913651 Y134.018744 Z-0.125000
G01 X44.051049 Y132.953244 Z-0.125000
G01 X44.070649 Y131.887764 Z-0.125000
G01 X43.808289 Y129.756784 Z-0.125000
G01 X42.416210 Y124.429374 Z-0.125000
G01 X42.045396 Y122.298394 Z-0.125000
G01 X41.962606 Y121.232914 Z-0.125000
G01 X41.954106 Y120.167434 Z-0.125000
G01 X42.145188 Y118.036454 Z-0.125000
G01 X43.496256 Y111.643514 Z-0.125000
G01 X43.832674 Y109.512564 Z-0.125000
G01 X44.014019 Y107.381584 Z-0.125000
G01 X44.070749 Y105.250624 Z-0.125000
G01 X43.980769 Y97.792234 Z-0.125000
G01 X43.814108 Y95.661254 Z-0.125000
G01 X43.504969 Y93.530274 Z-0.125000
G01 X43.908035 Y89.268334 Z-0.125000
G01 X43.966905 Y86.071904 Z-0.125000
G01 X43.893355 Y83.940924 Z-0.125000
G01 X43.558683 Y80.744464 Z-0.125000
G01 X42.295536 Y74.351554 Z-0.125000
G01 X42.010633 Y72.220594 Z-0.125000
G01 X41.953063 Y71.155094 Z-0.125000
G01 X41.963093 Y70.089614 Z-0.125000
G01 X42.192460 Y67.958614 Z-0.125000
G01 X42.660058 Y65.827654 Z-0.125000
G01 X43.779140 Y61.565724 Z-0.125000
G01 X44.063779 Y59.434744 Z-0.125000
G01 X43.964239 Y56.238284 Z-0.125000
G01 X43.437771 Y49.845364 Z-0.125000
G01 X43.252695 Y46.648914 Z-0.125000
G01 X43.183135 Y43.452474 Z-0.125000
G01 X43.237905 Y40.256024 Z-0.125000
G00 Z5.000000

(End cutting path id: polyline159177)


(Start cutting path id: polyline159179)
(Change tool to Default tool)

G00 Z5.000000
G00 X42.093901 Y252.287624

G01 Z-0.125000 F400.0(Penetrate)
G01 X42.126391 Y249.091140 Z-0.125000 F800.000000
G01 X42.285723 Y245.894708 Z-0.125000
G01 X43.130299 Y236.305335 Z-0.125000
G01 X43.171789 Y234.174355 Z-0.125000
G01 X43.041005 Y232.043401 Z-0.125000
G01 X43.174620 Y229.912447 Z-0.125000
G01 X43.149250 Y228.846943 Z-0.125000
G01 X42.917580 Y226.715962 Z-0.125000
G01 X41.545980 Y219.257570 Z-0.125000
G01 X41.293171 Y217.126589 Z-0.125000
G01 X41.141512 Y214.995635 Z-0.125000
G01 X41.063302 Y208.602693 Z-0.125000
G01 X41.425331 Y202.209803 Z-0.125000
G01 X41.510421 Y199.013323 Z-0.125000
G01 X41.435151 Y195.816864 Z-0.125000
G01 X41.069444 Y189.423974 Z-0.125000
G01 X41.057244 Y187.292994 Z-0.125000
G01 X41.314551 Y184.096534 Z-0.125000
G01 X41.686106 Y181.965584 Z-0.125000
G01 X42.880832 Y176.638144 Z-0.125000
G01 X43.150045 Y174.507164 Z-0.125000
G01 X43.172905 Y173.441684 Z-0.125000
G01 X42.934939 Y171.310734 Z-0.125000
G01 X42.290573 Y169.179754 Z-0.125000
G01 X41.285791 Y167.048794 Z-0.125000
G01 X38.825907 Y162.786814 Z-0.125000
G01 X38.282956 Y161.721334 Z-0.125000
G01 X37.829857 Y160.655854 Z-0.125000
G01 X37.493254 Y159.590374 Z-0.125000
G01 X37.294763 Y158.524874 Z-0.125000
G01 X37.249363 Y157.459394 Z-0.125000
G01 X37.313043 Y152.131964 Z-0.125000
G01 X37.449700 Y148.935524 Z-0.125000
G01 X37.280288 Y147.870024 Z-0.125000
G01 X37.257748 Y146.804544 Z-0.125000
G01 X37.406735 Y145.739074 Z-0.125000
G01 X37.714631 Y144.673564 Z-0.125000
G01 X38.160057 Y143.608094 Z-0.125000
G01 X39.344411 Y141.477134 Z-0.125000
G01 X41.323018 Y138.280674 Z-0.125000
G01 X42.382436 Y136.149694 Z-0.125000
G01 X42.759123 Y135.084224 Z-0.125000
G01 X43.016484 Y134.018744 Z-0.125000
G01 X43.151448 Y132.953244 Z-0.125000
G01 X43.168588 Y131.887764 Z-0.125000
G01 X42.901914 Y129.756784 Z-0.125000
G01 X41.507586 Y124.429374 Z-0.125000
G01 X41.140159 Y122.298394 Z-0.125000
G01 X41.059749 Y121.232914 Z-0.125000
G01 X41.053949 Y120.167434 Z-0.125000
G01 X41.250904 Y118.036454 Z-0.125000
G01 X42.611709 Y111.643514 Z-0.125000
G01 X42.946090 Y109.512564 Z-0.125000
G01 X43.122832 Y107.381584 Z-0.125000
G01 X43.173522 Y105.250594 Z-0.125000
G01 X43.121482 Y97.792204 Z-0.125000
G01 X42.969558 Y95.661254 Z-0.125000
G01 X42.570646 Y92.464794 Z-0.125000
G01 X42.820016 Y90.333814 Z-0.125000
G01 X42.946063 Y88.202864 Z-0.125000
G01 X42.964953 Y86.071874 Z-0.125000
G01 X42.881243 Y83.940894 Z-0.125000
G01 X42.531225 Y80.744464 Z-0.125000
G01 X41.327689 Y74.351554 Z-0.125000
G01 X41.084219 Y72.220574 Z-0.125000
G01 X41.047469 Y71.155094 Z-0.125000
G01 X41.076999 Y70.089614 Z-0.125000
G01 X41.337402 Y67.958614 Z-0.125000
G01 X42.917044 Y61.565724 Z-0.125000
G01 X43.086509 Y60.500214 Z-0.125000
G01 X43.149769 Y59.434744 Z-0.125000
G01 X42.104162 Y47.714414 Z-0.125000
G01 X41.978406 Y43.452474 Z-0.125000
G01 X42.035586 Y40.256024 Z-0.125000
G00 Z5.000000

(End cutting path id: polyline159179)


(Start cutting path id: polyline159181)
(Change tool to Default tool)

G00 Z5.000000
G00 X41.495361 Y252.287624

G01 Z-0.125000 F400.0(Penetrate)
G01 X41.610587 Y246.960186 Z-0.125000 F800.000000
G01 X42.253868 Y237.370813 Z-0.125000
G01 X42.210238 Y234.174355 Z-0.125000
G01 X41.966319 Y232.043401 Z-0.125000
G01 X42.245825 Y229.912447 Z-0.125000
G01 X42.273655 Y228.846943 Z-0.125000
G01 X42.233385 Y227.781440 Z-0.125000
G01 X41.994070 Y225.650485 Z-0.125000
G01 X41.033500 Y220.323047 Z-0.125000
G01 X40.571723 Y217.126589 Z-0.125000
G01 X40.162968 Y211.799151 Z-0.125000
G01 X40.220038 Y208.602693 Z-0.125000
G01 X40.736267 Y202.209803 Z-0.125000
G01 X40.841148 Y199.013323 Z-0.125000
G01 X40.748518 Y195.816864 Z-0.125000
G01 X40.175537 Y188.358494 Z-0.125000
G01 X40.156487 Y186.227514 Z-0.125000
G01 X40.304971 Y184.096534 Z-0.125000
G01 X40.634642 Y181.965584 Z-0.125000
G01 X42.067069 Y175.572664 Z-0.125000
G01 X42.271592 Y173.441684 Z-0.125000
G01 X42.245932 Y172.376214 Z-0.125000
G01 X42.119858 Y171.310734 Z-0.125000
G01 X41.888162 Y170.245254 Z-0.125000
G01 X41.551347 Y169.179754 Z-0.125000
G01 X40.595990 Y167.048794 Z-0.125000
G01 X38.119411 Y162.786814 Z-0.125000
G01 X37.059040 Y160.655854 Z-0.125000
G01 X36.680686 Y159.590374 Z-0.125000
G01 X36.436872 Y158.524874 Z-0.125000
G01 X36.344902 Y157.459394 Z-0.125000
G01 X36.522967 Y155.328444 Z-0.125000
G01 X36.787603 Y150.001004 Z-0.125000
G01 X36.380145 Y147.870024 Z-0.125000
G01 X36.355805 Y146.804544 Z-0.125000
G01 X36.502966 Y145.739074 Z-0.125000
G01 X36.809142 Y144.673564 Z-0.125000
G01 X37.253033 Y143.608094 Z-0.125000
G01 X38.435218 Y141.477134 Z-0.125000
G01 X40.413693 Y138.280674 Z-0.125000
G01 X41.475069 Y136.149694 Z-0.125000
G01 X41.853212 Y135.084224 Z-0.125000
G01 X42.112239 Y134.018744 Z-0.125000
G01 X42.248975 Y132.953244 Z-0.125000
G01 X42.267945 Y131.887764 Z-0.125000
G01 X42.004393 Y129.756784 Z-0.125000
G01 X40.611706 Y124.429374 Z-0.125000
G01 X40.241792 Y122.298394 Z-0.125000
G01 X40.159642 Y121.232914 Z-0.125000
G01 X40.151842 Y120.167434 Z-0.125000
G01 X40.344512 Y118.036454 Z-0.125000
G01 X41.698226 Y111.643514 Z-0.125000
G01 X42.034115 Y109.512564 Z-0.125000
G01 X42.214243 Y107.381584 Z-0.125000
G01 X42.269433 Y105.250594 Z-0.125000
G01 X42.265333 Y98.857714 Z-0.125000
G01 X42.186863 Y96.726734 Z-0.125000
G01 X41.970116 Y94.595744 Z-0.125000
G01 X41.598800 Y92.464794 Z-0.125000
G01 X41.902144 Y88.202864 Z-0.125000
G01 X41.922914 Y86.071874 Z-0.125000
G01 X41.832194 Y83.940894 Z-0.125000
G01 X41.474874 Y80.744464 Z-0.125000
G01 X40.354628 Y74.351554 Z-0.125000
G01 X40.161165 Y72.220574 Z-0.125000
G01 X40.201275 Y70.089614 Z-0.125000
G01 X40.496841 Y67.958614 Z-0.125000
G01 X41.840924 Y62.631194 Z-0.125000
G01 X42.211261 Y60.500214 Z-0.125000
G01 X42.055713 Y58.369264 Z-0.125000
G01 X41.266884 Y51.976344 Z-0.125000
G01 X40.978382 Y48.779894 Z-0.125000
G01 X40.798227 Y44.517954 Z-0.125000
G01 X40.844057 Y40.256024 Z-0.125000
G00 Z5.000000

(End cutting path id: polyline159181)


(Start cutting path id: polyline159183)
(Change tool to Default tool)

G00 Z5.000000
G00 X40.877982 Y252.287624

G01 Z-0.125000 F400.0(Penetrate)
G01 X40.934342 Y248.025663 Z-0.125000 F800.000000
G01 X41.369899 Y238.436290 Z-0.125000
G01 X41.274539 Y235.239858 Z-0.125000
G01 X40.870097 Y232.043401 Z-0.125000
G01 X41.272634 Y229.912447 Z-0.125000
G01 X41.370054 Y227.781440 Z-0.125000
G01 X41.088193 Y224.585008 Z-0.125000
G01 X39.470002 Y214.995635 Z-0.125000
G01 X39.269977 Y212.864655 Z-0.125000
G01 X39.323077 Y209.668173 Z-0.125000
G01 X39.981413 Y203.275283 Z-0.125000
G01 X40.188370 Y199.013323 Z-0.125000
G01 X40.081716 Y195.816864 Z-0.125000
G01 X39.430868 Y189.423974 Z-0.125000
G01 X39.245368 Y186.227514 Z-0.125000
G01 X39.326228 Y184.096534 Z-0.125000
G01 X39.441904 Y183.031064 Z-0.125000
G01 X39.815628 Y180.900104 Z-0.125000
G01 X41.078537 Y175.572664 Z-0.125000
G01 X41.352910 Y173.441684 Z-0.125000
G01 X41.366930 Y172.376214 Z-0.125000
G01 X41.281020 Y171.310734 Z-0.125000
G01 X41.087821 Y170.245254 Z-0.125000
G01 X40.379822 Y168.114274 Z-0.125000
G01 X39.308683 Y165.983324 Z-0.125000
G01 X37.402043 Y162.786814 Z-0.125000
G01 X36.286983 Y160.655854 Z-0.125000
G01 X35.871693 Y159.590374 Z-0.125000
G01 X35.587001 Y158.524874 Z-0.125000
G01 X35.452408 Y157.459394 Z-0.125000
G01 X35.479628 Y156.393924 Z-0.125000
G01 X35.671478 Y155.328444 Z-0.125000
G01 X35.999587 Y154.262944 Z-0.125000
G01 X36.226282 Y151.066484 Z-0.125000
G01 X36.056446 Y150.001004 Z-0.125000
G01 X35.686982 Y148.935524 Z-0.125000
G01 X35.482856 Y147.870024 Z-0.125000
G01 X35.452406 Y146.804544 Z-0.125000
G01 X35.593429 Y145.739074 Z-0.125000
G01 X35.893784 Y144.673564 Z-0.125000
G01 X36.332516 Y143.608094 Z-0.125000
G01 X36.881473 Y142.542614 Z-0.125000
G01 X39.485211 Y138.280674 Z-0.125000
G01 X40.553122 Y136.149694 Z-0.125000
G01 X40.936133 Y135.084224 Z-0.125000
G01 X41.200769 Y134.018744 Z-0.125000
G01 X41.343512 Y132.953244 Z-0.125000
G01 X41.368492 Y131.887764 Z-0.125000
G01 X41.115630 Y129.756784 Z-0.125000
G01 X39.728710 Y124.429374 Z-0.125000
G01 X39.350647 Y122.298394 Z-0.125000
G01 X39.262647 Y121.232914 Z-0.125000
G01 X39.248177 Y120.167434 Z-0.125000
G01 X39.426506 Y118.036454 Z-0.125000
G01 X39.815364 Y115.905444 Z-0.125000
G01 X40.755720 Y111.643514 Z-0.125000
G01 X41.095948 Y109.512564 Z-0.125000
G01 X41.286342 Y107.381584 Z-0.125000
G01 X41.360032 Y104.185124 Z-0.125000
G01 X41.366232 Y98.857714 Z-0.125000
G01 X41.290222 Y96.726734 Z-0.125000
G01 X41.075142 Y94.595744 Z-0.125000
G01 X40.570159 Y91.399314 Z-0.125000
G01 X40.820243 Y88.202864 Z-0.125000
G01 X40.841993 Y86.071874 Z-0.125000
G01 X40.747903 Y83.940894 Z-0.125000
G01 X40.393626 Y80.744464 Z-0.125000
G01 X39.516797 Y75.417024 Z-0.125000
G01 X39.246630 Y72.220574 Z-0.125000
G01 X39.262190 Y71.155094 Z-0.125000
G01 X39.477931 Y69.024114 Z-0.125000
G01 X39.913409 Y66.893134 Z-0.125000
G01 X41.006694 Y62.631194 Z-0.125000
G01 X41.207248 Y61.565724 Z-0.125000
G01 X41.235478 Y60.500214 Z-0.125000
G01 X40.213789 Y53.041824 Z-0.125000
G01 X39.885230 Y49.845364 Z-0.125000
G01 X39.664726 Y45.583434 Z-0.125000
G01 X39.684706 Y40.256024 Z-0.125000
G00 Z5.000000

(End cutting path id: polyline159183)


(Start cutting path id: polyline159185)
(Change tool to Default tool)

G00 Z5.000000
G00 X39.485850 Y252.287624

G01 Z-0.125000 F400.0(Penetrate)
G01 X39.570170 Y242.698224 Z-0.125000 F800.000000
G01 X39.496690 Y239.501793 Z-0.125000
G01 X39.204378 Y236.305335 Z-0.125000
G01 X38.581576 Y233.108878 Z-0.125000
G01 X38.558666 Y232.043401 Z-0.125000
G01 X39.169774 Y229.912447 Z-0.125000
G01 X39.367788 Y228.846943 Z-0.125000
G01 X39.496190 Y227.781440 Z-0.125000
G01 X39.566490 Y225.650485 Z-0.125000
G01 X39.505530 Y224.585008 Z-0.125000
G01 X39.143924 Y222.454028 Z-0.125000
G01 X37.831882 Y217.126589 Z-0.125000
G01 X37.523192 Y214.995635 Z-0.125000
G01 X37.455112 Y213.930132 Z-0.125000
G01 X37.445212 Y212.864655 Z-0.125000
G01 X37.579197 Y210.733673 Z-0.125000
G01 X38.502354 Y204.340763 Z-0.125000
G01 X38.731060 Y202.209803 Z-0.125000
G01 X38.851922 Y200.078793 Z-0.125000
G01 X38.857522 Y197.947843 Z-0.125000
G01 X38.747640 Y195.816864 Z-0.125000
G01 X38.528592 Y193.685914 Z-0.125000
G01 X37.601121 Y187.292994 Z-0.125000
G01 X37.448774 Y184.096534 Z-0.125000
G01 X37.505444 Y183.031064 Z-0.125000
G01 X37.792834 Y180.900104 Z-0.125000
G01 X39.320777 Y174.507164 Z-0.125000
G01 X39.564167 Y172.376214 Z-0.125000
G01 X39.548217 Y171.310734 Z-0.125000
G01 X39.423943 Y170.245254 Z-0.125000
G01 X39.186029 Y169.179754 Z-0.125000
G01 X38.381696 Y167.048794 Z-0.125000
G01 X37.229832 Y164.917794 Z-0.125000
G01 X35.295570 Y161.721334 Z-0.125000
G01 X34.251127 Y159.590374 Z-0.125000
G01 X33.898146 Y158.524874 Z-0.125000
G01 X33.690819 Y157.459394 Z-0.125000
G01 X33.644859 Y156.393924 Z-0.125000
G01 X33.767070 Y155.328444 Z-0.125000
G01 X34.054592 Y154.262944 Z-0.125000
G01 X34.494489 Y153.197434 Z-0.125000
G01 X35.064163 Y152.131964 Z-0.125000
G01 X34.847734 Y151.066484 Z-0.125000
G01 X34.315816 Y150.001004 Z-0.125000
G01 X33.926164 Y148.935524 Z-0.125000
G01 X33.698834 Y147.870024 Z-0.125000
G01 X33.643454 Y146.804544 Z-0.125000
G01 X33.759289 Y145.739074 Z-0.125000
G01 X34.035593 Y144.673564 Z-0.125000
G01 X34.452788 Y143.608094 Z-0.125000
G01 X34.983966 Y142.542614 Z-0.125000
G01 X37.570030 Y138.280674 Z-0.125000
G01 X38.663447 Y136.149694 Z-0.125000
G01 X39.066037 Y135.084224 Z-0.125000
G01 X39.353321 Y134.018744 Z-0.125000
G01 X39.520459 Y132.953244 Z-0.125000
G01 X39.570119 Y131.887764 Z-0.125000
G01 X39.511969 Y130.822284 Z-0.125000
G01 X39.139224 Y128.691304 Z-0.125000
G01 X37.770851 Y123.363894 Z-0.125000
G01 X37.483382 Y121.232914 Z-0.125000
G01 X37.442502 Y120.167434 Z-0.125000
G01 X37.470942 Y119.101934 Z-0.125000
G01 X37.709729 Y116.970974 Z-0.125000
G01 X38.783725 Y111.643514 Z-0.125000
G01 X39.258811 Y108.447054 Z-0.125000
G01 X39.412693 Y106.316104 Z-0.125000
G01 X39.547577 Y100.988664 Z-0.125000
G01 X39.497277 Y97.792204 Z-0.125000
G01 X39.337866 Y95.661254 Z-0.125000
G01 X39.032457 Y93.530274 Z-0.125000
G01 X38.438917 Y90.333814 Z-0.125000
G01 X38.591873 Y87.137354 Z-0.125000
G01 X38.499423 Y83.940894 Z-0.125000
G01 X38.310272 Y81.809944 Z-0.125000
G01 X37.640823 Y76.482504 Z-0.125000
G01 X37.469109 Y74.351554 Z-0.125000
G01 X37.464909 Y72.220574 Z-0.125000
G01 X37.671152 Y70.089614 Z-0.125000
G01 X38.077314 Y67.958614 Z-0.125000
G01 X39.348160 Y62.631194 Z-0.125000
G01 X39.285640 Y61.565724 Z-0.125000
G01 X38.044427 Y54.107324 Z-0.125000
G01 X37.721265 Y50.910874 Z-0.125000
G01 X37.535448 Y46.648914 Z-0.125000
G01 X37.528148 Y40.256024 Z-0.125000
G00 Z5.000000

(End cutting path id: polyline159185)


(Start cutting path id: polyline159187)
(Change tool to Default tool)

G00 Z5.000000
G00 X37.737034 Y252.287624

G01 Z-0.125000 F400.0(Penetrate)
G01 X37.647944 Y244.829205 Z-0.125000 F800.000000
G01 X37.367829 Y240.567270 Z-0.125000
G01 X37.094091 Y238.436290 Z-0.125000
G01 X36.699730 Y236.305335 Z-0.125000
G01 X35.855365 Y233.108878 Z-0.125000
G01 X36.173870 Y232.043401 Z-0.125000
G01 X37.138726 Y229.912447 Z-0.125000
G01 X37.463502 Y228.846943 Z-0.125000
G01 X37.671253 Y227.781440 Z-0.125000
G01 X37.762273 Y226.715962 Z-0.125000
G01 X37.743803 Y225.650485 Z-0.125000
G01 X37.436304 Y223.519505 Z-0.125000
G01 X36.330664 Y219.257570 Z-0.125000
G01 X35.879443 Y217.126589 Z-0.125000
G01 X35.656135 Y214.995635 Z-0.125000
G01 X35.642405 Y213.930132 Z-0.125000
G01 X35.691065 Y212.864655 Z-0.125000
G01 X35.943610 Y210.733673 Z-0.125000
G01 X36.916694 Y205.406233 Z-0.125000
G01 X37.211546 Y203.275283 Z-0.125000
G01 X37.387864 Y201.144303 Z-0.125000
G01 X37.437074 Y197.947843 Z-0.125000
G01 X37.331240 Y195.816864 Z-0.125000
G01 X37.106133 Y193.685914 Z-0.125000
G01 X35.976441 Y187.292994 Z-0.125000
G01 X35.647088 Y184.096534 Z-0.125000
G01 X35.648388 Y183.031064 Z-0.125000
G01 X35.846852 Y180.900104 Z-0.125000
G01 X36.279578 Y178.769124 Z-0.125000
G01 X37.391886 Y174.507164 Z-0.125000
G01 X37.728648 Y172.376214 Z-0.125000
G01 X37.766878 Y171.310734 Z-0.125000
G01 X37.697768 Y170.245254 Z-0.125000
G01 X37.512771 Y169.179754 Z-0.125000
G01 X37.210247 Y168.114274 Z-0.125000
G01 X36.795830 Y167.048794 Z-0.125000
G01 X35.690877 Y164.917794 Z-0.125000
G01 X33.730341 Y161.721334 Z-0.125000
G01 X32.608984 Y159.590374 Z-0.125000
G01 X32.205097 Y158.524874 Z-0.125000
G01 X31.942234 Y157.459394 Z-0.125000
G01 X31.839126 Y156.393924 Z-0.125000
G01 X31.905806 Y155.328444 Z-0.125000
G01 X32.142476 Y154.262944 Z-0.125000
G01 X32.539060 Y153.197434 Z-0.125000
G01 X33.075370 Y152.131964 Z-0.125000
G01 X33.180330 Y151.066484 Z-0.125000
G01 X32.622959 Y150.001004 Z-0.125000
G01 X32.200631 Y148.935524 Z-0.125000
G01 X31.935175 Y147.870024 Z-0.125000
G01 X31.838415 Y146.804544 Z-0.125000
G01 X31.911915 Y145.739074 Z-0.125000
G01 X32.147367 Y144.673564 Z-0.125000
G01 X32.527441 Y143.608094 Z-0.125000
G01 X33.027345 Y142.542614 Z-0.125000
G01 X35.575044 Y138.280674 Z-0.125000
G01 X36.706667 Y136.149694 Z-0.125000
G01 X37.140214 Y135.084224 Z-0.125000
G01 X37.464090 Y134.018744 Z-0.125000
G01 X37.671312 Y132.953244 Z-0.125000
G01 X37.762192 Y131.887764 Z-0.125000
G01 X37.630006 Y129.756784 Z-0.125000
G01 X37.189792 Y127.625824 Z-0.125000
G01 X36.087062 Y123.363894 Z-0.125000
G01 X35.739373 Y121.232914 Z-0.125000
G01 X35.657983 Y120.167434 Z-0.125000
G01 X35.641583 Y119.101934 Z-0.125000
G01 X35.787104 Y116.970974 Z-0.125000
G01 X36.886739 Y110.578034 Z-0.125000
G01 X37.178124 Y108.447054 Z-0.125000
G01 X37.553542 Y103.119644 Z-0.125000
G01 X37.623362 Y100.988664 Z-0.125000
G01 X37.548932 Y97.792204 Z-0.125000
G01 X37.359464 Y95.661254 Z-0.125000
G01 X37.040376 Y93.530274 Z-0.125000
G01 X36.233450 Y89.268334 Z-0.125000
G01 X36.292900 Y87.137354 Z-0.125000
G01 X36.220480 Y83.940894 Z-0.125000
G01 X35.673454 Y76.482504 Z-0.125000
G01 X35.691684 Y73.286044 Z-0.125000
G01 X35.916315 Y71.155094 Z-0.125000
G01 X36.310677 Y69.024114 Z-0.125000
G01 X37.525591 Y63.696674 Z-0.125000
G01 X36.290595 Y57.303764 Z-0.125000
G01 X35.977064 Y55.172804 Z-0.125000
G01 X35.774737 Y53.041824 Z-0.125000
G01 X35.649907 Y49.845364 Z-0.125000
G01 X35.647207 Y40.256024 Z-0.125000
G00 Z5.000000

(End cutting path id: polyline159187)


(Start cutting path id: polyline159189)
(Change tool to Default tool)

G00 Z5.000000
G00 X35.521783 Y252.287624

G01 Z-0.125000 F400.0(Penetrate)
G01 X35.418173 Y246.960186 Z-0.125000 F800.000000
G01 X35.073606 Y242.698224 Z-0.125000
G01 X34.382329 Y238.436290 Z-0.125000
G01 X33.304681 Y234.174355 Z-0.125000
G01 X34.540867 Y232.043401 Z-0.125000
G01 X35.453944 Y229.912447 Z-0.125000
G01 X35.743901 Y228.846943 Z-0.125000
G01 X35.913420 Y227.781440 Z-0.125000
G01 X35.965120 Y226.715962 Z-0.125000
G01 X35.908500 Y225.650485 Z-0.125000
G01 X35.537158 Y223.519505 Z-0.125000
G01 X34.166034 Y218.192093 Z-0.125000
G01 X33.877929 Y216.061112 Z-0.125000
G01 X33.837369 Y214.995635 Z-0.125000
G01 X33.866629 Y213.930132 Z-0.125000
G01 X34.108591 Y211.799151 Z-0.125000
G01 X35.193991 Y206.471713 Z-0.125000
G01 X35.545755 Y204.340763 Z-0.125000
G01 X35.764327 Y202.209803 Z-0.125000
G01 X35.872330 Y199.013323 Z-0.125000
G01 X35.778430 Y195.816864 Z-0.125000
G01 X35.572822 Y193.685914 Z-0.125000
G01 X35.233045 Y191.554954 Z-0.125000
G01 X34.339600 Y187.292994 Z-0.125000
G01 X33.984926 Y185.162014 Z-0.125000
G01 X33.837685 Y183.031064 Z-0.125000
G01 X33.864545 Y181.965584 Z-0.125000
G01 X33.962205 Y180.900104 Z-0.125000
G01 X34.350454 Y178.769124 Z-0.125000
G01 X35.721261 Y173.441684 Z-0.125000
G01 X35.962217 Y171.310734 Z-0.125000
G01 X35.932367 Y170.245254 Z-0.125000
G01 X35.785999 Y169.179754 Z-0.125000
G01 X35.519141 Y168.114274 Z-0.125000
G01 X35.135389 Y167.048794 Z-0.125000
G01 X34.069806 Y164.917794 Z-0.125000
G01 X32.100168 Y161.721334 Z-0.125000
G01 X30.928990 Y159.590374 Z-0.125000
G01 X30.490549 Y158.524874 Z-0.125000
G01 X30.189189 Y157.459394 Z-0.125000
G01 X30.045837 Y156.393924 Z-0.125000
G01 X30.072747 Y155.328444 Z-0.125000
G01 X30.272428 Y154.262944 Z-0.125000
G01 X30.636838 Y153.197434 Z-0.125000
G01 X31.575474 Y151.066484 Z-0.125000
G01 X30.985638 Y150.001004 Z-0.125000
G01 X30.520210 Y148.935524 Z-0.125000
G01 X30.203371 Y147.870024 Z-0.125000
G01 X30.049834 Y146.804544 Z-0.125000
G01 X30.064334 Y145.739074 Z-0.125000
G01 X30.241790 Y144.673564 Z-0.125000
G01 X30.568127 Y143.608094 Z-0.125000
G01 X31.021543 Y142.542614 Z-0.125000
G01 X31.574073 Y141.477134 Z-0.125000
G01 X34.116031 Y137.215174 Z-0.125000
G01 X35.145657 Y135.084224 Z-0.125000
G01 X35.517396 Y134.018744 Z-0.125000
G01 X35.778434 Y132.953244 Z-0.125000
G01 X35.926072 Y131.887764 Z-0.125000
G01 X35.964302 Y130.822284 Z-0.125000
G01 X35.903162 Y129.756784 Z-0.125000
G01 X35.546503 Y127.625824 Z-0.125000
G01 X34.238536 Y122.298394 Z-0.125000
G01 X33.925110 Y120.167434 Z-0.125000
G01 X33.853280 Y119.101934 Z-0.125000
G01 X33.838780 Y118.036454 Z-0.125000
G01 X33.961864 Y115.905444 Z-0.125000
G01 X34.978843 Y108.447054 Z-0.125000
G01 X35.463877 Y103.119644 Z-0.125000
G01 X35.547197 Y100.988664 Z-0.125000
G01 X35.458587 Y97.792204 Z-0.125000
G01 X35.253588 Y95.661254 Z-0.125000
G01 X34.059815 Y88.202864 Z-0.125000
G01 X34.055115 Y85.006404 Z-0.125000
G01 X33.847311 Y78.613484 Z-0.125000
G01 X33.850111 Y76.482504 Z-0.125000
G01 X33.966263 Y74.351554 Z-0.125000
G01 X34.223544 Y72.220574 Z-0.125000
G01 X34.615339 Y70.089614 Z-0.125000
G01 X35.554848 Y65.827654 Z-0.125000
G01 X35.653038 Y64.762174 Z-0.125000
G01 X34.303134 Y58.369264 Z-0.125000
G01 X33.919911 Y55.172804 Z-0.125000
G01 X33.840981 Y51.976344 Z-0.125000
G01 X34.080720 Y44.517954 Z-0.125000
G01 X34.038780 Y40.256024 Z-0.125000
G00 Z5.000000

(End cutting path id: polyline159189)


(Start cutting path id: polyline159191)
(Change tool to Default tool)

G00 Z5.000000
G00 X34.234374 Y252.287624

G01 Z-0.125000 F400.0(Penetrate)
G01 X34.159444 Y248.025663 Z-0.125000 F800.000000
G01 X33.820222 Y243.763728 Z-0.125000
G01 X33.145084 Y239.501793 Z-0.125000
G01 X32.093392 Y235.239858 Z-0.125000
G01 X32.467301 Y234.174355 Z-0.125000
G01 X33.695947 Y232.043401 Z-0.125000
G01 X34.195559 Y230.977924 Z-0.125000
G01 X34.590291 Y229.912447 Z-0.125000
G01 X34.867971 Y228.846943 Z-0.125000
G01 X35.024261 Y227.781440 Z-0.125000
G01 X35.062471 Y226.715962 Z-0.125000
G01 X34.832098 Y224.585008 Z-0.125000
G01 X33.455471 Y219.257570 Z-0.125000
G01 X33.061665 Y217.126589 Z-0.125000
G01 X32.962895 Y216.061112 Z-0.125000
G01 X32.936595 Y214.995635 Z-0.125000
G01 X33.090767 Y212.864655 Z-0.125000
G01 X33.459279 Y210.733673 Z-0.125000
G01 X34.385082 Y206.471713 Z-0.125000
G01 X34.732877 Y204.340763 Z-0.125000
G01 X34.937374 Y202.209803 Z-0.125000
G01 X35.027884 Y199.013323 Z-0.125000
G01 X34.949884 Y195.816864 Z-0.125000
G01 X34.758908 Y193.685914 Z-0.125000
G01 X34.424316 Y191.554954 Z-0.125000
G01 X33.291291 Y186.227514 Z-0.125000
G01 X32.997656 Y184.096534 Z-0.125000
G01 X32.939816 Y183.031064 Z-0.125000
G01 X32.952146 Y181.965584 Z-0.125000
G01 X33.191700 Y179.834604 Z-0.125000
G01 X33.671601 Y177.703644 Z-0.125000
G01 X34.549938 Y174.507164 Z-0.125000
G01 X34.968456 Y172.376214 Z-0.125000
G01 X35.057016 Y171.310734 Z-0.125000
G01 X35.040586 Y170.245254 Z-0.125000
G01 X34.907580 Y169.179754 Z-0.125000
G01 X34.653236 Y168.114274 Z-0.125000
G01 X34.280385 Y167.048794 Z-0.125000
G01 X33.229433 Y164.917794 Z-0.125000
G01 X31.258499 Y161.721334 Z-0.125000
G01 X30.071208 Y159.590374 Z-0.125000
G01 X29.621258 Y158.524874 Z-0.125000
G01 X29.306906 Y157.459394 Z-0.125000
G01 X29.149849 Y156.393924 Z-0.125000
G01 X29.163129 Y155.328444 Z-0.125000
G01 X29.349977 Y154.262944 Z-0.125000
G01 X29.703143 Y153.197434 Z-0.125000
G01 X30.798254 Y151.066484 Z-0.125000
G01 X30.190664 Y150.001004 Z-0.125000
G01 X29.700709 Y148.935524 Z-0.125000
G01 X29.353973 Y147.870024 Z-0.125000
G01 X29.166859 Y146.804544 Z-0.125000
G01 X29.145849 Y145.739074 Z-0.125000
G01 X29.287904 Y144.673564 Z-0.125000
G01 X29.580851 Y143.608094 Z-0.125000
G01 X30.533086 Y141.477134 Z-0.125000
G01 X33.052687 Y137.215174 Z-0.125000
G01 X34.117767 Y135.084224 Z-0.125000
G01 X34.516362 Y134.018744 Z-0.125000
G01 X34.808462 Y132.953244 Z-0.125000
G01 X34.989595 Y131.887764 Z-0.125000
G01 X35.061905 Y130.822284 Z-0.125000
G01 X35.033545 Y129.756784 Z-0.125000
G01 X34.731629 Y127.625824 Z-0.125000
G01 X33.684911 Y123.363894 Z-0.125000
G01 X33.242077 Y121.232914 Z-0.125000
G01 X32.987099 Y119.101934 Z-0.125000
G01 X32.940079 Y118.036454 Z-0.125000
G01 X33.081499 Y114.839974 Z-0.125000
G01 X33.738830 Y109.512564 Z-0.125000
G01 X34.280802 Y104.185124 Z-0.125000
G01 X34.451564 Y100.988664 Z-0.125000
G01 X34.420394 Y98.857714 Z-0.125000
G01 X34.158113 Y95.661254 Z-0.125000
G01 X33.055356 Y88.202864 Z-0.125000
G01 X32.962906 Y77.548014 Z-0.125000
G01 X33.083212 Y75.417024 Z-0.125000
G01 X33.325067 Y73.286044 Z-0.125000
G01 X33.688869 Y71.155094 Z-0.125000
G01 X34.785250 Y65.827654 Z-0.125000
G01 X34.626394 Y64.762174 Z-0.125000
G01 X33.433229 Y59.434744 Z-0.125000
G01 X33.014923 Y56.238284 Z-0.125000
G01 X32.947353 Y53.041824 Z-0.125000
G01 X33.372803 Y44.517954 Z-0.125000
G01 X33.315363 Y40.256024 Z-0.125000
G00 Z5.000000

(End cutting path id: polyline159191)


(Start cutting path id: polyline159193)
(Change tool to Default tool)

G00 Z5.000000
G00 X32.840020 Y252.287624

G01 Z-0.125000 F400.0(Penetrate)
G01 X32.751970 Y248.025663 Z-0.125000 F800.000000
G01 X32.365864 Y243.763728 Z-0.125000
G01 X31.855244 Y240.567270 Z-0.125000
G01 X30.876683 Y236.305335 Z-0.125000
G01 X30.938173 Y235.239858 Z-0.125000
G01 X32.251935 Y233.108878 Z-0.125000
G01 X33.326752 Y230.977924 Z-0.125000
G01 X33.714129 Y229.912447 Z-0.125000
G01 X33.983263 Y228.846943 Z-0.125000
G01 X34.130371 Y227.781440 Z-0.125000
G01 X34.159321 Y226.715962 Z-0.125000
G01 X33.912359 Y224.585008 Z-0.125000
G01 X32.525572 Y219.257570 Z-0.125000
G01 X32.143726 Y217.126589 Z-0.125000
G01 X32.053736 Y216.061112 Z-0.125000
G01 X32.037516 Y214.995635 Z-0.125000
G01 X32.213570 Y212.864655 Z-0.125000
G01 X32.602322 Y210.733673 Z-0.125000
G01 X33.547387 Y206.471713 Z-0.125000
G01 X33.890102 Y204.340763 Z-0.125000
G01 X34.081369 Y202.209803 Z-0.125000
G01 X34.154079 Y199.013323 Z-0.125000
G01 X34.092349 Y195.816864 Z-0.125000
G01 X33.915184 Y193.685914 Z-0.125000
G01 X33.586572 Y191.554954 Z-0.125000
G01 X32.426692 Y186.227514 Z-0.125000
G01 X32.111573 Y184.096534 Z-0.125000
G01 X32.042813 Y183.031064 Z-0.125000
G01 X32.044913 Y181.965584 Z-0.125000
G01 X32.268036 Y179.834604 Z-0.125000
G01 X32.739497 Y177.703644 Z-0.125000
G01 X33.871200 Y173.441684 Z-0.125000
G01 X34.152187 Y171.310734 Z-0.125000
G01 X34.144987 Y170.245254 Z-0.125000
G01 X34.021241 Y169.179754 Z-0.125000
G01 X33.775576 Y168.114274 Z-0.125000
G01 X33.410371 Y167.048794 Z-0.125000
G01 X32.935788 Y165.983324 Z-0.125000
G01 X31.737199 Y163.852284 Z-0.125000
G01 X29.763646 Y160.655854 Z-0.125000
G01 X28.742645 Y158.524874 Z-0.125000
G01 X28.419430 Y157.459394 Z-0.125000
G01 X28.252954 Y156.393924 Z-0.125000
G01 X28.256854 Y155.328444 Z-0.125000
G01 X28.434839 Y154.262944 Z-0.125000
G01 X28.780173 Y153.197434 Z-0.125000
G01 X29.275526 Y152.131964 Z-0.125000
G01 X29.893699 Y151.066484 Z-0.125000
G01 X28.897384 Y148.935524 Z-0.125000
G01 X28.518553 Y147.870024 Z-0.125000
G01 X28.294769 Y146.804544 Z-0.125000
G01 X28.234579 Y145.739074 Z-0.125000
G01 X28.337052 Y144.673564 Z-0.125000
G01 X28.592137 Y143.608094 Z-0.125000
G01 X28.981921 Y142.542614 Z-0.125000
G01 X30.062665 Y140.411634 Z-0.125000
G01 X32.551838 Y136.149694 Z-0.125000
G01 X33.493517 Y134.018744 Z-0.125000
G01 X33.818663 Y132.953244 Z-0.125000
G01 X34.036124 Y131.887764 Z-0.125000
G01 X34.146085 Y130.822284 Z-0.125000
G01 X34.154585 Y129.756784 Z-0.125000
G01 X33.916592 Y127.625824 Z-0.125000
G01 X32.452018 Y121.232914 Z-0.125000
G01 X32.146001 Y119.101934 Z-0.125000
G01 X32.035378 Y116.970974 Z-0.125000
G01 X32.181561 Y113.774494 Z-0.125000
G01 X33.159884 Y104.185124 Z-0.125000
G01 X33.325698 Y100.988664 Z-0.125000
G01 X33.295058 Y98.857714 Z-0.125000
G01 X33.152791 Y96.726734 Z-0.125000
G01 X32.093585 Y88.202864 Z-0.125000
G01 X32.034975 Y81.809944 Z-0.125000
G01 X32.091015 Y78.613484 Z-0.125000
G01 X32.321361 Y75.417024 Z-0.125000
G01 X32.608487 Y73.286044 Z-0.125000
G01 X33.839567 Y66.893134 Z-0.125000
G01 X33.823297 Y65.827654 Z-0.125000
G01 X32.392139 Y59.434744 Z-0.125000
G01 X32.057203 Y56.238284 Z-0.125000
G01 X32.098743 Y53.041824 Z-0.125000
G01 X32.662279 Y45.583434 Z-0.125000
G01 X32.714399 Y43.452474 Z-0.125000
G01 X32.628069 Y40.256024 Z-0.125000
G00 Z5.000000

(End cutting path id: polyline159193)


(Start cutting path id: polyline159195)
(Change tool to Default tool)

G00 Z5.000000
G00 X31.358035 Y252.287624

G01 Z-0.125000 F400.0(Penetrate)
G01 X31.261275 Y248.025663 Z-0.125000 F800.000000
G01 X30.981611 Y244.829205 Z-0.125000
G01 X30.321422 Y240.567270 Z-0.125000
G01 X29.392841 Y236.305335 Z-0.125000
G01 X31.373459 Y233.108878 Z-0.125000
G01 X32.442905 Y230.977924 Z-0.125000
G01 X32.826206 Y229.912447 Z-0.125000
G01 X33.090684 Y228.846943 Z-0.125000
G01 X33.232792 Y227.781440 Z-0.125000
G01 X33.256682 Y226.715962 Z-0.125000
G01 X33.000751 Y224.585008 Z-0.125000
G01 X31.608937 Y219.257570 Z-0.125000
G01 X31.233811 Y217.126589 Z-0.125000
G01 X31.148721 Y216.061112 Z-0.125000
G01 X31.138061 Y214.995635 Z-0.125000
G01 X31.326127 Y212.864655 Z-0.125000
G01 X31.725833 Y210.733673 Z-0.125000
G01 X32.680582 Y206.471713 Z-0.125000
G01 X33.019619 Y204.340763 Z-0.125000
G01 X33.202102 Y202.209803 Z-0.125000
G01 X33.260922 Y199.013323 Z-0.125000
G01 X33.212052 Y195.816864 Z-0.125000
G01 X33.044042 Y193.685914 Z-0.125000
G01 X32.719663 Y191.554954 Z-0.125000
G01 X31.357111 Y185.162014 Z-0.125000
G01 X31.144492 Y183.031064 Z-0.125000
G01 X31.140892 Y181.965584 Z-0.125000
G01 X31.211722 Y180.900104 Z-0.125000
G01 X31.562507 Y178.769124 Z-0.125000
G01 X32.958872 Y173.441684 Z-0.125000
G01 X33.248564 Y171.310734 Z-0.125000
G01 X33.246464 Y170.245254 Z-0.125000
G01 X33.127745 Y169.179754 Z-0.125000
G01 X32.886842 Y168.114274 Z-0.125000
G01 X32.525818 Y167.048794 Z-0.125000
G01 X32.054622 Y165.983324 Z-0.125000
G01 X31.491006 Y164.917794 Z-0.125000
G01 X28.882479 Y160.655854 Z-0.125000
G01 X28.315821 Y159.590374 Z-0.125000
G01 X27.853832 Y158.524874 Z-0.125000
G01 X27.525828 Y157.459394 Z-0.125000
G01 X27.354246 Y156.393924 Z-0.125000
G01 X27.352946 Y155.328444 Z-0.125000
G01 X27.526116 Y154.262944 Z-0.125000
G01 X27.867164 Y153.197434 Z-0.125000
G01 X28.359050 Y152.131964 Z-0.125000
G01 X28.974709 Y151.066484 Z-0.125000
G01 X28.654061 Y150.001004 Z-0.125000
G01 X28.111691 Y148.935524 Z-0.125000
G01 X27.699021 Y147.870024 Z-0.125000
G01 X27.435946 Y146.804544 Z-0.125000
G01 X27.333181 Y145.739074 Z-0.125000
G01 X27.392051 Y144.673564 Z-0.125000
G01 X27.604856 Y143.608094 Z-0.125000
G01 X27.955878 Y142.542614 Z-0.125000
G01 X28.977646 Y140.411634 Z-0.125000
G01 X31.455628 Y136.149694 Z-0.125000
G01 X32.445990 Y134.018744 Z-0.125000
G01 X33.061464 Y131.887764 Z-0.125000
G01 X33.212144 Y130.822284 Z-0.125000
G01 X33.261434 Y129.756784 Z-0.125000
G01 X33.218514 Y128.691304 Z-0.125000
G01 X32.912391 Y126.560324 Z-0.125000
G01 X31.488880 Y120.167434 Z-0.125000
G01 X31.222524 Y118.036454 Z-0.125000
G01 X31.133574 Y115.905444 Z-0.125000
G01 X31.261632 Y112.709014 Z-0.125000
G01 X31.684198 Y107.381584 Z-0.125000
G01 X32.025908 Y104.185124 Z-0.125000
G01 X32.180133 Y100.988664 Z-0.125000
G01 X32.151323 Y98.857714 Z-0.125000
G01 X32.019376 Y96.726734 Z-0.125000
G01 X31.298704 Y90.333814 Z-0.125000
G01 X31.150008 Y88.202864 Z-0.125000
G01 X31.157008 Y82.875424 Z-0.125000
G01 X31.242948 Y79.678964 Z-0.125000
G01 X31.479115 Y76.482504 Z-0.125000
G01 X31.751239 Y74.351554 Z-0.125000
G01 X32.911172 Y67.958614 Z-0.125000
G01 X33.026134 Y66.893134 Z-0.125000
G01 X31.556611 Y60.500214 Z-0.125000
G01 X31.165398 Y57.303764 Z-0.125000
G01 X31.201328 Y54.107324 Z-0.125000
G01 X32.001031 Y45.583434 Z-0.125000
G01 X32.061041 Y43.452474 Z-0.125000
G01 X31.961341 Y40.256024 Z-0.125000
G00 Z5.000000

(End cutting path id: polyline159195)


(Start cutting path id: polyline159197)
(Change tool to Default tool)

G00 Z5.000000
G00 X29.814509 Y252.287624

G01 Z-0.125000 F400.0(Penetrate)
G01 X29.714021 Y248.025663 Z-0.125000 F800.000000
G01 X29.428085 Y244.829205 Z-0.125000
G01 X28.966599 Y241.632747 Z-0.125000
G01 X28.126679 Y237.370813 Z-0.125000
G01 X28.495059 Y236.305335 Z-0.125000
G01 X30.475782 Y233.108878 Z-0.125000
G01 X31.544382 Y230.977924 Z-0.125000
G01 X31.927022 Y229.912447 Z-0.125000
G01 X32.190759 Y228.846943 Z-0.125000
G01 X32.332073 Y227.781440 Z-0.125000
G01 X32.355173 Y226.715962 Z-0.125000
G01 X32.097839 Y224.585008 Z-0.125000
G01 X30.705257 Y219.257570 Z-0.125000
G01 X30.331216 Y217.126589 Z-0.125000
G01 X30.246896 Y216.061112 Z-0.125000
G01 X30.237096 Y214.995635 Z-0.125000
G01 X30.427067 Y212.864655 Z-0.125000
G01 X31.784723 Y206.471713 Z-0.125000
G01 X32.123126 Y204.340763 Z-0.125000
G01 X32.304074 Y202.209803 Z-0.125000
G01 X32.360064 Y199.013323 Z-0.125000
G01 X32.313844 Y195.816864 Z-0.125000
G01 X32.147448 Y193.685914 Z-0.125000
G01 X31.823809 Y191.554954 Z-0.125000
G01 X30.458242 Y185.162014 Z-0.125000
G01 X30.243691 Y183.031064 Z-0.125000
G01 X30.239191 Y181.965584 Z-0.125000
G01 X30.309201 Y180.900104 Z-0.125000
G01 X30.658848 Y178.769124 Z-0.125000
G01 X32.055795 Y173.441684 Z-0.125000
G01 X32.346889 Y171.310734 Z-0.125000
G01 X32.345589 Y170.245254 Z-0.125000
G01 X32.227638 Y169.179754 Z-0.125000
G01 X31.987502 Y168.114274 Z-0.125000
G01 X31.627140 Y167.048794 Z-0.125000
G01 X31.156499 Y165.983324 Z-0.125000
G01 X30.593254 Y164.917794 Z-0.125000
G01 X27.984356 Y160.655854 Z-0.125000
G01 X27.417169 Y159.590374 Z-0.125000
G01 X26.954519 Y158.524874 Z-0.125000
G01 X26.625748 Y157.459394 Z-0.125000
G01 X26.453371 Y156.393924 Z-0.125000
G01 X26.451271 Y155.328444 Z-0.125000
G01 X26.623673 Y154.262944 Z-0.125000
G01 X26.964033 Y153.197434 Z-0.125000
G01 X27.455391 Y152.131964 Z-0.125000
G01 X28.070653 Y151.066484 Z-0.125000
G01 X27.914549 Y150.001004 Z-0.125000
G01 X27.345536 Y148.935524 Z-0.125000
G01 X26.897887 Y147.870024 Z-0.125000
G01 X26.593431 Y146.804544 Z-0.125000
G01 X26.445053 Y145.739074 Z-0.125000
G01 X26.456513 Y144.673564 Z-0.125000
G01 X26.622644 Y143.608094 Z-0.125000
G01 X26.930170 Y142.542614 Z-0.125000
G01 X27.883146 Y140.411634 Z-0.125000
G01 X30.334960 Y136.149694 Z-0.125000
G01 X31.371624 Y134.018744 Z-0.125000
G01 X32.061816 Y131.887764 Z-0.125000
G01 X32.349154 Y129.756784 Z-0.125000
G01 X32.349074 Y128.691304 Z-0.125000
G01 X32.116585 Y126.560324 Z-0.125000
G01 X30.941200 Y121.232914 Z-0.125000
G01 X30.551548 Y119.101934 Z-0.125000
G01 X30.313820 Y116.970974 Z-0.125000
G01 X30.232700 Y114.839974 Z-0.125000
G01 X30.326020 Y111.643514 Z-0.125000
G01 X30.513742 Y108.447054 Z-0.125000
G01 X30.891964 Y104.185124 Z-0.125000
G01 X31.028595 Y100.988664 Z-0.125000
G01 X30.886275 Y96.726734 Z-0.125000
G01 X30.253233 Y89.268334 Z-0.125000
G01 X30.382218 Y81.809944 Z-0.125000
G01 X30.567505 Y78.613484 Z-0.125000
G01 X30.783644 Y76.482504 Z-0.125000
G01 X32.155852 Y67.958614 Z-0.125000
G01 X31.806946 Y65.827654 Z-0.125000
G01 X30.994199 Y62.631194 Z-0.125000
G01 X30.545572 Y60.500214 Z-0.125000
G01 X30.285380 Y58.369264 Z-0.125000
G01 X30.236750 Y57.303764 Z-0.125000
G01 X30.379387 Y54.107324 Z-0.125000
G01 X31.055397 Y48.779894 Z-0.125000
G01 X31.343555 Y45.583434 Z-0.125000
G01 X31.409035 Y43.452474 Z-0.125000
G01 X31.299842 Y40.256024 Z-0.125000
G00 Z5.000000

(End cutting path id: polyline159197)


(Start cutting path id: polyline159199)
(Change tool to Default tool)

G00 Z5.000000
G00 X28.241006 Y252.287624

G01 Z-0.125000 F400.0(Penetrate)
G01 X28.230956 Y250.156643 Z-0.125000 F800.000000
G01 X28.068263 Y246.960186 Z-0.125000
G01 X27.589526 Y242.698224 Z-0.125000
G01 X26.875178 Y238.436290 Z-0.125000
G01 X26.953628 Y237.370813 Z-0.125000
G01 X30.138920 Y232.043401 Z-0.125000
G01 X31.016675 Y229.912447 Z-0.125000
G01 X31.283587 Y228.846943 Z-0.125000
G01 X31.428340 Y227.781440 Z-0.125000
G01 X31.454880 Y226.715962 Z-0.125000
G01 X31.203658 Y224.585008 Z-0.125000
G01 X29.814463 Y219.257570 Z-0.125000
G01 X29.435765 Y217.126589 Z-0.125000
G01 X29.348085 Y216.061112 Z-0.125000
G01 X29.334515 Y214.995635 Z-0.125000
G01 X29.516257 Y212.864655 Z-0.125000
G01 X29.910222 Y210.733673 Z-0.125000
G01 X30.859944 Y206.471713 Z-0.125000
G01 X31.201018 Y204.340763 Z-0.125000
G01 X31.388264 Y202.209803 Z-0.125000
G01 X31.454994 Y199.013323 Z-0.125000
G01 X31.398774 Y195.816864 Z-0.125000
G01 X31.225789 Y193.685914 Z-0.125000
G01 X30.899108 Y191.554954 Z-0.125000
G01 X29.546664 Y185.162014 Z-0.125000
G01 X29.340342 Y183.031064 Z-0.125000
G01 X29.339813 Y181.965584 Z-0.125000
G01 X29.413283 Y180.900104 Z-0.125000
G01 X29.767851 Y178.769124 Z-0.125000
G01 X31.162231 Y173.441684 Z-0.125000
G01 X31.447346 Y171.310734 Z-0.125000
G01 X31.442546 Y170.245254 Z-0.125000
G01 X31.321155 Y169.179754 Z-0.125000
G01 X31.077765 Y168.114274 Z-0.125000
G01 X30.714545 Y167.048794 Z-0.125000
G01 X30.241576 Y165.983324 Z-0.125000
G01 X29.044654 Y163.852284 Z-0.125000
G01 X27.069380 Y160.655854 Z-0.125000
G01 X26.044755 Y158.524874 Z-0.125000
G01 X25.719265 Y157.459394 Z-0.125000
G01 X25.550355 Y156.393924 Z-0.125000
G01 X25.551855 Y155.328444 Z-0.125000
G01 X25.727538 Y154.262944 Z-0.125000
G01 X26.070861 Y153.197434 Z-0.125000
G01 X26.564574 Y152.131964 Z-0.125000
G01 X27.181556 Y151.066484 Z-0.125000
G01 X27.195496 Y150.001004 Z-0.125000
G01 X26.117452 Y147.870024 Z-0.125000
G01 X25.770107 Y146.804544 Z-0.125000
G01 X25.573601 Y145.739074 Z-0.125000
G01 X25.534261 Y144.673564 Z-0.125000
G01 X25.649513 Y143.608094 Z-0.125000
G01 X25.908726 Y142.542614 Z-0.125000
G01 X26.294197 Y141.477134 Z-0.125000
G01 X27.345995 Y139.346154 Z-0.125000
G01 X29.760503 Y135.084224 Z-0.125000
G01 X30.696811 Y132.953244 Z-0.125000
G01 X31.272094 Y130.822284 Z-0.125000
G01 X31.412456 Y129.756784 Z-0.125000
G01 X31.458996 Y128.691304 Z-0.125000
G01 X31.310142 Y126.560324 Z-0.125000
G01 X30.932872 Y124.429374 Z-0.125000
G01 X29.800932 Y119.101934 Z-0.125000
G01 X29.510049 Y116.970974 Z-0.125000
G01 X29.334445 Y113.774494 Z-0.125000
G01 X29.466049 Y108.447054 Z-0.125000
G01 X29.772886 Y104.185124 Z-0.125000
G01 X29.886816 Y100.988664 Z-0.125000
G01 X29.825036 Y97.792204 Z-0.125000
G01 X29.349421 Y90.333814 Z-0.125000
G01 X29.347021 Y88.202864 Z-0.125000
G01 X29.554587 Y85.006404 Z-0.125000
G01 X29.654705 Y81.809944 Z-0.125000
G01 X29.883914 Y78.613484 Z-0.125000
G01 X30.269703 Y75.417024 Z-0.125000
G01 X31.256466 Y69.024114 Z-0.125000
G01 X31.177776 Y67.958614 Z-0.125000
G01 X30.978862 Y66.893134 Z-0.125000
G01 X29.744025 Y61.565724 Z-0.125000
G01 X29.423562 Y59.434744 Z-0.125000
G01 X29.348762 Y58.369264 Z-0.125000
G01 X29.332172 Y57.303764 Z-0.125000
G01 X29.454277 Y55.172804 Z-0.125000
G01 X30.366534 Y48.779894 Z-0.125000
G01 X30.675409 Y45.583434 Z-0.125000
G01 X30.743669 Y43.452474 Z-0.125000
G01 X30.629448 Y40.256024 Z-0.125000
G00 Z5.000000

(End cutting path id: polyline159199)


(Start cutting path id: polyline159201)
(Change tool to Default tool)

G00 Z5.000000
G00 X26.672741 Y252.287624

G01 Z-0.125000 F400.0(Penetrate)
G01 X26.630861 Y249.091140 Z-0.125000 F800.000000
G01 X26.426418 Y245.894708 Z-0.125000
G01 X26.077988 Y242.698224 Z-0.125000
G01 X25.481115 Y238.436290 Z-0.125000
G01 X26.022770 Y237.370813 Z-0.125000
G01 X29.206077 Y232.043401 Z-0.125000
G01 X30.094786 Y229.912447 Z-0.125000
G01 X30.368815 Y228.846943 Z-0.125000
G01 X30.521162 Y227.781440 Z-0.125000
G01 X30.555372 Y226.715962 Z-0.125000
G01 X30.317856 Y224.585008 Z-0.125000
G01 X28.936731 Y219.257570 Z-0.125000
G01 X28.548005 Y217.126589 Z-0.125000
G01 X28.452965 Y216.061112 Z-0.125000
G01 X28.430975 Y214.995635 Z-0.125000
G01 X28.594514 Y212.864655 Z-0.125000
G01 X28.971730 Y210.733673 Z-0.125000
G01 X29.906027 Y206.471713 Z-0.125000
G01 X30.251890 Y204.340763 Z-0.125000
G01 X30.451148 Y202.209803 Z-0.125000
G01 X30.534808 Y199.013323 Z-0.125000
G01 X30.463028 Y195.816864 Z-0.125000
G01 X30.277556 Y193.685914 Z-0.125000
G01 X29.945265 Y191.554954 Z-0.125000
G01 X28.800466 Y186.227514 Z-0.125000
G01 X28.497598 Y184.096534 Z-0.125000
G01 X28.435078 Y183.031064 Z-0.125000
G01 X28.442978 Y181.965584 Z-0.125000
G01 X28.675547 Y179.834604 Z-0.125000
G01 X29.151903 Y177.703644 Z-0.125000
G01 X30.277387 Y173.441684 Z-0.125000
G01 X30.549141 Y171.310734 Z-0.125000
G01 X30.536681 Y170.245254 Z-0.125000
G01 X30.407644 Y169.179754 Z-0.125000
G01 X30.157030 Y168.114274 Z-0.125000
G01 X29.787434 Y167.048794 Z-0.125000
G01 X28.740901 Y164.917794 Z-0.125000
G01 X26.769782 Y161.721334 Z-0.125000
G01 X25.577807 Y159.590374 Z-0.125000
G01 X25.124497 Y158.524874 Z-0.125000
G01 X24.806335 Y157.459394 Z-0.125000
G01 X24.645230 Y156.393924 Z-0.125000
G01 X24.654430 Y155.328444 Z-0.125000
G01 X24.837469 Y154.262944 Z-0.125000
G01 X25.187275 Y153.197434 Z-0.125000
G01 X25.686279 Y152.131964 Z-0.125000
G01 X26.307018 Y151.066484 Z-0.125000
G01 X26.496883 Y150.001004 Z-0.125000
G01 X25.359360 Y147.870024 Z-0.125000
G01 X24.968332 Y146.804544 Z-0.125000
G01 X24.721793 Y145.739074 Z-0.125000
G01 X24.628633 Y144.673564 Z-0.125000
G01 X24.689113 Y143.608094 Z-0.125000
G01 X24.895356 Y142.542614 Z-0.125000
G01 X25.232329 Y141.477134 Z-0.125000
G01 X25.678972 Y140.411634 Z-0.125000
G01 X28.603941 Y135.084224 Z-0.125000
G01 X29.595520 Y132.953244 Z-0.125000
G01 X30.256317 Y130.822284 Z-0.125000
G01 X30.541723 Y128.691304 Z-0.125000
G01 X30.551723 Y127.625824 Z-0.125000
G01 X30.356937 Y125.494844 Z-0.125000
G01 X29.079132 Y119.101934 Z-0.125000
G01 X28.746048 Y116.970974 Z-0.125000
G01 X28.537106 Y114.839974 Z-0.125000
G01 X28.430135 Y111.643514 Z-0.125000
G01 X28.474295 Y108.447054 Z-0.125000
G01 X28.770761 Y100.988664 Z-0.125000
G01 X28.722901 Y97.792204 Z-0.125000
G01 X28.439638 Y91.399314 Z-0.125000
G01 X28.447838 Y89.268334 Z-0.125000
G01 X28.588756 Y87.137354 Z-0.125000
G01 X28.860747 Y85.006404 Z-0.125000
G01 X28.982244 Y81.809944 Z-0.125000
G01 X29.238334 Y78.613484 Z-0.125000
G01 X30.372047 Y70.089614 Z-0.125000
G01 X30.340327 Y69.024114 Z-0.125000
G01 X30.148742 Y67.958614 Z-0.125000
G01 X29.193649 Y63.696674 Z-0.125000
G01 X28.587621 Y60.500214 Z-0.125000
G01 X28.478401 Y59.434744 Z-0.125000
G01 X28.445541 Y57.303764 Z-0.125000
G01 X28.630855 Y55.172804 Z-0.125000
G01 X29.507499 Y49.845364 Z-0.125000
G01 X29.906358 Y46.648914 Z-0.125000
G01 X30.052302 Y43.452474 Z-0.125000
G01 X29.937764 Y40.256024 Z-0.125000
G00 Z5.000000

(End cutting path id: polyline159201)


(Start cutting path id: polyline159203)
(Change tool to Default tool)

G00 Z5.000000
G00 X25.146545 Y252.287624

G01 Z-0.125000 F400.0(Penetrate)
G01 X25.005787 Y246.960186 Z-0.125000 F800.000000
G01 X24.746442 Y243.763728 Z-0.125000
G01 X24.279743 Y239.501793 Z-0.125000
G01 X24.543030 Y238.436290 Z-0.125000
G01 X25.076033 Y237.370813 Z-0.125000
G01 X27.667283 Y233.108878 Z-0.125000
G01 X28.759774 Y230.977924 Z-0.125000
G01 X29.160724 Y229.912447 Z-0.125000
G01 X29.445627 Y228.846943 Z-0.125000
G01 X29.609695 Y227.781440 Z-0.125000
G01 X29.655815 Y226.715962 Z-0.125000
G01 X29.593875 Y225.650485 Z-0.125000
G01 X29.213854 Y223.519505 Z-0.125000
G01 X27.842175 Y218.192093 Z-0.125000
G01 X27.563013 Y216.061112 Z-0.125000
G01 X27.528273 Y214.995635 Z-0.125000
G01 X27.563883 Y213.930132 Z-0.125000
G01 X27.818703 Y211.799151 Z-0.125000
G01 X28.923127 Y206.471713 Z-0.125000
G01 X29.273726 Y204.340763 Z-0.125000
G01 X29.487113 Y202.209803 Z-0.125000
G01 X29.588766 Y199.013323 Z-0.125000
G01 X29.500636 Y195.816864 Z-0.125000
G01 X29.300426 Y193.685914 Z-0.125000
G01 X28.962315 Y191.554954 Z-0.125000
G01 X28.056620 Y187.292994 Z-0.125000
G01 X27.689934 Y185.162014 Z-0.125000
G01 X27.529781 Y183.031064 Z-0.125000
G01 X27.550711 Y181.965584 Z-0.125000
G01 X27.643181 Y180.900104 Z-0.125000
G01 X28.024313 Y178.769124 Z-0.125000
G01 X29.401046 Y173.441684 Z-0.125000
G01 X29.651871 Y171.310734 Z-0.125000
G01 X29.627581 Y170.245254 Z-0.125000
G01 X29.486717 Y169.179754 Z-0.125000
G01 X29.224991 Y168.114274 Z-0.125000
G01 X28.845711 Y167.048794 Z-0.125000
G01 X27.786108 Y164.917794 Z-0.125000
G01 X25.815808 Y161.721334 Z-0.125000
G01 X24.637936 Y159.590374 Z-0.125000
G01 X24.194733 Y158.524874 Z-0.125000
G01 X23.887975 Y157.459394 Z-0.125000
G01 X23.738935 Y156.393924 Z-0.125000
G01 X23.760235 Y155.328444 Z-0.125000
G01 X23.954624 Y154.262944 Z-0.125000
G01 X24.314458 Y153.197434 Z-0.125000
G01 X24.821505 Y152.131964 Z-0.125000
G01 X25.447906 Y151.066484 Z-0.125000
G01 X25.819567 Y150.001004 Z-0.125000
G01 X24.626111 Y147.870024 Z-0.125000
G01 X24.191427 Y146.804544 Z-0.125000
G01 X23.893665 Y145.739074 Z-0.125000
G01 X23.744307 Y144.673564 Z-0.125000
G01 X23.746507 Y143.608094 Z-0.125000
G01 X23.895362 Y142.542614 Z-0.125000
G01 X24.178651 Y141.477134 Z-0.125000
G01 X25.069794 Y139.346154 Z-0.125000
G01 X27.970818 Y134.018744 Z-0.125000
G01 X28.875508 Y131.887764 Z-0.125000
G01 X29.443621 Y129.756784 Z-0.125000
G01 X29.653436 Y127.625824 Z-0.125000
G01 X29.636766 Y126.560324 Z-0.125000
G01 X29.414119 Y124.429374 Z-0.125000
G01 X28.190077 Y118.036454 Z-0.125000
G01 X27.877869 Y115.905444 Z-0.125000
G01 X27.610428 Y112.709014 Z-0.125000
G01 X27.530868 Y109.512564 Z-0.125000
G01 X27.696868 Y100.988664 Z-0.125000
G01 X27.529889 Y92.464794 Z-0.125000
G01 X27.609129 Y89.268334 Z-0.125000
G01 X27.812805 Y87.137354 Z-0.125000
G01 X28.151577 Y85.006404 Z-0.125000
G01 X28.513395 Y79.678964 Z-0.125000
G01 X29.501138 Y71.155094 Z-0.125000
G01 X29.509038 Y70.089614 Z-0.125000
G01 X29.112665 Y67.958614 Z-0.125000
G01 X27.925903 Y62.631194 Z-0.125000
G01 X27.636290 Y60.500214 Z-0.125000
G01 X27.529266 Y58.369264 Z-0.125000
G01 X27.571306 Y57.303764 Z-0.125000
G01 X27.813029 Y55.172804 Z-0.125000
G01 X28.780425 Y49.845364 Z-0.125000
G01 X29.185661 Y46.648914 Z-0.125000
G01 X29.326552 Y43.452474 Z-0.125000
G01 X29.216432 Y40.256024 Z-0.125000
G00 Z5.000000

(End cutting path id: polyline159203)


(Start cutting path id: polyline159205)
(Change tool to Default tool)

G00 Z5.000000
G00 X23.698639 Y252.287624

G01 Z-0.125000 F400.0(Penetrate)
G01 X23.632789 Y248.025663 Z-0.125000 F800.000000
G01 X23.132568 Y240.567270 Z-0.125000
G01 X23.188368 Y239.501793 Z-0.125000
G01 X23.592969 Y238.436290 Z-0.125000
G01 X24.114092 Y237.370813 Z-0.125000
G01 X26.691954 Y233.108878 Z-0.125000
G01 X27.800135 Y230.977924 Z-0.125000
G01 X28.213440 Y229.912447 Z-0.125000
G01 X28.512843 Y228.846943 Z-0.125000
G01 X28.692653 Y227.781440 Z-0.125000
G01 X28.754853 Y226.715962 Z-0.125000
G01 X28.708363 Y225.650485 Z-0.125000
G01 X28.353689 Y223.519505 Z-0.125000
G01 X26.984814 Y218.192093 Z-0.125000
G01 X26.680305 Y216.061112 Z-0.125000
G01 X26.628945 Y214.995635 Z-0.125000
G01 X26.646405 Y213.930132 Z-0.125000
G01 X26.864157 Y211.799151 Z-0.125000
G01 X28.264597 Y204.340763 Z-0.125000
G01 X28.490842 Y202.209803 Z-0.125000
G01 X28.608502 Y199.013323 Z-0.125000
G01 X28.566012 Y196.882363 Z-0.125000
G01 X28.415358 Y194.751384 Z-0.125000
G01 X27.950803 Y191.554954 Z-0.125000
G01 X26.895830 Y186.227514 Z-0.125000
G01 X26.657361 Y184.096534 Z-0.125000
G01 X26.664961 Y181.965584 Z-0.125000
G01 X26.772197 Y180.900104 Z-0.125000
G01 X27.173305 Y178.769124 Z-0.125000
G01 X28.531835 Y173.441684 Z-0.125000
G01 X28.753979 Y171.310734 Z-0.125000
G01 X28.713629 Y170.245254 Z-0.125000
G01 X28.556890 Y169.179754 Z-0.125000
G01 X28.280374 Y168.114274 Z-0.125000
G01 X27.888235 Y167.048794 Z-0.125000
G01 X26.811645 Y164.917794 Z-0.125000
G01 X24.843674 Y161.721334 Z-0.125000
G01 X23.685382 Y159.590374 Z-0.125000
G01 X23.256042 Y158.524874 Z-0.125000
G01 X22.964868 Y157.459394 Z-0.125000
G01 X22.832233 Y156.393924 Z-0.125000
G01 X22.869803 Y155.328444 Z-0.125000
G01 X23.079406 Y154.262944 Z-0.125000
G01 X23.452548 Y153.197434 Z-0.125000
G01 X25.162683 Y150.001004 Z-0.125000
G01 X23.918797 Y147.870024 Z-0.125000
G01 X23.441436 Y146.804544 Z-0.125000
G01 X23.092133 Y145.739074 Z-0.125000
G01 X22.885017 Y144.673564 Z-0.125000
G01 X22.826097 Y143.608094 Z-0.125000
G01 X22.913537 Y142.542614 Z-0.125000
G01 X23.138036 Y141.477134 Z-0.125000
G01 X23.930648 Y139.346154 Z-0.125000
G01 X26.776374 Y134.018744 Z-0.125000
G01 X27.741257 Y131.887764 Z-0.125000
G01 X28.401842 Y129.756784 Z-0.125000
G01 X28.718654 Y127.625824 Z-0.125000
G01 X28.755004 Y126.560324 Z-0.125000
G01 X28.626813 Y124.429374 Z-0.125000
G01 X28.310715 Y122.298394 Z-0.125000
G01 X27.329085 Y116.970974 Z-0.125000
G01 X26.923558 Y113.774494 Z-0.125000
G01 X26.718083 Y110.578034 Z-0.125000
G01 X26.628363 Y107.381584 Z-0.125000
G01 X26.678763 Y100.988664 Z-0.125000
G01 X26.628833 Y93.530274 Z-0.125000
G01 X26.733608 Y90.333814 Z-0.125000
G01 X27.074126 Y87.137354 Z-0.125000
G01 X27.639012 Y83.940894 Z-0.125000
G01 X27.900976 Y79.678964 Z-0.125000
G01 X28.549125 Y73.286044 Z-0.125000
G01 X28.675094 Y71.155094 Z-0.125000
G01 X28.319864 Y69.024114 Z-0.125000
G01 X27.300213 Y64.762174 Z-0.125000
G01 X26.899237 Y62.631194 Z-0.125000
G01 X26.673971 Y60.500214 Z-0.125000
G01 X26.636741 Y58.369264 Z-0.125000
G01 X26.703471 Y57.303764 Z-0.125000
G01 X26.993560 Y55.172804 Z-0.125000
G01 X28.030118 Y49.845364 Z-0.125000
G01 X28.329044 Y47.714414 Z-0.125000
G01 X28.544653 Y44.517954 Z-0.125000
G01 X28.553553 Y42.386974 Z-0.125000
G01 X28.460073 Y40.256024 Z-0.125000
G00 Z5.000000

(End cutting path id: polyline159205)


(Start cutting path id: polyline159207)
(Change tool to Default tool)

G00 Z5.000000
G00 X22.362282 Y252.287624

G01 Z-0.125000 F400.0(Penetrate)
G01 X22.314972 Y248.025663 Z-0.125000 F800.000000
G01 X22.003822 Y240.567270 Z-0.125000
G01 X22.245731 Y239.501793 Z-0.125000
G01 X22.632128 Y238.436290 Z-0.125000
G01 X23.137853 Y237.370813 Z-0.125000
G01 X25.696479 Y233.108878 Z-0.125000
G01 X26.823181 Y230.977924 Z-0.125000
G01 X27.251594 Y229.912447 Z-0.125000
G01 X27.568856 Y228.846943 Z-0.125000
G01 X27.768273 Y227.781440 Z-0.125000
G01 X27.850663 Y226.715962 Z-0.125000
G01 X27.823753 Y225.650485 Z-0.125000
G01 X27.501887 Y223.519505 Z-0.125000
G01 X26.387753 Y219.257570 Z-0.125000
G01 X25.944682 Y217.126589 Z-0.125000
G01 X25.736349 Y214.995635 Z-0.125000
G01 X25.731749 Y213.930132 Z-0.125000
G01 X25.790089 Y212.864655 Z-0.125000
G01 X26.061552 Y210.733673 Z-0.125000
G01 X27.061994 Y205.406233 Z-0.125000
G01 X27.357137 Y203.275283 Z-0.125000
G01 X27.530624 Y201.144303 Z-0.125000
G01 X27.588964 Y199.013323 Z-0.125000
G01 X27.541044 Y196.882363 Z-0.125000
G01 X27.379225 Y194.751384 Z-0.125000
G01 X27.095406 Y192.620434 Z-0.125000
G01 X25.931028 Y186.227514 Z-0.125000
G01 X25.738305 Y184.096534 Z-0.125000
G01 X25.730305 Y183.031064 Z-0.125000
G01 X25.788615 Y181.965584 Z-0.125000
G01 X26.099395 Y179.834604 Z-0.125000
G01 X27.668136 Y173.441684 Z-0.125000
G01 X27.853582 Y171.310734 Z-0.125000
G01 X27.793102 Y170.245254 Z-0.125000
G01 X27.616545 Y169.179754 Z-0.125000
G01 X27.321746 Y168.114274 Z-0.125000
G01 X26.913891 Y167.048794 Z-0.125000
G01 X25.817167 Y164.917794 Z-0.125000
G01 X23.853932 Y161.721334 Z-0.125000
G01 X22.721277 Y159.590374 Z-0.125000
G01 X22.309665 Y158.524874 Z-0.125000
G01 X22.038282 Y157.459394 Z-0.125000
G01 X21.926284 Y156.393924 Z-0.125000
G01 X21.984254 Y155.328444 Z-0.125000
G01 X22.212854 Y154.262944 Z-0.125000
G01 X22.602479 Y153.197434 Z-0.125000
G01 X23.133286 Y152.131964 Z-0.125000
G01 X24.493456 Y150.001004 Z-0.125000
G01 X23.238538 Y147.870024 Z-0.125000
G01 X22.720510 Y146.804544 Z-0.125000
G01 X22.320301 Y145.739074 Z-0.125000
G01 X22.054607 Y144.673564 Z-0.125000
G01 X21.932422 Y143.608094 Z-0.125000
G01 X21.954942 Y142.542614 Z-0.125000
G01 X22.116020 Y141.477134 Z-0.125000
G01 X22.403014 Y140.411634 Z-0.125000
G01 X23.278494 Y138.280674 Z-0.125000
G01 X26.087681 Y132.953244 Z-0.125000
G01 X26.980650 Y130.822284 Z-0.125000
G01 X27.569559 Y128.691304 Z-0.125000
G01 X27.832687 Y126.560324 Z-0.125000
G01 X27.852217 Y125.494844 Z-0.125000
G01 X27.711856 Y123.363894 Z-0.125000
G01 X26.496863 Y115.905444 Z-0.125000
G01 X26.113508 Y112.709014 Z-0.125000
G01 X25.812306 Y108.447054 Z-0.125000
G01 X25.726956 Y104.185124 Z-0.125000
G01 X25.733456 Y95.661254 Z-0.125000
G01 X25.877681 Y91.399314 Z-0.125000
G01 X26.207722 Y88.202864 Z-0.125000
G01 X26.969457 Y83.940894 Z-0.125000
G01 X27.081164 Y82.875424 Z-0.125000
G01 X27.827157 Y72.220574 Z-0.125000
G01 X27.536327 Y70.089614 Z-0.125000
G01 X26.058867 Y63.696674 Z-0.125000
G01 X25.791770 Y61.565724 Z-0.125000
G01 X25.728690 Y59.434744 Z-0.125000
G01 X25.840264 Y57.303764 Z-0.125000
G01 X25.979700 Y56.238284 Z-0.125000
G01 X27.058644 Y50.910874 Z-0.125000
G01 X27.545134 Y47.714414 Z-0.125000
G01 X27.741798 Y44.517954 Z-0.125000
G01 X27.667158 Y40.256024 Z-0.125000
G00 Z5.000000

(End cutting path id: polyline159207)


(Start cutting path id: polyline159209)
(Change tool to Default tool)

G00 Z5.000000
G00 X21.165439 Y252.287624

G01 Z-0.125000 F400.0(Penetrate)
G01 X21.026903 Y241.632747 Z-0.125000 F800.000000
G01 X21.080163 Y240.567270 Z-0.125000
G01 X21.297756 Y239.501793 Z-0.125000
G01 X21.661849 Y238.436290 Z-0.125000
G01 X22.148497 Y237.370813 Z-0.125000
G01 X24.680586 Y233.108878 Z-0.125000
G01 X25.827740 Y230.977924 Z-0.125000
G01 X26.273563 Y229.912447 Z-0.125000
G01 X26.611727 Y228.846943 Z-0.125000
G01 X26.834347 Y227.781440 Z-0.125000
G01 X26.940922 Y226.715962 Z-0.125000
G01 X26.937722 Y225.650485 Z-0.125000
G01 X26.656575 Y223.519505 Z-0.125000
G01 X25.568185 Y219.257570 Z-0.125000
G01 X25.103445 Y217.126589 Z-0.125000
G01 X24.854234 Y214.995635 Z-0.125000
G01 X24.824444 Y213.930132 Z-0.125000
G01 X24.856034 Y212.864655 Z-0.125000
G01 X25.074633 Y210.733673 Z-0.125000
G01 X25.995594 Y205.406233 Z-0.125000
G01 X26.287615 Y203.275283 Z-0.125000
G01 X26.466791 Y201.144303 Z-0.125000
G01 X26.529151 Y199.013323 Z-0.125000
G01 X26.477821 Y196.882363 Z-0.125000
G01 X26.310022 Y194.751384 Z-0.125000
G01 X26.028082 Y192.620434 Z-0.125000
G01 X24.964880 Y186.227514 Z-0.125000
G01 X24.825895 Y184.096534 Z-0.125000
G01 X24.843515 Y183.031064 Z-0.125000
G01 X24.924905 Y181.965584 Z-0.125000
G01 X25.269604 Y179.834604 Z-0.125000
G01 X26.365455 Y175.572664 Z-0.125000
G01 X26.807971 Y173.441684 Z-0.125000
G01 X26.948544 Y171.310734 Z-0.125000
G01 X26.863854 Y170.245254 Z-0.125000
G01 X26.663776 Y169.179754 Z-0.125000
G01 X26.347520 Y168.114274 Z-0.125000
G01 X25.921514 Y167.048794 Z-0.125000
G01 X24.802326 Y164.917794 Z-0.125000
G01 X22.847558 Y161.721334 Z-0.125000
G01 X21.747050 Y159.590374 Z-0.125000
G01 X21.357240 Y158.524874 Z-0.125000
G01 X21.109854 Y157.459394 Z-0.125000
G01 X21.022784 Y156.393924 Z-0.125000
G01 X21.105144 Y155.328444 Z-0.125000
G01 X21.356286 Y154.262944 Z-0.125000
G01 X21.765306 Y153.197434 Z-0.125000
G01 X22.311300 Y152.131964 Z-0.125000
G01 X23.686048 Y150.001004 Z-0.125000
G01 X23.221652 Y148.935524 Z-0.125000
G01 X22.030207 Y146.804544 Z-0.125000
G01 X21.580812 Y145.739074 Z-0.125000
G01 X21.256856 Y144.673564 Z-0.125000
G01 X21.070166 Y143.608094 Z-0.125000
G01 X21.025056 Y142.542614 Z-0.125000
G01 X21.118586 Y141.477134 Z-0.125000
G01 X21.341259 Y140.411634 Z-0.125000
G01 X22.108948 Y138.280674 Z-0.125000
G01 X24.851274 Y132.953244 Z-0.125000
G01 X25.804118 Y130.822284 Z-0.125000
G01 X26.487590 Y128.691304 Z-0.125000
G01 X26.713597 Y127.625824 Z-0.125000
G01 X26.938731 Y125.494844 Z-0.125000
G01 X26.949131 Y124.429374 Z-0.125000
G01 X26.809775 Y122.298394 Z-0.125000
G01 X25.694239 Y114.839974 Z-0.125000
G01 X25.125782 Y109.512564 Z-0.125000
G01 X24.930890 Y106.316104 Z-0.125000
G01 X24.848500 Y100.988664 Z-0.125000
G01 X24.899460 Y95.661254 Z-0.125000
G01 X25.047733 Y92.464794 Z-0.125000
G01 X25.519934 Y88.202864 Z-0.125000
G01 X26.459867 Y82.875424 Z-0.125000
G01 X26.947891 Y73.286044 Z-0.125000
G01 X26.893731 Y72.220574 Z-0.125000
G01 X26.544878 Y70.089614 Z-0.125000
G01 X25.477549 Y65.827654 Z-0.125000
G01 X25.060804 Y63.696674 Z-0.125000
G01 X24.847735 Y61.565724 Z-0.125000
G01 X24.852935 Y59.434744 Z-0.125000
G01 X25.034677 Y57.303764 Z-0.125000
G01 X25.326142 Y55.172804 Z-0.125000
G01 X26.251337 Y50.910874 Z-0.125000
G01 X26.728566 Y47.714414 Z-0.125000
G01 X26.902635 Y44.517954 Z-0.125000
G01 X26.839875 Y40.256024 Z-0.125000
G00 Z5.000000

(End cutting path id: polyline159209)


(Start cutting path id: polyline159211)
(Change tool to Default tool)

G00 Z5.000000
G00 X20.128828 Y252.287624

G01 Z-0.125000 F400.0(Penetrate)
G01 X20.131628 Y241.632747 Z-0.125000 F800.000000
G01 X20.157348 Y240.567270 Z-0.125000
G01 X20.346340 Y239.501793 Z-0.125000
G01 X20.683922 Y238.436290 Z-0.125000
G01 X21.147578 Y237.370813 Z-0.125000
G01 X21.708759 Y236.305335 Z-0.125000
G01 X24.260400 Y232.043401 Z-0.125000
G01 X24.812480 Y230.977924 Z-0.125000
G01 X25.639224 Y228.846943 Z-0.125000
G01 X25.888355 Y227.781440 Z-0.125000
G01 X26.022896 Y226.715962 Z-0.125000
G01 X26.047526 Y225.650485 Z-0.125000
G01 X25.815380 Y223.519505 Z-0.125000
G01 X24.279103 Y217.126589 Z-0.125000
G01 X23.986765 Y214.995635 Z-0.125000
G01 X23.929405 Y213.930132 Z-0.125000
G01 X23.931305 Y212.864655 Z-0.125000
G01 X24.089632 Y210.733673 Z-0.125000
G01 X25.189849 Y203.275283 Z-0.125000
G01 X25.368390 Y201.144303 Z-0.125000
G01 X25.432100 Y199.013323 Z-0.125000
G01 X25.379610 Y196.882363 Z-0.125000
G01 X25.211891 Y194.751384 Z-0.125000
G01 X24.113843 Y187.292994 Z-0.125000
G01 X23.925301 Y184.096534 Z-0.125000
G01 X23.970991 Y183.031064 Z-0.125000
G01 X24.241289 Y180.900104 Z-0.125000
G01 X25.776984 Y174.507164 Z-0.125000
G01 X26.040482 Y172.376214 Z-0.125000
G01 X26.035982 Y171.310734 Z-0.125000
G01 X25.923217 Y170.245254 Z-0.125000
G01 X25.696231 Y169.179754 Z-0.125000
G01 X24.909625 Y167.048794 Z-0.125000
G01 X23.766704 Y164.917794 Z-0.125000
G01 X21.825615 Y161.721334 Z-0.125000
G01 X20.764398 Y159.590374 Z-0.125000
G01 X20.400543 Y158.524874 Z-0.125000
G01 X20.181468 Y157.459394 Z-0.125000
G01 X20.123498 Y156.393924 Z-0.125000
G01 X20.234121 Y155.328444 Z-0.125000
G01 X20.511113 Y154.262944 Z-0.125000
G01 X20.942146 Y153.197434 Z-0.125000
G01 X21.505073 Y152.131964 Z-0.125000
G01 X22.895035 Y150.001004 Z-0.125000
G01 X22.614789 Y148.935524 Z-0.125000
G01 X21.371353 Y146.804544 Z-0.125000
G01 X20.875735 Y145.739074 Z-0.125000
G01 X20.494920 Y144.673564 Z-0.125000
G01 X20.243566 Y143.608094 Z-0.125000
G01 X20.129028 Y142.542614 Z-0.125000
