%
(Header)
(Generated by gcodetools from Inkscape.)
(Using default header. To add your own header create file "header" in the output dir.)
M3
(Header end.)
G21 (All units in mm)

(Start cutting path id: polyline5875)
(Change tool to Default tool)

G00 Z3.000000
G00 X175.364590 Y131.581991

G00 Z4.875000 (Fast pre-penetrate)
G01 Z-0.125000 F400.0(Penetrate)
G01 X176.826702 Y134.668193 Z-0.125000 F800.000000
G01 X177.302079 Y135.990420 Z-0.125000
G01 X177.511099 Y136.896934 Z-0.125000
G01 X177.579044 Y137.741139 Z-0.125000
G01 X177.497447 Y138.534782 Z-0.125000
G01 X177.262524 Y139.291490 Z-0.125000
G01 X176.713805 Y140.269389 Z-0.125000
G01 X175.425683 Y141.749413 Z-0.125000
G01 X170.224007 Y146.641606 Z-0.125000
G01 X165.399945 Y151.951231 Z-0.125000
G01 X163.417239 Y154.012782 Z-0.125000
G01 X160.608452 Y156.674540 Z-0.125000
G01 X155.178918 Y161.416555 Z-0.125000
G01 X154.242956 Y162.363471 Z-0.125000
G01 X153.515194 Y163.260646 Z-0.125000
G01 X152.892127 Y164.360173 Z-0.125000
G01 X152.549545 Y165.499283 Z-0.125000
G01 X152.413788 Y166.746871 Z-0.125000
G01 X152.251413 Y170.860449 Z-0.125000
G01 X152.017628 Y172.407042 Z-0.125000
G01 X151.601703 Y174.056770 Z-0.125000
G01 X150.966625 Y175.770051 Z-0.125000
G01 X150.333266 Y177.066507 Z-0.125000
G01 X149.274775 Y178.765024 Z-0.125000
G01 X148.325504 Y179.984699 Z-0.125000
G01 X146.477339 Y181.846781 Z-0.125000
G01 X145.233481 Y182.830554 Z-0.125000
G01 X143.911175 Y183.697037 Z-0.125000
G01 X141.589221 Y184.861176 Z-0.125000
G01 X140.159309 Y185.390394 Z-0.125000
G01 X138.722173 Y185.798831 Z-0.125000
G01 X136.807227 Y186.172052 Z-0.125000
G01 X134.903420 Y186.380543 Z-0.125000
G01 X129.074313 Y186.565275 Z-0.125000
G01 X126.919178 Y186.709526 Z-0.125000
G01 X124.603918 Y186.982946 Z-0.125000
G01 X122.143720 Y187.405247 Z-0.125000
G01 X118.926311 Y188.138274 Z-0.125000
G01 X115.655192 Y189.057303 Z-0.125000
G01 X112.455378 Y190.086425 Z-0.125000
G01 X105.724678 Y192.426768 Z-0.125000
G01 X103.488422 Y193.112831 Z-0.125000
G01 X101.957175 Y193.463880 Z-0.125000
G01 X100.947738 Y193.596092 Z-0.125000
G01 X100.042731 Y193.609559 Z-0.125000
G01 X99.224800 Y193.502536 Z-0.125000
G01 X98.001235 Y193.063381 Z-0.125000
G01 X96.652841 Y192.151945 Z-0.125000
G01 X94.914504 Y190.497878 Z-0.125000
G01 X92.683488 Y188.004157 Z-0.125000
G01 X92.054441 Y187.538835 Z-0.125000
G01 X91.351339 Y187.423397 Z-0.125000
G01 X89.185515 Y187.641361 Z-0.125000
G01 X87.666862 Y187.663956 Z-0.125000
G01 X86.211152 Y187.539179 Z-0.125000
G01 X84.574971 Y187.234644 Z-0.125000
G01 X82.805123 Y186.714077 Z-0.125000
G01 X80.955846 Y185.956311 Z-0.125000
G01 X79.080402 Y184.957431 Z-0.125000
G01 X77.682875 Y184.052874 Z-0.125000
G01 X75.407832 Y182.253869 Z-0.125000
G01 X73.227403 Y180.121753 Z-0.125000
G01 X71.549180 Y178.224958 Z-0.125000
G01 X66.960649 Y172.636515 Z-0.125000
G01 X64.685182 Y170.191556 Z-0.125000
G01 X63.230426 Y168.842236 Z-0.125000
G01 X61.709920 Y167.621106 Z-0.125000
G01 X60.131021 Y166.556345 Z-0.125000
G01 X59.051681 Y165.944205 Z-0.125000
G01 X57.955990 Y165.415463 Z-0.125000
G01 X56.293086 Y164.783030 Z-0.125000
G01 X54.624176 Y164.341600 Z-0.125000
G01 X52.970426 Y164.079319 Z-0.125000
G01 X51.354088 Y163.974147 Z-0.125000
G01 X49.797600 Y163.995181 Z-0.125000
G01 X43.916872 Y164.569115 Z-0.125000
G01 X42.792818 Y164.494052 Z-0.125000
G01 X41.945226 Y164.176156 Z-0.125000
G01 X41.623387 Y163.914960 Z-0.125000
G01 X41.262046 Y163.391694 Z-0.125000
G01 X41.036251 Y162.715182 Z-0.125000
G01 X40.931291 Y161.898229 Z-0.125000
G01 X41.012677 Y159.924043 Z-0.125000
G01 X41.429421 Y157.255009 Z-0.125000
G01 X41.878392 Y155.185652 Z-0.125000
G01 X42.522149 Y152.924605 Z-0.125000
G01 X45.418486 Y144.950947 Z-0.125000
G01 X46.538149 Y141.440777 Z-0.125000
G01 X46.979738 Y139.665875 Z-0.125000
G01 X47.312345 Y137.893380 Z-0.125000
G01 X47.520228 Y136.133427 Z-0.125000
G01 X47.594443 Y134.394958 Z-0.125000
G01 X47.420030 Y131.565005 Z-0.125000
G01 X47.149759 Y129.916944 Z-0.125000
G01 X46.774818 Y128.311692 Z-0.125000
G01 X45.980249 Y125.738993 Z-0.125000
G01 X43.601198 Y119.222922 Z-0.125000
G01 X42.981412 Y117.078662 Z-0.125000
G01 X42.493839 Y114.946017 Z-0.125000
G01 X42.240924 Y113.267318 Z-0.125000
G01 X42.169222 Y111.660293 Z-0.125000
G01 X42.304874 Y110.159420 Z-0.125000
G01 X42.650181 Y108.790520 Z-0.125000
G01 X43.348680 Y107.289514 Z-0.125000
G01 X43.885228 Y106.505502 Z-0.125000
G01 X44.487869 Y105.806765 Z-0.125000
G01 X45.811101 Y104.637176 Z-0.125000
G01 X48.798931 Y102.511992 Z-0.125000
G01 X49.677479 Y101.659215 Z-0.125000
G01 X50.311711 Y100.829456 Z-0.125000
G01 X51.216532 Y99.245503 Z-0.125000
G01 X53.623734 Y94.244832 Z-0.125000
G01 X55.215280 Y91.370137 Z-0.125000
G01 X60.586606 Y82.885913 Z-0.125000
G01 X65.344761 Y74.895163 Z-0.125000
G01 X67.051163 Y72.342228 Z-0.125000
G01 X68.457924 Y70.616855 Z-0.125000
G01 X69.914427 Y69.215545 Z-0.125000
G01 X71.431652 Y68.160149 Z-0.125000
G01 X72.367799 Y67.724408 Z-0.125000
G01 X73.002904 Y67.523430 Z-0.125000
G01 X73.647164 Y67.396060 Z-0.125000
G01 X74.630751 Y67.342509 Z-0.125000
G01 X76.313023 Y67.598387 Z-0.125000
G01 X78.382036 Y68.364328 Z-0.125000
G01 X82.153640 Y70.265092 Z-0.125000
G01 X83.785350 Y70.945785 Z-0.125000
G01 X85.343664 Y71.311545 Z-0.125000
G01 X86.841204 Y71.283075 Z-0.125000
G01 X87.725043 Y71.068208 Z-0.125000
G01 X88.910137 Y70.567220 Z-0.125000
G01 X90.132563 Y69.860360 Z-0.125000
G01 X93.550870 Y67.602012 Z-0.125000
G01 X95.506826 Y66.445863 Z-0.125000
G01 X98.823454 Y64.744330 Z-0.125000
G01 X101.819009 Y63.414853 Z-0.125000
G01 X104.513443 Y62.502889 Z-0.125000
G01 X106.857490 Y61.988777 Z-0.125000
G01 X109.282578 Y61.754939 Z-0.125000
G01 X111.268776 Y61.790261 Z-0.125000
G01 X112.776688 Y61.948376 Z-0.125000
G01 X114.798367 Y62.326518 Z-0.125000
G01 X116.815230 Y62.875660 Z-0.125000
G01 X118.806190 Y63.563046 Z-0.125000
G01 X121.695675 Y64.761369 Z-0.125000
G01 X128.410474 Y67.879162 Z-0.125000
G01 X133.532483 Y69.927114 Z-0.125000
G01 X134.833729 Y70.575289 Z-0.125000
G01 X135.791176 Y71.177666 Z-0.125000
G01 X137.193598 Y72.278199 Z-0.125000
G01 X141.867695 Y76.549256 Z-0.125000
G01 X145.437210 Y79.536266 Z-0.125000
G01 X148.903565 Y82.172439 Z-0.125000
G01 X155.105999 Y86.606162 Z-0.125000
G01 X156.886510 Y88.000197 Z-0.125000
G01 X157.908251 Y88.905071 Z-0.125000
G01 X159.024950 Y90.042460 Z-0.125000
G01 X159.968082 Y91.183501 Z-0.125000
G01 X160.571040 Y92.064086 Z-0.125000
G01 X161.112509 Y93.089874 Z-0.125000
G01 X161.434825 Y94.030096 Z-0.125000
G01 X161.591431 Y94.912930 Z-0.125000
G01 X161.720204 Y97.192498 Z-0.125000
G01 X161.890622 Y98.428921 Z-0.125000
G01 X162.258339 Y99.945511 Z-0.125000
G01 X162.875611 Y101.784283 Z-0.125000
G01 X164.393921 Y105.396502 Z-0.125000
G01 X169.868725 Y117.141130 Z-0.125000
G01 X173.869432 Y126.958377 Z-0.125000
G01 X177.489245 Y134.641867 Z-0.125000
G01 X177.944222 Y135.947028 Z-0.125000
G01 X178.176261 Y137.129556 Z-0.125000
G01 X178.157899 Y138.214055 Z-0.125000
G01 X177.970918 Y138.981134 Z-0.125000
G01 X177.490091 Y139.969642 Z-0.125000
G01 X176.537196 Y141.203340 Z-0.125000
G01 X171.290779 Y146.304103 Z-0.125000
G01 X164.932268 Y153.239723 Z-0.125000
G01 X161.683268 Y156.334022 Z-0.125000
G01 X156.097868 Y161.215499 Z-0.125000
G01 X155.114995 Y162.190381 Z-0.125000
G01 X154.341566 Y163.111024 Z-0.125000
G01 X153.667938 Y164.232274 Z-0.125000
G01 X153.288076 Y165.383580 Z-0.125000
G01 X153.134168 Y166.634582 Z-0.125000
G01 X153.077812 Y170.016561 Z-0.125000
G01 X152.908055 Y171.896159 Z-0.125000
G01 X152.487448 Y173.960938 Z-0.125000
G01 X151.732672 Y176.141578 Z-0.125000
G01 X150.598695 Y178.339707 Z-0.125000
G01 X149.415613 Y180.035182 Z-0.125000
G01 X147.621105 Y181.983650 Z-0.125000
G01 X145.973943 Y183.348607 Z-0.125000
G01 X144.643885 Y184.237342 Z-0.125000
G01 X142.784025 Y185.228734 Z-0.125000
G01 X141.350779 Y185.826004 Z-0.125000
G01 X139.410645 Y186.434201 Z-0.125000
G01 X137.456408 Y186.844834 Z-0.125000
G01 X135.505664 Y187.088673 Z-0.125000
G01 X129.560987 Y187.345054 Z-0.125000
G01 X126.809932 Y187.560504 Z-0.125000
G01 X124.426172 Y187.882264 Z-0.125000
G01 X121.898451 Y188.354571 Z-0.125000
G01 X119.269899 Y188.970414 Z-0.125000
G01 X116.599145 Y189.704235 Z-0.125000
G01 X113.301171 Y190.726187 Z-0.125000
G01 X105.728541 Y193.249594 Z-0.125000
G01 X103.845477 Y193.795112 Z-0.125000
G01 X102.196384 Y194.164020 Z-0.125000
G01 X100.767239 Y194.333247 Z-0.125000
G01 X99.528488 Y194.291231 Z-0.125000
G01 X98.438697 Y194.037946 Z-0.125000
G01 X97.450400 Y193.584768 Z-0.125000
G01 X96.517930 Y192.954426 Z-0.125000
G01 X95.608135 Y192.182214 Z-0.125000
G01 X94.283712 Y190.875200 Z-0.125000
G01 X92.340667 Y188.733559 Z-0.125000
G01 X91.596237 Y188.187936 Z-0.125000
G01 X90.889879 Y188.114435 Z-0.125000
G01 X88.951835 Y188.387988 Z-0.125000
G01 X87.467049 Y188.469823 Z-0.125000
G01 X86.024436 Y188.400502 Z-0.125000
G01 X84.386376 Y188.153567 Z-0.125000
G01 X82.600388 Y187.687504 Z-0.125000
G01 X81.198495 Y187.177335 Z-0.125000
G01 X79.294424 Y186.273599 Z-0.125000
G01 X77.870332 Y185.430743 Z-0.125000
G01 X75.556289 Y183.732914 Z-0.125000
G01 X74.219563 Y182.547344 Z-0.125000
G01 X72.925990 Y181.248162 Z-0.125000
G01 X70.853564 Y178.876070 Z-0.125000
G01 X66.312130 Y173.248310 Z-0.125000
G01 X63.557873 Y170.318344 Z-0.125000
G01 X62.077637 Y168.997440 Z-0.125000
G01 X60.533240 Y167.815813 Z-0.125000
G01 X58.934259 Y166.799973 Z-0.125000
G01 X57.844468 Y166.224452 Z-0.125000
G01 X56.741183 Y165.734444 Z-0.125000
G01 X55.072908 Y165.161622 Z-0.125000
G01 X53.960469 Y164.885609 Z-0.125000
G01 X52.307434 Y164.619809 Z-0.125000
G01 X50.692948 Y164.510642 Z-0.125000
G01 X49.139635 Y164.526014 Z-0.125000
G01 X43.293012 Y165.018535 Z-0.125000
G01 X42.185229 Y164.896801 Z-0.125000
G01 X41.537980 Y164.641610 Z-0.125000
G01 X41.192963 Y164.384594 Z-0.125000
G01 X40.800560 Y163.864530 Z-0.125000
G01 X40.549127 Y163.186113 Z-0.125000
G01 X40.424905 Y162.361037 Z-0.125000
G01 X40.488485 Y160.351318 Z-0.125000
G01 X40.916448 Y157.616852 Z-0.125000
G01 X41.468024 Y155.081512 Z-0.125000
G01 X42.126386 Y152.787392 Z-0.125000
G01 X45.276352 Y144.270333 Z-0.125000
G01 X46.362836 Y140.807471 Z-0.125000
G01 X46.769870 Y139.068658 Z-0.125000
G01 X47.057181 Y137.338470 Z-0.125000
G01 X47.235642 Y134.496558 Z-0.125000
G01 X47.027759 Y131.732883 Z-0.125000
G01 X46.732035 Y130.121413 Z-0.125000
G01 X46.328705 Y128.549023 Z-0.125000
G01 X45.483600 Y126.020536 Z-0.125000
G01 X43.131643 Y119.979339 Z-0.125000
G01 X42.447510 Y117.812324 Z-0.125000
G01 X41.901967 Y115.659598 Z-0.125000
G01 X41.590711 Y113.951529 Z-0.125000
G01 X41.458287 Y112.300373 Z-0.125000
G01 X41.538668 Y110.740920 Z-0.125000
G01 X41.840134 Y109.300451 Z-0.125000
G01 X42.203909 Y108.310276 Z-0.125000
G01 X42.672670 Y107.403259 Z-0.125000
G01 X43.230120 Y106.581279 Z-0.125000
G01 X43.856891 Y105.842907 Z-0.125000
G01 X45.234125 Y104.593096 Z-0.125000
G01 X48.335276 Y102.310301 Z-0.125000
G01 X49.237319 Y101.418391 Z-0.125000
G01 X49.882001 Y100.563788 Z-0.125000
G01 X50.639132 Y99.250927 Z-0.125000
G01 X52.954498 Y94.367598 Z-0.125000
G01 X54.482941 Y91.525289 Z-0.125000
G01 X59.413128 Y83.548429 Z-0.125000
G01 X64.489179 Y74.675082 Z-0.125000
G01 X66.466276 Y71.595680 Z-0.125000
G01 X67.866052 Y69.876737 Z-0.125000
G01 X69.324169 Y68.518104 Z-0.125000
G01 X70.866767 Y67.507397 Z-0.125000
G01 X71.827759 Y67.098960 Z-0.125000
G01 X72.482708 Y66.916900 Z-0.125000
G01 X73.149034 Y66.809242 Z-0.125000
G01 X74.169266 Y66.787017 Z-0.125000
G01 X75.919482 Y67.099330 Z-0.125000
G01 X77.713672 Y67.770286 Z-0.125000
G01 X81.991212 Y69.941111 Z-0.125000
G01 X83.672267 Y70.642705 Z-0.125000
G01 X85.266274 Y71.006613 Z-0.125000
G01 X86.185091 Y71.026827 Z-0.125000
G01 X86.785985 Y70.952982 Z-0.125000
G01 X87.677445 Y70.712978 Z-0.125000
G01 X88.867539 Y70.169208 Z-0.125000
G01 X90.091183 Y69.412341 Z-0.125000
G01 X93.512347 Y67.025882 Z-0.125000
G01 X95.072037 Y66.052931 Z-0.125000
G01 X98.398692 Y64.267207 Z-0.125000
G01 X101.391946 Y62.867008 Z-0.125000
G01 X104.068256 Y61.883473 Z-0.125000
G01 X106.390924 Y61.304883 Z-0.125000
G01 X108.793761 Y61.007995 Z-0.125000
G01 X110.764931 Y60.998258 Z-0.125000
G01 X112.265090 Y61.127904 Z-0.125000
G01 X114.283356 Y61.477497 Z-0.125000
G01 X116.307072 Y62.010764 Z-0.125000
G01 X118.317109 Y62.696219 Z-0.125000
G01 X121.738061 Y64.133884 Z-0.125000
G01 X128.614891 Y67.361479 Z-0.125000
G01 X133.928776 Y69.497008 Z-0.125000
G01 X135.018805 Y70.036493 Z-0.125000
G01 X136.021998 Y70.644451 Z-0.125000
G01 X137.702576 Y71.944903 Z-0.125000
G01 X142.458006 Y76.263163 Z-0.125000
G01 X145.643611 Y78.909019 Z-0.125000
G01 X148.684279 Y81.218273 Z-0.125000
G01 X155.361533 Y85.915309 Z-0.125000
G01 X157.390515 Y87.478889 Z-0.125000
G01 X159.223202 Y89.232016 Z-0.125000
G01 X159.986920 Y90.138080 Z-0.125000
G01 X160.790327 Y91.272771 Z-0.125000
G01 X161.478692 Y92.559253 Z-0.125000
G01 X161.873821 Y93.732096 Z-0.125000
G01 X162.033682 Y94.649908 Z-0.125000
G01 X162.167058 Y96.628725 Z-0.125000
G01 X162.333375 Y97.868613 Z-0.125000
G01 X162.692149 Y99.380970 Z-0.125000
G01 X163.302648 Y101.213922 Z-0.125000
G01 X165.059294 Y105.332659 Z-0.125000
G01 X170.417312 Y116.667712 Z-0.125000
G01 X171.857992 Y120.065143 Z-0.125000
G01 X174.637172 Y127.027274 Z-0.125000
G01 X177.996318 Y134.264916 Z-0.125000
G01 X178.475081 Y135.586084 Z-0.125000
G01 X178.744770 Y136.785756 Z-0.125000
G01 X178.776467 Y137.887851 Z-0.125000
G01 X178.553874 Y138.921312 Z-0.125000
G01 X178.074608 Y139.919187 Z-0.125000
G01 X177.134439 Y141.171881 Z-0.125000
G01 X171.985363 Y146.360698 Z-0.125000
G01 X166.452059 Y152.482249 Z-0.125000
G01 X163.178956 Y155.632030 Z-0.125000
G01 X156.745276 Y161.286195 Z-0.125000
G01 X155.765790 Y162.276688 Z-0.125000
G01 X154.997811 Y163.214264 Z-0.125000
G01 X154.332914 Y164.358983 Z-0.125000
G01 X153.963106 Y165.536457 Z-0.125000
G01 X153.819835 Y166.816588 Z-0.125000
G01 X153.785651 Y170.274715 Z-0.125000
G01 X153.623329 Y172.194053 Z-0.125000
G01 X153.207352 Y174.300345 Z-0.125000
G01 X152.454137 Y176.522392 Z-0.125000
G01 X151.319076 Y178.759918 Z-0.125000
G01 X150.133982 Y180.484814 Z-0.125000
G01 X148.721664 Y182.090886 Z-0.125000
G01 X146.687868 Y183.860893 Z-0.125000
G01 X145.357386 Y184.771985 Z-0.125000
G01 X143.497341 Y185.797297 Z-0.125000
G01 X141.566917 Y186.604460 Z-0.125000
G01 X139.588682 Y187.201306 Z-0.125000
G01 X138.089687 Y187.522007 Z-0.125000
G01 X136.089043 Y187.804582 Z-0.125000
G01 X127.815136 Y188.318085 Z-0.125000
G01 X125.445636 Y188.618148 Z-0.125000
G01 X122.919583 Y189.066775 Z-0.125000
G01 X120.273144 Y189.661849 Z-0.125000
G01 X116.881190 Y190.575771 Z-0.125000
G01 X106.267205 Y193.939018 Z-0.125000
G01 X102.915388 Y194.803596 Z-0.125000
G01 X101.320561 Y195.039498 Z-0.125000
G01 X99.936501 Y195.066750 Z-0.125000
G01 X98.727913 Y194.882680 Z-0.125000
G01 X97.395261 Y194.369389 Z-0.125000
G01 X96.414134 Y193.756959 Z-0.125000
G01 X95.466689 Y192.999510 Z-0.125000
G01 X93.866253 Y191.472549 Z-0.125000
G01 X91.881642 Y189.346598 Z-0.125000
G01 X91.442831 Y188.984887 Z-0.125000
G01 X91.131867 Y188.835794 Z-0.125000
G01 X90.555235 Y188.787481 Z-0.125000
G01 X88.708684 Y189.110511 Z-0.125000
G01 X87.265304 Y189.248173 Z-0.125000
G01 X85.842826 Y189.233648 Z-0.125000
G01 X84.209476 Y189.046111 Z-0.125000
G01 X82.412137 Y188.638865 Z-0.125000
G01 X80.992544 Y188.169230 Z-0.125000
G01 X79.056616 Y187.310129 Z-0.125000
G01 X77.606411 Y186.490769 Z-0.125000
G01 X75.255987 Y184.814477 Z-0.125000
G01 X73.907090 Y183.642453 Z-0.125000
G01 X72.609311 Y182.357744 Z-0.125000
G01 X70.546410 Y180.005866 Z-0.125000
G01 X65.638395 Y173.855369 Z-0.125000
G01 X64.295690 Y172.345553 Z-0.125000
G01 X62.883663 Y170.908841 Z-0.125000
G01 X61.402660 Y169.579867 Z-0.125000
G01 X59.858183 Y168.390937 Z-0.125000
G01 X58.260128 Y167.368826 Z-0.125000
G01 X57.171634 Y166.789813 Z-0.125000
G01 X56.070148 Y166.296762 Z-0.125000
G01 X54.405604 Y165.720157 Z-0.125000
G01 X53.296313 Y165.441947 Z-0.125000
G01 X51.648860 Y165.172708 Z-0.125000
G01 X50.040989 Y165.059069 Z-0.125000
G01 X48.495243 Y165.067906 Z-0.125000
G01 X43.012924 Y165.477455 Z-0.125000
G01 X41.853601 Y165.362864 Z-0.125000
G01 X40.975318 Y164.996839 Z-0.125000
G01 X40.640911 Y164.707174 Z-0.125000
G01 X40.265256 Y164.134960 Z-0.125000
G01 X40.031497 Y163.402039 Z-0.125000
G01 X39.925611 Y162.521745 Z-0.125000
G01 X40.027078 Y160.405980 Z-0.125000
G01 X40.499068 Y157.565576 Z-0.125000
G01 X41.194154 Y154.511362 Z-0.125000
G01 X41.904295 Y152.152420 Z-0.125000
G01 X44.928320 Y144.163918 Z-0.125000
G01 X45.861107 Y141.331795 Z-0.125000
G01 X46.302511 Y139.628516 Z-0.125000
G01 X46.626175 Y137.933570 Z-0.125000
G01 X46.862183 Y135.147697 Z-0.125000
G01 X46.698063 Y132.433393 Z-0.125000
G01 X46.418054 Y130.846900 Z-0.125000
G01 X46.020915 Y129.295041 Z-0.125000
G01 X45.163508 Y126.789387 Z-0.125000
G01 X42.511725 Y120.296468 Z-0.125000
G01 X41.798329 Y118.117230 Z-0.125000
G01 X41.224449 Y115.945506 Z-0.125000
G01 X40.895943 Y114.220319 Z-0.125000
G01 X40.754311 Y112.547096 Z-0.125000
G01 X40.834718 Y110.958513 Z-0.125000
G01 X41.145524 Y109.481241 Z-0.125000
G01 X41.522131 Y108.458574 Z-0.125000
G01 X42.008223 Y107.515468 Z-0.125000
G01 X42.586681 Y106.654568 Z-0.125000
G01 X43.237449 Y105.875398 Z-0.125000
G01 X44.667520 Y104.542402 Z-0.125000
G01 X48.070931 Y101.919035 Z-0.125000
G01 X48.797952 Y101.162354 Z-0.125000
G01 X49.450281 Y100.282484 Z-0.125000
G01 X50.207544 Y98.945810 Z-0.125000
G01 X52.282351 Y94.477612 Z-0.125000
G01 X53.743246 Y91.677424 Z-0.125000
G01 X58.564240 Y83.683895 Z-0.125000
G01 X63.895719 Y73.997168 Z-0.125000
G01 X65.854771 Y70.866278 Z-0.125000
G01 X67.252034 Y69.152177 Z-0.125000
G01 X68.714781 Y67.837887 Z-0.125000
G01 X70.283653 Y66.875969 Z-0.125000
G01 X71.606753 Y66.404324 Z-0.125000
G01 X72.289403 Y66.278091 Z-0.125000
G01 X73.338502 Y66.229408 Z-0.125000
G01 X74.415513 Y66.345745 Z-0.125000
G01 X75.516337 Y66.614482 Z-0.125000
G01 X77.386780 Y67.338778 Z-0.125000
G01 X81.475884 Y69.435439 Z-0.125000
G01 X83.229963 Y70.208604 Z-0.125000
G01 X84.884057 Y70.645695 Z-0.125000
G01 X85.830179 Y70.704882 Z-0.125000
G01 X86.445097 Y70.653236 Z-0.125000
G01 X87.650061 Y70.332429 Z-0.125000
G01 X88.847854 Y69.743229 Z-0.125000
G01 X90.075070 Y68.934425 Z-0.125000
G01 X93.129627 Y66.678141 Z-0.125000
G01 X95.071243 Y65.402454 Z-0.125000
G01 X98.426023 Y63.555982 Z-0.125000
G01 X101.437243 Y62.115724 Z-0.125000
G01 X104.116780 Y61.106367 Z-0.125000
G01 X106.433972 Y60.514918 Z-0.125000
G01 X108.826040 Y60.215119 Z-0.125000
G01 X110.787130 Y60.211071 Z-0.125000
G01 X112.280224 Y60.349739 Z-0.125000
G01 X114.291584 Y60.717324 Z-0.125000
G01 X116.313263 Y61.274589 Z-0.125000
G01 X118.327983 Y61.988566 Z-0.125000
G01 X121.293350 Y63.257215 Z-0.125000
G01 X128.409125 Y66.644062 Z-0.125000
G01 X134.309511 Y69.048090 Z-0.125000
G01 X135.437640 Y69.618240 Z-0.125000
G01 X136.472424 Y70.255091 Z-0.125000
G01 X137.948506 Y71.385548 Z-0.125000
G01 X142.669857 Y75.647557 Z-0.125000
G01 X146.263794 Y78.610437 Z-0.125000
G01 X149.327983 Y80.899503 Z-0.125000
G01 X155.620692 Y85.241019 Z-0.125000
G01 X157.635518 Y86.750307 Z-0.125000
G01 X158.586456 Y87.582473 Z-0.125000
G01 X159.617959 Y88.649483 Z-0.125000
G01 X160.344504 Y89.543774 Z-0.125000
G01 X161.128570 Y90.691270 Z-0.125000
G01 X161.830006 Y92.021726 Z-0.125000
G01 X162.261223 Y93.246798 Z-0.125000
G01 X162.447595 Y94.211706 Z-0.125000
G01 X162.625131 Y96.295720 Z-0.125000
G01 X162.822986 Y97.592468 Z-0.125000
G01 X163.223802 Y99.165229 Z-0.125000
G01 X163.731061 Y100.655519 Z-0.125000
G01 X165.499666 Y104.778304 Z-0.125000
G01 X169.611471 Y113.271551 Z-0.125000
G01 X171.232121 Y116.786192 Z-0.125000
G01 X172.673252 Y120.182406 Z-0.125000
G01 X175.407585 Y127.096833 Z-0.125000
G01 X178.489236 Y133.880185 Z-0.125000
G01 X178.982181 Y135.215986 Z-0.125000
G01 X179.280419 Y136.432618 Z-0.125000
G01 X179.354396 Y137.553603 Z-0.125000
G01 X179.185963 Y138.606643 Z-0.125000
G01 X178.627587 Y139.875372 Z-0.125000
G01 X177.702472 Y141.153942 Z-0.125000
G01 X173.009325 Y146.074393 Z-0.125000
G01 X167.966003 Y151.749698 Z-0.125000
G01 X164.699646 Y154.937870 Z-0.125000
G01 X157.662056 Y161.116862 Z-0.125000
G01 X156.408991 Y162.392655 Z-0.125000
G01 X155.645352 Y163.351054 Z-0.125000
G01 X154.986593 Y164.522045 Z-0.125000
G01 X154.622659 Y165.726480 Z-0.125000
G01 X154.484626 Y167.034711 Z-0.125000
G01 X154.458617 Y170.561390 Z-0.125000
G01 X154.297989 Y172.515389 Z-0.125000
G01 X153.882435 Y174.657426 Z-0.125000
G01 X153.309322 Y176.458707 Z-0.125000
G01 X152.252048 Y178.736053 Z-0.125000
G01 X150.810468 Y180.936140 Z-0.125000
G01 X149.402039 Y182.566950 Z-0.125000
G01 X147.377530 Y184.369924 Z-0.125000
G01 X146.055223 Y185.304008 Z-0.125000
G01 X144.198221 Y186.365039 Z-0.125000
G01 X142.249700 Y187.212128 Z-0.125000
G01 X140.236196 Y187.851254 Z-0.125000
G01 X138.702700 Y188.204023 Z-0.125000
G01 X136.650118 Y188.528084 Z-0.125000
G01 X128.221482 Y189.154802 Z-0.125000
G01 X125.828805 Y189.471746 Z-0.125000
G01 X123.275659 Y189.936221 Z-0.125000
G01 X120.596121 Y190.545926 Z-0.125000
G01 X117.844881 Y191.277049 Z-0.125000
G01 X106.863284 Y194.651937 Z-0.125000
G01 X103.305834 Y195.537179 Z-0.125000
G01 X101.597183 Y195.785199 Z-0.125000
G01 X100.108507 Y195.824675 Z-0.125000
G01 X98.808743 Y195.653410 Z-0.125000
G01 X97.384625 Y195.157793 Z-0.125000
G01 X96.348200 Y194.560524 Z-0.125000
G01 X95.113973 Y193.612708 Z-0.125000
G01 X93.684484 Y192.294026 Z-0.125000
G01 X91.423755 Y189.959584 Z-0.125000
G01 X90.978594 Y189.614965 Z-0.125000
G01 X90.664534 Y189.481853 Z-0.125000
G01 X90.082769 Y189.464417 Z-0.125000
G01 X88.208410 Y189.853883 Z-0.125000
G01 X86.735133 Y190.019830 Z-0.125000
G01 X85.280217 Y190.022211 Z-0.125000
G01 X84.044323 Y189.908440 Z-0.125000
G01 X82.241587 Y189.562789 Z-0.125000
G01 X80.807177 Y189.137419 Z-0.125000
G01 X78.840214 Y188.330441 Z-0.125000
G01 X77.361751 Y187.542036 Z-0.125000
G01 X75.909058 Y186.601576 Z-0.125000
G01 X74.501714 Y185.520622 Z-0.125000
G01 X73.151574 Y184.316981 Z-0.125000
G01 X71.860858 Y183.007322 Z-0.125000
G01 X69.820474 Y180.628826 Z-0.125000
G01 X64.939658 Y174.457481 Z-0.125000
G01 X63.597243 Y172.942426 Z-0.125000
G01 X62.185878 Y171.500290 Z-0.125000
G01 X60.706701 Y170.166050 Z-0.125000
G01 X59.165610 Y168.972226 Z-0.125000
G01 X57.572688 Y167.945882 Z-0.125000
G01 X56.488507 Y167.364487 Z-0.125000
G01 X55.392075 Y166.869320 Z-0.125000
G01 X53.736235 Y166.289910 Z-0.125000
G01 X52.633400 Y166.009875 Z-0.125000
G01 X50.996452 Y165.737328 Z-0.125000
G01 X49.399878 Y165.618980 Z-0.125000
G01 X47.866038 Y165.620567 Z-0.125000
G01 X43.851467 Y165.910789 Z-0.125000
G01 X42.440763 Y165.941665 Z-0.125000
G01 X41.300887 Y165.775745 Z-0.125000
G01 X40.631016 Y165.481582 Z-0.125000
G01 X40.272506 Y165.194880 Z-0.125000
G01 X39.863302 Y164.624121 Z-0.125000
G01 X39.672431 Y164.150835 Z-0.125000
G01 X39.499923 Y163.309805 Z-0.125000
G01 X39.450182 Y162.327858 Z-0.125000
G01 X39.505162 Y161.229283 Z-0.125000
G01 X39.929394 Y158.364458 Z-0.125000
G01 X40.590296 Y155.288072 Z-0.125000
G01 X41.375288 Y152.480291 Z-0.125000
G01 X42.254682 Y149.976939 Z-0.125000
G01 X44.573858 Y144.055995 Z-0.125000
G01 X45.665713 Y140.719815 Z-0.125000
G01 X46.262030 Y137.953864 Z-0.125000
G01 X46.476686 Y135.236014 Z-0.125000
G01 X46.279677 Y132.587962 Z-0.125000
G01 X45.975301 Y131.038061 Z-0.125000
G01 X45.551307 Y129.519249 Z-0.125000
G01 X44.646671 Y127.058363 Z-0.125000
G01 X41.885086 Y120.607326 Z-0.125000
G01 X41.146159 Y118.416050 Z-0.125000
G01 X40.547566 Y116.226334 Z-0.125000
G01 X40.204905 Y114.484796 Z-0.125000
G01 X40.056871 Y112.789983 Z-0.125000
G01 X40.139526 Y111.172535 Z-0.125000
G01 X40.461339 Y109.658326 Z-0.125000
G01 X40.851572 Y108.602905 Z-0.125000
G01 X41.355285 Y107.623180 Z-0.125000
G01 X41.954830 Y106.722645 Z-0.125000
G01 X42.629199 Y105.901671 Z-0.125000
G01 X44.110441 Y104.483030 Z-0.125000
G01 X47.418284 Y101.864399 Z-0.125000
G01 X48.181156 Y101.096314 Z-0.125000
G01 X48.856610 Y100.224408 Z-0.125000
G01 X49.768125 Y98.624871 Z-0.125000
G01 X51.607347 Y94.571248 Z-0.125000
G01 X52.739762 Y92.298956 Z-0.125000
G01 X58.362945 Y82.663002 Z-0.125000
G01 X62.704064 Y74.394651 Z-0.125000
G01 X64.111593 Y71.867857 Z-0.125000
G01 X65.217338 Y70.156534 Z-0.125000
G01 X66.332846 Y68.750408 Z-0.125000
G01 X67.486825 Y67.636831 Z-0.125000
G01 X68.711818 Y66.767596 Z-0.125000
G01 X70.018223 Y66.131830 Z-0.125000
G01 X71.396118 Y65.769060 Z-0.125000
G01 X72.472416 Y65.691246 Z-0.125000
G01 X73.958684 Y65.846847 Z-0.125000
G01 X75.105413 Y66.143842 Z-0.125000
G01 X76.663410 Y66.738545 Z-0.125000
G01 X81.311578 Y69.092434 Z-0.125000
G01 X83.126220 Y69.878246 Z-0.125000
G01 X84.827198 Y70.306923 Z-0.125000
G01 X85.794566 Y70.350500 Z-0.125000
G01 X86.420861 Y70.284248 Z-0.125000
G01 X87.339890 Y70.042552 Z-0.125000
G01 X88.547949 Y69.471185 Z-0.125000
G01 X89.770958 Y68.659047 Z-0.125000
G01 X93.148281 Y66.049941 Z-0.125000
G01 X95.100797 Y64.720597 Z-0.125000
G01 X98.057936 Y63.041712 Z-0.125000
G01 X101.078547 Y61.534965 Z-0.125000
G01 X103.746100 Y60.456313 Z-0.125000
G01 X106.042204 Y59.799856 Z-0.125000
G01 X108.406782 Y59.433805 Z-0.125000
G01 X110.344429 Y59.380386 Z-0.125000
G01 X111.821014 Y59.486484 Z-0.125000
G01 X113.814488 Y59.819276 Z-0.125000
G01 X115.825928 Y60.353972 Z-0.125000
G01 X117.841071 Y61.059456 Z-0.125000
G01 X120.831759 Y62.342498 Z-0.125000
G01 X128.566763 Y66.066531 Z-0.125000
G01 X134.361607 Y68.435183 Z-0.125000
G01 X136.381143 Y69.504972 Z-0.125000
G01 X138.418855 Y71.016931 Z-0.125000
G01 X143.228948 Y75.336117 Z-0.125000
G01 X146.872652 Y78.301113 Z-0.125000
G01 X149.962770 Y80.572876 Z-0.125000
G01 X156.200367 Y84.801203 Z-0.125000
G01 X158.134601 Y86.240879 Z-0.125000
G01 X159.817746 Y87.855814 Z-0.125000
G01 X161.160796 Y89.638706 Z-0.125000
G01 X162.066781 Y91.254435 Z-0.125000
G01 X162.638439 Y92.756870 Z-0.125000
G01 X162.849179 Y93.775594 Z-0.125000
G01 X163.076853 Y95.975919 Z-0.125000
G01 X163.312067 Y97.333838 Z-0.125000
G01 X163.761144 Y98.970549 Z-0.125000
G01 X164.313435 Y100.513756 Z-0.125000
G01 X165.704453 Y103.726957 Z-0.125000
G01 X170.425143 Y113.390058 Z-0.125000
G01 X172.805200 Y118.636977 Z-0.125000
G01 X175.973528 Y126.671992 Z-0.125000
G01 X179.110636 Y133.836397 Z-0.125000
G01 X179.651999 Y135.465329 Z-0.125000
G01 X179.887716 Y136.931198 Z-0.125000
G01 X179.824904 Y138.019825 Z-0.125000
G01 X179.414562 Y139.322843 Z-0.125000
G01 X178.642827 Y140.619141 Z-0.125000
G01 X177.546606 Y141.973621 Z-0.125000
G01 X174.000982 Y145.815710 Z-0.125000
G01 X170.208741 Y150.215434 Z-0.125000
G01 X168.292049 Y152.281351 Z-0.125000
G01 X165.394944 Y155.025050 Z-0.125000
G01 X158.883848 Y160.668579 Z-0.125000
G01 X157.504523 Y162.028403 Z-0.125000
G01 X156.453388 Y163.280384 Z-0.125000
G01 X155.734199 Y164.483178 Z-0.125000
G01 X155.317957 Y165.703726 Z-0.125000
G01 X155.127748 Y167.291700 Z-0.125000
G01 X155.053294 Y171.646922 Z-0.125000
G01 X154.798607 Y173.712177 Z-0.125000
G01 X154.511031 Y175.034589 Z-0.125000
G01 X154.101695 Y176.398859 Z-0.125000
G01 X153.121918 Y178.706155 Z-0.125000
G01 X152.350367 Y180.071006 Z-0.125000
G01 X151.445335 Y181.391249 Z-0.125000
G01 X149.668422 Y183.433062 Z-0.125000
G01 X148.465918 Y184.534654 Z-0.125000
G01 X147.182479 Y185.529539 Z-0.125000
G01 X145.824904 Y186.411103 Z-0.125000
G01 X144.397902 Y187.175536 Z-0.125000
G01 X142.911316 Y187.821965 Z-0.125000
G01 X141.378904 Y188.352692 Z-0.125000
G01 X139.816356 Y188.773511 Z-0.125000
G01 X138.239124 Y189.094027 Z-0.125000
G01 X135.608984 Y189.444785 Z-0.125000
G01 X128.010795 Y190.081477 Z-0.125000
G01 X125.555650 Y190.452740 Z-0.125000
G01 X122.942787 Y190.971879 Z-0.125000
G01 X117.415648 Y192.397584 Z-0.125000
G01 X106.369784 Y195.698442 Z-0.125000
G01 X103.281915 Y196.375166 Z-0.125000
G01 X101.113102 Y196.600062 Z-0.125000
G01 X99.976374 Y196.576646 Z-0.125000
G01 X98.625625 Y196.362731 Z-0.125000
G01 X97.713449 Y196.072219 Z-0.125000
G01 X96.594157 Y195.527971 Z-0.125000
G01 X95.544000 Y194.829843 Z-0.125000
G01 X94.528398 Y194.012572 Z-0.125000
G01 X93.065625 Y192.668014 Z-0.125000
G01 X91.096916 Y190.686288 Z-0.125000
G01 X90.624529 Y190.307273 Z-0.125000
G01 X90.304278 Y190.153682 Z-0.125000
G01 X89.738176 Y190.116932 Z-0.125000
G01 X87.706867 Y190.587254 Z-0.125000
G01 X86.205358 Y190.778654 Z-0.125000
G01 X84.719883 Y190.795799 Z-0.125000
G01 X83.457055 Y190.688854 Z-0.125000
G01 X81.614975 Y190.345346 Z-0.125000
G01 X80.150429 Y189.915769 Z-0.125000
G01 X78.145657 Y189.094768 Z-0.125000
G01 X76.643011 Y188.289430 Z-0.125000
G01 X74.218584 Y186.602952 Z-0.125000
G01 X71.961241 Y184.547115 Z-0.125000
G01 X69.880957 Y182.223204 Z-0.125000
G01 X65.075363 Y176.089244 Z-0.125000
G01 X62.874747 Y173.536679 Z-0.125000
G01 X60.489610 Y171.186547 Z-0.125000
G01 X58.974449 Y169.940017 Z-0.125000
G01 X57.934082 Y169.196063 Z-0.125000
G01 X56.336874 Y168.228112 Z-0.125000
G01 X54.708657 Y167.451085 Z-0.125000
G01 X53.066522 Y166.869902 Z-0.125000
G01 X51.429812 Y166.477843 Z-0.125000
G01 X48.771256 Y166.189553 Z-0.125000
G01 X46.765346 Y166.199634 Z-0.125000
G01 X42.559349 Y166.435033 Z-0.125000
G01 X41.591134 Y166.375952 Z-0.125000
G01 X40.777806 Y166.188019 Z-0.125000
G01 X39.940586 Y165.694360 Z-0.125000
G01 X39.496008 Y165.125321 Z-0.125000
G01 X39.201050 Y164.385309 Z-0.125000
G01 X39.019917 Y163.153013 Z-0.125000
G01 X39.046349 Y161.686615 Z-0.125000
G01 X39.302095 Y159.624402 Z-0.125000
G01 X39.815465 Y156.975688 Z-0.125000
G01 X40.459407 Y154.230719 Z-0.125000
G01 X41.516628 Y150.827626 Z-0.125000
G01 X44.210691 Y143.948574 Z-0.125000
G01 X45.141309 Y141.221438 Z-0.125000
G01 X45.794459 Y138.511896 Z-0.125000
G01 X46.069228 Y135.849159 Z-0.125000
G01 X46.061370 Y134.801596 Z-0.125000
G01 X45.922649 Y133.251430 Z-0.125000
G01 X45.639228 Y131.728014 Z-0.125000
G01 X45.227113 Y130.231956 Z-0.125000
G01 X44.319673 Y127.799063 Z-0.125000
G01 X41.992454 Y122.694569 Z-0.125000
G01 X41.252257 Y120.908792 Z-0.125000
G01 X40.491422 Y118.705477 Z-0.125000
G01 X39.871795 Y116.498670 Z-0.125000
G01 X39.518021 Y114.741389 Z-0.125000
G01 X39.366282 Y113.025409 Z-0.125000
G01 X39.453410 Y111.379306 Z-0.125000
G01 X39.787710 Y109.828188 Z-0.125000
G01 X40.192178 Y108.739800 Z-0.125000
G01 X40.713804 Y107.723113 Z-0.125000
G01 X41.334171 Y106.782362 Z-0.125000
G01 X42.031639 Y105.918869 Z-0.125000
G01 X43.562040 Y104.412571 Z-0.125000
G01 X46.961534 Y101.617464 Z-0.125000
G01 X47.736075 Y100.814004 Z-0.125000
G01 X48.415206 Y99.914449 Z-0.125000
G01 X49.318942 Y98.286999 Z-0.125000
G01 X51.124510 Y94.218321 Z-0.125000
G01 X52.244728 Y91.954284 Z-0.125000
G01 X57.469475 Y82.839426 Z-0.125000
G01 X62.060492 Y73.777299 Z-0.125000
G01 X63.452808 Y71.201028 Z-0.125000
G01 X64.554875 Y69.468142 Z-0.125000
G01 X65.674537 Y68.060984 Z-0.125000
G01 X66.839100 Y66.970108 Z-0.125000
G01 X68.079253 Y66.146805 Z-0.125000
G01 X69.414418 Y65.554377 Z-0.125000
G01 X70.834462 Y65.228464 Z-0.125000
G01 X71.949335 Y65.176156 Z-0.125000
G01 X73.494129 Y65.364936 Z-0.125000
G01 X74.688616 Y65.686695 Z-0.125000
G01 X76.313182 Y66.313916 Z-0.125000
G01 X81.152987 Y68.740539 Z-0.125000
G01 X83.032055 Y69.532541 Z-0.125000
G01 X84.783648 Y69.947275 Z-0.125000
G01 X85.774432 Y69.972464 Z-0.125000
G01 X86.413532 Y69.889993 Z-0.125000
G01 X87.347907 Y69.618610 Z-0.125000
G01 X88.570227 Y68.999460 Z-0.125000
G01 X89.802232 Y68.133427 Z-0.125000
G01 X92.825119 Y65.675821 Z-0.125000
G01 X94.751627 Y64.275330 Z-0.125000
G01 X97.279956 Y62.750882 Z-0.125000
G01 X100.750438 Y60.943198 Z-0.125000
G01 X103.411508 Y59.797977 Z-0.125000
G01 X105.688959 Y59.077200 Z-0.125000
G01 X108.025518 Y58.643602 Z-0.125000
G01 X110.420206 Y58.547479 Z-0.125000
G01 X111.882715 Y58.661461 Z-0.125000
G01 X113.858065 Y59.010314 Z-0.125000
G01 X115.854688 Y59.566732 Z-0.125000
G01 X117.860809 Y60.298330 Z-0.125000
G01 X120.853216 Y61.625267 Z-0.125000
G01 X128.282892 Y65.270215 Z-0.125000
G01 X134.692177 Y67.934222 Z-0.125000
G01 X136.776165 Y69.062325 Z-0.125000
G01 X138.609752 Y70.412306 Z-0.125000
G01 X143.770681 Y75.008616 Z-0.125000
G01 X147.030847 Y77.645926 Z-0.125000
G01 X150.586578 Y80.236353 Z-0.125000
G01 X156.772078 Y84.360064 Z-0.125000
G01 X158.392120 Y85.543385 Z-0.125000
G01 X160.026317 Y87.079501 Z-0.125000
G01 X161.326372 Y88.809768 Z-0.125000
G01 X162.276622 Y90.462538 Z-0.125000
G01 X162.937603 Y92.047470 Z-0.125000
G01 X163.201366 Y93.128450 Z-0.125000
G01 X163.729632 Y96.788004 Z-0.125000
G01 X164.182413 Y98.430429 Z-0.125000
G01 X164.738381 Y99.974456 Z-0.125000
G01 X166.387130 Y103.702166 Z-0.125000
G01 X170.962644 Y112.926402 Z-0.125000
G01 X173.399770 Y118.218883 Z-0.125000
G01 X176.946559 Y127.229098 Z-0.125000
G01 X179.582784 Y133.436929 Z-0.125000
G01 X180.124544 Y135.080704 Z-0.125000
G01 X180.383650 Y136.568560 Z-0.125000
G01 X180.356504 Y137.679703 Z-0.125000
G01 X180.190611 Y138.484776 Z-0.125000
G01 X179.773310 Y139.543479 Z-0.125000
G01 X179.139528 Y140.612738 Z-0.125000
G01 X177.827779 Y142.303476 Z-0.125000
G01 X174.638733 Y145.951176 Z-0.125000
G01 X171.285435 Y149.964398 Z-0.125000
G01 X169.406922 Y152.025261 Z-0.125000
G01 X167.363891 Y154.005241 Z-0.125000
G01 X161.196224 Y159.257849 Z-0.125000
G01 X159.508078 Y160.783990 Z-0.125000
G01 X158.128913 Y162.187947 Z-0.125000
G01 X157.080820 Y163.480091 Z-0.125000
G01 X156.257438 Y164.964746 Z-0.125000
G01 X155.849292 Y166.489352 Z-0.125000
G01 X155.738061 Y167.879683 Z-0.125000
G01 X155.648580 Y172.007575 Z-0.125000
G01 X155.299409 Y174.536485 Z-0.125000
G01 X154.680285 Y176.811476 Z-0.125000
G01 X153.701725 Y179.140838 Z-0.125000
G01 X152.935413 Y180.518442 Z-0.125000
G01 X152.039853 Y181.851597 Z-0.125000
G01 X151.025230 Y183.118658 Z-0.125000
G01 X149.905911 Y184.301900 Z-0.125000
G01 X148.696979 Y185.388622 Z-0.125000
G01 X147.400496 Y186.370013 Z-0.125000
G01 X145.052480 Y187.756084 Z-0.125000
G01 X143.546950 Y188.433999 Z-0.125000
G01 X141.986889 Y188.997931 Z-0.125000
G01 X140.390078 Y189.452828 Z-0.125000
G01 X138.773952 Y189.807502 Z-0.125000
G01 X136.075205 Y190.213028 Z-0.125000
G01 X128.352425 Y190.958067 Z-0.125000
G01 X125.879923 Y191.349756 Z-0.125000
G01 X123.247719 Y191.887600 Z-0.125000
G01 X118.376243 Y193.139739 Z-0.125000
G01 X107.021875 Y196.461235 Z-0.125000
G01 X103.770627 Y197.152564 Z-0.125000
G01 X101.464706 Y197.386641 Z-0.125000
G01 X100.249926 Y197.367485 Z-0.125000
G01 X98.804060 Y197.158808 Z-0.125000
G01 X97.521255 Y196.754234 Z-0.125000
G01 X96.356005 Y196.176464 Z-0.125000
G01 X95.263013 Y195.454497 Z-0.125000
G01 X94.207486 Y194.622330 Z-0.125000
G01 X90.656015 Y191.295384 Z-0.125000
G01 X89.951324 Y190.824559 Z-0.125000
G01 X89.267906 Y190.778707 Z-0.125000
G01 X87.206963 Y191.308957 Z-0.125000
G01 X85.678917 Y191.522608 Z-0.125000
G01 X84.164656 Y191.552347 Z-0.125000
G01 X82.876375 Y191.450853 Z-0.125000
G01 X80.996909 Y191.108298 Z-0.125000
G01 X79.503365 Y190.674196 Z-0.125000
G01 X77.461763 Y189.839834 Z-0.125000
G01 X75.935013 Y189.018939 Z-0.125000
G01 X74.935577 Y188.381108 Z-0.125000
G01 X73.481376 Y187.296821 Z-0.125000
G01 X71.211783 Y185.195450 Z-0.125000
G01 X69.134675 Y182.830316 Z-0.125000
G01 X64.749873 Y177.201524 Z-0.125000
G01 X62.583573 Y174.627237 Z-0.125000
G01 X61.199936 Y173.154251 Z-0.125000
G01 X59.753038 Y171.777467 Z-0.125000
G01 X58.247560 Y170.530752 Z-0.125000
G01 X57.215449 Y169.786665 Z-0.125000
G01 X55.632978 Y168.818476 Z-0.125000
G01 X54.021773 Y168.041079 Z-0.125000
G01 X52.398345 Y167.459128 Z-0.125000
G01 X50.781425 Y167.065376 Z-0.125000
G01 X48.156788 Y166.769890 Z-0.125000
G01 X46.177601 Y166.767508 Z-0.125000
G01 X42.383137 Y166.936206 Z-0.125000
G01 X41.381902 Y166.877945 Z-0.125000
G01 X40.532458 Y166.694430 Z-0.125000
G01 X39.645100 Y166.207624 Z-0.125000
G01 X39.163612 Y165.640914 Z-0.125000
G01 X38.834206 Y164.898468 Z-0.125000
G01 X38.613438 Y163.652890 Z-0.125000
G01 X38.609813 Y162.160827 Z-0.125000
G01 X38.843519 Y160.051863 Z-0.125000
G01 X39.351413 Y157.339860 Z-0.125000
G01 X40.106506 Y154.082949 Z-0.125000
G01 X40.657051 Y152.152367 Z-0.125000
G01 X41.337796 Y150.152622 Z-0.125000
G01 X43.836809 Y143.843958 Z-0.125000
G01 X44.760892 Y141.169394 Z-0.125000
G01 X45.401235 Y138.521368 Z-0.125000
G01 X45.654230 Y135.923772 Z-0.125000
G01 X45.634915 Y134.902084 Z-0.125000
G01 X45.476298 Y133.389543 Z-0.125000
G01 X45.170122 Y131.901290 Z-0.125000
G01 X44.733137 Y130.437087 Z-0.125000
G01 X43.782199 Y128.047612 Z-0.125000
G01 X40.792385 Y121.643857 Z-0.125000
G01 X39.976570 Y119.426043 Z-0.125000
G01 X39.197452 Y116.760157 Z-0.125000
G01 X38.835476 Y114.987530 Z-0.125000
G01 X38.682706 Y113.250675 Z-0.125000
G01 X38.776368 Y111.576077 Z-0.125000
G01 X39.124559 Y109.988049 Z-0.125000
G01 X39.543818 Y108.866614 Z-0.125000
G01 X40.083382 Y107.812754 Z-0.125000
G01 X40.724334 Y106.831415 Z-0.125000
G01 X41.444159 Y105.924875 Z-0.125000
G01 X43.021311 Y104.329360 Z-0.125000
G01 X46.503726 Y101.353251 Z-0.125000
G01 X47.286971 Y100.513623 Z-0.125000
G01 X47.966712 Y99.586180 Z-0.125000
G01 X48.858198 Y97.931769 Z-0.125000
G01 X50.432017 Y94.280498 Z-0.125000
G01 X51.487544 Y92.070171 Z-0.125000
G01 X56.882047 Y82.429005 Z-0.125000
G01 X61.389801 Y73.180427 Z-0.125000
G01 X62.768278 Y70.556822 Z-0.125000
G01 X63.868732 Y68.802954 Z-0.125000
G01 X64.995723 Y67.394155 Z-0.125000
G01 X65.874059 Y66.561565 Z-0.125000
G01 X67.110853 Y65.716249 Z-0.125000
G01 X68.449087 Y65.113317 Z-0.125000
G01 X69.889477 Y64.756210 Z-0.125000
G01 X71.418740 Y64.681730 Z-0.125000
G01 X73.024071 Y64.899825 Z-0.125000
G01 X74.267982 Y65.242672 Z-0.125000
G01 X75.961445 Y65.896774 Z-0.125000
G01 X81.000772 Y68.378351 Z-0.125000
G01 X82.569194 Y69.039147 Z-0.125000
G01 X84.403759 Y69.523837 Z-0.125000
G01 X85.435924 Y69.588818 Z-0.125000
G01 X86.098308 Y69.529975 Z-0.125000
G01 X87.374312 Y69.166676 Z-0.125000
G01 X88.613196 Y68.498075 Z-0.125000
G01 X89.856286 Y67.577167 Z-0.125000
G01 X93.267740 Y64.699483 Z-0.125000
G01 X94.834733 Y63.542144 Z-0.125000
G01 X97.385948 Y61.971950 Z-0.125000
G01 X100.888788 Y60.124473 Z-0.125000
G01 X103.558457 Y58.956656 Z-0.125000
G01 X105.829902 Y58.223603 Z-0.125000
G01 X108.149290 Y57.785718 Z-0.125000
G01 X110.518631 Y57.694781 Z-0.125000
G01 X111.963836 Y57.816568 Z-0.125000
G01 X113.916141 Y58.181137 Z-0.125000
G01 X115.396536 Y58.595871 Z-0.125000
G01 X117.385168 Y59.311621 Z-0.125000
G01 X120.373845 Y60.642711 Z-0.125000
G01 X127.952005 Y64.427677 Z-0.125000
G01 X134.311733 Y67.093007 Z-0.125000
G01 X136.861969 Y68.416768 Z-0.125000
G01 X139.028322 Y69.997387 Z-0.125000
G01 X143.916334 Y74.343137 Z-0.125000
G01 X147.604224 Y77.308795 Z-0.125000
G01 X151.197606 Y79.888532 Z-0.125000
G01 X157.034201 Y83.715407 Z-0.125000
G01 X158.887155 Y85.046471 Z-0.125000
G01 X160.246715 Y86.323719 Z-0.125000
G01 X161.490175 Y87.984031 Z-0.125000
G01 X162.589041 Y89.891568 Z-0.125000
G01 X163.284048 Y91.546032 Z-0.125000
G01 X163.570459 Y92.690856 Z-0.125000
G01 X164.134497 Y96.243730 Z-0.125000
G01 X164.595427 Y97.895654 Z-0.125000
G01 X165.157984 Y99.442141 Z-0.125000
G01 X166.584059 Y102.664471 Z-0.125000
G01 X171.799281 Y113.076500 Z-0.125000
G01 X174.243129 Y118.377976 Z-0.125000
G01 X175.376126 Y121.134667 Z-0.125000
G01 X177.710224 Y127.287095 Z-0.125000
G01 X180.048503 Y133.027964 Z-0.125000
G01 X180.579124 Y134.683354 Z-0.125000
G01 X180.849449 Y136.191397 Z-0.125000
G01 X180.848920 Y137.325321 Z-0.125000
G01 X180.641460 Y138.423314 Z-0.125000
G01 X180.223975 Y139.511887 Z-0.125000
G01 X179.603633 Y140.618056 Z-0.125000
G01 X178.333979 Y142.370151 Z-0.125000
G01 X172.340936 Y149.746487 Z-0.125000
G01 X170.512032 Y151.804493 Z-0.125000
G01 X168.491518 Y153.782621 Z-0.125000
G01 X166.349745 Y155.650366 Z-0.125000
G01 X162.202353 Y159.058195 Z-0.125000
G01 X160.440786 Y160.621219 Z-0.125000
G01 X158.743460 Y162.372547 Z-0.125000
G01 X157.697907 Y163.713797 Z-0.125000
G01 X156.873916 Y165.246288 Z-0.125000
G01 X156.457701 Y166.808572 Z-0.125000
G01 X156.333982 Y168.224302 Z-0.125000
G01 X156.203833 Y172.401089 Z-0.125000
G01 X155.837148 Y174.951669 Z-0.125000
G01 X155.210430 Y177.243593 Z-0.125000
G01 X154.234833 Y179.588724 Z-0.125000
G01 X153.477147 Y180.975695 Z-0.125000
G01 X152.596429 Y182.318877 Z-0.125000
G01 X151.603502 Y183.597712 Z-0.125000
G01 X150.512230 Y184.796035 Z-0.125000
G01 X149.324675 Y185.901966 Z-0.125000
G01 X148.036923 Y186.906534 Z-0.125000
G01 X145.677796 Y188.338934 Z-0.125000
G01 X143.099223 Y189.458676 Z-0.125000
G01 X141.480133 Y189.983291 Z-0.125000
G01 X139.831120 Y190.404877 Z-0.125000
G01 X137.063344 Y190.909649 Z-0.125000
G01 X129.845863 Y191.689983 Z-0.125000
G01 X125.529562 Y192.387451 Z-0.125000
G01 X120.048355 Y193.702322 Z-0.125000
G01 X107.726380 Y197.243872 Z-0.125000
G01 X104.321991 Y197.950123 Z-0.125000
G01 X101.882827 Y198.192084 Z-0.125000
G01 X100.590312 Y198.175521 Z-0.125000
G01 X99.047529 Y197.968776 Z-0.125000
G01 X97.678973 Y197.566081 Z-0.125000
G01 X96.441386 Y196.991962 Z-0.125000
G01 X95.289180 Y196.276106 Z-0.125000
G01 X94.183911 Y195.451137 Z-0.125000
G01 X92.586835 Y194.091471 Z-0.125000
G01 X90.370291 Y192.025104 Z-0.125000
G01 X89.501083 Y191.453817 Z-0.125000
G01 X88.803087 Y191.435163 Z-0.125000
G01 X86.971961 Y191.958006 Z-0.125000
G01 X85.503128 Y192.216504 Z-0.125000
G01 X84.026411 Y192.296434 Z-0.125000
G01 X82.305246 Y192.192400 Z-0.125000
G01 X80.390326 Y191.849289 Z-0.125000
G01 X78.869054 Y191.410134 Z-0.125000
G01 X76.791733 Y190.562701 Z-0.125000
G01 X75.241039 Y189.727439 Z-0.125000
G01 X74.227765 Y189.078046 Z-0.125000
G01 X72.756657 Y187.973836 Z-0.125000
G01 X70.469972 Y185.834338 Z-0.125000
G01 X68.386831 Y183.430655 Z-0.125000
G01 X63.984355 Y177.785353 Z-0.125000
G01 X61.816282 Y175.213871 Z-0.125000
G01 X60.437090 Y173.743213 Z-0.125000
G01 X58.999108 Y172.368730 Z-0.125000
G01 X57.506913 Y171.124106 Z-0.125000
G01 X56.485834 Y170.381236 Z-0.125000
G01 X54.922625 Y169.414635 Z-0.125000
G01 X53.333328 Y168.638295 Z-0.125000
G01 X51.733606 Y168.056636 Z-0.125000
G01 X50.141319 Y167.661772 Z-0.125000
G01 X48.576152 Y167.433675 Z-0.125000
G01 X47.058848 Y167.341098 Z-0.125000
G01 X41.878921 Y167.445105 Z-0.125000
G01 X40.895652 Y167.350305 Z-0.125000
G01 X40.062718 Y167.123187 Z-0.125000
G01 X39.594009 Y166.884110 Z-0.125000
G01 X39.195335 Y166.568251 Z-0.125000
G01 X38.727553 Y165.944602 Z-0.125000
G01 X38.410847 Y165.141990 Z-0.125000
G01 X38.205821 Y163.814577 Z-0.125000
G01 X38.216775 Y162.243165 Z-0.125000
G01 X38.467203 Y160.045433 Z-0.125000
G01 X38.992850 Y157.250537 Z-0.125000
G01 X39.758633 Y153.934783 Z-0.125000
G01 X40.302271 Y151.989251 Z-0.125000
G01 X40.973413 Y149.987602 Z-0.125000
G01 X43.450491 Y143.744184 Z-0.125000
G01 X44.365287 Y141.121293 Z-0.125000
G01 X44.991132 Y138.533089 Z-0.125000
G01 X45.181288 Y137.005149 Z-0.125000
G01 X45.221716 Y135.998437 Z-0.125000
G01 X45.191051 Y135.001647 Z-0.125000
G01 X45.012854 Y133.525168 Z-0.125000
G01 X44.684507 Y132.070570 Z-0.125000
G01 X44.223497 Y130.636662 Z-0.125000
G01 X43.231073 Y128.288197 Z-0.125000
G01 X40.958860 Y123.716547 Z-0.125000
G01 X40.152570 Y121.922595 Z-0.125000
G01 X39.320854 Y119.693959 Z-0.125000
G01 X38.642754 Y117.457757 Z-0.125000
G01 X38.231248 Y115.666318 Z-0.125000
G01 X38.021142 Y113.898824 Z-0.125000
G01 X38.058131 Y112.179855 Z-0.125000
G01 X38.356898 Y110.533329 Z-0.125000
G01 X38.746788 Y109.359215 Z-0.125000
G01 X39.265238 Y108.246194 Z-0.125000
G01 X39.894178 Y107.200562 Z-0.125000
G01 X40.611489 Y106.226367 Z-0.125000
G01 X42.210603 Y104.494063 Z-0.125000
G01 X46.043140 Y101.071232 Z-0.125000
G01 X46.832074 Y100.194774 Z-0.125000
G01 X47.509433 Y99.239339 Z-0.125000
G01 X48.384277 Y97.559078 Z-0.125000
G01 X49.915842 Y93.905160 Z-0.125000
G01 X50.726365 Y92.166109 Z-0.125000
G01 X54.680955 Y85.042556 Z-0.125000
G01 X56.269723 Y82.027368 Z-0.125000
G01 X60.693895 Y72.605408 Z-0.125000
G01 X61.787099 Y70.433499 Z-0.125000
G01 X62.882949 Y68.572846 Z-0.125000
G01 X64.008749 Y67.069750 Z-0.125000
G01 X64.888170 Y66.182603 Z-0.125000
G01 X66.126657 Y65.295668 Z-0.125000
G01 X67.464653 Y64.686122 Z-0.125000
G01 X68.919701 Y64.306524 Z-0.125000
G01 X70.478862 Y64.191669 Z-0.125000
G01 X72.126950 Y64.363833 Z-0.125000
G01 X73.410547 Y64.675512 Z-0.125000
G01 X75.166188 Y65.299875 Z-0.125000
G01 X80.855596 Y68.004548 Z-0.125000
G01 X82.481696 Y68.661455 Z-0.125000
G01 X84.376163 Y69.125454 Z-0.125000
G01 X85.437300 Y69.169216 Z-0.125000
G01 X86.116035 Y69.092725 Z-0.125000
G01 X87.418312 Y68.686643 Z-0.125000
G01 X88.675875 Y67.967295 Z-0.125000
G01 X89.931877 Y66.991037 Z-0.125000
G01 X93.365371 Y63.980188 Z-0.125000
G01 X94.943106 Y62.781256 Z-0.125000
G01 X97.077153 Y61.420585 Z-0.125000
G01 X100.611135 Y59.504369 Z-0.125000
G01 X103.283714 Y58.274164 Z-0.125000
G01 X105.997198 Y57.351246 Z-0.125000
G01 X108.296980 Y56.909869 Z-0.125000
G01 X110.637058 Y56.824276 Z-0.125000
G01 X112.061996 Y56.953763 Z-0.125000
G01 X113.986652 Y57.333545 Z-0.125000
G01 X115.447521 Y57.762964 Z-0.125000
G01 X117.414299 Y58.501812 Z-0.125000
G01 X120.384507 Y59.871875 Z-0.125000
G01 X127.576085 Y63.539419 Z-0.125000
G01 X129.781490 Y64.536844 Z-0.125000
G01 X134.571607 Y66.523333 Z-0.125000
G01 X136.898244 Y67.734091 Z-0.125000
G01 X138.057937 Y68.497308 Z-0.125000
G01 X139.150215 Y69.335956 Z-0.125000
G01 X144.409596 Y73.975340 Z-0.125000
G01 X148.159478 Y76.954809 Z-0.125000
G01 X151.794372 Y79.528196 Z-0.125000
G01 X157.597339 Y83.279242 Z-0.125000
G01 X159.156765 Y84.379008 Z-0.125000
G01 X160.480976 Y85.590560 Z-0.125000
G01 X161.519068 Y86.952554 Z-0.125000
G01 X162.766603 Y89.069721 Z-0.125000
G01 X163.534396 Y90.804406 Z-0.125000
G01 X163.874333 Y92.019742 Z-0.125000
G01 X164.340740 Y94.819982 Z-0.125000
G01 X164.684671 Y96.332233 Z-0.125000
G01 X165.260536 Y98.113617 Z-0.125000
G01 X165.926491 Y99.770039 Z-0.125000
G01 X167.529071 Y103.180620 Z-0.125000
G01 X172.942015 Y113.849903 Z-0.125000
G01 X174.593939 Y117.406824 Z-0.125000
G01 X175.780277 Y120.201509 Z-0.125000
G01 X180.511127 Y132.609684 Z-0.125000
G01 X181.094241 Y134.587389 Z-0.125000
G01 X181.310564 Y136.091623 Z-0.125000
G01 X181.280322 Y137.238061 Z-0.125000
G01 X181.057676 Y138.361428 Z-0.125000
G01 X180.640428 Y139.485932 Z-0.125000
G01 X180.035274 Y140.635254 Z-0.125000
G01 X178.333185 Y143.102676 Z-0.125000
G01 X173.033641 Y149.976621 Z-0.125000
G01 X171.222120 Y152.023039 Z-0.125000
G01 X169.197425 Y153.980794 Z-0.125000
G01 X167.035967 Y155.826419 Z-0.125000
G01 X162.834125 Y159.210409 Z-0.125000
G01 X161.053058 Y160.784705 Z-0.125000
G01 X159.597057 Y162.290050 Z-0.125000
G01 X158.485968 Y163.708505 Z-0.125000
G01 X157.704363 Y165.043671 Z-0.125000
G01 X157.154057 Y166.627279 Z-0.125000
G01 X156.924346 Y168.312461 Z-0.125000
G01 X156.719294 Y172.828814 Z-0.125000
G01 X156.419548 Y174.948468 Z-0.125000
G01 X155.692977 Y177.696453 Z-0.125000
G01 X154.722962 Y180.051109 Z-0.125000
G01 X153.703815 Y181.899989 Z-0.125000
G01 X152.808440 Y183.231741 Z-0.125000
G01 X151.813396 Y184.496395 Z-0.125000
G01 X150.716488 Y185.680404 Z-0.125000
G01 X148.642422 Y187.446416 Z-0.125000
G01 X147.252012 Y188.369123 Z-0.125000
G01 X145.763044 Y189.183086 Z-0.125000
G01 X143.106922 Y190.294573 Z-0.125000
G01 X141.441716 Y190.818288 Z-0.125000
G01 X139.748914 Y191.242653 Z-0.125000
G01 X136.350451 Y191.843256 Z-0.125000
G01 X128.944164 Y192.746860 Z-0.125000
G01 X125.796950 Y193.316005 Z-0.125000
G01 X121.003314 Y194.474905 Z-0.125000
G01 X111.089839 Y197.353779 Z-0.125000
G01 X107.854915 Y198.192931 Z-0.125000
G01 X104.391550 Y198.843937 Z-0.125000
G01 X101.897114 Y199.025388 Z-0.125000
G01 X100.569516 Y198.969508 Z-0.125000
G01 X98.978658 Y198.710799 Z-0.125000
G01 X97.561631 Y198.260955 Z-0.125000
G01 X96.276260 Y197.648419 Z-0.125000
G01 X95.077831 Y196.905179 Z-0.125000
G01 X93.928139 Y196.063461 Z-0.125000
G01 X89.964474 Y192.630735 Z-0.125000
G01 X89.417713 Y192.236532 Z-0.125000
G01 X89.062802 Y192.080587 Z-0.125000
G01 X88.346946 Y192.085985 Z-0.125000
G01 X86.487906 Y192.649838 Z-0.125000
G01 X84.997325 Y192.924210 Z-0.125000
G01 X83.496928 Y193.012501 Z-0.125000
G01 X81.746526 Y192.911828 Z-0.125000
G01 X79.798190 Y192.566388 Z-0.125000
G01 X78.250511 Y192.121439 Z-0.125000
G01 X76.138636 Y191.260988 Z-0.125000
G01 X74.564262 Y190.412339 Z-0.125000
G01 X72.536207 Y189.021664 Z-0.125000
G01 X71.567833 Y188.224793 Z-0.125000
G01 X70.182608 Y186.920557 Z-0.125000
G01 X68.046683 Y184.527907 Z-0.125000
G01 X63.200157 Y178.362197 Z-0.125000
G01 X61.029571 Y175.795927 Z-0.125000
G01 X59.656333 Y174.329661 Z-0.125000
G01 X58.229966 Y172.959677 Z-0.125000
G01 X55.747304 Y170.979008 Z-0.125000
G01 X54.207907 Y170.015741 Z-0.125000
G01 X52.645333 Y169.241862 Z-0.125000
G01 X51.074186 Y168.661473 Z-0.125000
G01 X49.511294 Y168.266133 Z-0.125000
G01 X47.975443 Y168.034967 Z-0.125000
G01 X46.486634 Y167.935854 Z-0.125000
G01 X41.402857 Y167.958105 Z-0.125000
G01 X40.438161 Y167.825391 Z-0.125000
G01 X39.876901 Y167.661296 Z-0.125000
G01 X39.383586 Y167.426346 Z-0.125000
G01 X38.959327 Y167.114377 Z-0.125000
G01 X38.452466 Y166.494141 Z-0.125000
G01 X38.097501 Y165.689994 Z-0.125000
G01 X37.845618 Y164.350013 Z-0.125000
G01 X37.840882 Y162.321138 Z-0.125000
G01 X38.103163 Y160.035114 Z-0.125000
G01 X38.640769 Y157.159362 Z-0.125000
G01 X39.412373 Y153.789289 Z-0.125000
G01 X39.946248 Y151.830845 Z-0.125000
G01 X40.604399 Y149.828719 Z-0.125000
G01 X43.050680 Y143.650706 Z-0.125000
G01 X43.954019 Y141.077901 Z-0.125000
G01 X44.564333 Y138.547244 Z-0.125000
G01 X44.742027 Y137.055446 Z-0.125000
G01 X44.772586 Y136.072864 Z-0.125000
G01 X44.730756 Y135.099887 Z-0.125000
G01 X44.533536 Y133.657830 Z-0.125000
G01 X43.874592 Y131.296744 Z-0.125000
G01 X42.891137 Y128.979605 Z-0.125000
G01 X39.701641 Y122.636651 Z-0.125000
G01 X38.816664 Y120.396507 Z-0.125000
G01 X37.973570 Y117.696252 Z-0.125000
G01 X37.557778 Y115.890526 Z-0.125000
G01 X37.349869 Y114.103664 Z-0.125000
G01 X37.395589 Y112.358105 Z-0.125000
G01 X37.709252 Y110.676653 Z-0.125000
G01 X38.113773 Y109.470869 Z-0.125000
G01 X38.649368 Y108.321812 Z-0.125000
G01 X39.297332 Y107.236360 Z-0.125000
G01 X40.034910 Y106.219329 Z-0.125000
G01 X41.675351 Y104.396432 Z-0.125000
G01 X45.578189 Y100.771010 Z-0.125000
G01 X46.369768 Y99.857272 Z-0.125000
G01 X47.041729 Y98.873738 Z-0.125000
G01 X47.760628 Y97.476343 Z-0.125000
G01 X49.962117 Y92.238896 Z-0.125000
G01 X55.323998 Y82.263587 Z-0.125000
G01 X56.854584 Y79.055836 Z-0.125000
G01 X59.975023 Y72.053250 Z-0.125000
G01 X61.057855 Y69.845728 Z-0.125000
G01 X62.153123 Y67.961792 Z-0.125000
G01 X63.000027 Y66.792784 Z-0.125000
G01 X63.880797 Y65.840974 Z-0.125000
G01 X65.124020 Y64.894745 Z-0.125000
G01 X66.465402 Y64.265752 Z-0.125000
G01 X68.314494 Y63.814427 Z-0.125000
G01 X69.926227 Y63.730924 Z-0.125000
G01 X71.636280 Y63.925816 Z-0.125000
G01 X72.970890 Y64.251280 Z-0.125000
G01 X74.798444 Y64.891253 Z-0.125000
G01 X80.281874 Y67.425244 Z-0.125000
G01 X82.403829 Y68.265692 Z-0.125000
G01 X83.598898 Y68.585837 Z-0.125000
G01 X84.360738 Y68.704053 Z-0.125000
G01 X85.452328 Y68.724399 Z-0.125000
G01 X86.148473 Y68.629123 Z-0.125000
G01 X87.152830 Y68.322947 Z-0.125000
G01 X88.440132 Y67.627861 Z-0.125000
G01 X90.027524 Y66.376304 Z-0.125000
G01 X93.485412 Y63.234381 Z-0.125000
G01 X95.074207 Y61.995180 Z-0.125000
G01 X97.227198 Y60.598605 Z-0.125000
G01 X100.350865 Y58.877361 Z-0.125000
G01 X103.481543 Y57.398315 Z-0.125000
G01 X106.187037 Y56.462829 Z-0.125000
G01 X108.464990 Y56.018515 Z-0.125000
G01 X110.772313 Y55.938346 Z-0.125000
G01 X112.174338 Y56.075268 Z-0.125000
G01 X114.067165 Y56.469602 Z-0.125000
G01 X115.505068 Y56.912991 Z-0.125000
G01 X117.444990 Y57.673587 Z-0.125000
G01 X119.896802 Y58.829947 Z-0.125000
G01 X127.621064 Y62.830072 Z-0.125000
G01 X134.426298 Y65.752709 Z-0.125000
G01 X135.884864 Y66.458669 Z-0.125000
G01 X137.196773 Y67.201671 Z-0.125000
G01 X139.506371 Y68.866560 Z-0.125000
G01 X144.497967 Y73.264538 Z-0.125000
G01 X148.243404 Y76.247261 Z-0.125000
G01 X151.919388 Y78.849064 Z-0.125000
G01 X158.151217 Y82.840669 Z-0.125000
G01 X159.648942 Y83.894689 Z-0.125000
G01 X160.730346 Y84.880843 Z-0.125000
G01 X161.708668 Y86.164282 Z-0.125000
G01 X163.063148 Y88.490945 Z-0.125000
G01 X163.847186 Y90.301090 Z-0.125000
G01 X164.208289 Y91.587043 Z-0.125000
G01 X164.699223 Y94.255362 Z-0.125000
G01 X165.064083 Y95.794309 Z-0.125000
G01 X165.655955 Y97.587494 Z-0.125000
G01 X166.335034 Y99.247514 Z-0.125000
G01 X167.967908 Y102.664657 Z-0.125000
G01 X173.500788 Y113.416516 Z-0.125000
G01 X175.189886 Y117.007992 Z-0.125000
G01 X176.616994 Y120.356713 Z-0.125000
G01 X180.973618 Y132.182356 Z-0.125000
G01 X181.520643 Y134.165565 Z-0.125000
G01 X181.728737 Y135.686335 Z-0.125000
G01 X181.709926 Y136.855686 Z-0.125000
G01 X181.515907 Y138.010088 Z-0.125000
G01 X181.143639 Y139.171634 Z-0.125000
G01 X180.434874 Y140.664305 Z-0.125000
G01 X178.567606 Y143.579507 Z-0.125000
G01 X173.717746 Y150.238215 Z-0.125000
G01 X171.926625 Y152.274525 Z-0.125000
G01 X169.899867 Y154.213997 Z-0.125000
G01 X168.161794 Y155.683306 Z-0.125000
G01 X163.461980 Y159.399798 Z-0.125000
G01 X161.659032 Y160.982877 Z-0.125000
G01 X160.191787 Y162.518596 Z-0.125000
G01 X159.079983 Y163.993488 Z-0.125000
G01 X158.297637 Y165.386544 Z-0.125000
G01 X157.735213 Y167.020714 Z-0.125000
G01 X157.479891 Y168.739498 Z-0.125000
G01 X157.195834 Y173.291490 Z-0.125000
G01 X156.870609 Y175.417706 Z-0.125000
G01 X156.129538 Y178.170824 Z-0.125000
G01 X155.591430 Y179.586158 Z-0.125000
G01 X154.938571 Y180.997285 Z-0.125000
G01 X154.175778 Y182.381609 Z-0.125000
G01 X153.312656 Y183.718918 Z-0.125000
G01 X152.350182 Y184.993017 Z-0.125000
G01 X151.274917 Y186.190890 Z-0.125000
G01 X150.078446 Y187.301795 Z-0.125000
G01 X149.212677 Y187.989711 Z-0.125000
G01 X147.815732 Y188.937341 Z-0.125000
G01 X146.311181 Y189.779641 Z-0.125000
G01 X143.612461 Y190.943939 Z-0.125000
G01 X141.914155 Y191.501574 Z-0.125000
G01 X140.184523 Y191.960731 Z-0.125000
G01 X136.708485 Y192.630417 Z-0.125000
G01 X130.390375 Y193.467346 Z-0.125000
G01 X126.689441 Y194.114701 Z-0.125000
G01 X121.942240 Y195.254684 Z-0.125000
G01 X111.951612 Y198.152238 Z-0.125000
G01 X108.630884 Y199.010386 Z-0.125000
G01 X105.037185 Y199.680258 Z-0.125000
G01 X102.422073 Y199.869223 Z-0.125000
G01 X101.021133 Y199.813846 Z-0.125000
G01 X99.335633 Y199.552041 Z-0.125000
G01 X97.831426 Y199.097064 Z-0.125000
G01 X96.469379 Y198.480215 Z-0.125000
G01 X95.205757 Y197.735890 Z-0.125000
G01 X94.000238 Y196.896765 Z-0.125000
G01 X92.255181 Y195.523235 Z-0.125000
G01 X89.579294 Y193.235889 Z-0.125000
G01 X88.759589 Y192.740510 Z-0.125000
G01 X88.402984 Y192.669708 Z-0.125000
G01 X88.034473 Y192.700902 Z-0.125000
G01 X86.014065 Y193.328043 Z-0.125000
G01 X84.502899 Y193.614137 Z-0.125000
G01 X82.980488 Y193.707667 Z-0.125000
G01 X81.202914 Y193.607654 Z-0.125000
G01 X79.223198 Y193.257770 Z-0.125000
G01 X77.650490 Y192.806100 Z-0.125000
G01 X75.505330 Y191.932447 Z-0.125000
G01 X73.907540 Y191.071256 Z-0.125000
G01 X72.865850 Y190.402179 Z-0.125000
G01 X71.357463 Y189.266059 Z-0.125000
G01 X69.022068 Y187.072005 Z-0.125000
G01 X67.309290 Y185.124303 Z-0.125000
G01 X62.399714 Y178.932479 Z-0.125000
G01 X60.225847 Y176.373115 Z-0.125000
G01 X57.923605 Y173.991259 Z-0.125000
G01 X55.499363 Y171.937989 Z-0.125000
G01 X53.997484 Y170.919768 Z-0.125000
G01 X52.471661 Y170.085988 Z-0.125000
G01 X50.934407 Y169.444242 Z-0.125000
G01 X49.400646 Y168.989820 Z-0.125000
G01 X47.887443 Y168.705235 Z-0.125000
G01 X46.413451 Y168.561011 Z-0.125000
G01 X41.300913 Y168.505554 Z-0.125000
G01 X40.308754 Y168.374824 Z-0.125000
G01 X39.458913 Y168.108600 Z-0.125000
G01 X38.975388 Y167.840551 Z-0.125000
G01 X38.559781 Y167.492757 Z-0.125000
G01 X38.063926 Y166.814736 Z-0.125000
G01 X37.717957 Y165.949471 Z-0.125000
G01 X37.475493 Y164.526146 Z-0.125000
G01 X37.479515 Y162.397126 Z-0.125000
G01 X37.748304 Y160.023790 Z-0.125000
G01 X38.291864 Y157.069377 Z-0.125000
G01 X39.064446 Y153.649272 Z-0.125000
G01 X39.586230 Y151.679954 Z-0.125000
G01 X40.228506 Y149.678489 Z-0.125000
G01 X42.831473 Y143.056479 Z-0.125000
G01 X43.527326 Y141.039563 Z-0.125000
G01 X44.121871 Y138.563701 Z-0.125000
G01 X44.287341 Y137.106325 Z-0.125000
G01 X44.308349 Y136.146736 Z-0.125000
G01 X44.255803 Y135.196433 Z-0.125000
G01 X44.040379 Y133.787237 Z-0.125000
G01 X43.346378 Y131.475470 Z-0.125000
G01 X42.325141 Y129.197490 Z-0.125000
G01 X39.923071 Y124.689683 Z-0.125000
G01 X39.055874 Y122.891498 Z-0.125000
G01 X38.159440 Y120.640584 Z-0.125000
G01 X37.434694 Y118.376283 Z-0.125000
G01 X36.887986 Y116.100658 Z-0.125000
G01 X36.684496 Y114.293873 Z-0.125000
G01 X36.740878 Y112.521194 Z-0.125000
G01 X37.070602 Y110.804447 Z-0.125000
G01 X37.490230 Y109.566833 Z-0.125000
G01 X38.042918 Y108.381607 Z-0.125000
G01 X38.709402 Y107.256230 Z-0.125000
G01 X39.466295 Y106.196284 Z-0.125000
G01 X41.145100 Y104.282502 Z-0.125000
G01 X45.107363 Y100.452505 Z-0.125000
G01 X45.898572 Y99.501117 Z-0.125000
G01 X46.562226 Y98.489590 Z-0.125000
G01 X47.261413 Y97.071054 Z-0.125000
G01 X48.655792 Y93.527785 Z-0.125000
G01 X49.608714 Y91.423028 Z-0.125000
G01 X53.140738 Y84.911031 Z-0.125000
G01 X54.978717 Y81.252801 Z-0.125000
G01 X59.235910 Y71.524825 Z-0.125000
G01 X60.308953 Y69.283648 Z-0.125000
G01 X61.405014 Y67.377434 Z-0.125000
G01 X62.260332 Y66.201309 Z-0.125000
G01 X63.156263 Y65.251853 Z-0.125000
G01 X64.428854 Y64.324648 Z-0.125000
G01 X65.806591 Y63.733517 Z-0.125000
G01 X67.707646 Y63.342490 Z-0.125000
G01 X69.373514 Y63.289441 Z-0.125000
G01 X71.146881 Y63.503489 Z-0.125000
G01 X72.533508 Y63.838900 Z-0.125000
G01 X74.434246 Y64.488425 Z-0.125000
G01 X80.135903 Y67.026305 Z-0.125000
G01 X82.335620 Y67.850958 Z-0.125000
G01 X83.571117 Y68.154858 Z-0.125000
G01 X84.357061 Y68.259209 Z-0.125000
G01 X85.480374 Y68.254288 Z-0.125000
G01 X86.194801 Y68.139327 Z-0.125000
G01 X87.222336 Y67.799840 Z-0.125000
G01 X88.533450 Y67.054536 Z-0.125000
G01 X89.818371 Y66.026843 Z-0.125000
G01 X92.875654 Y63.132490 Z-0.125000
G01 X94.812349 Y61.497076 Z-0.125000
G01 X96.950365 Y60.027106 Z-0.125000
G01 X99.651863 Y58.487392 Z-0.125000
G01 X102.799924 Y56.902169 Z-0.125000
G01 X105.495575 Y55.832857 Z-0.125000
G01 X106.844869 Y55.444740 Z-0.125000
G01 X108.197206 Y55.175712 Z-0.125000
G01 X110.464365 Y55.023524 Z-0.125000
G01 X111.837180 Y55.120123 Z-0.125000
G01 X113.688097 Y55.467627 Z-0.125000
G01 X115.094461 Y55.882943 Z-0.125000
G01 X116.995755 Y56.617742 Z-0.125000
G01 X119.898363 Y58.013418 Z-0.125000
G01 X127.174871 Y61.865455 Z-0.125000
G01 X129.487618 Y62.939080 Z-0.125000
G01 X134.620660 Y65.118900 Z-0.125000
G01 X137.141528 Y66.443191 Z-0.125000
G01 X138.388904 Y67.259509 Z-0.125000
G01 X139.548307 Y68.139327 Z-0.125000
G01 X144.555540 Y72.528388 Z-0.125000
G01 X147.848143 Y75.177658 Z-0.125000
G01 X152.479695 Y78.460895 Z-0.125000
G01 X159.710484 Y83.091388 Z-0.125000
G01 X160.842211 Y84.037087 Z-0.125000
G01 X161.793123 Y85.210804 Z-0.125000
G01 X163.219146 Y87.657218 Z-0.125000
G01 X164.049725 Y89.534937 Z-0.125000
G01 X164.527297 Y91.166567 Z-0.125000
G01 X165.425794 Y95.254560 Z-0.125000
G01 X166.037828 Y97.062297 Z-0.125000
G01 X166.732755 Y98.726709 Z-0.125000
G01 X168.399628 Y102.149540 Z-0.125000
G01 X174.056571 Y112.981594 Z-0.125000
G01 X175.782843 Y116.610086 Z-0.125000
G01 X177.234742 Y119.977301 Z-0.125000
G01 X178.426133 Y123.088824 Z-0.125000
G01 X181.214547 Y131.033749 Z-0.125000
G01 X181.803165 Y133.090696 Z-0.125000
G01 X182.107779 Y134.961986 Z-0.125000
G01 X182.110160 Y136.453414 Z-0.125000
G01 X181.935324 Y137.638666 Z-0.125000
G01 X181.599991 Y138.839212 Z-0.125000
G01 X180.959595 Y140.386863 Z-0.125000
G01 X180.091418 Y142.014049 Z-0.125000
G01 X178.796973 Y144.111107 Z-0.125000
G01 X176.203107 Y148.026618 Z-0.125000
G01 X174.714563 Y150.116004 Z-0.125000
G01 X173.000594 Y152.161415 Z-0.125000
G01 X171.021143 Y154.108270 Z-0.125000
G01 X168.846932 Y155.938761 Z-0.125000
G01 X164.085602 Y159.629535 Z-0.125000
G01 X162.258815 Y161.219494 Z-0.125000
G01 X160.777468 Y162.781486 Z-0.125000
G01 X159.661695 Y164.306807 Z-0.125000
G01 X158.878344 Y165.765083 Z-0.125000
G01 X158.301474 Y167.456138 Z-0.125000
G01 X158.015036 Y169.210059 Z-0.125000
G01 X157.634857 Y173.789462 Z-0.125000
G01 X157.279416 Y175.916497 Z-0.125000
G01 X156.522682 Y178.667182 Z-0.125000
G01 X155.352220 Y181.490467 Z-0.125000
G01 X154.617658 Y182.874924 Z-0.125000
G01 X153.790625 Y184.215487 Z-0.125000
G01 X152.856038 Y185.497101 Z-0.125000
G01 X151.798606 Y186.707092 Z-0.125000
G01 X150.609967 Y187.834665 Z-0.125000
G01 X149.744013 Y188.536101 Z-0.125000
G01 X148.339262 Y189.507332 Z-0.125000
G01 X146.818677 Y190.376673 Z-0.125000
G01 X145.200408 Y191.141027 Z-0.125000
G01 X143.506866 Y191.800288 Z-0.125000
G01 X139.991219 Y192.820758 Z-0.125000
G01 X137.033155 Y193.415012 Z-0.125000
G01 X130.616355 Y194.359705 Z-0.125000
G01 X126.905473 Y195.048177 Z-0.125000
G01 X122.157161 Y196.228164 Z-0.125000
G01 X112.837410 Y198.957364 Z-0.125000
G01 X109.446487 Y199.838214 Z-0.125000
G01 X105.737881 Y200.531448 Z-0.125000
G01 X103.010982 Y200.730467 Z-0.125000
G01 X101.540112 Y200.675989 Z-0.125000
G01 X99.762221 Y200.410189 Z-0.125000
G01 X98.170595 Y199.947434 Z-0.125000
G01 X96.729597 Y199.322330 Z-0.125000
G01 X95.397315 Y198.572528 Z-0.125000
G01 X94.132609 Y197.732583 Z-0.125000
G01 X92.302938 Y196.360164 Z-0.125000
G01 X89.389112 Y193.968890 Z-0.125000
G01 X88.360043 Y193.358841 Z-0.125000
G01 X87.988912 Y193.296426 Z-0.125000
G01 X87.608415 Y193.336404 Z-0.125000
G01 X85.553108 Y193.992094 Z-0.125000
G01 X84.022495 Y194.285543 Z-0.125000
G01 X82.479712 Y194.380925 Z-0.125000
G01 X80.676976 Y194.278637 Z-0.125000
G01 X78.667970 Y193.922058 Z-0.125000
G01 X77.071582 Y193.462610 Z-0.125000
G01 X74.894461 Y192.575357 Z-0.125000
G01 X73.273652 Y191.702286 Z-0.125000
G01 X72.217410 Y191.024928 Z-0.125000
G01 X70.688676 Y189.876611 Z-0.125000
G01 X68.321558 Y187.665941 Z-0.125000
G01 X66.159994 Y185.208838 Z-0.125000
G01 X61.585883 Y179.496940 Z-0.125000
G01 X59.407889 Y176.945302 Z-0.125000
G01 X57.124749 Y174.576676 Z-0.125000
G01 X54.739984 Y172.536899 Z-0.125000
G01 X53.269272 Y171.525637 Z-0.125000
G01 X51.778480 Y170.697465 Z-0.125000
G01 X50.278638 Y170.059609 Z-0.125000
G01 X48.783215 Y169.606748 Z-0.125000
G01 X47.307953 Y169.320761 Z-0.125000
G01 X45.870421 Y169.171245 Z-0.125000
G01 X40.874300 Y169.036810 Z-0.125000
G01 X39.902169 Y168.868456 Z-0.125000
G01 X39.330564 Y168.678882 Z-0.125000
G01 X38.823199 Y168.416363 Z-0.125000
G01 X38.381848 Y168.073993 Z-0.125000
G01 X37.844983 Y167.401952 Z-0.125000
G01 X37.359791 Y166.208259 Z-0.125000
G01 X37.122777 Y164.701644 Z-0.125000
G01 X37.129974 Y162.473326 Z-0.125000
G01 X37.399743 Y160.014186 Z-0.125000
G01 X37.943090 Y156.983467 Z-0.125000
G01 X38.711916 Y153.517324 Z-0.125000
G01 X39.363901 Y151.040986 Z-0.125000
G01 X40.019379 Y149.035685 Z-0.125000
G01 X42.401023 Y142.986233 Z-0.125000
G01 X43.086346 Y141.006041 Z-0.125000
G01 X43.665650 Y138.581878 Z-0.125000
G01 X43.819585 Y137.157125 Z-0.125000
G01 X43.831597 Y136.219443 Z-0.125000
G01 X43.768917 Y135.290810 Z-0.125000
G01 X43.536243 Y133.913126 Z-0.125000
G01 X42.808798 Y131.648904 Z-0.125000
G01 X41.751313 Y129.408759 Z-0.125000
G01 X39.526355 Y125.384901 Z-0.125000
G01 X38.615025 Y123.587034 Z-0.125000
G01 X37.664776 Y121.327177 Z-0.125000
G01 X36.768977 Y118.592289 Z-0.125000
G01 X36.221608 Y116.297481 Z-0.125000
G01 X36.024626 Y114.469741 Z-0.125000
G01 X36.093285 Y112.668937 Z-0.125000
G01 X36.440312 Y110.916154 Z-0.125000
G01 X36.875392 Y109.646261 Z-0.125000
G01 X37.445092 Y108.424655 Z-0.125000
G01 X38.129569 Y107.259220 Z-0.125000
G01 X38.904797 Y106.156332 Z-0.125000
G01 X40.618818 Y104.151560 Z-0.125000
G01 X44.409896 Y100.361171 Z-0.125000
G01 X45.233622 Y99.376737 Z-0.125000
G01 X45.917966 Y98.354414 Z-0.125000
G01 X46.619111 Y96.951807 Z-0.125000
G01 X48.086753 Y93.114983 Z-0.125000
G01 X48.812822 Y91.468800 Z-0.125000
G01 X52.500235 Y84.563396 Z-0.125000
G01 X54.305327 Y80.881088 Z-0.125000
G01 X55.762279 Y77.565784 Z-0.125000
G01 X58.214964 Y71.632722 Z-0.125000
G01 X59.543382 Y68.747841 Z-0.125000
G01 X60.641322 Y66.820248 Z-0.125000
G01 X61.506456 Y65.636980 Z-0.125000
G01 X62.419558 Y64.689085 Z-0.125000
G01 X63.388699 Y63.970292 Z-0.125000
G01 X64.778210 Y63.331589 Z-0.125000
G01 X66.292021 Y62.983318 Z-0.125000
G01 X68.381222 Y62.849016 Z-0.125000
G01 X70.192239 Y63.013560 Z-0.125000
G01 X72.100676 Y63.437052 Z-0.125000
G01 X74.075550 Y64.090043 Z-0.125000
G01 X79.998320 Y66.613424 Z-0.125000
G01 X81.835743 Y67.285279 Z-0.125000
G01 X83.136460 Y67.625903 Z-0.125000
G01 X83.963440 Y67.756925 Z-0.125000
G01 X85.143137 Y67.792511 Z-0.125000
G01 X85.890901 Y67.703241 Z-0.125000
G01 X87.305732 Y67.251016 Z-0.125000
G01 X88.641850 Y66.455891 Z-0.125000
G01 X89.944815 Y65.375069 Z-0.125000
G01 X93.027393 Y62.365544 Z-0.125000
G01 X94.976390 Y60.679621 Z-0.125000
G01 X97.130784 Y59.174831 Z-0.125000
G01 X99.404002 Y57.860912 Z-0.125000
G01 X103.028947 Y56.006979 Z-0.125000
G01 X105.722006 Y54.925258 Z-0.125000
G01 X107.061483 Y54.533463 Z-0.125000
G01 X108.398633 Y54.263060 Z-0.125000
G01 X110.630073 Y54.114311 Z-0.125000
G01 X111.976801 Y54.216652 Z-0.125000
G01 X113.334429 Y54.462820 Z-0.125000
G01 X114.706583 Y54.846280 Z-0.125000
G01 X116.563585 Y55.549542 Z-0.125000
G01 X119.411980 Y56.925320 Z-0.125000
G01 X127.171538 Y61.098641 Z-0.125000
G01 X129.521484 Y62.191104 Z-0.125000
G01 X134.378514 Y64.266308 Z-0.125000
G01 X137.029927 Y65.641875 Z-0.125000
G01 X138.338581 Y66.480629 Z-0.125000
G01 X139.834718 Y67.609711 Z-0.125000
G01 X144.957363 Y72.084736 Z-0.125000
G01 X148.317011 Y74.758638 Z-0.125000
G01 X153.022593 Y78.056480 Z-0.125000
G01 X159.989408 Y82.465147 Z-0.125000
G01 X161.125686 Y83.381213 Z-0.125000
G01 X162.031459 Y84.482645 Z-0.125000
G01 X163.371704 Y86.826374 Z-0.125000
G01 X164.226096 Y88.753597 Z-0.125000
G01 X164.760818 Y90.473386 Z-0.125000
G01 X165.768138 Y94.711609 Z-0.125000
G01 X166.404381 Y96.536517 Z-0.125000
G01 X167.117882 Y98.206010 Z-0.125000
G01 X168.546154 Y101.104543 Z-0.125000
G01 X174.608095 Y112.541963 Z-0.125000
G01 X176.371540 Y116.209983 Z-0.125000
G01 X177.848310 Y119.600588 Z-0.125000
G01 X179.223084 Y123.193969 Z-0.125000
G01 X181.593271 Y130.227114 Z-0.125000
G01 X182.234356 Y132.642043 Z-0.125000
G01 X182.496187 Y134.517910 Z-0.125000
G01 X182.485789 Y136.030134 Z-0.125000
G01 X182.320345 Y137.244940 Z-0.125000
G01 X181.914210 Y138.801217 Z-0.125000
G01 X181.291197 Y140.423164 Z-0.125000
G01 X180.279616 Y142.483790 Z-0.125000
G01 X179.026313 Y144.698640 Z-0.125000
G01 X176.803207 Y148.334593 Z-0.125000
G01 X175.371866 Y150.439456 Z-0.125000
G01 X173.688960 Y152.482196 Z-0.125000
G01 X171.715647 Y154.418256 Z-0.125000
G01 X169.527889 Y156.234300 Z-0.125000
G01 X164.704435 Y159.902214 Z-0.125000
G01 X162.852010 Y161.497571 Z-0.125000
G01 X161.354047 Y163.082290 Z-0.125000
G01 X160.231210 Y164.652035 Z-0.125000
G01 X159.323002 Y166.472975 Z-0.125000
G01 X158.784047 Y168.224170 Z-0.125000
G01 X158.530656 Y169.723271 Z-0.125000
G01 X158.038134 Y174.322570 Z-0.125000
G01 X157.430731 Y177.340404 Z-0.125000
G01 X156.535329 Y180.123605 Z-0.125000
G01 X155.509409 Y182.462678 Z-0.125000
G01 X154.780139 Y183.832688 Z-0.125000
G01 X153.948475 Y185.157482 Z-0.125000
G01 X152.283930 Y187.228849 Z-0.125000
G01 X151.100504 Y188.371239 Z-0.125000
G01 X150.233200 Y189.085005 Z-0.125000
G01 X148.819613 Y190.078223 Z-0.125000
G01 X147.282862 Y190.973069 Z-0.125000
G01 X145.642103 Y191.765972 Z-0.125000
G01 X143.920991 Y192.456110 Z-0.125000
G01 X140.340125 Y193.542937 Z-0.125000
G01 X137.323931 Y194.194103 Z-0.125000
G01 X130.212919 Y195.353479 Z-0.125000
G01 X126.444675 Y196.130956 Z-0.125000
G01 X122.354672 Y197.202729 Z-0.125000
G01 X113.035979 Y199.962091 Z-0.125000
G01 X109.632754 Y200.823653 Z-0.125000
G01 X106.488450 Y201.394121 Z-0.125000
G01 X103.660401 Y201.607110 Z-0.125000
G01 X102.124127 Y201.554934 Z-0.125000
G01 X100.257599 Y201.285456 Z-0.125000
G01 X98.579746 Y200.813281 Z-0.125000
G01 X97.058817 Y200.176510 Z-0.125000
G01 X95.655337 Y199.416918 Z-0.125000
G01 X94.004418 Y198.350993 Z-0.125000
G01 X92.101299 Y196.962884 Z-0.125000
G01 X89.062458 Y194.571239 Z-0.125000
G01 X88.400603 Y194.147086 Z-0.125000
G01 X87.982165 Y193.974578 Z-0.125000
G01 X87.594419 Y193.919069 Z-0.125000
G01 X87.200137 Y193.966085 Z-0.125000
G01 X85.107286 Y194.641618 Z-0.125000
G01 X83.558232 Y194.937872 Z-0.125000
G01 X81.996689 Y195.031640 Z-0.125000
G01 X80.170749 Y194.923955 Z-0.125000
G01 X78.134518 Y194.558222 Z-0.125000
G01 X76.515879 Y194.089698 Z-0.125000
G01 X74.308145 Y193.188317 Z-0.125000
G01 X72.664662 Y192.303922 Z-0.125000
G01 X71.593735 Y191.619234 Z-0.125000
G01 X70.043491 Y190.461101 Z-0.125000
G01 X67.639622 Y188.240932 Z-0.125000
G01 X65.431200 Y185.786607 Z-0.125000
G01 X60.761787 Y180.056401 Z-0.125000
G01 X58.578501 Y177.512489 Z-0.125000
G01 X56.317216 Y175.159287 Z-0.125000
G01 X53.977270 Y173.135757 Z-0.125000
G01 X52.541749 Y172.133013 Z-0.125000
G01 X51.090299 Y171.311748 Z-0.125000
G01 X49.632209 Y170.678707 Z-0.125000
G01 X48.179357 Y170.228042 Z-0.125000
G01 X46.745952 Y169.940917 Z-0.125000
G01 X45.348319 Y169.786109 Z-0.125000
G01 X40.820827 Y169.612543 Z-0.125000
G01 X39.826286 Y169.447496 Z-0.125000
G01 X38.962449 Y169.144390 Z-0.125000
G01 X38.464028 Y168.849194 Z-0.125000
G01 X38.029821 Y168.471423 Z-0.125000
G01 X37.500681 Y167.742206 Z-0.125000
G01 X37.020886 Y166.467260 Z-0.125000
G01 X36.784958 Y164.877989 Z-0.125000
G01 X36.789509 Y162.551828 Z-0.125000
G01 X37.054383 Y160.008788 Z-0.125000
G01 X37.591433 Y156.904357 Z-0.125000
G01 X38.351951 Y153.395483 Z-0.125000
G01 X38.984013 Y150.911208 Z-0.125000
G01 X39.619621 Y148.909955 Z-0.125000
G01 X41.957582 Y142.922574 Z-0.125000
G01 X42.774535 Y140.495898 Z-0.125000
G01 X43.263960 Y138.133410 Z-0.125000
G01 X43.345664 Y136.290087 Z-0.125000
G01 X43.273618 Y135.382355 Z-0.125000
G01 X43.024751 Y134.035337 Z-0.125000
G01 X42.265424 Y131.817920 Z-0.125000
G01 X41.410848 Y130.055744 Z-0.125000
G01 X38.892996 Y125.624984 Z-0.125000
G01 X37.966612 Y123.826561 Z-0.125000
G01 X37.006573 Y121.555115 Z-0.125000
G01 X36.241716 Y119.260387 Z-0.125000
G01 X35.643070 Y116.946582 Z-0.125000
G01 X35.392087 Y115.093999 Z-0.125000
G01 X35.404575 Y113.256734 Z-0.125000
G01 X35.699771 Y111.454474 Z-0.125000
G01 X36.101884 Y110.138862 Z-0.125000
G01 X36.645311 Y108.864604 Z-0.125000
G01 X37.311372 Y107.640431 Z-0.125000
G01 X38.076652 Y106.473884 Z-0.125000
G01 X40.095314 Y104.003235 Z-0.125000
G01 X43.923751 Y100.017848 Z-0.125000
G01 X44.743032 Y98.993118 Z-0.125000
G01 X45.415470 Y97.940448 Z-0.125000
G01 X46.092803 Y96.515086 Z-0.125000
G01 X47.346899 Y93.079608 Z-0.125000
G01 X48.210869 Y91.071344 Z-0.125000
G01 X51.843990 Y84.219782 Z-0.125000
G01 X53.617278 Y80.520488 Z-0.125000
G01 X55.044175 Y77.172825 Z-0.125000
G01 X57.448282 Y71.161764 Z-0.125000
G01 X58.764000 Y68.238598 Z-0.125000
G01 X59.864771 Y66.290527 Z-0.125000
G01 X60.740938 Y65.099982 Z-0.125000
G01 X61.672958 Y64.152802 Z-0.125000
G01 X62.668398 Y63.443217 Z-0.125000
G01 X64.101962 Y62.830231 Z-0.125000
G01 X65.664854 Y62.522785 Z-0.125000
G01 X67.820967 Y62.436240 Z-0.125000
G01 X69.695617 Y62.616712 Z-0.125000
G01 X71.674460 Y63.044305 Z-0.125000
G01 X73.724025 Y63.694676 Z-0.125000
G01 X79.869415 Y66.185699 Z-0.125000
G01 X81.771767 Y66.837102 Z-0.125000
G01 X83.116008 Y67.158121 Z-0.125000
G01 X83.969261 Y67.273876 Z-0.125000
G01 X85.184121 Y67.283321 Z-0.125000
G01 X85.952390 Y67.174472 Z-0.125000
G01 X87.401432 Y66.678458 Z-0.125000
G01 X88.763320 Y65.834677 Z-0.125000
G01 X90.084859 Y64.702499 Z-0.125000
G01 X93.192387 Y61.582642 Z-0.125000
G01 X94.743213 Y60.183025 Z-0.125000
G01 X96.873292 Y58.600263 Z-0.125000
G01 X99.155399 Y57.235597 Z-0.125000
G01 X102.813127 Y55.319407 Z-0.125000
G01 X104.615863 Y54.515154 Z-0.125000
G01 X105.955130 Y54.012870 Z-0.125000
G01 X107.284262 Y53.617583 Z-0.125000
G01 X108.605537 Y53.345750 Z-0.125000
G01 X110.799962 Y53.200018 Z-0.125000
G01 X112.119649 Y53.307597 Z-0.125000
G01 X113.447961 Y53.561438 Z-0.125000
G01 X114.789900 Y53.954768 Z-0.125000
G01 X116.607691 Y54.673772 Z-0.125000
G01 X118.933931 Y55.821692 Z-0.125000
G01 X126.665602 Y60.067746 Z-0.125000
G01 X129.061269 Y61.207358 Z-0.125000
G01 X134.079085 Y63.369557 Z-0.125000
G01 X136.860779 Y64.796903 Z-0.125000
G01 X138.233859 Y65.660290 Z-0.125000
G01 X139.789210 Y66.810670 Z-0.125000
G01 X145.331615 Y71.615842 Z-0.125000
G01 X148.762437 Y74.316943 Z-0.125000
G01 X153.070694 Y77.323135 Z-0.125000
G01 X160.494126 Y82.004852 Z-0.125000
G01 X161.568809 Y82.886680 Z-0.125000
G01 X162.292894 Y83.781156 Z-0.125000
G01 X163.407370 Y85.759602 Z-0.125000
G01 X164.379977 Y87.961435 Z-0.125000
G01 X164.965182 Y89.765362 Z-0.125000
G01 X166.089686 Y94.164399 Z-0.125000
G01 X166.600014 Y95.619764 Z-0.125000
G01 X167.286765 Y97.246552 Z-0.125000
G01 X168.951866 Y100.584770 Z-0.125000
G01 X173.148575 Y108.263365 Z-0.125000
G01 X175.153982 Y112.094474 Z-0.125000
G01 X176.954575 Y115.804325 Z-0.125000
G01 X178.456031 Y119.223451 Z-0.125000
G01 X180.007837 Y123.288928 Z-0.125000
G01 X181.762948 Y128.640437 Z-0.125000
G01 X182.539579 Y131.528572 Z-0.125000
G01 X182.860729 Y133.750407 Z-0.125000
G01 X182.864486 Y135.278798 Z-0.125000
G01 X182.676183 Y136.827375 Z-0.125000
G01 X182.296347 Y138.434770 Z-0.125000
G01 X181.729108 Y140.121301 Z-0.125000
G01 X180.984571 Y141.896918 Z-0.125000
G01 X179.883641 Y144.156113 Z-0.125000
G01 X177.132190 Y149.097650 Z-0.125000
G01 X175.397795 Y151.621984 Z-0.125000
G01 X174.369467 Y152.836155 Z-0.125000
G01 X173.225093 Y154.008760 Z-0.125000
G01 X170.656045 Y156.219246 Z-0.125000
G01 X166.153398 Y159.576089 Z-0.125000
G01 X164.150346 Y161.179780 Z-0.125000
G01 X162.481885 Y162.780772 Z-0.125000
G01 X161.197308 Y164.389674 Z-0.125000
G01 X160.133076 Y166.305229 Z-0.125000
G01 X159.471089 Y168.145509 Z-0.125000
G01 X159.076755 Y169.965893 Z-0.125000
G01 X158.408048 Y174.890286 Z-0.125000
G01 X157.870309 Y177.444755 Z-0.125000
G01 X156.857512 Y180.657878 Z-0.125000
G01 X155.653792 Y183.442455 Z-0.125000
G01 X154.921902 Y184.796009 Z-0.125000
G01 X154.072908 Y186.104028 Z-0.125000
G01 X153.088554 Y187.353918 Z-0.125000
G01 X152.351320 Y188.149307 Z-0.125000
G01 X151.120903 Y189.277992 Z-0.125000
G01 X150.218887 Y189.983555 Z-0.125000
G01 X147.701750 Y191.567587 Z-0.125000
G01 X146.039375 Y192.387398 Z-0.125000
G01 X144.292227 Y193.106984 Z-0.125000
G01 X142.487216 Y193.728463 Z-0.125000
G01 X140.035722 Y194.415426 Z-0.125000
G01 X136.971031 Y195.085086 Z-0.125000
G01 X129.770457 Y196.362863 Z-0.125000
G01 X126.611654 Y197.065437 Z-0.125000
G01 X122.535567 Y198.174198 Z-0.125000
G01 X113.943393 Y200.770260 Z-0.125000
G01 X110.496935 Y201.663889 Z-0.125000
G01 X107.283310 Y202.263937 Z-0.125000
G01 X104.366044 Y202.496320 Z-0.125000
G01 X102.769947 Y202.448907 Z-0.125000
G01 X100.819997 Y202.177366 Z-0.125000
G01 X99.058615 Y201.695269 Z-0.125000
G01 X97.458020 Y201.044315 Z-0.125000
G01 X95.981885 Y200.270780 Z-0.125000
G01 X94.251380 Y199.194219 Z-0.125000
G01 X92.260922 Y197.805158 Z-0.125000
G01 X88.765357 Y195.173139 Z-0.125000
G01 X88.069001 Y194.754913 Z-0.125000
G01 X87.628497 Y194.587670 Z-0.125000
G01 X87.222018 Y194.537690 Z-0.125000
G01 X86.812073 Y194.589919 Z-0.125000
G01 X84.678793 Y195.276406 Z-0.125000
G01 X83.112224 Y195.570860 Z-0.125000
G01 X81.533404 Y195.659363 Z-0.125000
G01 X79.686218 Y195.543000 Z-0.125000
G01 X77.624852 Y195.165493 Z-0.125000
G01 X75.985390 Y194.686598 Z-0.125000
G01 X73.748394 Y193.770347 Z-0.125000
G01 X72.082605 Y192.875104 Z-0.125000
G01 X70.996810 Y192.183986 Z-0.125000
G01 X69.423970 Y191.018392 Z-0.125000
G01 X66.978164 Y188.795736 Z-0.125000
G01 X64.272274 Y185.845080 Z-0.125000
G01 X59.496180 Y180.093919 Z-0.125000
G01 X57.297866 Y177.587498 Z-0.125000
G01 X55.050154 Y175.306898 Z-0.125000
G01 X53.213869 Y173.733846 Z-0.125000
G01 X51.817294 Y172.740999 Z-0.125000
G01 X50.879453 Y172.178284 Z-0.125000
G01 X49.467665 Y171.489018 Z-0.125000
G01 X48.058072 Y170.982818 Z-0.125000
G01 X46.662476 Y170.644443 Z-0.125000
G01 X45.294979 Y170.445847 Z-0.125000
G01 X40.441998 Y170.158774 Z-0.125000
G01 X39.468623 Y169.957215 Z-0.125000
G01 X38.620714 Y169.610320 Z-0.125000
G01 X38.130151 Y169.282211 Z-0.125000
G01 X37.701738 Y168.868932 Z-0.125000
G01 X37.177811 Y168.082592 Z-0.125000
G01 X36.699339 Y166.726974 Z-0.125000
G01 X36.459812 Y165.056265 Z-0.125000
G01 X36.455499 Y162.634404 Z-0.125000
G01 X36.709605 Y160.009953 Z-0.125000
G01 X37.234352 Y156.834375 Z-0.125000
G01 X37.982381 Y153.285364 Z-0.125000
G01 X38.593885 Y150.794394 Z-0.125000
G01 X39.208829 Y148.796634 Z-0.125000
G01 X41.683712 Y142.381158 Z-0.125000
G01 X42.309662 Y140.476636 Z-0.125000
G01 X42.786944 Y138.160477 Z-0.125000
G01 X42.855180 Y136.357370 Z-0.125000
G01 X42.617452 Y134.590908 Z-0.125000
G01 X41.910063 Y132.416301 Z-0.125000
G01 X40.837999 Y130.253096 Z-0.125000
G01 X38.511071 Y126.308825 Z-0.125000
G01 X37.539787 Y124.516223 Z-0.125000
G01 X36.522518 Y122.239380 Z-0.125000
G01 X35.722128 Y119.930444 Z-0.125000
G01 X35.077392 Y117.597906 Z-0.125000
G01 X34.737218 Y115.253225 Z-0.125000
G01 X34.763835 Y113.385692 Z-0.125000
G01 X35.077604 Y111.545861 Z-0.125000
G01 X35.495618 Y110.197414 Z-0.125000
G01 X36.055820 Y108.886590 Z-0.125000
G01 X36.738894 Y107.622598 Z-0.125000
G01 X37.520790 Y106.413560 Z-0.125000
G01 X39.270556 Y104.183442 Z-0.125000
G01 X43.428822 Y99.657512 Z-0.125000
G01 X44.240801 Y98.592486 Z-0.125000
G01 X44.898766 Y97.509707 Z-0.125000
G01 X45.549799 Y96.062252 Z-0.125000
G01 X46.746217 Y92.639130 Z-0.125000
G01 X47.401298 Y91.072482 Z-0.125000
G01 X51.175124 Y83.880692 Z-0.125000
G01 X52.918118 Y80.171450 Z-0.125000
G01 X54.315566 Y76.796774 Z-0.125000
G01 X56.671095 Y70.715042 Z-0.125000
G01 X57.974299 Y67.755946 Z-0.125000
G01 X58.794877 Y66.241870 Z-0.125000
G01 X59.663926 Y64.961817 Z-0.125000
G01 X60.593988 Y63.930790 Z-0.125000
G01 X61.593556 Y63.148471 Z-0.125000
G01 X62.300840 Y62.758158 Z-0.125000
G01 X63.041566 Y62.463942 Z-0.125000
G01 X64.624355 Y62.121228 Z-0.125000
G01 X66.803936 Y62.023438 Z-0.125000
G01 X69.207329 Y62.232009 Z-0.125000
G01 X70.736037 Y62.530590 Z-0.125000
G01 X72.845583 Y63.122992 Z-0.125000
G01 X79.749559 Y65.742549 Z-0.125000
G01 X81.716998 Y66.369769 Z-0.125000
G01 X83.105001 Y66.669330 Z-0.125000
G01 X83.984713 Y66.769131 Z-0.125000
G01 X85.235026 Y66.751906 Z-0.125000
G01 X86.024066 Y66.623610 Z-0.125000
G01 X87.507821 Y66.084893 Z-0.125000
G01 X88.895823 Y65.194465 Z-0.125000
G01 X90.235989 Y64.013472 Z-0.125000
G01 X93.366905 Y60.789211 Z-0.125000
G01 X94.924982 Y59.352419 Z-0.125000
G01 X96.621991 Y58.039929 Z-0.125000
G01 X98.900923 Y56.616155 Z-0.125000
G01 X102.594714 Y54.643054 Z-0.125000
G01 X105.746770 Y53.259417 Z-0.125000
G01 X107.070373 Y52.822590 Z-0.125000
G01 X108.379424 Y52.505699 Z-0.125000
G01 X109.677468 Y52.323322 Z-0.125000
G01 X110.969480 Y52.285672 Z-0.125000
G01 X112.261360 Y52.397670 Z-0.125000
G01 X113.559668 Y52.658231 Z-0.125000
G01 X114.870677 Y53.060318 Z-0.125000
G01 X116.648093 Y53.793293 Z-0.125000
G01 X118.929645 Y54.960289 Z-0.125000
G01 X124.180056 Y57.957432 Z-0.125000
G01 X126.621231 Y59.254259 Z-0.125000
G01 X129.044627 Y60.406015 Z-0.125000
G01 X134.169017 Y62.636133 Z-0.125000
G01 X136.634058 Y63.908274 Z-0.125000
G01 X138.073760 Y64.797749 Z-0.125000
G01 X139.693431 Y65.972736 Z-0.125000
G01 X145.678431 Y71.121283 Z-0.125000
G01 X149.184526 Y73.852150 Z-0.125000
G01 X153.571180 Y76.882737 Z-0.125000
G01 X160.772785 Y81.389908 Z-0.125000
G01 X161.874403 Y82.260783 Z-0.125000
G01 X162.578299 Y83.106231 Z-0.125000
G01 X163.482168 Y84.739767 Z-0.125000
G01 X164.516714 Y87.164114 Z-0.125000
G01 X165.142135 Y89.044400 Z-0.125000
G01 X166.389617 Y93.612161 Z-0.125000
G01 X166.925583 Y95.086550 Z-0.125000
G01 X167.636121 Y96.721355 Z-0.125000
G01 X169.345142 Y100.060948 Z-0.125000
G01 X175.362341 Y110.993015 Z-0.125000
G01 X177.244902 Y114.780970 Z-0.125000
G01 X179.056714 Y118.842452 Z-0.125000
G01 X180.613282 Y122.896022 Z-0.125000
G01 X182.068885 Y127.396896 Z-0.125000
G01 X182.865783 Y130.393881 Z-0.125000
G01 X183.212228 Y132.657177 Z-0.125000
G01 X183.246994 Y134.192975 Z-0.125000
G01 X183.062342 Y136.064080 Z-0.125000
G01 X182.728438 Y137.702960 Z-0.125000
G01 X182.120797 Y139.795388 Z-0.125000
G01 X181.298049 Y142.027040 Z-0.125000
G01 X180.092530 Y144.798388 Z-0.125000
G01 X178.655474 Y147.738355 Z-0.125000
G01 X177.469295 Y149.897564 Z-0.125000
G01 X176.655755 Y151.174124 Z-0.125000
G01 X175.729450 Y152.416712 Z-0.125000
G01 X174.676463 Y153.618712 Z-0.125000
G01 X173.501476 Y154.775284 Z-0.125000
G01 X171.329991 Y156.598922 Z-0.125000
G01 X166.344824 Y160.262100 Z-0.125000
G01 X164.740392 Y161.543846 Z-0.125000
G01 X163.047590 Y163.155950 Z-0.125000
G01 X161.975950 Y164.463017 Z-0.125000
G01 X161.334839 Y165.450732 Z-0.125000
G01 X160.819801 Y166.437732 Z-0.125000
G01 X160.090214 Y168.370987 Z-0.125000
G01 X159.626373 Y170.240345 Z-0.125000
G01 X158.823020 Y175.093882 Z-0.125000
G01 X158.162409 Y178.026997 Z-0.125000
G01 X157.150564 Y181.211174 Z-0.125000
G01 X156.418516 Y183.059524 Z-0.125000
G01 X155.778992 Y184.427286 Z-0.125000
G01 X154.462348 Y186.628960 Z-0.125000
G01 X153.488021 Y187.882740 Z-0.125000
G01 X152.753512 Y188.683527 Z-0.125000
G01 X151.521376 Y189.824356 Z-0.125000
G01 X150.614518 Y190.540529 Z-0.125000
G01 X148.073912 Y192.158930 Z-0.125000
G01 X146.390953 Y193.003797 Z-0.125000
G01 X144.619543 Y193.751085 Z-0.125000
G01 X142.787597 Y194.402356 Z-0.125000
G01 X140.297818 Y195.131388 Z-0.125000
G01 X137.184681 Y195.855710 Z-0.125000
G01 X129.908569 Y197.252285 Z-0.125000
G01 X126.756169 Y197.991345 Z-0.125000
G01 X122.700852 Y199.138392 Z-0.125000
G01 X114.857104 Y201.568983 Z-0.125000
G01 X111.383738 Y202.499707 Z-0.125000
G01 X108.116032 Y203.135950 Z-0.125000
G01 X105.122699 Y203.394474 Z-0.125000
G01 X103.473182 Y203.355130 Z-0.125000
G01 X101.446371 Y203.084621 Z-0.125000
G01 X99.605534 Y202.593502 Z-0.125000
G01 X97.926993 Y201.926832 Z-0.125000
G01 X96.377807 Y201.135861 Z-0.125000
G01 X94.565625 Y200.042975 Z-0.125000
G01 X92.146649 Y198.409836 Z-0.125000
G01 X88.709927 Y195.913046 Z-0.125000
G01 X87.450168 Y195.238994 Z-0.125000
G01 X87.014294 Y195.155439 Z-0.125000
G01 X86.446287 Y195.208011 Z-0.125000
G01 X84.269404 Y195.896615 Z-0.125000
G01 X82.686113 Y196.184481 Z-0.125000
G01 X81.091471 Y196.263988 Z-0.125000
G01 X79.224971 Y196.135533 Z-0.125000
G01 X77.140506 Y195.743527 Z-0.125000
G01 X75.481571 Y195.252752 Z-0.125000
G01 X73.216714 Y194.320785 Z-0.125000
G01 X71.529045 Y193.415144 Z-0.125000
G01 X70.428194 Y192.718417 Z-0.125000
G01 X68.831595 Y191.547664 Z-0.125000
G01 X67.311116 Y190.249541 Z-0.125000
G01 X65.862841 Y188.857649 Z-0.125000
G01 X63.099642 Y185.887255 Z-0.125000
G01 X56.458688 Y178.148017 Z-0.125000
G01 X54.243255 Y175.886785 Z-0.125000
G01 X52.452372 Y174.330402 Z-0.125000
G01 X51.098184 Y173.348693 Z-0.125000
G01 X50.191405 Y172.792301 Z-0.125000
G01 X48.828670 Y172.110418 Z-0.125000
G01 X47.469322 Y171.608504 Z-0.125000
G01 X46.123150 Y171.270737 Z-0.125000
G01 X44.802616 Y171.068331 Z-0.125000
G01 X40.090340 Y170.705218 Z-0.125000
G01 X39.137524 Y170.466723 Z-0.125000
G01 X38.568009 Y170.225185 Z-0.125000
G01 X38.054877 Y169.905886 Z-0.125000
G01 X37.600641 Y169.501577 Z-0.125000
G01 X37.206941 Y169.007785 Z-0.125000
G01 X36.874651 Y168.422978 Z-0.125000
G01 X36.393110 Y166.987853 Z-0.125000
G01 X36.145037 Y165.237478 Z-0.125000
G01 X36.125538 Y162.722696 Z-0.125000
G01 X36.362895 Y160.019636 Z-0.125000
G01 X36.869651 Y156.775611 Z-0.125000
G01 X37.601567 Y153.187997 Z-0.125000
G01 X38.192936 Y150.690863 Z-0.125000
G01 X38.787348 Y148.695352 Z-0.125000
G01 X41.220507 Y142.331257 Z-0.125000
G01 X41.840425 Y140.455629 Z-0.125000
G01 X42.248041 Y138.631276 Z-0.125000
G01 X42.379777 Y136.856374 Z-0.125000
G01 X42.330326 Y135.985075 Z-0.125000
G01 X42.108712 Y134.693910 Z-0.125000
G01 X41.865533 Y133.840868 Z-0.125000
G01 X41.369652 Y132.567721 Z-0.125000
G01 X40.504810 Y130.870765 Z-0.125000
G01 X37.874590 Y126.540521 Z-0.125000
G01 X36.887537 Y124.750035 Z-0.125000
G01 X35.861246 Y122.463852 Z-0.125000
G01 X35.057337 Y120.137321 Z-0.125000
G01 X34.413474 Y117.782929 Z-0.125000
G01 X34.084227 Y115.406683 Z-0.125000
G01 X34.126322 Y113.505522 Z-0.125000
G01 X34.459935 Y111.625024 Z-0.125000
G01 X34.894433 Y110.241837 Z-0.125000
G01 X35.471674 Y108.893020 Z-0.125000
G01 X36.171522 Y107.588202 Z-0.125000
G01 X36.969319 Y106.336063 Z-0.125000
G01 X38.746126 Y104.015617 Z-0.125000
G01 X42.924262 Y99.280931 Z-0.125000
G01 X43.726161 Y98.175821 Z-0.125000
G01 X44.220931 Y97.344554 Z-0.125000
G01 X44.876964 Y95.898343 Z-0.125000
G01 X45.994113 Y92.558433 Z-0.125000
G01 X46.770611 Y90.650075 Z-0.125000
G01 X50.496998 Y83.546550 Z-0.125000
G01 X52.211523 Y79.834292 Z-0.125000
G01 X53.580263 Y76.437867 Z-0.125000
G01 X55.887189 Y70.292477 Z-0.125000
G01 X57.177745 Y67.299593 Z-0.125000
G01 X57.999831 Y65.770330 Z-0.125000
G01 X58.878697 Y64.480567 Z-0.125000
G01 X59.827491 Y63.446180 Z-0.125000
G01 X60.854576 Y62.667327 Z-0.125000
G01 X61.584666 Y62.283179 Z-0.125000
G01 X62.351190 Y61.998144 Z-0.125000
G01 X63.991631 Y61.682470 Z-0.125000
G01 X66.245296 Y61.630744 Z-0.125000
G01 X68.216175 Y61.786530 Z-0.125000
G01 X70.311169 Y62.153348 Z-0.125000
G01 X72.494720 Y62.733314 Z-0.125000
G01 X79.638911 Y65.283629 Z-0.125000
G01 X81.671120 Y65.883677 Z-0.125000
G01 X83.102725 Y66.160616 Z-0.125000
G01 X84.008896 Y66.244066 Z-0.125000
G01 X85.294690 Y66.200463 Z-0.125000
G01 X86.104499 Y66.053301 Z-0.125000
G01 X87.622994 Y65.473971 Z-0.125000
G01 X89.037005 Y64.539807 Z-0.125000
G01 X90.395321 Y63.313306 Z-0.125000
G01 X93.175956 Y60.371196 Z-0.125000
G01 X94.706225 Y58.878207 Z-0.125000
G01 X96.374923 Y57.500868 Z-0.125000
G01 X98.639780 Y56.009890 Z-0.125000
G01 X102.830616 Y53.752758 Z-0.125000
G01 X105.985186 Y52.358512 Z-0.125000
G01 X107.300190 Y51.918246 Z-0.125000
G01 X108.594636 Y51.599053 Z-0.125000
G01 X110.717968 Y51.374819 Z-0.125000
G01 X111.981563 Y51.439059 Z-0.125000
G01 X113.246429 Y51.654959 Z-0.125000
G01 X114.520422 Y52.017279 Z-0.125000
G01 X116.246032 Y52.707735 Z-0.125000
G01 X118.465513 Y53.841764 Z-0.125000
G01 X123.630227 Y56.845945 Z-0.125000
G01 X126.071428 Y58.173861 Z-0.125000
G01 X128.522234 Y59.363744 Z-0.125000
G01 X133.779604 Y61.663975 Z-0.125000
G01 X136.350874 Y62.977048 Z-0.125000
G01 X138.210919 Y64.127957 Z-0.125000
G01 X139.865780 Y65.344933 Z-0.125000
G01 X145.594293 Y70.268558 Z-0.125000
G01 X149.104860 Y73.013369 Z-0.125000
G01 X154.053753 Y76.424055 Z-0.125000
G01 X161.275598 Y80.933979 Z-0.125000
G01 X162.189336 Y81.649358 Z-0.125000
G01 X162.887491 Y82.456865 Z-0.125000
G01 X163.610147 Y83.780257 Z-0.125000
G01 X164.643264 Y86.368884 Z-0.125000
G01 X165.294323 Y88.313198 Z-0.125000
G01 X166.548235 Y92.698106 Z-0.125000
G01 X167.075999 Y94.163922 Z-0.125000
G01 X167.766402 Y95.765972 Z-0.125000
G01 X169.438540 Y99.016031 Z-0.125000
G01 X173.767594 Y106.615304 Z-0.125000
G01 X175.886904 Y110.513326 Z-0.125000
G01 X177.808755 Y114.346102 Z-0.125000
G01 X179.649433 Y118.454044 Z-0.125000
G01 X181.042647 Y122.033111 Z-0.125000
G01 X182.382601 Y126.122956 Z-0.125000
G01 X183.213683 Y129.238447 Z-0.125000
G01 X183.582538 Y131.551405 Z-0.125000
G01 X183.622252 Y133.394358 Z-0.125000
G01 X183.432043 Y135.266918 Z-0.125000
G01 X183.041704 Y137.270446 Z-0.125000
G01 X182.358948 Y139.819545 Z-0.125000
G01 X181.444655 Y142.575335 Z-0.125000
G01 X180.311234 Y145.495776 Z-0.125000
G01 X178.960750 Y148.541126 Z-0.125000
G01 X177.812565 Y150.728884 Z-0.125000
G01 X176.996591 Y152.003936 Z-0.125000
G01 X176.050707 Y153.239591 Z-0.125000
G01 X174.175343 Y155.197029 Z-0.125000
G01 X171.997348 Y157.019292 Z-0.125000
G01 X166.952756 Y160.671913 Z-0.125000
G01 X165.323560 Y161.954003 Z-0.125000
G01 X163.604855 Y163.575685 Z-0.125000
G01 X162.518239 Y164.900373 Z-0.125000
G01 X161.508537 Y166.583570 Z-0.125000
G01 X160.707512 Y168.597417 Z-0.125000
G01 X160.180516 Y170.539086 Z-0.125000
G01 X159.145811 Y175.730416 Z-0.125000
G01 X158.424505 Y178.635538 Z-0.125000
G01 X157.256027 Y182.240534 Z-0.125000
G01 X156.104271 Y184.968014 Z-0.125000
G01 X154.811756 Y187.160719 Z-0.125000
G01 X153.844018 Y188.415901 Z-0.125000
G01 X153.110488 Y189.220471 Z-0.125000
G01 X151.874859 Y190.371143 Z-0.125000
G01 X150.962497 Y191.096497 Z-0.125000
G01 X148.398503 Y192.745696 Z-0.125000
G01 X146.696123 Y193.613581 Z-0.125000
G01 X144.902409 Y194.386666 Z-0.125000
G01 X143.046147 Y195.065930 Z-0.125000
G01 X140.522211 Y195.835020 Z-0.125000
G01 X137.366265 Y196.612233 Z-0.125000
G01 X130.632125 Y197.994123 Z-0.125000
G01 X127.523565 Y198.733738 Z-0.125000
G01 X123.541247 Y199.876472 Z-0.125000
G01 X115.770445 Y202.352255 Z-0.125000
G01 X112.286098 Y203.324968 Z-0.125000
G01 X108.979842 Y204.004523 Z-0.125000
G01 X105.924359 Y204.296966 Z-0.125000
G01 X104.228540 Y204.270111 Z-0.125000
G01 X102.132620 Y204.005131 Z-0.125000
G01 X100.217780 Y203.507371 Z-0.125000
G01 X98.464309 Y202.824774 Z-0.125000
G01 X96.842918 Y202.013668 Z-0.125000
G01 X94.948053 Y200.898901 Z-0.125000
G01 X92.425043 Y199.256528 Z-0.125000
G01 X88.488339 Y196.513199 Z-0.125000
G01 X87.671862 Y196.047269 Z-0.125000
G01 X87.159259 Y195.846106 Z-0.125000
G01 X86.699176 Y195.765408 Z-0.125000
G01 X86.255444 Y195.791443 Z-0.125000
G01 X83.880626 Y196.502457 Z-0.125000
G01 X82.281222 Y196.778920 Z-0.125000
G01 X80.672160 Y196.845621 Z-0.125000
G01 X79.282544 Y196.760664 Z-0.125000
G01 X77.225729 Y196.421865 Z-0.125000
G01 X75.005613 Y195.788136 Z-0.125000
G01 X72.714271 Y194.839474 Z-0.125000
G01 X71.005118 Y193.923725 Z-0.125000
G01 X69.889054 Y193.222210 Z-0.125000
G01 X68.267530 Y192.048573 Z-0.125000
G01 X66.717920 Y190.754550 Z-0.125000
G01 X65.233054 Y189.375411 Z-0.125000
G01 X61.911585 Y185.913210 Z-0.125000
G01 X56.936684 Y180.174696 Z-0.125000
G01 X54.745037 Y177.771595 Z-0.125000
G01 X52.566725 Y175.661307 Z-0.125000
G01 X50.823229 Y174.259441 Z-0.125000
G01 X49.076399 Y173.161077 Z-0.125000
G01 X48.203064 Y172.731976 Z-0.125000
G01 X46.897294 Y172.234746 Z-0.125000
G01 X44.753060 Y171.747939 Z-0.125000
G01 X40.797597 Y171.408453 Z-0.125000
G01 X39.765141 Y171.250550 Z-0.125000
G01 X38.545467 Y170.849230 Z-0.125000
G01 X37.765344 Y170.353746 Z-0.125000
G01 X37.314944 Y169.915385 Z-0.125000
G01 X36.922594 Y169.385557 Z-0.125000
G01 X36.444969 Y168.417527 Z-0.125000
G01 X36.100085 Y167.250108 Z-0.125000
G01 X35.838412 Y165.422315 Z-0.125000
G01 X35.797269 Y162.818025 Z-0.125000
G01 X36.012111 Y160.039533 Z-0.125000
G01 X36.495610 Y156.729520 Z-0.125000
G01 X37.208529 Y153.103754 Z-0.125000
G01 X37.781351 Y150.600085 Z-0.125000
G01 X38.356422 Y148.604600 Z-0.125000
G01 X39.050900 Y146.622185 Z-0.125000
G01 X40.755423 Y142.278949 Z-0.125000
G01 X41.372033 Y140.429303 Z-0.125000
G01 X41.773644 Y138.637996 Z-0.125000
G01 X41.893288 Y136.901062 Z-0.125000
G01 X41.835001 Y136.049660 Z-0.125000
G01 X41.596585 Y134.788446 Z-0.125000
G01 X41.340125 Y133.954930 Z-0.125000
G01 X40.821833 Y132.709432 Z-0.125000
G01 X39.924658 Y131.044755 Z-0.125000
G01 X37.493273 Y127.200602 Z-0.125000
G01 X36.460870 Y125.424113 Z-0.125000
G01 X35.571607 Y123.603491 Z-0.125000
G01 X34.688693 Y121.277700 Z-0.125000
G01 X33.853352 Y118.440630 Z-0.125000
G01 X33.508521 Y116.522271 Z-0.125000
G01 X33.418166 Y115.072409 Z-0.125000
G01 X33.447746 Y114.103903 Z-0.125000
G01 X33.729156 Y112.174008 Z-0.125000
G01 X34.129603 Y110.745154 Z-0.125000
G01 X34.678692 Y109.344425 Z-0.125000
G01 X35.357215 Y107.982219 Z-0.125000
G01 X36.141174 Y106.668115 Z-0.125000
G01 X38.222411 Y103.830912 Z-0.125000
G01 X42.185256 Y99.180839 Z-0.125000
G01 X43.529258 Y97.175591 Z-0.125000
G01 X44.306709 Y95.419104 Z-0.125000
G01 X45.365623 Y92.090597 Z-0.125000
G01 X45.952468 Y90.603773 Z-0.125000
G01 X46.715472 Y89.023868 Z-0.125000
G01 X49.813104 Y83.217753 Z-0.125000
G01 X51.501382 Y79.509199 Z-0.125000
G01 X52.842288 Y76.096025 Z-0.125000
G01 X55.100425 Y69.893724 Z-0.125000
G01 X56.378017 Y66.869037 Z-0.125000
G01 X57.201637 Y65.325063 Z-0.125000
G01 X58.090663 Y64.025458 Z-0.125000
G01 X59.058983 Y62.986917 Z-0.125000
G01 X60.114961 Y62.210022 Z-0.125000
G01 X61.261108 Y61.679586 Z-0.125000
G01 X62.925547 Y61.303851 Z-0.125000
G01 X65.212867 Y61.227493 Z-0.125000
G01 X67.733972 Y61.419686 Z-0.125000
G01 X69.898949 Y61.781106 Z-0.125000
G01 X72.156001 Y62.343477 Z-0.125000
G01 X78.993355 Y64.635004 Z-0.125000
G01 X81.633602 Y65.379752 Z-0.125000
G01 X83.108335 Y65.633514 Z-0.125000
G01 X84.040672 Y65.700877 Z-0.125000
G01 X85.361576 Y65.631927 Z-0.125000
G01 X86.191997 Y65.467038 Z-0.125000
G01 X86.985164 Y65.205842 Z-0.125000
G01 X87.744808 Y64.850269 Z-0.125000
G01 X89.184219 Y63.876233 Z-0.125000
G01 X90.559680 Y62.608351 Z-0.125000
G01 X93.355819 Y59.585464 Z-0.125000
G01 X94.889898 Y58.057524 Z-0.125000
G01 X96.564312 Y56.653355 Z-0.125000
G01 X98.374218 Y55.424182 Z-0.125000
G01 X102.604450 Y53.107414 Z-0.125000
G01 X105.783839 Y51.645752 Z-0.125000
G01 X107.100218 Y51.166195 Z-0.125000
G01 X108.388976 Y50.802526 Z-0.125000
G01 X109.653656 Y50.571174 Z-0.125000
G01 X110.900001 Y50.484576 Z-0.125000
G01 X112.135630 Y50.549849 Z-0.125000
G01 X113.369274 Y50.768209 Z-0.125000
G01 X114.610195 Y51.134498 Z-0.125000
G01 X115.867335 Y51.637232 Z-0.125000
G01 X118.019241 Y52.728822 Z-0.125000
G01 X123.558948 Y56.000285 Z-0.125000
G01 X125.998615 Y57.330503 Z-0.125000
G01 X128.466962 Y58.523163 Z-0.125000
G01 X133.342010 Y60.655623 Z-0.125000
G01 X136.013584 Y62.005287 Z-0.125000
G01 X137.956496 Y63.188397 Z-0.125000
G01 X139.678826 Y64.432598 Z-0.125000
G01 X145.877794 Y69.718173 Z-0.125000
G01 X149.471096 Y72.497935 Z-0.125000
G01 X154.014065 Y75.620623 Z-0.125000
G01 X161.548833 Y80.321204 Z-0.125000
G01 X162.510487 Y81.048569 Z-0.125000
G01 X163.219384 Y81.831074 Z-0.125000
G01 X163.719710 Y82.713193 Z-0.125000
G01 X164.195404 Y83.925645 Z-0.125000
G01 X165.317501 Y87.232218 Z-0.125000
G01 X166.795699 Y92.127030 Z-0.125000
G01 X167.877288 Y94.815484 Z-0.125000
G01 X169.513681 Y97.980479 Z-0.125000
G01 X174.234159 Y106.088175 Z-0.125000
G01 X176.403184 Y110.016704 Z-0.125000
G01 X178.364829 Y113.894750 Z-0.125000
G01 X179.996777 Y117.493396 Z-0.125000
G01 X181.633144 Y121.649148 Z-0.125000
G01 X182.821730 Y125.259304 Z-0.125000
G01 X183.655140 Y128.422420 Z-0.125000
G01 X184.004786 Y130.752629 Z-0.125000
G01 X184.015423 Y132.584205 Z-0.125000
G01 X183.801057 Y134.442689 Z-0.125000
G01 X183.250751 Y137.169534 Z-0.125000
G01 X182.464014 Y140.252085 Z-0.125000
G01 X181.454841 Y143.611363 Z-0.125000
G01 X180.378438 Y146.691718 Z-0.125000
G01 X179.280419 Y149.383876 Z-0.125000
G01 X178.405284 Y151.155233 Z-0.125000
G01 X177.622356 Y152.442164 Z-0.125000
G01 X176.699279 Y153.686922 Z-0.125000
G01 X174.840875 Y155.654123 Z-0.125000
G01 X172.657351 Y157.479851 Z-0.125000
G01 X167.554021 Y161.127498 Z-0.125000
G01 X165.899451 Y162.410038 Z-0.125000
G01 X164.153415 Y164.039922 Z-0.125000
G01 X163.050236 Y165.379929 Z-0.125000
G01 X162.025903 Y167.095432 Z-0.125000
G01 X161.322192 Y168.825329 Z-0.125000
G01 X160.655257 Y171.181546 Z-0.125000
G01 X159.346312 Y176.789039 Z-0.125000
G01 X158.531105 Y179.702072 Z-0.125000
G01 X157.349637 Y183.275080 Z-0.125000
G01 X156.170787 Y185.961894 Z-0.125000
G01 X154.816651 Y188.121685 Z-0.125000
G01 X153.798112 Y189.359034 Z-0.125000
G01 X153.026641 Y190.152571 Z-0.125000
G01 X151.262349 Y191.650349 Z-0.125000
G01 X148.675177 Y193.326562 Z-0.125000
G01 X146.954700 Y194.215322 Z-0.125000
G01 X144.520457 Y195.257197 Z-0.125000
G01 X142.627842 Y195.932836 Z-0.125000
G01 X140.068345 Y196.704175 Z-0.125000
G01 X136.884433 Y197.498983 Z-0.125000
G01 X130.114706 Y198.987526 Z-0.125000
G01 X127.624345 Y199.623690 Z-0.125000
G01 X123.672745 Y200.807752 Z-0.125000
G01 X115.973777 Y203.334387 Z-0.125000
G01 X112.516365 Y204.306677 Z-0.125000
G01 X109.227148 Y204.964430 Z-0.125000
G01 X106.175289 Y205.213244 Z-0.125000
G01 X104.474232 Y205.151252 Z-0.125000
G01 X102.362278 Y204.832271 Z-0.125000
G01 X100.891461 Y204.435423 Z-0.125000
G01 X99.067373 Y203.738167 Z-0.125000
G01 X97.375841 Y202.905392 Z-0.125000
G01 X95.784638 Y201.996867 Z-0.125000
G01 X92.771012 Y200.105019 Z-0.125000
G01 X88.546521 Y197.263874 Z-0.125000
G01 X87.639451 Y196.744603 Z-0.125000
G01 X86.898354 Y196.451313 Z-0.125000
G01 X86.411918 Y196.372309 Z-0.125000
G01 X85.787873 Y196.427898 Z-0.125000
G01 X83.784080 Y197.027469 Z-0.125000
G01 X82.257938 Y197.316473 Z-0.125000
G01 X80.709175 Y197.409818 Z-0.125000
G01 X78.875218 Y197.305652 Z-0.125000
G01 X76.800147 Y196.946718 Z-0.125000
G01 X74.558256 Y196.292881 Z-0.125000
G01 X72.241779 Y195.326544 Z-0.125000
G01 X70.511564 Y194.400954 Z-0.125000
G01 X68.823763 Y193.318545 Z-0.125000
G01 X67.198218 Y192.103209 Z-0.125000
G01 X64.125669 Y189.403192 Z-0.125000
G01 X60.708447 Y185.923529 Z-0.125000
G01 X55.218482 Y179.734007 Z-0.125000
G01 X53.489379 Y177.885260 Z-0.125000
G01 X51.367053 Y175.871069 Z-0.125000
G01 X49.685258 Y174.559716 Z-0.125000
G01 X48.010156 Y173.554591 Z-0.125000
G01 X47.175185 Y173.169808 Z-0.125000
G01 X45.928814 Y172.732162 Z-0.125000
G01 X43.885704 Y172.313459 Z-0.125000
G01 X39.791494 Y171.867504 Z-0.125000
G01 X38.550970 Y171.480075 Z-0.125000
G01 X37.741902 Y171.000969 Z-0.125000
G01 X37.266711 Y170.574540 Z-0.125000
G01 X36.845865 Y170.056143 Z-0.125000
G01 X36.320006 Y169.102321 Z-0.125000
G01 X35.818172 Y167.513685 Z-0.125000
G01 X35.537714 Y165.611334 Z-0.125000
G01 X35.468631 Y162.921345 Z-0.125000
G01 X35.655427 Y160.070913 Z-0.125000
G01 X36.022826 Y157.246648 Z-0.125000
G01 X36.699206 Y153.539258 Z-0.125000
G01 X37.360373 Y150.520525 Z-0.125000
G01 X37.918484 Y148.521865 Z-0.125000
G01 X38.599442 Y146.540059 Z-0.125000
G01 X40.293196 Y142.221032 Z-0.125000
G01 X40.906817 Y140.396283 Z-0.125000
G01 X41.300649 Y138.636991 Z-0.125000
G01 X41.404974 Y136.936648 Z-0.125000
G01 X41.184073 Y135.280967 Z-0.125000
G01 X40.951240 Y134.463935 Z-0.125000
G01 X40.460095 Y133.244207 Z-0.125000
G01 X39.329109 Y131.203849 Z-0.125000
G01 X36.830360 Y127.402029 Z-0.125000
G01 X35.781738 Y125.630593 Z-0.125000
G01 X34.886284 Y123.807193 Z-0.125000
G01 X34.005037 Y121.470158 Z-0.125000
G01 X33.175966 Y118.614805 Z-0.125000
G01 X32.842698 Y116.677210 Z-0.125000
G01 X32.764937 Y115.206817 Z-0.125000
G01 X32.804492 Y114.221325 Z-0.125000
G01 X33.108868 Y112.249546 Z-0.125000
G01 X33.527835 Y110.782883 Z-0.125000
G01 X34.095339 Y109.340218 Z-0.125000
G01 X34.791193 Y107.933827 Z-0.125000
G01 X35.590789 Y106.574373 Z-0.125000
G01 X37.386937 Y104.029190 Z-0.125000
G01 X41.662572 Y98.786055 Z-0.125000
G01 X42.481006 Y97.592151 Z-0.125000
G01 X42.978555 Y96.714370 Z-0.125000
G01 X43.615062 Y95.232017 Z-0.125000
G01 X44.604761 Y91.966455 Z-0.125000
G01 X45.299212 Y90.155834 Z-0.125000
G01 X46.054385 Y88.611966 Z-0.125000
G01 X48.847323 Y83.455084 Z-0.125000
G01 X50.791611 Y79.196197 Z-0.125000
G01 X52.105689 Y75.771118 Z-0.125000
G01 X54.314772 Y69.518148 Z-0.125000
G01 X55.578844 Y66.463458 Z-0.125000
G01 X56.403814 Y64.905117 Z-0.125000
G01 X57.303131 Y63.595458 Z-0.125000
G01 X58.291534 Y62.551889 Z-0.125000
G01 X59.377409 Y61.775312 Z-0.125000
G01 X60.562529 Y61.250538 Z-0.125000
G01 X62.289674 Y60.890070 Z-0.125000
G01 X64.169854 Y60.826147 Z-0.125000
G01 X67.266216 Y61.058980 Z-0.125000
G01 X69.501069 Y61.411854 Z-0.125000
G01 X71.830802 Y61.951921 Z-0.125000
G01 X78.884135 Y64.152881 Z-0.125000
G01 X81.603625 Y64.859424 Z-0.125000
G01 X83.120638 Y65.090378 Z-0.125000
G01 X84.078640 Y65.142395 Z-0.125000
G01 X85.864469 Y64.971792 Z-0.125000
G01 X86.694889 Y64.742531 Z-0.125000
G01 X87.487501 Y64.417200 Z-0.125000
G01 X88.246616 Y63.998947 Z-0.125000
G01 X89.334581 Y63.210463 Z-0.125000
G01 X90.725573 Y61.905963 Z-0.125000
G01 X93.533990 Y58.805844 Z-0.125000
G01 X95.071614 Y57.244275 Z-0.125000
G01 X96.751769 Y55.815209 Z-0.125000
G01 X98.571782 Y54.571960 Z-0.125000
G01 X102.369342 Y52.487655 Z-0.125000
G01 X106.027705 Y50.785090 Z-0.125000
G01 X108.616517 Y49.938636 Z-0.125000
G01 X109.863735 Y49.705908 Z-0.125000
G01 X111.087034 Y49.618358 Z-0.125000
