%
(Header)
(Generated by gcodetools from Inkscape.)
(Using default header. To add your own header create file "header" in the output dir.)
M3
(Header end.)
G21 (All units in mm)

(Start cutting path id: SvgjsPolyline3887)
(Change tool to Default tool)

G00 Z10.000000
G00 X163.653206 Y222.246774

G00 Z4.875000 (Fast pre-penetrate)
G01 Z-0.125000 F100.0(Penetrate)
G01 X163.618066 Y221.984258 Z-0.125000 F800.000000
G01 X168.218297 Y221.374994 Z-0.125000
G01 X169.383081 Y221.297479 Z-0.125000
G01 X170.553035 Y221.340371 Z-0.125000
G01 X174.009667 Y221.694871 Z-0.125000
G01 X176.313399 Y221.731561 Z-0.125000
G01 X180.914664 Y221.213247 Z-0.125000
G01 X182.079448 Y221.186892 Z-0.125000
G01 X182.085137 Y221.451475 Z-0.125000
G01 X180.932235 Y221.477830 Z-0.125000
G01 X176.326321 Y221.996661 Z-0.125000
G01 X173.994168 Y221.959454 Z-0.125000
G01 X170.534949 Y221.604437 Z-0.125000
G01 X169.387217 Y221.562579 Z-0.125000
G01 X168.244652 Y221.638543 Z-0.125000
G01 X163.653206 Y222.246774 Z-0.125000
G00 Z10.000000

(End cutting path id: SvgjsPolyline3887)


(Start cutting path id: SvgjsPolyline3885)
(Change tool to Default tool)

G00 Z10.000000
G00 X160.282357 Y222.247808

G00 Z4.875000 (Fast pre-penetrate)
G01 Z-0.125000 F100.0(Penetrate)
G01 X155.654221 Y222.115516 Z-0.125000 F800.000000
G01 X154.500287 Y222.168226 Z-0.125000
G01 X154.488408 Y221.904160 Z-0.125000
G01 X155.652160 Y221.850933 Z-0.125000
G01 X160.289596 Y221.983225 Z-0.125000
G01 X160.282357 Y222.247808 Z-0.125000
G00 Z10.000000

(End cutting path id: SvgjsPolyline3885)


(Start cutting path id: SvgjsPolyline3884)
(Change tool to Default tool)

G00 Z10.000000
G00 X154.566433 Y222.242640

G00 Z4.875000 (Fast pre-penetrate)
G01 Z-0.125000 F100.0(Penetrate)
G01 X154.564846 Y221.978057 Z-0.125000 F800.000000
G01 X156.883048 Y221.967205 Z-0.125000
G01 X156.884106 Y222.231788 Z-0.125000
G01 X154.566433 Y222.242640 Z-0.125000
G00 Z10.000000

(End cutting path id: SvgjsPolyline3884)


(Start cutting path id: SvgjsPolyline3883)
(Change tool to Default tool)

G00 Z10.000000
G00 X149.933648 Y222.225070

G00 Z4.875000 (Fast pre-penetrate)
G01 Z-0.125000 F100.0(Penetrate)
G01 X149.894890 Y221.963588 Z-0.125000 F800.000000
G01 X155.629935 Y221.121263 Z-0.125000
G01 X157.948653 Y220.924893 Z-0.125000
G01 X164.899124 Y221.147101 Z-0.125000
G01 X166.046856 Y221.086640 Z-0.125000
G01 X170.640885 Y220.475308 Z-0.125000
G01 X171.814456 Y220.427249 Z-0.125000
G01 X176.430704 Y220.832392 Z-0.125000
G01 X177.576370 Y220.821540 Z-0.125000
G01 X182.173500 Y220.306326 Z-0.125000
G01 X182.202956 Y220.569359 Z-0.125000
G01 X177.592391 Y221.086123 Z-0.125000
G01 X176.420370 Y221.096975 Z-0.125000
G01 X171.808254 Y220.692349 Z-0.125000
G01 X170.663623 Y220.739375 Z-0.125000
G01 X166.071661 Y221.350189 Z-0.125000
G01 X164.901707 Y221.411684 Z-0.125000
G01 X157.955887 Y221.189476 Z-0.125000
G01 X155.660423 Y221.384296 Z-0.125000
G01 X149.933648 Y222.225070 Z-0.125000
G00 Z10.000000

(End cutting path id: SvgjsPolyline3883)


(Start cutting path id: SvgjsPolyline3882)
(Change tool to Default tool)

G00 Z10.000000
G00 X134.879804 Y222.219902

G00 Z4.875000 (Fast pre-penetrate)
G01 Z-0.125000 F100.0(Penetrate)
G01 X134.844665 Y221.957903 Z-0.125000 F800.000000
G01 X137.144780 Y221.647845 Z-0.125000
G01 X139.462983 Y221.467495 Z-0.125000
G01 X152.187255 Y220.859264 Z-0.125000
G01 X156.766298 Y220.158532 Z-0.125000
G01 X159.082431 Y219.921854 Z-0.125000
G01 X166.032386 Y220.128043 Z-0.125000
G01 X168.330951 Y219.949243 Z-0.125000
G01 X171.775697 Y219.475371 Z-0.125000
G01 X172.947202 Y219.427312 Z-0.125000
G01 X174.112502 Y219.491390 Z-0.125000
G01 X177.568618 Y219.826770 Z-0.125000
G01 X178.710666 Y219.811267 Z-0.125000
G01 X182.153346 Y219.385970 Z-0.125000
G01 X182.185903 Y219.648486 Z-0.125000
G01 X178.728753 Y220.075333 Z-0.125000
G01 X177.557767 Y220.091353 Z-0.125000
G01 X174.092349 Y219.754940 Z-0.125000
G01 X172.945133 Y219.691895 Z-0.125000
G01 X171.798952 Y219.738920 Z-0.125000
G01 X168.359373 Y220.212276 Z-0.125000
G01 X166.038588 Y220.393143 Z-0.125000
G01 X159.092250 Y220.186954 Z-0.125000
G01 X156.799887 Y220.421048 Z-0.125000
G01 X152.213610 Y221.122813 Z-0.125000
G01 X139.479519 Y221.731561 Z-0.125000
G01 X137.172686 Y221.910878 Z-0.125000
G01 X134.879804 Y222.219902 Z-0.125000
G00 Z10.000000

(End cutting path id: SvgjsPolyline3882)


(Start cutting path id: SvgjsPolyline3881)
(Change tool to Default tool)

G00 Z10.000000
G00 X128.989216 Y222.216802

G00 Z4.875000 (Fast pre-penetrate)
G01 Z-0.125000 F100.0(Penetrate)
G01 X128.945292 Y221.955836 Z-0.125000 F800.000000
G01 X140.376103 Y220.017972 Z-0.125000
G01 X146.162825 Y219.601978 Z-0.125000
G01 X154.262578 Y219.266081 Z-0.125000
G01 X159.993486 Y218.435642 Z-0.125000
G01 X161.160855 Y218.345208 Z-0.125000
G01 X168.110294 Y218.535377 Z-0.125000
G01 X169.259058 Y218.472849 Z-0.125000
G01 X173.857738 Y217.879604 Z-0.125000
G01 X175.028208 Y217.866169 Z-0.125000
G01 X179.639808 Y218.257359 Z-0.125000
G01 X181.935788 Y218.054787 Z-0.125000
G01 X181.959045 Y218.318337 Z-0.125000
G01 X179.640326 Y218.522975 Z-0.125000
G01 X175.018392 Y218.130752 Z-0.125000
G01 X173.876346 Y218.144187 Z-0.125000
G01 X169.283349 Y218.736398 Z-0.125000
G01 X168.114430 Y218.800477 Z-0.125000
G01 X161.167575 Y218.609791 Z-0.125000
G01 X160.022944 Y218.699191 Z-0.125000
G01 X154.286864 Y219.530148 Z-0.125000
G01 X146.177811 Y219.866044 Z-0.125000
G01 X140.407626 Y220.281005 Z-0.125000
G01 X128.989216 Y222.216802 Z-0.125000
G00 Z10.000000

(End cutting path id: SvgjsPolyline3881)


(Start cutting path id: SvgjsPolyline3880)
(Change tool to Default tool)

G00 Z10.000000
G00 X119.662149 Y222.194064

G00 Z4.875000 (Fast pre-penetrate)
G01 Z-0.125000 F100.0(Penetrate)
G01 X119.635278 Y221.931032 Z-0.125000 F800.000000
G01 X132.312524 Y220.624136 Z-0.125000
G01 X142.601289 Y218.906930 Z-0.125000
G01 X148.388523 Y218.493520 Z-0.125000
G01 X155.332795 Y218.221185 Z-0.125000
G01 X156.482594 Y218.126101 Z-0.125000
G01 X162.223838 Y217.313231 Z-0.125000
G01 X164.550825 Y217.313231 Z-0.125000
G01 X169.181027 Y217.487898 Z-0.125000
G01 X170.326177 Y217.437771 Z-0.125000
G01 X174.924338 Y216.847627 Z-0.125000
G01 X176.096875 Y216.834192 Z-0.125000
G01 X180.708475 Y217.220214 Z-0.125000
G01 X183.004457 Y217.009375 Z-0.125000
G01 X183.028217 Y217.272924 Z-0.125000
G01 X180.709498 Y217.485831 Z-0.125000
G01 X176.087564 Y217.098775 Z-0.125000
G01 X174.942415 Y217.112210 Z-0.125000
G01 X170.348902 Y217.701838 Z-0.125000
G01 X169.181535 Y217.752481 Z-0.125000
G01 X164.546163 Y217.577814 Z-0.125000
G01 X162.242431 Y217.577814 Z-0.125000
G01 X156.512039 Y218.389133 Z-0.125000
G01 X155.348805 Y218.485251 Z-0.125000
G01 X148.402983 Y218.757586 Z-0.125000
G01 X142.632801 Y219.169963 Z-0.125000
G01 X132.347652 Y220.886652 Z-0.125000
G01 X119.662149 Y222.194064 Z-0.125000
G00 Z10.000000

(End cutting path id: SvgjsPolyline3880)


(Start cutting path id: SvgjsPolyline3879)
(Change tool to Default tool)

G00 Z10.000000
G00 X111.493149 Y222.135670

G00 Z4.875000 (Fast pre-penetrate)
G01 Z-0.125000 F100.0(Penetrate)
G01 X111.463693 Y221.872637 Z-0.125000 F800.000000
G01 X126.434336 Y220.182303 Z-0.125000
G01 X135.655466 Y219.227324 Z-0.125000
G01 X137.944731 Y218.899696 Z-0.125000
G01 X143.647736 Y217.875470 Z-0.125000
G01 X145.954569 Y217.589183 Z-0.125000
G01 X151.743872 Y217.236750 Z-0.125000
G01 X157.527490 Y217.011958 Z-0.125000
G01 X162.109634 Y216.337582 Z-0.125000
G01 X164.431453 Y216.146379 Z-0.125000
G01 X170.224373 Y216.339649 Z-0.125000
G01 X171.372105 Y216.308126 Z-0.125000
G01 X174.814269 Y215.845623 Z-0.125000
G01 X177.139189 Y215.696278 Z-0.125000
G01 X180.607189 Y216.030107 Z-0.125000
G01 X181.753371 Y216.082817 Z-0.125000
G01 X182.903169 Y216.017188 Z-0.125000
G01 X182.918145 Y216.281254 Z-0.125000
G01 X181.754911 Y216.347917 Z-0.125000
G01 X180.588576 Y216.294173 Z-0.125000
G01 X177.135043 Y215.961894 Z-0.125000
G01 X174.840614 Y216.108655 Z-0.125000
G01 X171.393282 Y216.572192 Z-0.125000
G01 X170.223331 Y216.604232 Z-0.125000
G01 X164.437644 Y216.411479 Z-0.125000
G01 X162.140111 Y216.600614 Z-0.125000
G01 X157.551768 Y217.276024 Z-0.125000
G01 X151.757297 Y217.500817 Z-0.125000
G01 X145.978844 Y217.852733 Z-0.125000
G01 X143.687516 Y218.137469 Z-0.125000
G01 X137.986578 Y219.161178 Z-0.125000
G01 X135.688013 Y219.489840 Z-0.125000
G01 X126.462747 Y220.445336 Z-0.125000
G01 X111.493149 Y222.135670 Z-0.125000
G00 Z10.000000

(End cutting path id: SvgjsPolyline3879)


(Start cutting path id: SvgjsPolyline3878)
(Change tool to Default tool)

G00 Z10.000000
G00 X102.170215 Y222.244190

G00 Z4.875000 (Fast pre-penetrate)
G01 Z-0.125000 F100.0(Penetrate)
G01 X102.138693 Y221.981674 Z-0.125000 F800.000000
G01 X128.608362 Y218.848536 Z-0.125000
G01 X138.978259 Y217.748346 Z-0.125000
G01 X141.267521 Y217.415551 Z-0.125000
G01 X145.830027 Y216.589762 Z-0.125000
G01 X148.137894 Y216.295207 Z-0.125000
G01 X159.706683 Y215.697311 Z-0.125000
G01 X164.287276 Y215.009499 Z-0.125000
G01 X165.455161 Y214.915965 Z-0.125000
G01 X172.399949 Y215.088047 Z-0.125000
G01 X176.994494 Y214.514439 Z-0.125000
G01 X178.167030 Y214.471548 Z-0.125000
G01 X182.791550 Y214.855503 Z-0.125000
G01 X182.769854 Y215.119570 Z-0.125000
G01 X178.160839 Y214.736648 Z-0.125000
G01 X177.015690 Y214.778506 Z-0.125000
G01 X172.413393 Y215.353147 Z-0.125000
G01 X165.462403 Y215.181064 Z-0.125000
G01 X164.317256 Y215.272532 Z-0.125000
G01 X159.733046 Y215.960861 Z-0.125000
G01 X148.161157 Y216.558756 Z-0.125000
G01 X145.870344 Y216.851245 Z-0.125000
G01 X141.310420 Y217.676516 Z-0.125000
G01 X139.011339 Y218.010862 Z-0.125000
G01 X128.638342 Y219.111569 Z-0.125000
G01 X102.170215 Y222.244190 Z-0.125000
G00 Z10.000000

(End cutting path id: SvgjsPolyline3878)


(Start cutting path id: SvgjsPolyline3877)
(Change tool to Default tool)

G00 Z10.000000
G00 X93.995013 Y222.215252

G00 Z4.875000 (Fast pre-penetrate)
G01 Z-0.125000 F100.0(Penetrate)
G01 X93.962975 Y221.952219 Z-0.125000 F800.000000
G01 X129.624318 Y217.600035 Z-0.125000
G01 X142.291748 Y216.216659 Z-0.125000
G01 X148.002502 Y215.235325 Z-0.125000
G01 X150.306234 Y214.932501 Z-0.125000
G01 X154.937471 Y214.646214 Z-0.125000
G01 X160.724190 Y214.429690 Z-0.125000
G01 X166.463884 Y213.646276 Z-0.125000
G01 X167.631253 Y213.611653 Z-0.125000
G01 X173.420557 Y213.802339 Z-0.125000
G01 X174.565188 Y213.726375 Z-0.125000
G01 X178.008384 Y213.249919 Z-0.125000
G01 X179.181955 Y213.185323 Z-0.125000
G01 X182.652022 Y213.490730 Z-0.125000
G01 X182.628765 Y213.754280 Z-0.125000
G01 X179.177820 Y213.450423 Z-0.125000
G01 X178.033704 Y213.513468 Z-0.125000
G01 X174.592056 Y213.989408 Z-0.125000
G01 X173.424687 Y214.066922 Z-0.125000
G01 X167.630735 Y213.876236 Z-0.125000
G01 X166.485585 Y213.910343 Z-0.125000
G01 X160.747441 Y214.693756 Z-0.125000
G01 X154.950388 Y214.910797 Z-0.125000
G01 X150.332071 Y215.196051 Z-0.125000
G01 X148.042290 Y215.496807 Z-0.125000
G01 X142.328435 Y216.478658 Z-0.125000
G01 X129.654287 Y217.862551 Z-0.125000
G01 X93.995013 Y222.215252 Z-0.125000
G00 Z10.000000

(End cutting path id: SvgjsPolyline3877)


(Start cutting path id: SvgjsPolyline3875)
(Change tool to Default tool)

G00 Z10.000000
G00 X85.818263 Y222.140838

G00 Z4.875000 (Fast pre-penetrate)
G01 Z-0.125000 F100.0(Penetrate)
G01 X85.788291 Y221.878322 Z-0.125000 F800.000000
G01 X98.450033 Y220.420531 Z-0.125000
G01 X131.788009 Y216.173767 Z-0.125000
G01 X145.604203 Y214.631745 Z-0.125000
G01 X150.169291 Y213.827661 Z-0.125000
G01 X152.474058 Y213.524837 Z-0.125000
G01 X162.889947 Y213.016858 Z-0.125000
G01 X167.474157 Y212.345065 Z-0.125000
G01 X168.642042 Y212.267551 Z-0.125000
G01 X174.432896 Y212.468572 Z-0.125000
G01 X175.580628 Y212.421547 Z-0.125000
G01 X179.020726 Y211.950775 Z-0.125000
G01 X180.190162 Y211.868093 Z-0.125000
G01 X182.508880 Y212.019504 Z-0.125000
G01 X182.491841 Y212.283054 Z-0.125000
G01 X180.191207 Y212.133192 Z-0.125000
G01 X179.048126 Y212.214324 Z-0.125000
G01 X175.603896 Y212.685096 Z-0.125000
G01 X174.433426 Y212.733672 Z-0.125000
G01 X168.646191 Y212.532651 Z-0.125000
G01 X167.502076 Y212.608098 Z-0.125000
G01 X162.915797 Y213.280408 Z-0.125000
G01 X152.497841 Y213.788386 Z-0.125000
G01 X150.209614 Y214.089143 Z-0.125000
G01 X145.641422 Y214.893744 Z-0.125000
G01 X131.819545 Y216.436800 Z-0.125000
G01 X98.482087 Y220.683047 Z-0.125000
G01 X85.818263 Y222.140838 Z-0.125000
G00 Z10.000000

(End cutting path id: SvgjsPolyline3875)


(Start cutting path id: SvgjsPolyline3876)
(Change tool to Default tool)

G00 Z10.000000
G00 X78.879677 Y222.215252

G00 Z4.875000 (Fast pre-penetrate)
G01 Z-0.125000 F100.0(Penetrate)
G01 X78.851772 Y221.952219 Z-0.125000 F800.000000
G01 X88.068769 Y220.970885 Z-0.125000
G01 X100.719660 Y219.409742 Z-0.125000
G01 X108.761020 Y218.351926 Z-0.125000
G01 X119.068904 Y216.764428 Z-0.125000
G01 X124.814800 Y216.002202 Z-0.125000
G01 X136.312791 Y214.559915 Z-0.125000
G01 X147.829904 Y213.297978 Z-0.125000
G01 X153.544794 Y212.332146 Z-0.125000
G01 X158.178613 Y212.027256 Z-0.125000
G01 X163.964816 Y211.818483 Z-0.125000
G01 X168.547475 Y211.157026 Z-0.125000
G01 X169.715360 Y211.063492 Z-0.125000
G01 X175.507249 Y211.259345 Z-0.125000
G01 X176.654981 Y211.220071 Z-0.125000
G01 X180.097661 Y210.752400 Z-0.125000
G01 X181.262445 Y210.669201 Z-0.125000
G01 X182.427748 Y210.706925 Z-0.125000
G01 X182.419493 Y210.970991 Z-0.125000
G01 X181.267626 Y210.934301 Z-0.125000
G01 X180.125061 Y211.015432 Z-0.125000
G01 X176.677732 Y211.484137 Z-0.125000
G01 X175.507262 Y211.524445 Z-0.125000
G01 X169.721575 Y211.328591 Z-0.125000
G01 X168.576944 Y211.420058 Z-0.125000
G01 X163.988599 Y212.082033 Z-0.125000
G01 X158.192062 Y212.291322 Z-0.125000
G01 X153.575811 Y212.595179 Z-0.125000
G01 X147.866091 Y213.560494 Z-0.125000
G01 X136.343292 Y214.822430 Z-0.125000
G01 X124.848918 Y216.264201 Z-0.125000
G01 X119.106641 Y217.026427 Z-0.125000
G01 X108.798239 Y218.613925 Z-0.125000
G01 X100.753249 Y219.672258 Z-0.125000
G01 X88.099257 Y221.233401 Z-0.125000
G01 X78.879677 Y222.215252 Z-0.125000
G00 Z10.000000

(End cutting path id: SvgjsPolyline3876)


(Start cutting path id: SvgjsPolyline3873)
(Change tool to Default tool)

G00 Z10.000000
G00 X76.500497 Y222.201299

G00 Z4.875000 (Fast pre-penetrate)
G01 Z-0.125000 F100.0(Penetrate)
G01 X76.463288 Y221.939300 Z-0.125000 F800.000000
G01 X78.759271 Y221.616322 Z-0.125000
G01 X91.433934 Y220.232429 Z-0.125000
G01 X105.225839 Y218.473366 Z-0.125000
G01 X110.936077 Y217.532339 Z-0.125000
G01 X123.436590 Y215.034820 Z-0.125000
G01 X127.999614 Y214.200764 Z-0.125000
G01 X139.500707 Y212.729021 Z-0.125000
G01 X149.867503 Y211.623146 Z-0.125000
G01 X155.584975 Y210.672818 Z-0.125000
G01 X160.218278 Y210.365344 Z-0.125000
G01 X166.002414 Y210.159155 Z-0.125000
G01 X170.589209 Y209.500798 Z-0.125000
G01 X171.757095 Y209.439303 Z-0.125000
G01 X177.544332 Y209.642908 Z-0.125000
G01 X182.132675 Y209.096172 Z-0.125000
G01 X182.164197 Y209.359205 Z-0.125000
G01 X177.555701 Y209.908008 Z-0.125000
G01 X171.759679 Y209.703886 Z-0.125000
G01 X170.615046 Y209.764348 Z-0.125000
G01 X166.026184 Y210.423221 Z-0.125000
G01 X160.231714 Y210.629927 Z-0.125000
G01 X155.615465 Y210.935851 Z-0.125000
G01 X149.903158 Y211.885663 Z-0.125000
G01 X139.531713 Y212.991537 Z-0.125000
G01 X128.040437 Y214.462246 Z-0.125000
G01 X123.486199 Y215.294753 Z-0.125000
G01 X110.983620 Y217.792788 Z-0.125000
G01 X105.264079 Y218.735365 Z-0.125000
G01 X91.464938 Y220.495462 Z-0.125000
G01 X78.792344 Y221.878838 Z-0.125000
G01 X76.500497 Y222.201299 Z-0.125000
G00 Z10.000000

(End cutting path id: SvgjsPolyline3873)


(Start cutting path id: SvgjsPolyline3874)
(Change tool to Default tool)

G00 Z10.000000
G00 X75.380152 Y222.088128

G00 Z4.875000 (Fast pre-penetrate)
G01 Z-0.125000 F100.0(Penetrate)
G01 X75.350698 Y221.825095 Z-0.125000 F800.000000
G01 X89.168442 Y220.279972 Z-0.125000
G01 X104.101877 Y218.325572 Z-0.125000
G01 X108.650432 Y217.464126 Z-0.125000
G01 X127.926232 Y213.383760 Z-0.125000
G01 X132.498557 Y212.592079 Z-0.125000
G01 X142.856053 Y211.326524 Z-0.125000
G01 X152.071500 Y210.363794 Z-0.125000
G01 X157.792589 Y209.434652 Z-0.125000
G01 X162.431578 Y209.188156 Z-0.125000
G01 X167.058680 Y209.048113 Z-0.125000
G01 X171.644956 Y208.394924 Z-0.125000
G01 X172.812842 Y208.333429 Z-0.125000
G01 X178.596978 Y208.542202 Z-0.125000
G01 X182.033974 Y208.109671 Z-0.125000
G01 X182.067047 Y208.372186 Z-0.125000
G01 X178.608863 Y208.807301 Z-0.125000
G01 X172.814911 Y208.598012 Z-0.125000
G01 X171.670795 Y208.658473 Z-0.125000
G01 X167.081418 Y209.312179 Z-0.125000
G01 X162.442429 Y209.452222 Z-0.125000
G01 X157.821013 Y209.698202 Z-0.125000
G01 X152.106639 Y210.626309 Z-0.125000
G01 X142.886025 Y211.589557 Z-0.125000
G01 X132.537316 Y212.853561 Z-0.125000
G01 X127.976360 Y213.643693 Z-0.125000
G01 X108.702624 Y217.723542 Z-0.125000
G01 X104.143737 Y218.587054 Z-0.125000
G01 X89.200481 Y220.543004 Z-0.125000
G01 X75.380152 Y222.088128 Z-0.125000
G00 Z10.000000

(End cutting path id: SvgjsPolyline3874)


(Start cutting path id: SvgjsPolyline3872)
(Change tool to Default tool)

G00 Z10.000000
G00 X70.673988 Y222.132569

G00 Z4.875000 (Fast pre-penetrate)
G01 Z-0.125000 F100.0(Penetrate)
G01 X70.632646 Y221.871087 Z-0.125000 F800.000000
G01 X76.355802 Y220.960549 Z-0.125000
G01 X87.877566 Y219.703263 Z-0.125000
G01 X100.510888 Y218.045486 Z-0.125000
G01 X111.868836 Y215.757256 Z-0.125000
G01 X123.263992 Y213.661779 Z-0.125000
G01 X133.480925 Y211.547699 Z-0.125000
G01 X136.915337 Y210.980293 Z-0.125000
G01 X144.973233 Y210.019629 Z-0.125000
G01 X153.043015 Y209.210377 Z-0.125000
G01 X158.763071 Y208.281236 Z-0.125000
G01 X162.240375 Y208.066262 Z-0.125000
G01 X168.027093 Y207.899864 Z-0.125000
G01 X172.615439 Y207.259594 Z-0.125000
G01 X173.783324 Y207.184663 Z-0.125000
G01 X179.565910 Y207.406872 Z-0.125000
G01 X183.004973 Y206.976925 Z-0.125000
G01 X183.038046 Y207.239440 Z-0.125000
G01 X179.577279 Y207.671972 Z-0.125000
G01 X173.786944 Y207.449763 Z-0.125000
G01 X172.642310 Y207.523144 Z-0.125000
G01 X168.049316 Y208.163931 Z-0.125000
G01 X162.252778 Y208.330329 Z-0.125000
G01 X158.792528 Y208.544269 Z-0.125000
G01 X153.077638 Y209.472376 Z-0.125000
G01 X145.002173 Y210.282662 Z-0.125000
G01 X136.952545 Y211.242292 Z-0.125000
G01 X133.528986 Y211.807631 Z-0.125000
G01 X123.314635 Y213.921711 Z-0.125000
G01 X111.918961 Y216.017188 Z-0.125000
G01 X100.554296 Y218.306451 Z-0.125000
G01 X87.909088 Y219.966296 Z-0.125000
G01 X76.390944 Y221.222549 Z-0.125000
G01 X70.673988 Y222.132569 Z-0.125000
G00 Z10.000000

(End cutting path id: SvgjsPolyline3872)


(Start cutting path id: SvgjsPolyline3871)
(Change tool to Default tool)

G00 Z10.000000
G00 X55.479068 Y222.154273

G00 Z4.875000 (Fast pre-penetrate)
G01 Z-0.125000 F100.0(Penetrate)
G01 X55.453218 Y221.891241 Z-0.125000 F800.000000
G01 X57.761602 Y221.660764 Z-0.125000
G01 X64.711557 Y221.396181 Z-0.125000
G01 X69.327805 Y221.071137 Z-0.125000
G01 X73.894963 Y220.306843 Z-0.125000
G01 X81.964744 Y219.443848 Z-0.125000
G01 X93.460153 Y218.012929 Z-0.125000
G01 X96.889398 Y217.468777 Z-0.125000
G01 X102.560877 Y216.296757 Z-0.125000
G01 X105.991672 Y215.698345 Z-0.125000
G01 X119.769625 Y213.811641 Z-0.125000
G01 X123.199902 Y213.272656 Z-0.125000
G01 X136.847114 Y210.583935 Z-0.125000
G01 X146.055327 Y209.471859 Z-0.125000
G01 X154.124590 Y208.667775 Z-0.125000
G01 X158.695365 Y207.889529 Z-0.125000
G01 X162.167501 Y207.624429 Z-0.125000
G01 X169.111770 Y207.381034 Z-0.125000
G01 X173.706833 Y206.742831 Z-0.125000
G01 X179.499238 Y206.959871 Z-0.125000
G01 X180.646454 Y206.907678 Z-0.125000
G01 X182.934165 Y206.585734 Z-0.125000
G01 X182.971374 Y206.847733 Z-0.125000
G01 X180.671258 Y207.171228 Z-0.125000
G01 X179.500788 Y207.224971 Z-0.125000
G01 X173.720269 Y207.007930 Z-0.125000
G01 X169.134508 Y207.645100 Z-0.125000
G01 X162.182487 Y207.888496 Z-0.125000
G01 X158.727922 Y208.152562 Z-0.125000
G01 X154.160248 Y208.930291 Z-0.125000
G01 X146.084265 Y209.734892 Z-0.125000
G01 X136.888455 Y210.845417 Z-0.125000
G01 X123.246410 Y213.533105 Z-0.125000
G01 X119.808381 Y214.073123 Z-0.125000
G01 X106.032497 Y215.959827 Z-0.125000
G01 X102.610486 Y216.556689 Z-0.125000
G01 X96.936938 Y217.729226 Z-0.125000
G01 X93.497359 Y218.274928 Z-0.125000
G01 X81.995245 Y219.706881 Z-0.125000
G01 X73.930631 Y220.569359 Z-0.125000
G01 X69.359341 Y221.334170 Z-0.125000
G01 X64.725519 Y221.660247 Z-0.125000
G01 X57.779699 Y221.924830 Z-0.125000
G01 X55.479068 Y222.154273 Z-0.125000
G00 Z10.000000

(End cutting path id: SvgjsPolyline3871)


(Start cutting path id: SvgjsPolyline3863)
(Change tool to Default tool)

G00 Z10.000000
G00 X41.052576 Y215.192950

G00 Z4.875000 (Fast pre-penetrate)
G01 Z-0.125000 F100.0(Penetrate)
G01 X41.018986 Y214.930434 Z-0.125000 F800.000000
G01 X45.618183 Y214.344941 Z-0.125000
G01 X50.255103 Y214.178026 Z-0.125000
G01 X54.871352 Y213.871585 Z-0.125000
G01 X58.296980 Y213.292810 Z-0.125000
G01 X70.961306 Y211.853623 Z-0.125000
G01 X75.510895 Y210.985977 Z-0.125000
G01 X82.410723 Y210.083191 Z-0.125000
G01 X91.619968 Y209.006255 Z-0.125000
G01 X105.450116 Y207.564485 Z-0.125000
G01 X108.882458 Y207.044104 Z-0.125000
G01 X119.142286 Y205.181171 Z-0.125000
G01 X122.582381 Y204.632885 Z-0.125000
G01 X144.506080 Y202.608721 Z-0.125000
G01 X146.790175 Y202.265590 Z-0.125000
G01 X150.195130 Y201.562275 Z-0.125000
G01 X152.492661 Y201.208808 Z-0.125000
G01 X162.898215 Y200.478621 Z-0.125000
G01 X167.472091 Y199.743267 Z-0.125000
G01 X168.635843 Y199.647149 Z-0.125000
G01 X175.585796 Y199.623378 Z-0.125000
G01 X180.181893 Y199.017215 Z-0.125000
G01 X182.506295 Y199.117984 Z-0.125000
G01 X182.494415 Y199.382567 Z-0.125000
G01 X180.193784 Y199.282314 Z-0.125000
G01 X175.603888 Y199.887961 Z-0.125000
G01 X168.647215 Y199.911732 Z-0.125000
G01 X167.504134 Y200.005782 Z-0.125000
G01 X162.928709 Y200.741654 Z-0.125000
G01 X152.522122 Y201.471841 Z-0.125000
G01 X150.242160 Y201.822724 Z-0.125000
G01 X146.836688 Y202.526556 Z-0.125000
G01 X144.538124 Y202.871237 Z-0.125000
G01 X122.615459 Y204.895400 Z-0.125000
G01 X119.186730 Y205.442136 Z-0.125000
G01 X108.925871 Y207.305069 Z-0.125000
G01 X105.483710 Y207.827001 Z-0.125000
G01 X91.649429 Y209.269288 Z-0.125000
G01 X82.443285 Y210.345707 Z-0.125000
G01 X75.553274 Y211.247460 Z-0.125000
G01 X71.001102 Y212.115622 Z-0.125000
G01 X58.334191 Y213.554809 Z-0.125000
G01 X54.902364 Y214.135135 Z-0.125000
G01 X50.268545 Y214.442609 Z-0.125000
G01 X45.639892 Y214.609007 Z-0.125000
G01 X41.052576 Y215.192950 Z-0.125000
G00 Z10.000000

(End cutting path id: SvgjsPolyline3863)


(Start cutting path id: SvgjsPolyline3867)
(Change tool to Default tool)

G00 Z10.000000
G00 X34.369271 Y219.239726

G00 Z4.875000 (Fast pre-penetrate)
G01 Z-0.125000 F100.0(Penetrate)
G01 X33.196735 Y219.220605 Z-0.125000 F800.000000
G01 X28.586169 Y218.765853 Z-0.125000
G01 X27.441538 Y218.768446 Z-0.125000
G01 X25.150207 Y219.042847 Z-0.125000
G01 X25.118685 Y218.779814 Z-0.125000
G01 X27.425518 Y218.503863 Z-0.125000
G01 X28.598571 Y218.501270 Z-0.125000
G01 X33.211721 Y218.956539 Z-0.125000
G01 X34.356869 Y218.974626 Z-0.125000
G01 X38.961750 Y218.469231 Z-0.125000
G01 X44.760355 Y218.662500 Z-0.125000
G01 X47.064605 Y218.652166 Z-0.125000
G01 X51.655534 Y218.043935 Z-0.125000
G01 X57.451555 Y217.824310 Z-0.125000
G01 X62.065737 Y217.507017 Z-0.125000
G01 X66.640129 Y216.772179 Z-0.125000
G01 X73.553394 Y216.022872 Z-0.125000
G01 X81.596820 Y215.007948 Z-0.125000
G01 X87.284839 Y213.907242 Z-0.125000
G01 X96.478064 Y212.678894 Z-0.125000
G01 X136.732920 Y207.734499 Z-0.125000
G01 X143.552134 Y206.398665 Z-0.125000
G01 X145.849148 Y206.045716 Z-0.125000
G01 X151.616230 Y205.447304 Z-0.125000
G01 X158.539314 Y204.849925 Z-0.125000
G01 X163.110088 Y204.090282 Z-0.125000
G01 X164.272806 Y203.972977 Z-0.125000
G01 X172.377211 Y203.761620 Z-0.125000
G01 X176.975375 Y203.142021 Z-0.125000
G01 X182.773463 Y203.396268 Z-0.125000
G01 X182.761583 Y203.660851 Z-0.125000
G01 X176.987265 Y203.407120 Z-0.125000
G01 X172.398404 Y204.025687 Z-0.125000
G01 X164.289348 Y204.237560 Z-0.125000
G01 X163.145233 Y204.352798 Z-0.125000
G01 X158.572392 Y205.112441 Z-0.125000
G01 X151.641553 Y205.710853 Z-0.125000
G01 X145.883253 Y206.308232 Z-0.125000
G01 X143.597608 Y206.659115 Z-0.125000
G01 X136.774777 Y207.995982 Z-0.125000
G01 X96.511653 Y212.941411 Z-0.125000
G01 X87.327212 Y214.168208 Z-0.125000
G01 X81.638162 Y215.268914 Z-0.125000
G01 X73.584401 Y216.285905 Z-0.125000
G01 X66.675786 Y217.034179 Z-0.125000
G01 X62.095709 Y217.770050 Z-0.125000
G01 X57.465507 Y218.088377 Z-0.125000
G01 X51.677754 Y218.308001 Z-0.125000
G01 X47.082691 Y218.916749 Z-0.125000
G01 X44.756738 Y218.927084 Z-0.125000
G01 X38.971569 Y218.734331 Z-0.125000
G01 X34.369271 Y219.239726 Z-0.125000
G00 Z10.000000

(End cutting path id: SvgjsPolyline3867)


(Start cutting path id: SvgjsPolyline3868)
(Change tool to Default tool)

G00 Z10.000000
G00 X34.483993 Y220.131144

G00 Z4.875000 (Fast pre-penetrate)
G01 Z-0.125000 F100.0(Penetrate)
G01 X29.867226 Y219.675875 Z-0.125000 F800.000000
G01 X28.724662 Y219.641768 Z-0.125000
G01 X25.278365 Y220.016422 Z-0.125000
G01 X25.249943 Y219.753389 Z-0.125000
G01 X28.714326 Y219.376669 Z-0.125000
G01 X29.884279 Y219.411809 Z-0.125000
G01 X34.496395 Y219.866561 Z-0.125000
G01 X35.637409 Y219.861393 Z-0.125000
G01 X39.081639 Y219.422661 Z-0.125000
G01 X40.251076 Y219.355481 Z-0.125000
G01 X47.200513 Y219.585958 Z-0.125000
G01 X48.348245 Y219.544100 Z-0.125000
G01 X52.938658 Y218.932769 Z-0.125000
G01 X58.735196 Y218.715728 Z-0.125000
G01 X63.351963 Y218.420139 Z-0.125000
G01 X67.923253 Y217.679617 Z-0.125000
G01 X75.990452 Y216.801119 Z-0.125000
G01 X84.033360 Y215.783094 Z-0.125000
G01 X89.717762 Y214.672052 Z-0.125000
G01 X92.013226 Y214.329955 Z-0.125000
G01 X134.539776 Y208.877064 Z-0.125000
G01 X143.647736 Y207.138672 Z-0.125000
G01 X150.565650 Y206.386780 Z-0.125000
G01 X157.488215 Y205.767697 Z-0.125000
G01 X162.056408 Y205.005988 Z-0.125000
G01 X163.219125 Y204.880931 Z-0.125000
G01 X171.324046 Y204.653038 Z-0.125000
G01 X175.914974 Y204.021036 Z-0.125000
G01 X177.086479 Y203.994165 Z-0.125000
G01 X181.712546 Y204.250479 Z-0.125000
G01 X182.861828 Y204.195186 Z-0.125000
G01 X182.874740 Y204.459769 Z-0.125000
G01 X181.711506 Y204.515579 Z-0.125000
G01 X177.082343 Y204.258748 Z-0.125000
G01 X175.936162 Y204.285102 Z-0.125000
G01 X171.345750 Y204.917104 Z-0.125000
G01 X163.237212 Y205.144997 Z-0.125000
G01 X162.092581 Y205.268504 Z-0.125000
G01 X157.521807 Y206.030730 Z-0.125000
G01 X150.591489 Y206.649813 Z-0.125000
G01 X143.687008 Y207.400671 Z-0.125000
G01 X134.581633 Y209.138547 Z-0.125000
G01 X92.049915 Y214.591954 Z-0.125000
G01 X89.762720 Y214.933018 Z-0.125000
G01 X84.075220 Y216.044060 Z-0.125000
G01 X76.020940 Y217.063634 Z-0.125000
G01 X67.958911 Y217.941616 Z-0.125000
G01 X63.381419 Y218.683172 Z-0.125000
G01 X58.748631 Y218.979794 Z-0.125000
G01 X52.961394 Y219.196835 Z-0.125000
G01 X48.370466 Y219.808166 Z-0.125000
G01 X47.201030 Y219.850541 Z-0.125000
G01 X40.254176 Y219.620581 Z-0.125000
G01 X39.105927 Y219.686210 Z-0.125000
G01 X35.654979 Y220.125976 Z-0.125000
G01 X34.483993 Y220.131144 Z-0.125000
G00 Z10.000000

(End cutting path id: SvgjsPolyline3868)


(Start cutting path id: SvgjsPolyline3869)
(Change tool to Default tool)

G00 Z10.000000
G00 X35.728877 Y221.075788

G00 Z4.875000 (Fast pre-penetrate)
G01 Z-0.125000 F100.0(Penetrate)
G01 X29.962828 Y220.570393 Z-0.125000 F800.000000
G01 X28.816646 Y220.620002 Z-0.125000
G01 X25.368282 Y220.998273 Z-0.125000
G01 X25.339343 Y220.735240 Z-0.125000
G01 X28.796492 Y220.356453 Z-0.125000
G01 X29.968512 Y220.305293 Z-0.125000
G01 X35.738178 Y220.810688 Z-0.125000
G01 X36.882810 Y220.787433 Z-0.125000
G01 X40.328073 Y220.343017 Z-0.125000
G01 X41.495442 Y220.287206 Z-0.125000
G01 X47.289913 Y220.501663 Z-0.125000
G01 X49.593646 Y220.490811 Z-0.125000
G01 X54.185090 Y219.872245 Z-0.125000
G01 X59.978529 Y219.657788 Z-0.125000
G01 X64.598913 Y219.377702 Z-0.125000
G01 X70.321552 Y218.510056 Z-0.125000
G01 X77.236884 Y217.769017 Z-0.125000
G01 X86.431143 Y216.618701 Z-0.125000
G01 X94.402741 Y215.126804 Z-0.125000
G01 X131.169959 Y210.284729 Z-0.125000
G01 X133.448887 Y209.896639 Z-0.125000
G01 X140.263449 Y208.509645 Z-0.125000
G01 X142.563565 Y208.173232 Z-0.125000
G01 X150.631280 Y207.291633 Z-0.125000
G01 X156.398361 Y206.768152 Z-0.125000
G01 X160.966035 Y205.998174 Z-0.125000
G01 X162.128755 Y205.870533 Z-0.125000
G01 X170.233676 Y205.627137 Z-0.125000
G01 X174.823569 Y204.994619 Z-0.125000
G01 X175.991973 Y204.941392 Z-0.125000
G01 X180.621660 Y205.182204 Z-0.125000
G01 X181.769907 Y205.163601 Z-0.125000
G01 X182.914538 Y205.037511 Z-0.125000
G01 X182.943479 Y205.300543 Z-0.125000
G01 X181.786444 Y205.428184 Z-0.125000
G01 X180.617008 Y205.446787 Z-0.125000
G01 X175.991457 Y205.205975 Z-0.125000
G01 X174.847342 Y205.258685 Z-0.125000
G01 X170.255896 Y205.891204 Z-0.125000
G01 X162.147358 Y206.134599 Z-0.125000
G01 X161.002727 Y206.260690 Z-0.125000
G01 X156.431952 Y207.030668 Z-0.125000
G01 X150.657635 Y207.554666 Z-0.125000
G01 X142.596637 Y208.435231 Z-0.125000
G01 X140.308926 Y208.770611 Z-0.125000
G01 X133.497461 Y210.156571 Z-0.125000
G01 X131.209750 Y210.546211 Z-0.125000
G01 X94.444082 Y215.388287 Z-0.125000
G01 X86.471969 Y216.880700 Z-0.125000
G01 X77.267375 Y218.032050 Z-0.125000
G01 X70.355144 Y218.772572 Z-0.125000
G01 X64.626819 Y219.641252 Z-0.125000
G01 X59.991449 Y219.921854 Z-0.125000
G01 X54.207313 Y220.135795 Z-0.125000
G01 X49.612249 Y220.755394 Z-0.125000
G01 X47.285779 Y220.766246 Z-0.125000
G01 X41.496993 Y220.551789 Z-0.125000
G01 X40.351844 Y220.607083 Z-0.125000
G01 X36.902447 Y221.051500 Z-0.125000
G01 X35.728877 Y221.075788 Z-0.125000
G00 Z10.000000

(End cutting path id: SvgjsPolyline3869)


(Start cutting path id: SvgjsPolyline3870)
(Change tool to Default tool)

G00 Z10.000000
G00 X36.906064 Y222.091745

G00 Z4.875000 (Fast pre-penetrate)
G01 Z-0.125000 F100.0(Penetrate)
G01 X31.136915 Y221.573431 Z-0.125000 F800.000000
G01 X29.993833 Y221.615289 Z-0.125000
G01 X26.535134 Y222.004412 Z-0.125000
G01 X25.369832 Y221.983225 Z-0.125000
G01 X25.375000 Y221.718642 Z-0.125000
G01 X26.522732 Y221.739829 Z-0.125000
G01 X29.974196 Y221.351223 Z-0.125000
G01 X31.144149 Y221.308331 Z-0.125000
G01 X36.915883 Y221.827162 Z-0.125000
G01 X38.057414 Y221.805975 Z-0.125000
G01 X41.502677 Y221.362075 Z-0.125000
G01 X42.669013 Y221.294895 Z-0.125000
G01 X50.770835 Y221.527956 Z-0.125000
G01 X55.359177 Y220.911974 Z-0.125000
G01 X62.309648 Y220.628787 Z-0.125000
G01 X66.929000 Y220.340950 Z-0.125000
G01 X71.500809 Y219.600427 Z-0.125000
G01 X80.718323 Y218.583953 Z-0.125000
G01 X91.058245 Y217.269823 Z-0.125000
G01 X100.164655 Y215.544866 Z-0.125000
G01 X126.584715 Y211.999350 Z-0.125000
G01 X130.003624 Y211.407656 Z-0.125000
G01 X136.814568 Y209.996891 Z-0.125000
G01 X140.252080 Y209.448605 Z-0.125000
G01 X147.164311 Y208.654339 Z-0.125000
G01 X155.233577 Y207.860590 Z-0.125000
G01 X159.802285 Y207.085445 Z-0.125000
G01 X160.961902 Y206.960388 Z-0.125000
G01 X169.069923 Y206.693221 Z-0.125000
G01 X170.215589 Y206.590385 Z-0.125000
G01 X173.654133 Y206.063803 Z-0.125000
G01 X174.823053 Y205.986288 Z-0.125000
G01 X180.608740 Y206.218832 Z-0.125000
G01 X182.897486 Y205.950115 Z-0.125000
G01 X182.928493 Y206.213148 Z-0.125000
G01 X180.619075 Y206.484449 Z-0.125000
G01 X174.826670 Y206.251388 Z-0.125000
G01 X173.683074 Y206.327352 Z-0.125000
G01 X170.247627 Y206.853418 Z-0.125000
G01 X169.085944 Y206.957287 Z-0.125000
G01 X160.980505 Y207.224454 Z-0.125000
G01 X159.838459 Y207.347961 Z-0.125000
G01 X155.268716 Y208.123106 Z-0.125000
G01 X147.192733 Y208.917372 Z-0.125000
G01 X140.288254 Y209.710604 Z-0.125000
G01 X136.862626 Y210.257340 Z-0.125000
G01 X130.053234 Y211.667588 Z-0.125000
G01 X126.624505 Y212.260833 Z-0.125000
G01 X100.207030 Y215.806348 Z-0.125000
G01 X91.099586 Y217.531306 Z-0.125000
G01 X80.749327 Y218.846986 Z-0.125000
G01 X71.536465 Y219.862943 Z-0.125000
G01 X66.958456 Y220.603982 Z-0.125000
G01 X62.323087 Y220.892853 Z-0.125000
G01 X55.382432 Y221.176040 Z-0.125000
G01 X50.784786 Y221.793056 Z-0.125000
G01 X42.672630 Y221.559995 Z-0.125000
G01 X41.526965 Y221.625624 Z-0.125000
G01 X38.077051 Y222.070558 Z-0.125000
G01 X36.906064 Y222.091745 Z-0.125000
G00 Z10.000000

(End cutting path id: SvgjsPolyline3870)


(Start cutting path id: SvgjsPolyline3866)
(Change tool to Default tool)

G00 Z10.000000
G00 X33.069611 Y218.361228

G00 Z4.875000 (Fast pre-penetrate)
G01 Z-0.125000 F100.0(Penetrate)
G01 X27.298394 Y217.880121 Z-0.125000 F800.000000
G01 X25.002413 Y218.069773 Z-0.125000
G01 X24.980709 Y217.805707 Z-0.125000
G01 X27.298911 Y217.614505 Z-0.125000
G01 X33.074262 Y218.096128 Z-0.125000
G01 X34.216309 Y218.038768 Z-0.125000
G01 X37.668807 Y217.601586 Z-0.125000
G01 X45.775279 Y217.776252 Z-0.125000
G01 X50.364657 Y217.175772 Z-0.125000
G01 X55.002093 Y217.009374 Z-0.125000
G01 X59.625578 Y216.737040 Z-0.125000
G01 X60.771760 Y216.621285 Z-0.125000
G01 X64.197387 Y216.033724 Z-0.125000
G01 X72.262001 Y215.144374 Z-0.125000
G01 X79.157180 Y214.274661 Z-0.125000
G01 X84.845714 Y213.187390 Z-0.125000
G01 X94.041522 Y211.977646 Z-0.125000
G01 X105.546749 Y210.564814 Z-0.125000
G01 X137.776266 Y206.826546 Z-0.125000
G01 X140.061911 Y206.477731 Z-0.125000
G01 X144.601163 Y205.543939 Z-0.125000
G01 X146.894045 Y205.167218 Z-0.125000
G01 X153.818161 Y204.478889 Z-0.125000
G01 X159.589893 Y204.005533 Z-0.125000
G01 X164.161186 Y203.248991 Z-0.125000
G01 X165.324936 Y203.147706 Z-0.125000
G01 X172.278508 Y203.025749 Z-0.125000
G01 X173.423658 Y202.939450 Z-0.125000
G01 X176.861686 Y202.420619 Z-0.125000
G01 X178.031638 Y202.353440 Z-0.125000
G01 X182.667010 Y202.634559 Z-0.125000
G01 X182.650977 Y202.898626 Z-0.125000
G01 X178.031109 Y202.618540 Z-0.125000
G01 X176.889060 Y202.684169 Z-0.125000
G01 X173.453101 Y203.202483 Z-0.125000
G01 X172.290899 Y203.290332 Z-0.125000
G01 X165.338359 Y203.411772 Z-0.125000
G01 X164.194762 Y203.511507 Z-0.125000
G01 X159.622437 Y204.268566 Z-0.125000
G01 X153.841918 Y204.742438 Z-0.125000
G01 X146.928655 Y205.429734 Z-0.125000
G01 X144.649209 Y205.804388 Z-0.125000
G01 X140.108406 Y206.738696 Z-0.125000
G01 X137.811392 Y207.088545 Z-0.125000
G01 X105.577742 Y210.827331 Z-0.125000
G01 X94.075100 Y212.240163 Z-0.125000
G01 X84.887558 Y213.448873 Z-0.125000
G01 X79.199024 Y214.536143 Z-0.125000
G01 X72.293511 Y215.407407 Z-0.125000
G01 X64.234580 Y216.296241 Z-0.125000
G01 X60.807404 Y216.883284 Z-0.125000
G01 X59.646753 Y217.000589 Z-0.125000
G01 X55.014484 Y217.273441 Z-0.125000
G01 X50.386361 Y217.439838 Z-0.125000
G01 X45.789748 Y218.040835 Z-0.125000
G01 X37.682760 Y217.866685 Z-0.125000
G01 X34.239564 Y218.302317 Z-0.125000
G01 X33.069611 Y218.361228 Z-0.125000
G00 Z10.000000

(End cutting path id: SvgjsPolyline3866)


(Start cutting path id: SvgjsPolyline3865)
(Change tool to Default tool)

G00 Z10.000000
G00 X31.796822 Y217.474978

G00 Z4.875000 (Fast pre-penetrate)
G01 Z-0.125000 F100.0(Penetrate)
G01 X27.182122 Y217.032629 Z-0.125000 F800.000000
G01 X26.034390 Y217.003690 Z-0.125000
G01 X24.885108 Y217.090506 Z-0.125000
G01 X24.864954 Y216.826957 Z-0.125000
G01 X26.028189 Y216.739107 Z-0.125000
G01 X27.198142 Y216.768562 Z-0.125000
G01 X31.806640 Y217.209879 Z-0.125000
G01 X32.950755 Y217.184040 Z-0.125000
G01 X36.398086 Y216.744790 Z-0.125000
G01 X37.567005 Y216.712751 Z-0.125000
G01 X44.508174 Y216.905504 Z-0.125000
G01 X49.097553 Y216.310709 Z-0.125000
G01 X53.734990 Y216.143794 Z-0.125000
G01 X58.354342 Y215.871976 Z-0.125000
G01 X62.928733 Y215.160910 Z-0.125000
G01 X69.844065 Y214.416770 Z-0.125000
G01 X76.739241 Y213.560493 Z-0.125000
G01 X82.432942 Y212.488725 Z-0.125000
G01 X95.082285 Y210.863503 Z-0.125000
G01 X139.994215 Y205.842110 Z-0.125000
G01 X147.967363 Y204.354864 Z-0.125000
G01 X160.666312 Y203.222635 Z-0.125000
G01 X165.241738 Y202.473328 Z-0.125000
G01 X168.725759 Y202.340520 Z-0.125000
G01 X173.354927 Y202.292978 Z-0.125000
G01 X177.945339 Y201.671311 Z-0.125000
G01 X179.117360 Y201.660458 Z-0.125000
G01 X182.591562 Y201.896102 Z-0.125000
G01 X182.573465 Y202.160168 Z-0.125000
G01 X179.109597 Y201.925041 Z-0.125000
G01 X177.964450 Y201.935375 Z-0.125000
G01 X173.374049 Y202.557562 Z-0.125000
G01 X168.731961 Y202.605104 Z-0.125000
G01 X165.268093 Y202.736879 Z-0.125000
G01 X160.699385 Y203.485152 Z-0.125000
G01 X148.003537 Y204.617382 Z-0.125000
G01 X140.032974 Y206.104110 Z-0.125000
G01 X95.113808 Y211.126537 Z-0.125000
G01 X82.474283 Y212.750208 Z-0.125000
G01 X76.780066 Y213.821976 Z-0.125000
G01 X69.874553 Y214.679804 Z-0.125000
G01 X62.963356 Y215.422910 Z-0.125000
G01 X58.382763 Y216.135527 Z-0.125000
G01 X53.747393 Y216.408378 Z-0.125000
G01 X49.119257 Y216.574776 Z-0.125000
G01 X44.521611 Y217.170605 Z-0.125000
G01 X37.567005 Y216.977335 Z-0.125000
G01 X36.418239 Y217.008858 Z-0.125000
G01 X32.970392 Y217.448107 Z-0.125000
G01 X31.796822 Y217.474978 Z-0.125000
G00 Z10.000000

(End cutting path id: SvgjsPolyline3865)


(Start cutting path id: SvgjsPolyline3862)
(Change tool to Default tool)

G00 Z10.000000
G00 X30.583977 Y216.548421

G00 Z4.875000 (Fast pre-penetrate)
G01 Z-0.125000 F100.0(Penetrate)
G01 X25.969795 Y216.101421 Z-0.125000 F800.000000
G01 X24.817928 Y216.109173 Z-0.125000
G01 X24.815862 Y215.844590 Z-0.125000
G01 X25.981681 Y215.836838 Z-0.125000
G01 X30.596381 Y216.283838 Z-0.125000
G01 X31.740495 Y216.281245 Z-0.125000
G01 X35.185242 Y215.850264 Z-0.125000
G01 X36.351577 Y215.797038 Z-0.125000
G01 X43.296881 Y216.003227 Z-0.125000
G01 X47.885743 Y215.411015 Z-0.125000
G01 X52.523178 Y215.247201 Z-0.125000
G01 X57.142530 Y214.969699 Z-0.125000
G01 X61.716406 Y214.253465 Z-0.125000
G01 X74.380216 Y212.800842 Z-0.125000
G01 X80.073402 Y211.748194 Z-0.125000
G01 X92.724808 Y210.146744 Z-0.125000
G01 X101.939221 Y209.112183 Z-0.125000
G01 X126.151666 Y206.651354 Z-0.125000
G01 X141.124379 Y205.027166 Z-0.125000
G01 X149.103210 Y203.563691 Z-0.125000
G01 X160.651842 Y202.592692 Z-0.125000
G01 X166.381718 Y201.732281 Z-0.125000
G01 X173.340460 Y201.644948 Z-0.125000
G01 X174.487673 Y201.568467 Z-0.125000
G01 X177.925186 Y201.052737 Z-0.125000
G01 X179.095140 Y200.982974 Z-0.125000
G01 X182.571925 Y201.197947 Z-0.125000
G01 X182.555891 Y201.462014 Z-0.125000
G01 X179.095127 Y201.248073 Z-0.125000
G01 X177.952562 Y201.315769 Z-0.125000
G01 X174.516081 Y201.832016 Z-0.125000
G01 X173.350781 Y201.909014 Z-0.125000
G01 X166.403411 Y201.996347 Z-0.125000
G01 X160.682320 Y202.855725 Z-0.125000
G01 X149.138336 Y203.826207 Z-0.125000
G01 X141.162606 Y205.289165 Z-0.125000
G01 X126.179043 Y206.914387 Z-0.125000
G01 X101.967632 Y209.375216 Z-0.125000
G01 X92.756318 Y210.409260 Z-0.125000
G01 X80.113695 Y212.009677 Z-0.125000
G01 X74.419477 Y213.062841 Z-0.125000
G01 X61.752048 Y214.515464 Z-0.125000
G01 X57.170939 Y215.233249 Z-0.125000
G01 X52.535569 Y215.511267 Z-0.125000
G01 X47.907434 Y215.675082 Z-0.125000
G01 X43.309787 Y216.268326 Z-0.125000
G01 X36.353631 Y216.061621 Z-0.125000
G01 X35.207450 Y216.114331 Z-0.125000
G01 X31.757535 Y216.545828 Z-0.125000
G01 X30.583977 Y216.548421 Z-0.125000
G00 Z10.000000

(End cutting path id: SvgjsPolyline3862)


(Start cutting path id: SvgjsPolyline3858)
(Change tool to Default tool)

G00 Z10.000000
G00 X30.621184 Y215.583107

G00 Z4.875000 (Fast pre-penetrate)
G01 Z-0.125000 F100.0(Penetrate)
G01 X29.450198 Y215.567086 Z-0.125000 F800.000000
G01 X24.830847 Y215.124736 Z-0.125000
G01 X24.856169 Y214.861187 Z-0.125000
G01 X29.464667 Y215.302503 Z-0.125000
G01 X30.606715 Y215.318005 Z-0.125000
G01 X34.052495 Y214.892708 Z-0.125000
G01 X35.218831 Y214.831214 Z-0.125000
G01 X42.164134 Y215.029651 Z-0.125000
G01 X46.753513 Y214.442607 Z-0.125000
G01 X51.390432 Y214.278793 Z-0.125000
G01 X56.009266 Y213.993540 Z-0.125000
G01 X59.434893 Y213.425100 Z-0.125000
G01 X72.097153 Y211.975578 Z-0.125000
G01 X77.795506 Y210.938433 Z-0.125000
G01 X86.996483 Y209.776231 Z-0.125000
G01 X95.057481 Y208.855359 Z-0.125000
G01 X106.590611 Y207.709694 Z-0.125000
G01 X115.803992 Y206.677716 Z-0.125000
G01 X128.499324 Y205.500012 Z-0.125000
G01 X142.327919 Y204.079945 Z-0.125000
G01 X144.613567 Y203.734230 Z-0.125000
G01 X150.306750 Y202.643342 Z-0.125000
G01 X161.860037 Y201.722470 Z-0.125000
G01 X166.434947 Y200.978847 Z-0.125000
G01 X167.598696 Y200.890480 Z-0.125000
G01 X174.548136 Y200.830019 Z-0.125000
G01 X179.141648 Y200.216103 Z-0.125000
G01 X180.314185 Y200.210420 Z-0.125000
G01 X182.628768 Y200.377851 Z-0.125000
G01 X182.610167 Y200.641401 Z-0.125000
G01 X180.305401 Y200.475003 Z-0.125000
G01 X179.159738 Y200.480686 Z-0.125000
G01 X174.566741 Y201.094085 Z-0.125000
G01 X167.610068 Y201.155063 Z-0.125000
G01 X166.466472 Y201.241879 Z-0.125000
G01 X161.892078 Y201.984985 Z-0.125000
G01 X150.342411 Y202.905858 Z-0.125000
G01 X144.658012 Y203.994679 Z-0.125000
G01 X142.361513 Y204.342461 Z-0.125000
G01 X128.525166 Y205.763561 Z-0.125000
G01 X115.830866 Y206.940749 Z-0.125000
G01 X106.618519 Y207.972726 Z-0.125000
G01 X95.085389 Y209.118391 Z-0.125000
G01 X87.028008 Y210.038747 Z-0.125000
G01 X77.835815 Y211.199915 Z-0.125000
G01 X72.135914 Y212.237060 Z-0.125000
G01 X59.471586 Y213.687099 Z-0.125000
G01 X56.039243 Y214.256572 Z-0.125000
G01 X51.403355 Y214.542860 Z-0.125000
G01 X46.774703 Y214.706673 Z-0.125000
G01 X42.177573 Y215.294751 Z-0.125000
G01 X35.221934 Y215.096314 Z-0.125000
G01 X34.075752 Y215.156258 Z-0.125000
G01 X30.621184 Y215.583107 Z-0.125000
G00 Z10.000000

(End cutting path id: SvgjsPolyline3858)


(Start cutting path id: SvgjsPolyline3851)
(Change tool to Default tool)

G00 Z10.000000
G00 X29.570604 Y214.524775

G00 Z4.875000 (Fast pre-penetrate)
G01 Z-0.125000 F100.0(Penetrate)
G01 X28.396517 Y214.506172 Z-0.125000 F800.000000
G01 X24.935234 Y214.145470 Z-0.125000
G01 X24.962622 Y213.882437 Z-0.125000
G01 X28.412536 Y214.241588 Z-0.125000
G01 X29.556651 Y214.259675 Z-0.125000
G01 X33.002431 Y213.836962 Z-0.125000
G01 X34.169284 Y213.778568 Z-0.125000
G01 X38.805687 Y213.960986 Z-0.125000
G01 X41.109937 Y213.968738 Z-0.125000
G01 X45.702932 Y213.389963 Z-0.125000
G01 X50.339853 Y213.225632 Z-0.125000
G01 X54.956104 Y212.911439 Z-0.125000
G01 X58.379662 Y212.334731 Z-0.125000
G01 X64.145712 Y211.736836 Z-0.125000
G01 X71.042956 Y210.903813 Z-0.125000
G01 X75.595644 Y210.033583 Z-0.125000
G01 X77.899892 Y209.736443 Z-0.125000
G01 X87.106036 Y208.627985 Z-0.125000
G01 X98.632452 Y207.445113 Z-0.125000
G01 X100.920164 Y207.120586 Z-0.125000
G01 X105.453732 Y206.196096 Z-0.125000
G01 X131.336874 Y199.838352 Z-0.125000
G01 X133.606499 Y199.337091 Z-0.125000
G01 X135.897314 Y198.946935 Z-0.125000
G01 X137.058481 Y198.824462 Z-0.125000
G01 X149.786371 Y198.144918 Z-0.125000
G01 X152.073567 Y197.857597 Z-0.125000
G01 X156.628321 Y196.975481 Z-0.125000
G01 X160.107690 Y196.755340 Z-0.125000
G01 X165.898028 Y196.559487 Z-0.125000
G01 X167.042659 Y196.462335 Z-0.125000
G01 X170.467768 Y195.877875 Z-0.125000
G01 X171.631521 Y195.757469 Z-0.125000
G01 X177.427542 Y195.900613 Z-0.125000
G01 X178.575274 Y195.861339 Z-0.125000
G01 X182.007619 Y195.362144 Z-0.125000
G01 X182.045860 Y195.624142 Z-0.125000
G01 X178.599047 Y196.124888 Z-0.125000
G01 X177.429093 Y196.165196 Z-0.125000
G01 X171.641855 Y196.022569 Z-0.125000
G01 X170.503426 Y196.140391 Z-0.125000
G01 X167.076248 Y196.725368 Z-0.125000
G01 X165.913530 Y196.823553 Z-0.125000
G01 X160.120610 Y197.019406 Z-0.125000
G01 X156.661912 Y197.238514 Z-0.125000
G01 X152.115424 Y198.119079 Z-0.125000
G01 X149.809625 Y198.408467 Z-0.125000
G01 X137.079151 Y199.088528 Z-0.125000
G01 X135.933488 Y199.209451 Z-0.125000
G01 X133.657143 Y199.597023 Z-0.125000
G01 X131.397334 Y200.096217 Z-0.125000
G01 X105.512126 Y206.454477 Z-0.125000
G01 X100.965122 Y207.381551 Z-0.125000
G01 X98.665006 Y207.708146 Z-0.125000
G01 X87.135492 Y208.891018 Z-0.125000
G01 X77.932449 Y209.998960 Z-0.125000
G01 X75.637501 Y210.295065 Z-0.125000
G01 X71.083779 Y211.165295 Z-0.125000
G01 X64.175168 Y211.999868 Z-0.125000
G01 X58.415317 Y212.597247 Z-0.125000
G01 X54.987107 Y213.174472 Z-0.125000
G01 X50.353288 Y213.489698 Z-0.125000
G01 X45.724119 Y213.654029 Z-0.125000
G01 X41.125956 Y214.233321 Z-0.125000
G01 X38.800003 Y214.225569 Z-0.125000
G01 X34.170834 Y214.043151 Z-0.125000
G01 X33.025169 Y214.101029 Z-0.125000
G01 X29.570604 Y214.524775 Z-0.125000
G00 Z10.000000

(End cutting path id: SvgjsPolyline3851)


(Start cutting path id: SvgjsPolyline3859)
(Change tool to Default tool)

G00 Z10.000000
G00 X28.581518 Y215.220855

G00 Z4.875000 (Fast pre-penetrate)
G01 Z-0.125000 F100.0(Penetrate)
G01 X25.111967 Y214.907697 Z-0.125000 F800.000000
G01 X25.135738 Y214.644147 Z-0.125000
G01 X28.587203 Y214.955756 Z-0.125000
G01 X29.729250 Y214.900462 Z-0.125000
G01 X33.184849 Y214.476716 Z-0.125000
G01 X40.136354 Y214.675153 Z-0.125000
G01 X41.281502 Y214.599189 Z-0.125000
G01 X44.722115 Y214.104129 Z-0.125000
G01 X53.981486 Y213.657128 Z-0.125000
G01 X58.554845 Y212.948645 Z-0.125000
G01 X70.070408 Y211.650018 Z-0.125000
G01 X75.768758 Y210.615458 Z-0.125000
G01 X80.371058 Y210.030481 Z-0.125000
G01 X89.577718 Y208.940110 Z-0.125000
G01 X101.106716 Y207.765506 Z-0.125000
G01 X103.397528 Y207.453897 Z-0.125000
G01 X110.212091 Y206.121681 Z-0.125000
G01 X127.118532 Y202.081622 Z-0.125000
G01 X129.396425 Y201.622736 Z-0.125000
G01 X131.696024 Y201.269786 Z-0.125000
G01 X147.875378 Y200.084330 Z-0.125000
G01 X150.158957 Y199.741716 Z-0.125000
G01 X154.715780 Y198.862185 Z-0.125000
G01 X165.127018 Y198.250853 Z-0.125000
G01 X169.706576 Y197.522733 Z-0.125000
G01 X172.033047 Y197.466923 Z-0.125000
G01 X176.665316 Y197.562007 Z-0.125000
G01 X177.810981 Y197.478291 Z-0.125000
G01 X181.250560 Y196.974964 Z-0.125000
G01 X182.416895 Y196.940340 Z-0.125000
G01 X182.425150 Y197.204923 Z-0.125000
G01 X181.273801 Y197.239030 Z-0.125000
G01 X177.839389 Y197.741324 Z-0.125000
G01 X176.672539 Y197.826590 Z-0.125000
G01 X172.033549 Y197.731506 Z-0.125000
G01 X169.730333 Y197.786799 Z-0.125000
G01 X165.155426 Y198.513886 Z-0.125000
G01 X154.748839 Y199.125217 Z-0.125000
G01 X150.203901 Y200.002165 Z-0.125000
G01 X147.904821 Y200.347363 Z-0.125000
G01 X131.725983 Y201.532819 Z-0.125000
G01 X129.442923 Y201.883185 Z-0.125000
G01 X127.175362 Y202.340004 Z-0.125000
G01 X110.268418 Y206.380579 Z-0.125000
G01 X103.440938 Y207.715380 Z-0.125000
G01 X101.138238 Y208.028022 Z-0.125000
G01 X89.606658 Y209.203142 Z-0.125000
G01 X80.403096 Y210.292997 Z-0.125000
G01 X75.809067 Y210.876940 Z-0.125000
G01 X70.108648 Y211.912017 Z-0.125000
G01 X58.589984 Y213.211161 Z-0.125000
G01 X54.008357 Y213.920678 Z-0.125000
G01 X44.747436 Y214.368195 Z-0.125000
G01 X41.308891 Y214.862738 Z-0.125000
G01 X40.141522 Y214.940253 Z-0.125000
G01 X33.197251 Y214.741815 Z-0.125000
G01 X29.751988 Y215.164528 Z-0.125000
G01 X28.581518 Y215.220855 Z-0.125000
G00 Z10.000000

(End cutting path id: SvgjsPolyline3859)


(Start cutting path id: SvgjsPolyline3864)
(Change tool to Default tool)

G00 Z10.000000
G00 X28.638879 Y215.382086

G00 Z4.875000 (Fast pre-penetrate)
G01 Z-0.125000 F100.0(Penetrate)
G01 X25.169844 Y215.058591 Z-0.125000 F800.000000
G01 X25.194132 Y214.795042 Z-0.125000
G01 X28.646631 Y215.116986 Z-0.125000
G01 X29.788161 Y215.075128 Z-0.125000
G01 X33.242726 Y214.643630 Z-0.125000
G01 X40.195265 Y214.836900 Z-0.125000
G01 X41.340413 Y214.773855 Z-0.125000
G01 X44.782576 Y214.276211 Z-0.125000
G01 X54.039882 Y213.826627 Z-0.125000
G01 X58.616340 Y213.120728 Z-0.125000
G01 X64.380839 Y212.514564 Z-0.125000
G01 X71.275498 Y211.671206 Z-0.125000
G01 X75.826120 Y210.795291 Z-0.125000
G01 X81.580284 Y210.059420 Z-0.125000
G01 X89.635595 Y209.103924 Z-0.125000
G01 X102.316461 Y207.810464 Z-0.125000
G01 X104.610890 Y207.511775 Z-0.125000
G01 X110.310278 Y206.504602 Z-0.125000
G01 X122.778752 Y203.842753 Z-0.125000
G01 X127.366579 Y203.135303 Z-0.125000
G01 X145.842946 Y201.584495 Z-0.125000
G01 X148.129626 Y201.249633 Z-0.125000
G01 X152.678181 Y200.349430 Z-0.125000
G01 X154.994314 Y200.121021 Z-0.125000
G01 X164.240249 Y199.523642 Z-0.125000
G01 X168.821361 Y198.792421 Z-0.125000
G01 X175.777515 Y198.797589 Z-0.125000
G01 X176.924215 Y198.708706 Z-0.125000
G01 X180.364310 Y198.202794 Z-0.125000
G01 X181.537363 Y198.167654 Z-0.125000
G01 X182.700083 Y198.250336 Z-0.125000
G01 X182.681483 Y198.514402 Z-0.125000
G01 X181.531685 Y198.432754 Z-0.125000
G01 X180.387570 Y198.466860 Z-0.125000
G01 X176.953677 Y198.971738 Z-0.125000
G01 X175.787858 Y199.062172 Z-0.125000
G01 X168.842554 Y199.057004 Z-0.125000
G01 X164.269705 Y199.786675 Z-0.125000
G01 X155.015502 Y200.385087 Z-0.125000
G01 X152.716937 Y200.611430 Z-0.125000
G01 X148.174584 Y201.510598 Z-0.125000
G01 X145.873437 Y201.847528 Z-0.125000
G01 X127.398101 Y203.397819 Z-0.125000
G01 X122.826292 Y204.103202 Z-0.125000
G01 X110.360919 Y206.764535 Z-0.125000
G01 X104.651197 Y207.773774 Z-0.125000
G01 X102.346949 Y208.072980 Z-0.125000
G01 X89.664536 Y209.366956 Z-0.125000
G01 X81.612322 Y210.321936 Z-0.125000
G01 X75.867977 Y211.056774 Z-0.125000
G01 X71.316840 Y211.932688 Z-0.125000
G01 X64.410810 Y212.777597 Z-0.125000
G01 X58.650447 Y213.383244 Z-0.125000
G01 X54.066753 Y214.090176 Z-0.125000
G01 X44.808414 Y214.539761 Z-0.125000
G01 X41.366251 Y215.037404 Z-0.125000
G01 X40.198882 Y215.101483 Z-0.125000
G01 X33.255646 Y214.908213 Z-0.125000
G01 X29.809349 Y215.339194 Z-0.125000
G01 X28.638879 Y215.382086 Z-0.125000
G00 Z10.000000

(End cutting path id: SvgjsPolyline3864)


(Start cutting path id: SvgjsPolyline3860)
(Change tool to Default tool)

G00 Z10.000000
G00 X28.447160 Y215.003814

G00 Z4.875000 (Fast pre-penetrate)
G01 Z-0.125000 F100.0(Penetrate)
G01 X24.974508 Y214.695823 Z-0.125000 F800.000000
G01 X24.997762 Y214.432274 Z-0.125000
G01 X28.451811 Y214.738715 Z-0.125000
G01 X29.594375 Y214.675670 Z-0.125000
G01 X33.047390 Y214.257091 Z-0.125000
G01 X40.000962 Y214.460696 Z-0.125000
G01 X41.143009 Y214.371812 Z-0.125000
G01 X44.587756 Y213.881921 Z-0.125000
G01 X49.226227 Y213.715006 Z-0.125000
G01 X53.842476 Y213.438021 Z-0.125000
G01 X57.268104 Y212.869581 Z-0.125000
G01 X69.932430 Y211.430394 Z-0.125000
G01 X74.484602 Y210.567915 Z-0.125000
G01 X77.933484 Y210.101794 Z-0.125000
G01 X87.140660 Y208.990236 Z-0.125000
G01 X99.817908 Y207.680757 Z-0.125000
G01 X102.105104 Y207.348477 Z-0.125000
G01 X107.768315 Y206.164572 Z-0.125000
G01 X128.006848 Y201.102872 Z-0.125000
G01 X132.557985 Y200.185616 Z-0.125000
G01 X133.718121 Y200.049707 Z-0.125000
G01 X148.753359 Y199.118499 Z-0.125000
G01 X151.038489 Y198.815159 Z-0.125000
G01 X155.592727 Y197.928393 Z-0.125000
G01 X157.912479 Y197.744941 Z-0.125000
G01 X166.008616 Y197.364087 Z-0.125000
G01 X170.586624 Y196.641651 Z-0.125000
G01 X171.757095 Y196.596176 Z-0.125000
G01 X177.542781 Y196.715548 Z-0.125000
G01 X182.125957 Y196.121270 Z-0.125000
G01 X182.160064 Y196.383786 Z-0.125000
G01 X177.557251 Y196.980131 Z-0.125000
G01 X171.759679 Y196.861276 Z-0.125000
G01 X170.612463 Y196.905717 Z-0.125000
G01 X166.035487 Y197.627636 Z-0.125000
G01 X157.929016 Y198.009008 Z-0.125000
G01 X155.628901 Y198.190908 Z-0.125000
G01 X151.081380 Y199.076642 Z-0.125000
G01 X148.778680 Y199.382049 Z-0.125000
G01 X133.741375 Y200.313257 Z-0.125000
G01 X132.599845 Y200.447099 Z-0.125000
G01 X128.065242 Y201.361254 Z-0.125000
G01 X107.827743 Y206.422437 Z-0.125000
G01 X102.151096 Y207.608926 Z-0.125000
G01 X99.850462 Y207.943272 Z-0.125000
G01 X87.170116 Y209.253268 Z-0.125000
G01 X77.967072 Y210.364310 Z-0.125000
G01 X74.526977 Y210.829397 Z-0.125000
G01 X69.971705 Y211.691876 Z-0.125000
G01 X57.304794 Y213.131580 Z-0.125000
G01 X53.872448 Y213.701053 Z-0.125000
G01 X49.239146 Y213.979589 Z-0.125000
G01 X44.611527 Y214.145987 Z-0.125000
G01 X41.171948 Y214.634845 Z-0.125000
G01 X40.007163 Y214.725796 Z-0.125000
G01 X33.059275 Y214.522191 Z-0.125000
G01 X29.617629 Y214.939736 Z-0.125000
G01 X28.447160 Y215.003814 Z-0.125000
G00 Z10.000000

(End cutting path id: SvgjsPolyline3860)


(Start cutting path id: SvgjsPolyline3844)
(Change tool to Default tool)

G00 Z10.000000
G00 X28.528292 Y213.421484

G00 Z4.875000 (Fast pre-penetrate)
G01 Z-0.125000 F100.0(Penetrate)
G01 X27.354204 Y213.402881 Z-0.125000 F800.000000
G01 X25.041687 Y213.166720 Z-0.125000
G01 X25.068559 Y212.903171 Z-0.125000
G01 X27.369707 Y213.138298 Z-0.125000
G01 X28.513822 Y213.156385 Z-0.125000
G01 X31.957535 Y212.733673 Z-0.125000
G01 X33.126971 Y212.680446 Z-0.125000
G01 X37.760275 Y212.871132 Z-0.125000
G01 X40.065557 Y212.865448 Z-0.125000
G01 X43.502552 Y212.374006 Z-0.125000
G01 X52.759340 Y211.927006 Z-0.125000
G01 X57.337867 Y211.228858 Z-0.125000
G01 X68.852394 Y209.951418 Z-0.125000
G01 X72.260451 Y209.285310 Z-0.125000
G01 X74.556949 Y208.940628 Z-0.125000
G01 X83.767227 Y207.847156 Z-0.125000
G01 X92.989910 Y206.921116 Z-0.125000
G01 X95.280207 Y206.615192 Z-0.125000
G01 X97.549315 Y206.171809 Z-0.125000
G01 X106.576141 Y204.052044 Z-0.125000
G01 X118.005920 Y202.130716 Z-0.125000
G01 X122.556026 Y201.269272 Z-0.125000
G01 X127.076675 Y200.256415 Z-0.125000
G01 X133.825092 Y198.584167 Z-0.125000
G01 X137.242449 Y197.891704 Z-0.125000
G01 X139.557034 Y197.660194 Z-0.125000
G01 X151.133056 Y197.152215 Z-0.125000
G01 X153.417669 Y196.841640 Z-0.125000
G01 X157.977591 Y195.982779 Z-0.125000
G01 X167.245232 Y195.652050 Z-0.125000
G01 X171.821690 Y194.937883 Z-0.125000
G01 X172.990094 Y194.884656 Z-0.125000
G01 X178.775778 Y195.063975 Z-0.125000
G01 X182.204506 Y194.587001 Z-0.125000
G01 X182.240680 Y194.849001 Z-0.125000
G01 X178.790248 Y195.329590 Z-0.125000
G01 X172.992160 Y195.149239 Z-0.125000
G01 X171.848561 Y195.201434 Z-0.125000
G01 X167.270553 Y195.916117 Z-0.125000
G01 X158.006531 Y196.246845 Z-0.125000
G01 X153.459526 Y197.102606 Z-0.125000
G01 X151.156310 Y197.416282 Z-0.125000
G01 X139.576153 Y197.924260 Z-0.125000
G01 X137.281723 Y198.153703 Z-0.125000
G01 X133.882969 Y198.842033 Z-0.125000
G01 X127.137653 Y200.513763 Z-0.125000
G01 X122.609768 Y201.528170 Z-0.125000
G01 X118.052947 Y202.391165 Z-0.125000
G01 X106.628335 Y204.311976 Z-0.125000
G01 X97.605124 Y206.430707 Z-0.125000
G01 X95.323095 Y206.876674 Z-0.125000
G01 X93.020398 Y207.184149 Z-0.125000
G01 X83.796167 Y208.110189 Z-0.125000
G01 X74.592089 Y209.202627 Z-0.125000
G01 X72.305409 Y209.545759 Z-0.125000
G01 X68.892701 Y210.212900 Z-0.125000
G01 X57.372490 Y211.491374 Z-0.125000
G01 X52.785695 Y212.190555 Z-0.125000
G01 X43.527357 Y212.637556 Z-0.125000
G01 X40.084677 Y213.130031 Z-0.125000
G01 X37.755107 Y213.135715 Z-0.125000
G01 X33.127488 Y212.945029 Z-0.125000
G01 X31.979756 Y212.997739 Z-0.125000
G01 X28.528292 Y213.421484 Z-0.125000
G00 Z10.000000

(End cutting path id: SvgjsPolyline3844)


(Start cutting path id: SvgjsPolyline3838)
(Change tool to Default tool)

G00 Z10.000000
G00 X27.474610 Y212.323878

G00 Z4.875000 (Fast pre-penetrate)
G01 Z-0.125000 F100.0(Penetrate)
G01 X25.153308 Y212.187969 Z-0.125000 F800.000000
G01 X25.168294 Y211.923903 Z-0.125000
G01 X27.466342 Y212.058262 Z-0.125000
G01 X30.909539 Y211.641233 Z-0.125000
G01 X32.076908 Y211.587490 Z-0.125000
G01 X36.712278 Y211.783343 Z-0.125000
G01 X39.014977 Y211.765256 Z-0.125000
G01 X42.455073 Y211.273297 Z-0.125000
G01 X48.249543 Y211.050572 Z-0.125000
G01 X51.709792 Y210.831464 Z-0.125000
G01 X55.135935 Y210.263541 Z-0.125000
G01 X66.655115 Y209.017107 Z-0.125000
G01 X72.359154 Y208.014586 Z-0.125000
G01 X80.423249 Y207.077176 Z-0.125000
G01 X90.792630 Y206.019361 Z-0.125000
G01 X93.062255 Y205.592514 Z-0.125000
G01 X98.694981 Y204.232392 Z-0.125000
G01 X102.118023 Y203.596256 Z-0.125000
G01 X105.573620 Y203.156490 Z-0.125000
G01 X114.796820 Y202.238201 Z-0.125000
G01 X118.240531 Y201.786550 Z-0.125000
G01 X121.667191 Y201.223794 Z-0.125000
G01 X127.331955 Y200.034204 Z-0.125000
G01 X135.213118 Y198.104609 Z-0.125000
G01 X138.647014 Y197.498962 Z-0.125000
G01 X151.384204 Y196.930005 Z-0.125000
G01 X153.668817 Y196.616846 Z-0.125000
G01 X158.228738 Y195.760569 Z-0.125000
G01 X167.496377 Y195.443276 Z-0.125000
G01 X172.073872 Y194.728592 Z-0.125000
G01 X173.244858 Y194.688802 Z-0.125000
G01 X179.026925 Y194.868636 Z-0.125000
G01 X182.455135 Y194.383393 Z-0.125000
G01 X182.492343 Y194.645394 Z-0.125000
G01 X179.041395 Y195.133735 Z-0.125000
G01 X173.245374 Y194.953385 Z-0.125000
G01 X172.098676 Y194.992659 Z-0.125000
G01 X167.521700 Y195.706825 Z-0.125000
G01 X158.258194 Y196.024635 Z-0.125000
G01 X153.711190 Y196.877812 Z-0.125000
G01 X151.407974 Y197.194071 Z-0.125000
G01 X138.675951 Y197.762511 Z-0.125000
G01 X135.267895 Y198.363507 Z-0.125000
G01 X127.390867 Y200.292069 Z-0.125000
G01 X121.715768 Y201.483726 Z-0.125000
G01 X118.278772 Y202.048032 Z-0.125000
G01 X114.827308 Y202.501234 Z-0.125000
G01 X105.603592 Y203.419006 Z-0.125000
G01 X102.158846 Y203.857739 Z-0.125000
G01 X98.750273 Y204.491291 Z-0.125000
G01 X93.117550 Y205.851413 Z-0.125000
G01 X90.830870 Y206.281360 Z-0.125000
G01 X80.451671 Y207.340209 Z-0.125000
G01 X72.397394 Y208.276585 Z-0.125000
G01 X66.692323 Y209.279106 Z-0.125000
G01 X55.172109 Y210.525540 Z-0.125000
G01 X51.739767 Y211.095014 Z-0.125000
G01 X48.262980 Y211.315155 Z-0.125000
G01 X42.479361 Y211.536847 Z-0.125000
G01 X39.035130 Y212.029323 Z-0.125000
G01 X36.707627 Y212.047925 Z-0.125000
G01 X32.077424 Y211.852589 Z-0.125000
G01 X30.931759 Y211.904782 Z-0.125000
G01 X27.474610 Y212.323878 Z-0.125000
G00 Z10.000000

(End cutting path id: SvgjsPolyline3838)


(Start cutting path id: SvgjsPolyline3833)
(Change tool to Default tool)

G00 Z10.000000
G00 X25.253560 Y211.208185

G00 Z4.875000 (Fast pre-penetrate)
G01 Z-0.125000 F100.0(Penetrate)
G01 X25.221521 Y210.945670 Z-0.125000 F800.000000
G01 X28.674019 Y210.527091 Z-0.125000
G01 X29.843455 Y210.476448 Z-0.125000
G01 X35.632242 Y210.701240 Z-0.125000
G01 X36.776356 Y210.640779 Z-0.125000
G01 X40.219553 Y210.153987 Z-0.125000
G01 X48.322924 Y209.820675 Z-0.125000
G01 X52.901450 Y209.141131 Z-0.125000
G01 X63.274448 Y208.059544 Z-0.125000
G01 X68.977968 Y207.067358 Z-0.125000
G01 X77.045165 Y206.164572 Z-0.125000
G01 X85.116497 Y205.402862 Z-0.125000
G01 X87.393874 Y205.020457 Z-0.125000
G01 X93.032283 Y203.687207 Z-0.125000
G01 X96.473928 Y203.132720 Z-0.125000
G01 X101.101033 Y202.758583 Z-0.125000
G01 X110.360919 Y202.348789 Z-0.125000
G01 X116.128519 Y201.846495 Z-0.125000
G01 X119.567063 Y201.381924 Z-0.125000
G01 X124.122852 Y200.557169 Z-0.125000
G01 X127.510755 Y199.801144 Z-0.125000
G01 X135.389852 Y197.861213 Z-0.125000
G01 X138.814961 Y197.219393 Z-0.125000
G01 X139.978197 Y197.107255 Z-0.125000
G01 X151.556802 Y196.662838 Z-0.125000
G01 X153.844000 Y196.365183 Z-0.125000
G01 X158.403405 Y195.506837 Z-0.125000
G01 X167.668462 Y195.202463 Z-0.125000
G01 X172.248536 Y194.488298 Z-0.125000
G01 X173.416940 Y194.445406 Z-0.125000
G01 X179.199007 Y194.635575 Z-0.125000
G01 X182.629802 Y194.147750 Z-0.125000
G01 X182.667010 Y194.409749 Z-0.125000
G01 X179.213477 Y194.900674 Z-0.125000
G01 X173.417456 Y194.709989 Z-0.125000
G01 X172.273860 Y194.751846 Z-0.125000
G01 X167.693266 Y195.466530 Z-0.125000
G01 X158.432343 Y195.770387 Z-0.125000
G01 X153.885341 Y196.626665 Z-0.125000
G01 X151.579024 Y196.926905 Z-0.125000
G01 X139.996281 Y197.371321 Z-0.125000
G01 X138.852169 Y197.481392 Z-0.125000
G01 X135.445663 Y198.120112 Z-0.125000
G01 X127.571218 Y200.059009 Z-0.125000
G01 X124.175562 Y200.816585 Z-0.125000
G01 X119.608404 Y201.642890 Z-0.125000
G01 X116.157459 Y202.109527 Z-0.125000
G01 X110.378490 Y202.612855 Z-0.125000
G01 X101.117569 Y203.023166 Z-0.125000
G01 X96.505451 Y203.395235 Z-0.125000
G01 X93.083959 Y203.946622 Z-0.125000
G01 X87.446068 Y205.280389 Z-0.125000
G01 X85.151120 Y205.665378 Z-0.125000
G01 X77.072554 Y206.427605 Z-0.125000
G01 X69.015692 Y207.329357 Z-0.125000
G01 X63.310621 Y208.321544 Z-0.125000
G01 X52.935039 Y209.403647 Z-0.125000
G01 X48.348245 Y210.084224 Z-0.125000
G01 X40.243324 Y210.418054 Z-0.125000
G01 X36.802195 Y210.904328 Z-0.125000
G01 X35.633792 Y210.965823 Z-0.125000
G01 X29.843972 Y210.741031 Z-0.125000
G01 X28.695723 Y210.791157 Z-0.125000
G01 X25.253560 Y211.208185 Z-0.125000
G00 Z10.000000

(End cutting path id: SvgjsPolyline3833)


(Start cutting path id: SvgjsPolyline3839)
(Change tool to Default tool)

G00 Z10.000000
G00 X25.327457 Y210.226851

G00 Z4.875000 (Fast pre-penetrate)
G01 Z-0.125000 F100.0(Penetrate)
G01 X25.301103 Y209.963818 Z-0.125000 F800.000000
G01 X29.916319 Y209.494597 Z-0.125000
G01 X35.709756 Y209.722490 Z-0.125000
G01 X36.853871 Y209.677531 Z-0.125000
G01 X40.296551 Y209.190740 Z-0.125000
G01 X46.093089 Y208.989719 Z-0.125000
G01 X49.550754 Y208.752008 Z-0.125000
G01 X52.979999 Y208.191319 Z-0.125000
G01 X63.352994 Y207.130920 Z-0.125000
G01 X67.908267 Y206.289629 Z-0.125000
G01 X69.063751 Y206.151136 Z-0.125000
G01 X77.133014 Y205.280906 Z-0.125000
G01 X84.053513 Y204.656655 Z-0.125000
G01 X86.330374 Y204.287686 Z-0.125000
G01 X91.972919 Y202.964255 Z-0.125000
G01 X95.426449 Y202.475913 Z-0.125000
G01 X98.906335 Y202.290395 Z-0.125000
G01 X110.492694 Y202.176707 Z-0.125000
G01 X113.958629 Y201.996873 Z-0.125000
G01 X117.416294 Y201.674412 Z-0.125000
G01 X120.852773 Y201.204157 Z-0.125000
G01 X124.269097 Y200.588692 Z-0.125000
G01 X127.662168 Y199.851270 Z-0.125000
G01 X135.546948 Y197.924775 Z-0.125000
G01 X138.983426 Y197.327396 Z-0.125000
G01 X151.721650 Y196.776526 Z-0.125000
G01 X152.860082 Y196.642685 Z-0.125000
G01 X157.409669 Y195.759535 Z-0.125000
G01 X158.568770 Y195.607090 Z-0.125000
G01 X167.832792 Y195.297549 Z-0.125000
G01 X172.414419 Y194.590615 Z-0.125000
G01 X178.211472 Y194.773550 Z-0.125000
G01 X179.358688 Y194.736860 Z-0.125000
G01 X182.791034 Y194.237666 Z-0.125000
G01 X182.828755 Y194.499664 Z-0.125000
G01 X179.381943 Y195.000927 Z-0.125000
G01 X178.211472 Y195.038133 Z-0.125000
G01 X172.430437 Y194.855716 Z-0.125000
G01 X167.857596 Y195.561616 Z-0.125000
G01 X158.590473 Y195.871156 Z-0.125000
G01 X157.452560 Y196.020501 Z-0.125000
G01 X152.900904 Y196.904684 Z-0.125000
G01 X151.742838 Y197.040593 Z-0.125000
G01 X139.011847 Y197.590946 Z-0.125000
G01 X135.601208 Y198.183674 Z-0.125000
G01 X127.721596 Y200.109135 Z-0.125000
G01 X124.320773 Y200.848624 Z-0.125000
G01 X120.894630 Y201.465640 Z-0.125000
G01 X117.446782 Y201.937445 Z-0.125000
G01 X113.977747 Y202.260939 Z-0.125000
G01 X110.500963 Y202.440773 Z-0.125000
G01 X98.914603 Y202.554978 Z-0.125000
G01 X95.452289 Y202.739462 Z-0.125000
G01 X92.021494 Y203.224703 Z-0.125000
G01 X86.382053 Y204.547102 Z-0.125000
G01 X84.086586 Y204.919172 Z-0.125000
G01 X77.159369 Y205.543939 Z-0.125000
G01 X69.093723 Y206.414169 Z-0.125000
G01 X67.948058 Y206.551111 Z-0.125000
G01 X63.390719 Y207.392919 Z-0.125000
G01 X53.015139 Y208.453835 Z-0.125000
G01 X49.581243 Y209.015040 Z-0.125000
G01 X46.106525 Y209.253785 Z-0.125000
G01 X40.319805 Y209.454806 Z-0.125000
G01 X36.877642 Y209.941598 Z-0.125000
G01 X35.709756 Y209.987073 Z-0.125000
G01 X29.924587 Y209.759697 Z-0.125000
G01 X25.327457 Y210.226851 Z-0.125000
G00 Z10.000000

(End cutting path id: SvgjsPolyline3839)


(Start cutting path id: SvgjsPolyline3845)
(Change tool to Default tool)

G00 Z10.000000
G00 X25.322290 Y209.242416

G00 Z4.875000 (Fast pre-penetrate)
G01 Z-0.125000 F100.0(Penetrate)
G01 X25.290250 Y208.979900 Z-0.125000 F800.000000
G01 X28.751017 Y208.557705 Z-0.125000
G01 X34.547038 Y208.780430 Z-0.125000
G01 X35.694253 Y208.759242 Z-0.125000
G01 X39.134866 Y208.278135 Z-0.125000
G01 X46.087404 Y208.023887 Z-0.125000
G01 X48.388553 Y207.849738 Z-0.125000
G01 X51.816247 Y207.292150 Z-0.125000
G01 X62.194412 Y206.255006 Z-0.125000
G01 X66.750716 Y205.418882 Z-0.125000
G01 X82.892864 Y203.813297 Z-0.125000
G01 X89.675386 Y202.299696 Z-0.125000
G01 X93.138738 Y201.883185 Z-0.125000
G01 X96.620690 Y201.801020 Z-0.125000
G01 X111.684868 Y201.842877 Z-0.125000
G01 X115.153385 Y201.713686 Z-0.125000
G01 X117.457636 Y201.523517 Z-0.125000
G01 X120.901866 Y201.095637 Z-0.125000
G01 X124.319739 Y200.503943 Z-0.125000
G01 X128.844523 Y199.512790 Z-0.125000
G01 X135.599658 Y197.850878 Z-0.125000
G01 X139.033551 Y197.242647 Z-0.125000
G01 X151.771775 Y196.697461 Z-0.125000
G01 X152.912789 Y196.563620 Z-0.125000
G01 X157.460310 Y195.682538 Z-0.125000
G01 X158.621480 Y195.528024 Z-0.125000
G01 X167.882917 Y195.223651 Z-0.125000
G01 X172.467127 Y194.516719 Z-0.125000
G01 X178.264183 Y194.701721 Z-0.125000
G01 X179.408814 Y194.662446 Z-0.125000
G01 X182.841159 Y194.166353 Z-0.125000
G01 X182.879399 Y194.428351 Z-0.125000
G01 X179.432586 Y194.926514 Z-0.125000
G01 X178.264699 Y194.966820 Z-0.125000
G01 X172.483147 Y194.781818 Z-0.125000
G01 X167.907721 Y195.487718 Z-0.125000
G01 X158.643184 Y195.791575 Z-0.125000
G01 X157.502685 Y195.944020 Z-0.125000
G01 X152.953615 Y196.825102 Z-0.125000
G01 X151.792963 Y196.961011 Z-0.125000
G01 X139.062491 Y197.506197 Z-0.125000
G01 X135.654435 Y198.109777 Z-0.125000
G01 X128.904467 Y199.770655 Z-0.125000
G01 X124.370382 Y200.763875 Z-0.125000
G01 X120.940622 Y201.357636 Z-0.125000
G01 X117.485023 Y201.787067 Z-0.125000
G01 X115.169405 Y201.977753 Z-0.125000
G01 X111.689520 Y202.107460 Z-0.125000
G01 X96.623275 Y202.065603 Z-0.125000
G01 X93.157341 Y202.147251 Z-0.125000
G01 X89.720344 Y202.561179 Z-0.125000
G01 X82.935237 Y204.074780 Z-0.125000
G01 X66.787406 Y205.680881 Z-0.125000
G01 X62.231618 Y206.517005 Z-0.125000
G01 X51.850870 Y207.554149 Z-0.125000
G01 X48.420076 Y208.112771 Z-0.125000
G01 X46.101874 Y208.287954 Z-0.125000
G01 X39.158120 Y208.542202 Z-0.125000
G01 X35.714924 Y209.023825 Z-0.125000
G01 X34.544454 Y209.045013 Z-0.125000
G01 X28.761869 Y208.823321 Z-0.125000
G01 X25.322290 Y209.242416 Z-0.125000
G00 Z10.000000

(End cutting path id: SvgjsPolyline3845)


(Start cutting path id: SvgjsPolyline3852)
(Change tool to Default tool)

G00 Z10.000000
G00 X25.244775 Y208.260565

G00 Z4.875000 (Fast pre-penetrate)
G01 Z-0.125000 F100.0(Penetrate)
G01 X25.209118 Y207.998566 Z-0.125000 F800.000000
G01 X27.512851 Y207.682824 Z-0.125000
G01 X28.680737 Y207.650784 Z-0.125000
G01 X34.463839 Y207.885912 Z-0.125000
G01 X39.057868 Y207.333491 Z-0.125000
G01 X43.697372 Y207.214119 Z-0.125000
G01 X47.157105 Y207.016198 Z-0.125000
G01 X50.585832 Y206.456027 Z-0.125000
G01 X60.964514 Y205.450404 Z-0.125000
G01 X65.522887 Y204.619965 Z-0.125000
G01 X72.444934 Y203.907348 Z-0.125000
G01 X80.519886 Y203.204033 Z-0.125000
G01 X82.788994 Y202.777186 Z-0.125000
G01 X87.305508 Y201.723505 Z-0.125000
G01 X89.612341 Y201.404145 Z-0.125000
G01 X93.096362 Y201.274437 Z-0.125000
G01 X110.478740 Y201.480626 Z-0.125000
G01 X115.109977 Y201.464605 Z-0.125000
G01 X117.418361 Y201.337999 Z-0.125000
G01 X120.867243 Y200.968512 Z-0.125000
G01 X123.152888 Y200.617113 Z-0.125000
G01 X126.563527 Y199.953589 Z-0.125000
G01 X126.614171 Y200.213521 Z-0.125000
G01 X123.198362 Y200.878079 Z-0.125000
G01 X120.901347 Y201.231028 Z-0.125000
G01 X117.439549 Y201.602065 Z-0.125000
G01 X115.117730 Y201.729188 Z-0.125000
G01 X110.477709 Y201.745209 Z-0.125000
G01 X93.099463 Y201.539020 Z-0.125000
G01 X89.635595 Y201.668211 Z-0.125000
G01 X87.354083 Y201.983954 Z-0.125000
G01 X82.843255 Y203.036085 Z-0.125000
G01 X80.556057 Y203.466549 Z-0.125000
G01 X72.470257 Y204.170898 Z-0.125000
G01 X65.560093 Y204.881965 Z-0.125000
G01 X61.001203 Y205.712921 Z-0.125000
G01 X50.619939 Y206.718543 Z-0.125000
G01 X47.186044 Y207.279748 Z-0.125000
G01 X43.708224 Y207.478702 Z-0.125000
G01 X39.076988 Y207.597558 Z-0.125000
G01 X34.474174 Y208.151012 Z-0.125000
G01 X28.678670 Y207.915367 Z-0.125000
G01 X27.534555 Y207.946890 Z-0.125000
G01 X25.244775 Y208.260565 Z-0.125000
G00 Z10.000000

(End cutting path id: SvgjsPolyline3852)


(Start cutting path id: SvgjsPolyline3840)
(Change tool to Default tool)

G00 Z10.000000
G00 X30.670794 Y205.552724

G00 Z4.875000 (Fast pre-penetrate)
G01 Z-0.125000 F100.0(Penetrate)
G01 X24.876839 Y205.282456 Z-0.125000 F800.000000
G01 X24.889242 Y205.018390 Z-0.125000
G01 X30.668210 Y205.287624 Z-0.125000
G01 X31.812325 Y205.209076 Z-0.125000
G01 X35.257588 Y204.748640 Z-0.125000
G01 X41.056710 Y204.631851 Z-0.125000
G01 X43.357342 Y204.478889 Z-0.125000
G01 X46.787619 Y203.931636 Z-0.125000
G01 X56.025802 Y203.145639 Z-0.125000
G01 X60.587277 Y202.333286 Z-0.125000
G01 X74.443261 Y201.198473 Z-0.125000
G01 X80.092521 Y199.951006 Z-0.125000
G01 X81.246970 Y199.764454 Z-0.125000
G01 X83.565688 Y199.567567 Z-0.125000
G01 X90.524430 Y199.708127 Z-0.125000
G01 X111.368091 Y200.525647 Z-0.125000
G01 X117.157395 Y200.607295 Z-0.125000
G01 X120.623845 Y200.472937 Z-0.125000
G01 X122.920343 Y200.238326 Z-0.125000
G01 X126.344936 Y199.689006 Z-0.125000
G01 X129.739557 Y198.959853 Z-0.125000
G01 X136.493657 Y197.305692 Z-0.125000
G01 X139.930654 Y196.700045 Z-0.125000
G01 X152.664743 Y196.197234 Z-0.125000
G01 X158.362064 Y195.158024 Z-0.125000
G01 X160.682333 Y195.003510 Z-0.125000
G01 X167.630219 Y194.866051 Z-0.125000
G01 X172.204094 Y194.162736 Z-0.125000
G01 X173.373014 Y194.085222 Z-0.125000
G01 X179.157666 Y194.307429 Z-0.125000
G01 X182.588461 Y193.843377 Z-0.125000
G01 X182.624119 Y194.105375 Z-0.125000
G01 X179.170586 Y194.572528 Z-0.125000
G01 X173.376631 Y194.350321 Z-0.125000
G01 X172.233034 Y194.426285 Z-0.125000
G01 X167.652957 Y195.130634 Z-0.125000
G01 X160.693702 Y195.268093 Z-0.125000
G01 X158.394618 Y195.421056 Z-0.125000
G01 X152.693683 Y196.460784 Z-0.125000
G01 X139.959076 Y196.963595 Z-0.125000
G01 X136.548434 Y197.564591 Z-0.125000
G01 X129.798469 Y199.217718 Z-0.125000
G01 X126.393514 Y199.948939 Z-0.125000
G01 X122.954451 Y200.500842 Z-0.125000
G01 X120.642450 Y200.737003 Z-0.125000
G01 X117.160496 Y200.871878 Z-0.125000
G01 X111.360857 Y200.790230 Z-0.125000
G01 X90.516678 Y199.972193 Z-0.125000
G01 X83.574475 Y199.832150 Z-0.125000
G01 X81.279011 Y200.026970 Z-0.125000
G01 X80.142130 Y200.210938 Z-0.125000
G01 X74.483051 Y201.460989 Z-0.125000
G01 X60.621381 Y202.596319 Z-0.125000
G01 X56.060425 Y203.408671 Z-0.125000
G01 X46.819658 Y204.194152 Z-0.125000
G01 X43.386797 Y204.742438 Z-0.125000
G01 X41.068079 Y204.896434 Z-0.125000
G01 X35.278259 Y205.012706 Z-0.125000
G01 X31.839196 Y205.472625 Z-0.125000
G01 X30.670794 Y205.552724 Z-0.125000
G00 Z10.000000

(End cutting path id: SvgjsPolyline3840)


(Start cutting path id: SvgjsPolyline3847)
(Change tool to Default tool)

G00 Z10.000000
G00 X30.553488 Y204.560537

G00 Z4.875000 (Fast pre-penetrate)
G01 Z-0.125000 F100.0(Penetrate)
G01 X25.924836 Y204.295954 Z-0.125000 F800.000000
G01 X24.770386 Y204.303707 Z-0.125000
G01 X24.768320 Y204.039124 Z-0.125000
G01 X25.931555 Y204.031371 Z-0.125000
G01 X30.558140 Y204.295954 Z-0.125000
G01 X31.701221 Y204.269599 Z-0.125000
G01 X35.143384 Y203.793143 Z-0.125000
G01 X43.248306 Y203.565767 Z-0.125000
G01 X46.676516 Y203.013347 Z-0.125000
G01 X55.920900 Y202.267140 Z-0.125000
G01 X57.061914 Y202.125030 Z-0.125000
G01 X60.478755 Y201.468740 Z-0.125000
G01 X61.637340 Y201.343683 Z-0.125000
G01 X74.337840 Y200.375785 Z-0.125000
G01 X79.994852 Y199.132968 Z-0.125000
G01 X82.307887 Y198.855983 Z-0.125000
G01 X84.635908 Y198.839963 Z-0.125000
G01 X89.269727 Y199.017729 Z-0.125000
G01 X111.258538 Y200.165978 Z-0.125000
G01 X118.204876 Y200.342711 Z-0.125000
G01 X120.514292 Y200.303437 Z-0.125000
G01 X123.962657 Y199.973742 Z-0.125000
G01 X127.380014 Y199.390316 Z-0.125000
G01 X136.398574 Y197.247298 Z-0.125000
G01 X139.823683 Y196.610645 Z-0.125000
G01 X140.990018 Y196.506776 Z-0.125000
G01 X152.568109 Y196.117653 Z-0.125000
G01 X153.706023 Y195.973476 Z-0.125000
G01 X158.257678 Y195.092394 Z-0.125000
G01 X159.419878 Y194.959068 Z-0.125000
G01 X167.530484 Y194.792153 Z-0.125000
G01 X168.674083 Y194.679499 Z-0.125000
G01 X172.101775 Y194.097107 Z-0.125000
G01 X173.271729 Y194.006156 Z-0.125000
G01 X179.061033 Y194.236116 Z-0.125000
G01 X180.201531 Y194.149817 Z-0.125000
G01 X182.485110 Y193.788082 Z-0.125000
G01 X182.526451 Y194.049564 Z-0.125000
G01 X180.232535 Y194.412849 Z-0.125000
G01 X179.065684 Y194.501215 Z-0.125000
G01 X173.276896 Y194.270739 Z-0.125000
G01 X172.134332 Y194.359623 Z-0.125000
G01 X168.709223 Y194.941499 Z-0.125000
G01 X167.545986 Y195.056220 Z-0.125000
G01 X159.437449 Y195.223135 Z-0.125000
G01 X158.297985 Y195.353876 Z-0.125000
G01 X153.747880 Y196.234958 Z-0.125000
G01 X152.589297 Y196.381719 Z-0.125000
G01 X141.006039 Y196.770842 Z-0.125000
G01 X139.859857 Y196.873161 Z-0.125000
G01 X136.453351 Y197.506197 Z-0.125000
G01 X127.432724 Y199.649732 Z-0.125000
G01 X123.997278 Y200.236259 Z-0.125000
G01 X120.529278 Y200.567505 Z-0.125000
G01 X118.203326 Y200.607295 Z-0.125000
G01 X111.248203 Y200.430045 Z-0.125000
G01 X89.257842 Y199.281797 Z-0.125000
G01 X84.631773 Y199.104547 Z-0.125000
G01 X82.324424 Y199.120567 Z-0.125000
G01 X80.038778 Y199.393935 Z-0.125000
G01 X74.376599 Y200.638302 Z-0.125000
G01 X61.661629 Y201.607234 Z-0.125000
G01 X60.518030 Y201.730741 Z-0.125000
G01 X57.103256 Y202.386513 Z-0.125000
G01 X55.947771 Y202.530173 Z-0.125000
G01 X46.708554 Y203.276380 Z-0.125000
G01 X43.273110 Y203.829834 Z-0.125000
G01 X35.165087 Y204.057210 Z-0.125000
G01 X31.722408 Y204.533666 Z-0.125000
G01 X30.553488 Y204.560537 Z-0.125000
G00 Z10.000000

(End cutting path id: SvgjsPolyline3847)


(Start cutting path id: SvgjsPolyline3854)
(Change tool to Default tool)

G00 Z10.000000
G00 X30.497678 Y203.613826

G00 Z4.875000 (Fast pre-penetrate)
G01 Z-0.125000 F100.0(Penetrate)
G01 X24.699073 Y203.321855 Z-0.125000 F800.000000
G01 X24.712509 Y203.057789 Z-0.125000
G01 X30.486826 Y203.348210 Z-0.125000
G01 X33.921237 Y202.888807 Z-0.125000
G01 X35.084989 Y202.814393 Z-0.125000
G01 X42.029776 Y202.684685 Z-0.125000
G01 X45.460053 Y202.145701 Z-0.125000
G01 X55.850622 Y201.293558 Z-0.125000
G01 X59.261261 Y200.637784 Z-0.125000
G01 X60.420362 Y200.507560 Z-0.125000
G01 X71.980366 Y199.734998 Z-0.125000
G01 X74.258775 Y199.384633 Z-0.125000
G01 X78.784076 Y198.359890 Z-0.125000
G01 X81.104344 Y198.141299 Z-0.125000
G01 X83.431849 Y198.178506 Z-0.125000
G01 X89.221669 Y198.475128 Z-0.125000
G01 X104.252772 Y199.483334 Z-0.125000
G01 X111.192908 Y199.864189 Z-0.125000
G01 X119.297313 Y200.110169 Z-0.125000
G01 X121.604146 Y200.051774 Z-0.125000
G01 X123.905296 Y199.840935 Z-0.125000
G01 X127.328854 Y199.297300 Z-0.125000
G01 X130.720890 Y198.562978 Z-0.125000
G01 X137.480676 Y196.919153 Z-0.125000
G01 X139.770457 Y196.510393 Z-0.125000
G01 X140.930590 Y196.390504 Z-0.125000
G01 X152.513333 Y196.011716 Z-0.125000
G01 X153.653831 Y195.880975 Z-0.125000
G01 X158.203934 Y194.999893 Z-0.125000
G01 X159.363551 Y194.853131 Z-0.125000
G01 X167.475708 Y194.683634 Z-0.125000
G01 X168.619307 Y194.583897 Z-0.125000
G01 X172.048033 Y194.004606 Z-0.125000
G01 X173.215402 Y193.897635 Z-0.125000
G01 X179.003671 Y194.130180 Z-0.125000
G01 X180.146752 Y194.054215 Z-0.125000
G01 X182.432399 Y193.698166 Z-0.125000
G01 X182.473222 Y193.959648 Z-0.125000
G01 X180.176208 Y194.317764 Z-0.125000
G01 X179.006772 Y194.395278 Z-0.125000
G01 X173.222120 Y194.162736 Z-0.125000
G01 X172.082140 Y194.267122 Z-0.125000
G01 X168.652896 Y194.846414 Z-0.125000
G01 X167.489659 Y194.947699 Z-0.125000
G01 X159.382672 Y195.117198 Z-0.125000
G01 X158.245791 Y195.261375 Z-0.125000
G01 X153.694137 Y196.142457 Z-0.125000
G01 X152.532970 Y196.275782 Z-0.125000
G01 X140.948677 Y196.654570 Z-0.125000
G01 X139.807147 Y196.772392 Z-0.125000
G01 X137.535453 Y197.178568 Z-0.125000
G01 X130.780318 Y198.820843 Z-0.125000
G01 X127.377948 Y199.557748 Z-0.125000
G01 X123.938369 Y200.103968 Z-0.125000
G01 X121.619651 Y200.316357 Z-0.125000
G01 X119.296281 Y200.374752 Z-0.125000
G01 X111.181539 Y200.128256 Z-0.125000
G01 X104.236754 Y199.747401 Z-0.125000
G01 X89.205648 Y198.739195 Z-0.125000
G01 X83.423062 Y198.443089 Z-0.125000
G01 X81.114679 Y198.406399 Z-0.125000
G01 X78.825933 Y198.621889 Z-0.125000
G01 X74.307868 Y199.645081 Z-0.125000
G01 X72.009304 Y199.998031 Z-0.125000
G01 X60.444132 Y200.771109 Z-0.125000
G01 X59.301567 Y200.899784 Z-0.125000
G01 X55.886277 Y201.556073 Z-0.125000
G01 X45.491059 Y202.408217 Z-0.125000
G01 X42.052514 Y202.948752 Z-0.125000
G01 X35.095841 Y203.078459 Z-0.125000
G01 X33.947592 Y203.152356 Z-0.125000
G01 X30.497678 Y203.613826 Z-0.125000
G00 Z10.000000

(End cutting path id: SvgjsPolyline3854)


(Start cutting path id: SvgjsPolyline3857)
(Change tool to Default tool)

G00 Z10.000000
G00 X29.179931 Y201.896621

G00 Z4.875000 (Fast pre-penetrate)
G01 Z-0.125000 F100.0(Penetrate)
G01 X24.542493 Y201.641856 Z-0.125000 F800.000000
G01 X24.556963 Y201.377790 Z-0.125000
G01 X29.169079 Y201.631004 Z-0.125000
G01 X32.609174 Y201.168501 Z-0.125000
G01 X40.714613 Y201.009854 Z-0.125000
G01 X44.142823 Y200.462602 Z-0.125000
G01 X53.391860 Y199.840935 Z-0.125000
G01 X57.955917 Y199.039435 Z-0.125000
G01 X63.745736 Y198.660130 Z-0.125000
G01 X69.528838 Y198.390896 Z-0.125000
G01 X71.806215 Y198.048282 Z-0.125000
G01 X76.335648 Y197.042143 Z-0.125000
G01 X78.662635 Y196.871611 Z-0.125000
G01 X80.987039 Y196.958944 Z-0.125000
G01 X86.771691 Y197.364087 Z-0.125000
G01 X102.932442 Y198.785187 Z-0.125000
G01 X108.708826 Y199.218751 Z-0.125000
G01 X116.807029 Y199.636813 Z-0.125000
G01 X120.276580 Y199.731898 Z-0.125000
G01 X122.586514 Y199.694691 Z-0.125000
G01 X124.884046 Y199.486435 Z-0.125000
G01 X128.306570 Y198.935048 Z-0.125000
G01 X137.328232 Y196.802881 Z-0.125000
G01 X140.764710 Y196.208086 Z-0.125000
G01 X152.349000 Y195.837567 Z-0.125000
G01 X154.637749 Y195.552829 Z-0.125000
G01 X159.197670 Y194.697070 Z-0.125000
G01 X168.465309 Y194.440236 Z-0.125000
G01 X173.043836 Y193.736406 Z-0.125000
G01 X174.215856 Y193.720399 Z-0.125000
G01 X178.844508 Y193.955526 Z-0.125000
G01 X179.987589 Y193.911084 Z-0.125000
G01 X182.271684 Y193.571055 Z-0.125000
G01 X182.310958 Y193.832537 Z-0.125000
G01 X180.012394 Y194.175151 Z-0.125000
G01 X178.842958 Y194.220627 Z-0.125000
G01 X174.211205 Y193.984982 Z-0.125000
G01 X173.065539 Y194.000486 Z-0.125000
G01 X168.489598 Y194.704317 Z-0.125000
G01 X159.226092 Y194.961147 Z-0.125000
G01 X154.678571 Y195.814325 Z-0.125000
G01 X152.369156 Y196.101646 Z-0.125000
G01 X140.791581 Y196.471649 Z-0.125000
G01 X137.380942 Y197.062310 Z-0.125000
G01 X128.358249 Y199.194993 Z-0.125000
G01 X124.917119 Y199.749481 Z-0.125000
G01 X122.600468 Y199.959287 Z-0.125000
G01 X120.275032 Y199.996494 Z-0.125000
G01 X116.796694 Y199.900893 Z-0.125000
G01 X108.691773 Y199.482831 Z-0.125000
G01 X102.911254 Y199.048749 Z-0.125000
G01 X86.750503 Y197.627649 Z-0.125000
G01 X80.972569 Y197.223540 Z-0.125000
G01 X78.667286 Y197.136207 Z-0.125000
G01 X76.374407 Y197.304672 Z-0.125000
G01 X71.854792 Y198.308744 Z-0.125000
G01 X69.554677 Y198.654459 Z-0.125000
G01 X63.760206 Y198.924726 Z-0.125000
G01 X57.987439 Y199.302480 Z-0.125000
G01 X53.423382 Y200.103981 Z-0.125000
G01 X44.172795 Y200.725634 Z-0.125000
G01 X40.737867 Y201.273921 Z-0.125000
G01 X32.629328 Y201.433084 Z-0.125000
G01 X29.179931 Y201.896621 Z-0.125000
G00 Z10.000000

(End cutting path id: SvgjsPolyline3857)


(Start cutting path id: SvgjsPolyline3850)
(Change tool to Default tool)

G00 Z10.000000
G00 X28.101445 Y200.869811

G00 Z4.875000 (Fast pre-penetrate)
G01 Z-0.125000 F100.0(Penetrate)
G01 X24.621041 Y200.660005 Z-0.125000 F800.000000
G01 X24.637061 Y200.395939 Z-0.125000
G01 X28.094210 Y200.604195 Z-0.125000
G01 X32.690823 Y200.078129 Z-0.125000
G01 X39.641294 Y200.036272 Z-0.125000
G01 X43.068988 Y199.494187 Z-0.125000
G01 X52.320608 Y198.920062 Z-0.125000
G01 X56.885697 Y198.123729 Z-0.125000
G01 X68.458621 Y197.552189 Z-0.125000
G01 X70.732897 Y197.172884 Z-0.125000
G01 X74.120284 Y196.378618 Z-0.125000
G01 X76.436936 Y196.112485 Z-0.125000
G01 X77.605337 Y196.101632 Z-0.125000
G01 X84.547540 Y196.612711 Z-0.125000
G01 X100.690720 Y198.234832 Z-0.125000
G01 X107.614838 Y198.850815 Z-0.125000
G01 X115.706840 Y199.358793 Z-0.125000
G01 X122.645942 Y199.522607 Z-0.125000
G01 X124.946575 Y199.351559 Z-0.125000
G01 X128.371684 Y198.829111 Z-0.125000
G01 X131.763204 Y198.092205 Z-0.125000
G01 X137.393343 Y196.707796 Z-0.125000
G01 X140.828273 Y196.099565 Z-0.125000
G01 X152.412564 Y195.734213 Z-0.125000
G01 X154.701826 Y195.457746 Z-0.125000
G01 X159.261231 Y194.596301 Z-0.125000
G01 X168.528872 Y194.347738 Z-0.125000
G01 X173.109981 Y193.643905 Z-0.125000
G01 X174.279417 Y193.627898 Z-0.125000
G01 X178.908069 Y193.865610 Z-0.125000
G01 X180.051152 Y193.821168 Z-0.125000
G01 X182.337830 Y193.481136 Z-0.125000
G01 X182.377104 Y193.742621 Z-0.125000
G01 X180.075957 Y194.085235 Z-0.125000
G01 X178.906519 Y194.130709 Z-0.125000
G01 X174.274768 Y193.892481 Z-0.125000
G01 X173.131685 Y193.907985 Z-0.125000
G01 X168.552642 Y194.611816 Z-0.125000
G01 X159.289655 Y194.860381 Z-0.125000
G01 X154.742135 Y195.719240 Z-0.125000
G01 X152.432717 Y195.998292 Z-0.125000
G01 X140.855660 Y196.363127 Z-0.125000
G01 X137.448122 Y196.966707 Z-0.125000
G01 X131.823148 Y198.350084 Z-0.125000
G01 X128.419743 Y199.089573 Z-0.125000
G01 X124.976547 Y199.614605 Z-0.125000
G01 X122.652659 Y199.787204 Z-0.125000
G01 X115.695470 Y199.623390 Z-0.125000
G01 X107.594682 Y199.114894 Z-0.125000
G01 X100.665399 Y198.498395 Z-0.125000
G01 X84.524286 Y196.876274 Z-0.125000
G01 X77.597069 Y196.366228 Z-0.125000
G01 X76.452954 Y196.376563 Z-0.125000
G01 X74.165758 Y196.639596 Z-0.125000
G01 X70.785091 Y197.432828 Z-0.125000
G01 X68.487042 Y197.815750 Z-0.125000
G01 X56.914637 Y198.387279 Z-0.125000
G01 X52.351615 Y199.183095 Z-0.125000
G01 X43.097926 Y199.757736 Z-0.125000
G01 X39.662998 Y200.300338 Z-0.125000
G01 X32.706843 Y200.342712 Z-0.125000
G01 X28.101445 Y200.869811 Z-0.125000
G00 Z10.000000

(End cutting path id: SvgjsPolyline3850)


(Start cutting path id: SvgjsPolyline3843)
(Change tool to Default tool)

G00 Z10.000000
G00 X27.019342 Y199.835250

G00 Z4.875000 (Fast pre-penetrate)
G01 Z-0.125000 F100.0(Penetrate)
G01 X24.699590 Y199.678671 Z-0.125000 F800.000000
G01 X24.717159 Y199.414605 Z-0.125000
G01 X27.022442 Y199.570151 Z-0.125000
G01 X28.168107 Y199.517958 Z-0.125000
G01 X31.613371 Y199.057004 Z-0.125000
G01 X38.564876 Y199.067858 Z-0.125000
G01 X41.993603 Y198.536625 Z-0.125000
G01 X43.153737 Y198.432755 Z-0.125000
G01 X51.249873 Y198.012626 Z-0.125000
G01 X55.814448 Y197.224045 Z-0.125000
G01 X67.392021 Y196.728985 Z-0.125000
G01 X68.528383 Y196.566721 Z-0.125000
G01 X73.053165 Y195.547146 Z-0.125000
G01 X75.375503 Y195.331659 Z-0.125000
G01 X77.702489 Y195.432423 Z-0.125000
G01 X82.323908 Y195.845836 Z-0.125000
G01 X99.599315 Y197.787834 Z-0.125000
G01 X107.669096 Y198.586751 Z-0.125000
G01 X115.755414 Y199.146923 Z-0.125000
G01 X122.697620 Y199.363962 Z-0.125000
G01 X124.998251 Y199.224436 Z-0.125000
G01 X128.428011 Y198.728343 Z-0.125000
G01 X131.821598 Y198.004873 Z-0.125000
G01 X137.448638 Y196.620464 Z-0.125000
G01 X140.880465 Y195.999314 Z-0.125000
G01 X142.044217 Y195.908880 Z-0.125000
G01 X152.468891 Y195.638612 Z-0.125000
G01 X154.757121 Y195.370412 Z-0.125000
G01 X159.316526 Y194.506382 Z-0.125000
G01 X168.582099 Y194.262987 Z-0.125000
G01 X173.162692 Y193.559157 Z-0.125000
G01 X174.335228 Y193.543123 Z-0.125000
G01 X178.963880 Y193.783936 Z-0.125000
G01 X180.106961 Y193.739494 Z-0.125000
G01 X182.391058 Y193.398946 Z-0.125000
G01 X182.429814 Y193.660944 Z-0.125000
G01 X180.131250 Y194.003042 Z-0.125000
G01 X178.961814 Y194.048519 Z-0.125000
G01 X174.330061 Y193.807719 Z-0.125000
G01 X173.184911 Y193.823224 Z-0.125000
G01 X168.605869 Y194.527057 Z-0.125000
G01 X159.344948 Y194.770452 Z-0.125000
G01 X154.797427 Y195.631897 Z-0.125000
G01 X152.487493 Y195.903198 Z-0.125000
G01 X142.057653 Y196.172949 Z-0.125000
G01 X140.914572 Y196.262349 Z-0.125000
G01 X137.503931 Y196.879365 Z-0.125000
G01 X131.881026 Y198.262741 Z-0.125000
G01 X128.474520 Y198.988794 Z-0.125000
G01 X125.025122 Y199.487985 Z-0.125000
G01 X122.701237 Y199.628545 Z-0.125000
G01 X115.741979 Y199.411504 Z-0.125000
G01 X107.646877 Y198.850299 Z-0.125000
G01 X99.571412 Y198.050865 Z-0.125000
G01 X82.297553 Y196.108868 Z-0.125000
G01 X77.684918 Y195.696490 Z-0.125000
G01 X75.381702 Y195.596755 Z-0.125000
G01 X73.095025 Y195.809145 Z-0.125000
G01 X68.576442 Y196.827169 Z-0.125000
G01 X67.416309 Y196.993050 Z-0.125000
G01 X55.842869 Y197.487593 Z-0.125000
G01 X51.279329 Y198.276175 Z-0.125000
G01 X43.172340 Y198.696820 Z-0.125000
G01 X42.025642 Y198.799656 Z-0.125000
G01 X38.585029 Y199.332439 Z-0.125000
G01 X31.630424 Y199.321586 Z-0.125000
G01 X28.191362 Y199.781506 Z-0.125000
G01 X27.019342 Y199.835250 Z-0.125000
G00 Z10.000000

(End cutting path id: SvgjsPolyline3843)


(Start cutting path id: SvgjsPolyline3846)
(Change tool to Default tool)

G00 Z10.000000
G00 X31.931180 Y206.351640

G00 Z4.875000 (Fast pre-penetrate)
G01 Z-0.125000 F100.0(Penetrate)
G01 X27.301495 Y206.108245 Z-0.125000 F800.000000
G01 X26.156346 Y206.126331 Z-0.125000
G01 X25.011715 Y206.258106 Z-0.125000
G01 X24.981742 Y205.995073 Z-0.125000
G01 X26.139293 Y205.862265 Z-0.125000
G01 X27.306145 Y205.843662 Z-0.125000
G01 X31.936865 Y206.087058 Z-0.125000
G01 X33.083563 Y206.076723 Z-0.125000
G01 X36.524176 Y205.603368 Z-0.125000
G01 X44.630131 Y205.338785 Z-0.125000
G01 X49.209174 Y204.672160 Z-0.125000
G01 X58.441157 Y203.846888 Z-0.125000
G01 X63.002112 Y203.024200 Z-0.125000
G01 X69.930364 Y202.375145 Z-0.125000
G01 X76.856546 Y201.841328 Z-0.125000
G01 X79.127724 Y201.435669 Z-0.125000
G01 X83.650956 Y200.400075 Z-0.125000
G01 X85.966573 Y200.133941 Z-0.125000
G01 X88.290461 Y200.094150 Z-0.125000
G01 X91.770346 Y200.168564 Z-0.125000
G01 X112.618661 Y200.816586 Z-0.125000
G01 X117.249380 Y200.861544 Z-0.125000
G01 X119.556729 Y200.758708 Z-0.125000
G01 X123.003544 Y200.380954 Z-0.125000
G01 X126.419350 Y199.787193 Z-0.125000
G01 X136.569106 Y197.384758 Z-0.125000
G01 X140.008169 Y196.816318 Z-0.125000
G01 X151.592459 Y196.390505 Z-0.125000
G01 X153.884306 Y196.129540 Z-0.125000
G01 X158.436994 Y195.256208 Z-0.125000
G01 X159.601262 Y195.154404 Z-0.125000
G01 X167.706183 Y194.961653 Z-0.125000
G01 X172.284710 Y194.252655 Z-0.125000
G01 X173.453114 Y194.193740 Z-0.125000
G01 X179.236732 Y194.402515 Z-0.125000
G01 X182.667010 Y193.922958 Z-0.125000
G01 X182.703700 Y194.184956 Z-0.125000
G01 X179.250167 Y194.668130 Z-0.125000
G01 X173.455180 Y194.458842 Z-0.125000
G01 X172.311581 Y194.516201 Z-0.125000
G01 X167.729956 Y195.225717 Z-0.125000
G01 X159.615733 Y195.418987 Z-0.125000
G01 X158.473168 Y195.518724 Z-0.125000
G01 X153.924097 Y196.391021 Z-0.125000
G01 X151.612097 Y196.654570 Z-0.125000
G01 X140.035040 Y197.080383 Z-0.125000
G01 X136.621300 Y197.644173 Z-0.125000
G01 X126.472576 Y200.046607 Z-0.125000
G01 X123.040750 Y200.643469 Z-0.125000
G01 X119.576882 Y201.022773 Z-0.125000
G01 X117.254031 Y201.126126 Z-0.125000
G01 X112.613491 Y201.081168 Z-0.125000
G01 X91.763629 Y200.432629 Z-0.125000
G01 X88.289942 Y200.358732 Z-0.125000
G01 X85.984144 Y200.398523 Z-0.125000
G01 X83.695913 Y200.661556 Z-0.125000
G01 X79.180434 Y201.695083 Z-0.125000
G01 X76.890138 Y202.104360 Z-0.125000
G01 X69.952583 Y202.639210 Z-0.125000
G01 X63.037770 Y203.286715 Z-0.125000
G01 X58.476296 Y204.109403 Z-0.125000
G01 X49.240180 Y204.935191 Z-0.125000
G01 X44.653902 Y205.602333 Z-0.125000
G01 X36.546397 Y205.866916 Z-0.125000
G01 X33.102683 Y206.340788 Z-0.125000
G01 X31.931180 Y206.351640 Z-0.125000
G00 Z10.000000

(End cutting path id: SvgjsPolyline3846)


(Start cutting path id: SvgjsPolyline3853)
(Change tool to Default tool)

G00 Z10.000000
G00 X33.231358 Y207.235306

G00 Z4.875000 (Fast pre-penetrate)
G01 Z-0.125000 F100.0(Penetrate)
G01 X27.445672 Y206.984159 Z-0.125000 F800.000000
G01 X25.153825 Y207.231689 Z-0.125000
G01 X25.125403 Y206.968656 Z-0.125000
G01 X27.437403 Y206.719059 Z-0.125000
G01 X33.229807 Y206.970723 Z-0.125000
G01 X34.374439 Y206.910262 Z-0.125000
G01 X37.817635 Y206.433806 Z-0.125000
G01 X45.923074 Y206.161471 Z-0.125000
G01 X49.350767 Y205.603883 Z-0.125000
G01 X59.731515 Y204.627717 Z-0.125000
G01 X64.292989 Y203.801929 Z-0.125000
G01 X71.218139 Y203.121351 Z-0.125000
G01 X78.146388 Y202.571514 Z-0.125000
G01 X80.422217 Y202.205129 Z-0.125000
G01 X84.933045 Y201.144730 Z-0.125000
G01 X86.084913 Y200.947326 Z-0.125000
G01 X88.403115 Y200.724084 Z-0.125000
G01 X93.043652 Y200.726677 Z-0.125000
G01 X112.742166 Y201.144739 Z-0.125000
G01 X116.213786 Y201.152491 Z-0.125000
G01 X118.519069 Y201.039320 Z-0.125000
G01 X121.969498 Y200.669317 Z-0.125000
G01 X125.388924 Y200.094159 Z-0.125000
G01 X128.784577 Y199.364489 Z-0.125000
G01 X136.668841 Y197.450913 Z-0.125000
G01 X138.960688 Y197.047320 Z-0.125000
G01 X140.120823 Y196.924847 Z-0.125000
G01 X151.699946 Y196.496450 Z-0.125000
G01 X153.989208 Y196.203962 Z-0.125000
G01 X158.549132 Y195.342517 Z-0.125000
G01 X167.814189 Y195.048997 Z-0.125000
G01 X172.391681 Y194.337412 Z-0.125000
G01 X173.562667 Y194.297105 Z-0.125000
G01 X179.344734 Y194.489856 Z-0.125000
G01 X182.772947 Y193.999449 Z-0.125000
G01 X182.810153 Y194.261447 Z-0.125000
G01 X179.359204 Y194.755474 Z-0.125000
G01 X173.562667 Y194.561688 Z-0.125000
G01 X172.416486 Y194.600963 Z-0.125000
G01 X167.838993 Y195.313061 Z-0.125000
G01 X158.578070 Y195.606584 Z-0.125000
G01 X154.030549 Y196.465444 Z-0.125000
G01 X151.721650 Y196.760000 Z-0.125000
G01 X140.139426 Y197.188914 Z-0.125000
G01 X138.997377 Y197.309836 Z-0.125000
G01 X136.723101 Y197.710328 Z-0.125000
G01 X128.843489 Y199.622354 Z-0.125000
G01 X125.439049 Y200.353574 Z-0.125000
G01 X122.005672 Y200.931833 Z-0.125000
G01 X118.539738 Y201.302869 Z-0.125000
G01 X116.219985 Y201.417074 Z-0.125000
G01 X112.739065 Y201.409322 Z-0.125000
G01 X93.040551 Y200.991260 Z-0.125000
G01 X88.415516 Y200.988667 Z-0.125000
G01 X86.119536 Y201.209842 Z-0.125000
G01 X84.985756 Y201.404145 Z-0.125000
G01 X80.473893 Y202.465061 Z-0.125000
G01 X78.177911 Y202.834547 Z-0.125000
G01 X71.241910 Y203.384900 Z-0.125000
G01 X64.329679 Y204.064444 Z-0.125000
G01 X59.767688 Y204.890233 Z-0.125000
G01 X49.384357 Y205.866399 Z-0.125000
G01 X45.948912 Y206.425538 Z-0.125000
G01 X37.840373 Y206.697872 Z-0.125000
G01 X34.399244 Y207.173811 Z-0.125000
G01 X33.231358 Y207.235306 Z-0.125000
G00 Z10.000000

(End cutting path id: SvgjsPolyline3853)


(Start cutting path id: SvgjsPolyline3855)
(Change tool to Default tool)

G00 Z10.000000
G00 X74.788460 Y186.904791

G00 Z4.875000 (Fast pre-penetrate)
G01 Z-0.125000 F100.0(Penetrate)
G01 X73.617989 Y186.856732 Z-0.125000 F800.000000
G01 X71.310122 Y186.534787 Z-0.125000
G01 X63.450147 Y184.536979 Z-0.125000
G01 X61.172770 Y184.235188 Z-0.125000
G01 X60.029689 Y184.237834 Z-0.125000
G01 X58.893324 Y184.363408 Z-0.125000
G01 X55.506973 Y185.129767 Z-0.125000
G01 X54.350455 Y185.314253 Z-0.125000
G01 X53.179987 Y185.378332 Z-0.125000
G01 X52.010549 Y185.314253 Z-0.125000
G01 X46.282224 Y184.446090 Z-0.125000
G01 X45.140176 Y184.386146 Z-0.125000
G01 X43.999162 Y184.459525 Z-0.125000
G01 X40.581804 Y185.083775 Z-0.125000
G01 X39.410818 Y185.172143 Z-0.125000
G01 X38.241381 Y185.118398 Z-0.125000
G01 X33.642702 Y184.547375 Z-0.125000
G01 X32.504271 Y184.539623 Z-0.125000
G01 X29.071927 Y185.054837 Z-0.125000
G01 X27.901457 Y185.124600 Z-0.125000
G01 X26.731504 Y185.049670 Z-0.125000
G01 X24.434490 Y184.701886 Z-0.125000
G01 X24.474281 Y184.440404 Z-0.125000
G01 X26.759926 Y184.786119 Z-0.125000
G01 X27.901974 Y184.859501 Z-0.125000
G01 X29.044539 Y184.791289 Z-0.125000
G01 X32.485668 Y184.275040 Z-0.125000
G01 X33.659755 Y184.282792 Z-0.125000
G01 X38.263602 Y184.854849 Z-0.125000
G01 X39.406684 Y184.907044 Z-0.125000
G01 X40.547698 Y184.820742 Z-0.125000
G01 X43.967123 Y184.196493 Z-0.125000
G01 X45.138626 Y184.121044 Z-0.125000
G01 X46.309096 Y184.182539 Z-0.125000
G01 X52.037422 Y185.050702 Z-0.125000
G01 X53.179987 Y185.113231 Z-0.125000
G01 X54.322549 Y185.050702 Z-0.125000
G01 X55.456846 Y184.869835 Z-0.125000
G01 X58.849400 Y184.101926 Z-0.125000
G01 X60.014703 Y183.973251 Z-0.125000
G01 X61.189822 Y183.970605 Z-0.125000
G01 X63.500272 Y184.277048 Z-0.125000
G01 X71.361282 Y186.274856 Z-0.125000
G01 X73.641759 Y186.592665 Z-0.125000
G01 X74.788975 Y186.640208 Z-0.125000
G01 X75.931540 Y186.595766 Z-0.125000
G01 X78.200649 Y186.225246 Z-0.125000
G01 X82.631898 Y184.882178 Z-0.125000
G01 X84.905140 Y184.379883 Z-0.125000
G01 X86.068892 Y184.240874 Z-0.125000
G01 X88.396913 Y184.174210 Z-0.125000
G01 X91.872150 Y184.458430 Z-0.125000
G01 X101.037469 Y185.874364 Z-0.125000
G01 X104.482215 Y186.296560 Z-0.125000
G01 X107.941432 Y186.547707 Z-0.125000
G01 X111.410467 Y186.590080 Z-0.125000
G01 X113.718850 Y186.492412 Z-0.125000
G01 X116.022582 Y186.288807 Z-0.125000
G01 X118.312879 Y185.985468 Z-0.125000
G01 X121.723518 Y185.349331 Z-0.125000
G01 X126.205927 Y184.210902 Z-0.125000
G01 X133.943429 Y181.774876 Z-0.125000
G01 X136.181016 Y181.145459 Z-0.125000
G01 X138.466145 Y180.701558 Z-0.125000
G01 X139.632480 Y180.599757 Z-0.125000
G01 X140.804500 Y180.607509 Z-0.125000
G01 X141.970838 Y180.736181 Z-0.125000
G01 X146.473398 Y181.837405 Z-0.125000
G01 X147.607694 Y181.997086 Z-0.125000
G01 X148.747158 Y182.033776 Z-0.125000
G01 X151.029186 Y181.768158 Z-0.125000
G01 X154.409337 Y180.965109 Z-0.125000
G01 X156.702735 Y180.560482 Z-0.125000
G01 X157.875271 Y180.512423 Z-0.125000
G01 X159.047292 Y180.600789 Z-0.125000
G01 X162.454314 Y181.286535 Z-0.125000
G01 X163.594296 Y181.406425 Z-0.125000
G01 X164.735310 Y181.390921 Z-0.125000
G01 X165.874774 Y181.251912 Z-0.125000
G01 X169.289548 Y180.593039 Z-0.125000
G01 X170.457434 Y180.482967 Z-0.125000
G01 X171.633587 Y180.515524 Z-0.125000
G01 X175.061281 Y181.081896 Z-0.125000
G01 X176.204880 Y181.141842 Z-0.125000
G01 X177.344344 Y181.060711 Z-0.125000
G01 X180.778237 Y180.507772 Z-0.125000
G01 X181.945090 Y180.464880 Z-0.125000
G01 X181.954906 Y180.729463 Z-0.125000
G01 X180.804074 Y180.771323 Z-0.125000
G01 X177.374829 Y181.323743 Z-0.125000
G01 X176.206944 Y181.406941 Z-0.125000
G01 X175.032857 Y181.345447 Z-0.125000
G01 X171.608264 Y180.779591 Z-0.125000
G01 X170.466215 Y180.748069 Z-0.125000
G01 X169.327270 Y180.855037 Z-0.125000
G01 X165.915597 Y181.513912 Z-0.125000
G01 X164.753395 Y181.655504 Z-0.125000
G01 X163.581890 Y181.671538 Z-0.125000
G01 X162.414521 Y181.548030 Z-0.125000
G01 X159.011115 Y180.863319 Z-0.125000
G01 X157.870620 Y180.777019 Z-0.125000
G01 X156.731153 Y180.824044 Z-0.125000
G01 X154.463079 Y181.224019 Z-0.125000
G01 X151.075176 Y182.029137 Z-0.125000
G01 X148.758524 Y182.298372 Z-0.125000
G01 X147.585472 Y182.261166 Z-0.125000
G01 X146.423270 Y182.097868 Z-0.125000
G01 X141.924843 Y180.997676 Z-0.125000
G01 X140.788996 Y180.872105 Z-0.125000
G01 X139.643330 Y180.864353 Z-0.125000
G01 X138.502832 Y180.963572 Z-0.125000
G01 X136.241991 Y181.403338 Z-0.125000
G01 X134.018875 Y182.028105 Z-0.125000
G01 X126.278272 Y184.465680 Z-0.125000
G01 X121.780361 Y185.607726 Z-0.125000
G01 X118.354733 Y186.246963 Z-0.125000
G01 X116.051517 Y186.551853 Z-0.125000
G01 X113.735900 Y186.756492 Z-0.125000
G01 X111.414081 Y186.854676 Z-0.125000
G01 X107.930060 Y186.812303 Z-0.125000
G01 X104.456892 Y186.560121 Z-0.125000
G01 X101.001293 Y186.136376 Z-0.125000
G01 X91.841141 Y184.720960 Z-0.125000
G01 X88.390193 Y184.438806 Z-0.125000
G01 X86.088011 Y184.504952 Z-0.125000
G01 X84.949579 Y184.640863 Z-0.125000
G01 X82.698557 Y185.138506 Z-0.125000
G01 X78.260590 Y186.483641 Z-0.125000
G01 X75.957893 Y186.859328 Z-0.125000
G01 X74.788460 Y186.904791 Z-0.125000
G00 Z10.000000

(End cutting path id: SvgjsPolyline3855)


(Start cutting path id: SvgjsPolyline3848)
(Change tool to Default tool)

G00 Z10.000000
G00 X76.945946 Y187.965705

G00 Z4.875000 (Fast pre-penetrate)
G01 Z-0.125000 F100.0(Penetrate)
G01 X75.777545 Y187.952264 Z-0.125000 F800.000000
G01 X74.611207 Y187.859248 Z-0.125000
G01 X72.313677 Y187.484077 Z-0.125000
G01 X65.585413 Y185.718811 Z-0.125000
G01 X63.325607 Y185.263027 Z-0.125000
G01 X62.184593 Y185.147788 Z-0.125000
G01 X61.038928 Y185.140035 Z-0.125000
G01 X59.903081 Y185.249591 Z-0.125000
G01 X56.515696 Y186.010783 Z-0.125000
G01 X55.365895 Y186.210771 Z-0.125000
G01 X54.196459 Y186.299137 Z-0.125000
G01 X53.025989 Y186.258830 Z-0.125000
G01 X47.279061 Y185.488335 Z-0.125000
G01 X46.137014 Y185.399451 Z-0.125000
G01 X44.994966 Y185.441311 Z-0.125000
G01 X41.581225 Y186.054191 Z-0.125000
G01 X40.414889 Y186.177182 Z-0.125000
G01 X39.244420 Y186.163742 Z-0.125000
G01 X34.633338 Y185.658346 Z-0.125000
G01 X33.489740 Y185.611319 Z-0.125000
G01 X32.347175 Y185.700203 Z-0.125000
G01 X30.065147 Y186.091394 Z-0.125000
G01 X28.898811 Y186.203532 Z-0.125000
G01 X27.726791 Y186.174076 Z-0.125000
G01 X25.425126 Y185.844898 Z-0.125000
G01 X25.462849 Y185.582897 Z-0.125000
G01 X27.749012 Y185.910009 Z-0.125000
G01 X28.889509 Y185.938949 Z-0.125000
G01 X30.030007 Y185.828877 Z-0.125000
G01 X32.314619 Y185.437170 Z-0.125000
G01 X33.484572 Y185.346220 Z-0.125000
G01 X34.653491 Y185.394279 Z-0.125000
G01 X39.260440 Y185.899159 Z-0.125000
G01 X40.402487 Y185.912599 Z-0.125000
G01 X41.543501 Y185.792193 Z-0.125000
G01 X44.966544 Y185.177244 Z-0.125000
G01 X46.142181 Y185.134352 Z-0.125000
G01 X47.306967 Y185.225303 Z-0.125000
G01 X53.048212 Y185.994763 Z-0.125000
G01 X54.190776 Y186.034038 Z-0.125000
G01 X55.333341 Y185.947739 Z-0.125000
G01 X56.464018 Y185.750852 Z-0.125000
G01 X59.861224 Y184.988109 Z-0.125000
G01 X61.027043 Y184.875452 Z-0.125000
G01 X62.199063 Y184.883205 Z-0.125000
G01 X63.365398 Y185.001026 Z-0.125000
G01 X65.645360 Y185.460948 Z-0.125000
G01 X72.368972 Y187.225177 Z-0.125000
G01 X74.643248 Y187.596215 Z-0.125000
G01 X75.789430 Y187.688197 Z-0.125000
G01 X76.933545 Y187.701109 Z-0.125000
G01 X79.220741 Y187.454097 Z-0.125000
G01 X81.452644 Y186.890824 Z-0.125000
G01 X85.898876 Y185.564292 Z-0.125000
G01 X87.048677 Y185.342084 Z-0.125000
G01 X89.365845 Y185.107989 Z-0.125000
G01 X91.692316 Y185.111085 Z-0.125000
G01 X94.012068 Y185.272832 Z-0.125000
G01 X102.072547 Y186.214891 Z-0.125000
G01 X105.528662 Y186.521333 Z-0.125000
G01 X108.996147 Y186.669127 Z-0.125000
G01 X111.306597 Y186.656215 Z-0.125000
G01 X115.919747 Y186.336340 Z-0.125000
G01 X119.351058 Y185.840246 Z-0.125000
G01 X121.619651 Y185.391696 Z-0.125000
G01 X126.105674 Y184.255849 Z-0.125000
G01 X136.076114 Y181.185755 Z-0.125000
G01 X138.362275 Y180.733070 Z-0.125000
G01 X139.528612 Y180.623516 Z-0.125000
G01 X140.697532 Y180.623516 Z-0.125000
G01 X141.866968 Y180.744439 Z-0.125000
G01 X146.370562 Y181.843080 Z-0.125000
G01 X147.503308 Y182.010511 Z-0.125000
G01 X148.642256 Y182.057019 Z-0.125000
G01 X150.926867 Y181.805356 Z-0.125000
G01 X155.440798 Y180.760459 Z-0.125000
G01 X156.597833 Y180.589412 Z-0.125000
G01 X157.768303 Y180.530500 Z-0.125000
G01 X158.940840 Y180.611115 Z-0.125000
G01 X162.351997 Y181.291692 Z-0.125000
G01 X163.489392 Y181.422433 Z-0.125000
G01 X164.632991 Y181.417273 Z-0.125000
G01 X165.771939 Y181.286532 Z-0.125000
G01 X169.185678 Y180.627660 Z-0.125000
G01 X170.350463 Y180.509836 Z-0.125000
G01 X171.526619 Y180.528436 Z-0.125000
G01 X174.958962 Y181.089640 Z-0.125000
G01 X176.100494 Y181.163020 Z-0.125000
G01 X177.241509 Y181.092741 Z-0.125000
G01 X180.671785 Y180.539286 Z-0.125000
G01 X181.846388 Y180.482959 Z-0.125000
G01 X183.008074 Y180.573910 Z-0.125000
G01 X182.987410 Y180.837461 Z-0.125000
G01 X181.842263 Y180.748061 Z-0.125000
G01 X180.699182 Y180.802837 Z-0.125000
G01 X177.270970 Y181.355774 Z-0.125000
G01 X176.099984 Y181.428121 Z-0.125000
G01 X174.928998 Y181.353189 Z-0.125000
G01 X171.502854 Y180.792500 Z-0.125000
G01 X170.361840 Y180.774403 Z-0.125000
G01 X169.224443 Y180.889642 Z-0.125000
G01 X165.812253 Y181.547998 Z-0.125000
G01 X164.649019 Y181.681840 Z-0.125000
G01 X163.474932 Y181.687000 Z-0.125000
G01 X162.310664 Y181.553158 Z-0.125000
G01 X158.905706 Y180.874132 Z-0.125000
G01 X157.765726 Y180.795583 Z-0.125000
G01 X156.624196 Y180.853460 Z-0.125000
G01 X155.489899 Y181.020894 Z-0.125000
G01 X150.971316 Y182.066306 Z-0.125000
G01 X148.651566 Y182.322621 Z-0.125000
G01 X147.478511 Y182.274043 Z-0.125000
G01 X146.319929 Y182.102996 Z-0.125000
G01 X141.822018 Y181.005389 Z-0.125000
G01 X140.684102 Y180.888083 Z-0.125000
G01 X139.541021 Y180.888083 Z-0.125000
G01 X138.400007 Y180.995570 Z-0.125000
G01 X136.140717 Y181.442573 Z-0.125000
