%
(Header)
(Generated by gcodetools from Inkscape.)
(Using default header. To add your own header create file "header" in the output dir.)
M3
(Header end.)
G21 (All units in mm)

(Start cutting path id: path19098)
(Change tool to Default tool)

G00 Z10.000000
G00 X44.296586 Y238.880012

G00 Z4.875000 (Fast pre-penetrate)
G01 Z-0.125000 F100.0(Penetrate)
G03 X59.495321 Y243.164354 Z-0.125000 I-4.877095 J46.402517 F800.000000
G02 X84.577295 Y254.780614 Z-0.125000 I536.854891 J-1126.297023
G02 X108.877173 Y263.954572 Z-0.125000 I86.452469 J-192.224733
G02 X118.502317 Y261.639874 Z-0.125000 I2.861238 J-9.271529
G02 X124.333835 Y252.048886 Z-0.125000 I-15.620227 J-16.065757
G02 X124.626681 Y244.486310 Z-0.125000 I-14.393252 J-4.344307
G02 X121.438579 Y236.512960 Z-0.125000 I-25.588564 J5.607403
G02 X115.772130 Y227.840906 Z-0.125000 I-131.243053 J79.568870
G03 X106.528920 Y211.424147 Z-0.125000 I77.410831 J-54.395509
G03 X108.429592 Y192.361195 Z-0.125000 I17.893112 J-7.842196
G03 X127.027324 Y182.766697 Z-0.125000 I18.453211 J12.947303
G03 X155.208999 Y185.349480 Z-0.125000 I-1.068777 J166.703448
G02 X183.836561 Y189.701282 Z-0.125000 I99.578193 J-558.720929
G02 X194.935071 Y183.500660 Z-0.125000 I1.340007 J-10.634455
G02 X202.069334 Y159.769747 Z-0.125000 I-84.162740 J-38.239830
G02 X201.411513 Y148.401025 Z-0.125000 I-26.309308 J-4.181075
G02 X195.507744 Y138.622692 Z-0.125000 I-20.618968 J5.777516
G02 X186.217956 Y132.160266 Z-0.125000 I-26.048394 J27.536487
G02 X161.931021 Y123.475203 Z-0.125000 I-49.892649 J101.219392
G03 X146.265562 Y111.362136 Z-0.125000 I5.397406 J-23.166664
G03 X145.848137 Y91.865120 Z-0.125000 I19.374939 J-10.167787
G03 X154.227336 Y75.241619 Z-0.125000 I318.739140 J150.239270
G02 X157.998199 Y66.687105 Z-0.125000 I-52.751192 J-28.361296
G02 X158.707243 Y59.184289 Z-0.125000 I-14.789315 J-5.182556
G02 X155.853520 Y52.923767 Z-0.125000 I-12.350340 J1.848970
G02 X144.946655 Y44.200362 Z-0.125000 I-28.206693 J24.086677
G02 X118.720648 Y36.981935 Z-0.125000 I-29.511710 J55.970605
G02 X94.963172 Y41.530174 Z-0.125000 I-2.630225 J50.583207
G02 X79.960610 Y55.740295 Z-0.125000 I13.376988 J29.147626
G02 X76.046594 Y84.832352 Z-0.125000 I37.797348 J19.894540
G02 X88.221252 Y102.410459 Z-0.125000 I27.547484 J-6.074323
G03 X103.838435 Y116.477601 Z-0.125000 I-36.654155 J56.395613
G03 X106.559191 Y123.004080 Z-0.125000 I-9.748791 J7.894426
G03 X103.591387 Y130.215320 Z-0.125000 I-8.088783 J0.887364
G03 X90.073681 Y135.491114 Z-0.125000 I-15.034494 J-18.566056
G03 X75.577034 Y136.217804 Z-0.125000 I-34.267463 J-538.638248
G02 X62.713186 Y138.734581 Z-0.125000 I1.539651 J42.003000
G02 X50.730789 Y149.194709 Z-0.125000 I7.577636 J20.773579
G02 X51.759295 Y160.526394 Z-0.125000 I9.243030 J4.873586
G02 X60.530331 Y168.855607 Z-0.125000 I32.910911 J-25.873917
G03 X70.201885 Y176.689476 Z-0.125000 I-54.238086 J76.848464
G03 X70.984577 Y184.236623 Z-0.125000 I-3.907266 J4.219370
G03 X69.951189 Y185.100841 Z-0.125000 I-2.159519 J-1.532298
G02 X35.741862 Y204.291321 Z-0.125000 I116.031887 J246.927076
G02 X24.221862 Y212.824929 Z-0.125000 I72.611101 J110.064373
G02 X19.692600 Y218.386865 Z-0.125000 I11.784246 J14.221417
G02 X19.004478 Y221.314579 Z-0.125000 I5.222557 J2.772220
G02 X19.985948 Y223.593629 Z-0.125000 I3.340887 J-0.087890
G02 X22.338794 Y225.055076 Z-0.125000 I4.325802 J-4.339594
G02 X28.843646 Y226.484271 Z-0.125000 I9.631566 J-28.319486
G00 Z10.000000

(End cutting path id: path19098)


(Start cutting path id: path19066)
(Change tool to Default tool)

G00 Z10.000000
G00 X31.864522 Y225.336400

G00 Z4.875000 (Fast pre-penetrate)
G01 Z-0.125000 F100.0(Penetrate)
G03 X45.816596 Y232.003911 Z-0.125000 I-12.440477 J43.963707 F800.000000
G02 X68.083537 Y247.393745 Z-0.125000 I705.770691 J-997.348152
G02 X90.002863 Y260.296495 Z-0.125000 I115.462695 J-171.079466
G02 X99.676555 Y259.667198 Z-0.125000 I4.306337 J-8.469754
G02 X106.902341 Y251.384257 Z-0.125000 I-12.395098 J-18.106357
G02 X108.445437 Y244.135482 Z-0.125000 I-13.164822 J-6.591117
G02 X106.698024 Y235.910129 Z-0.125000 I-25.626585 J1.145883
G02 X102.675562 Y226.597470 Z-0.125000 I-139.906748 J54.905552
G03 X96.492537 Y209.215311 Z-0.125000 I83.764889 J-39.586853
G03 X101.503978 Y191.137117 Z-0.125000 I18.573263 J-4.585027
G03 X121.049243 Y184.978631 Z-0.125000 I15.648595 J15.569374
G03 X147.812951 Y192.168168 Z-0.125000 I-28.817053 J160.684070
G02 X174.712069 Y201.139059 Z-0.125000 I189.215285 J-522.546133
G02 X186.455197 Y197.005577 Z-0.125000 I3.065579 J-10.038480
G02 X197.294891 Y175.295306 Z-0.125000 I-74.839992 J-50.927968
G02 X198.555031 Y164.215295 Z-0.125000 I-24.690548 J-8.419744
G02 X194.487956 Y153.795565 Z-0.125000 I-20.859469 J2.138354
G02 X186.600819 Y146.011180 Z-0.125000 I-29.725383 J22.229938
G02 X164.612493 Y133.582351 Z-0.125000 I-65.015433 J89.356725
G03 X151.514924 Y119.282641 Z-0.125000 I9.069643 J-21.455281
G03 X154.361841 Y100.399218 Z-0.125000 I20.390789 J-6.582144
G03 X165.218202 Y85.754821 Z-0.125000 I282.529329 J198.101769
G02 X170.282782 Y78.128571 Z-0.125000 I-46.175621 J-36.159970
G02 X172.217532 Y71.006832 Z-0.125000 I-13.407286 J-7.466008
G02 X170.507291 Y64.490025 Z-0.125000 I-12.225769 J-0.274341
G02 X161.436592 Y54.254356 Z-0.125000 I-31.233048 J18.541271
G02 X137.332682 Y42.917569 Z-0.125000 I-37.806682 J49.090476
G02 X113.649569 Y43.346602 Z-0.125000 I-10.969151 J48.372387
G02 X96.804182 Y54.558215 Z-0.125000 I8.050008 J30.355949
G02 X88.178315 Y81.978523 Z-0.125000 I33.156979 J25.497420
G02 X96.996501 Y100.969942 Z-0.125000 I27.594679 J-1.269931
G03 X109.721787 Y117.147213 Z-0.125000 I-44.769685 J48.310098
G03 X111.259390 Y123.898495 Z-0.125000 I-10.723062 J5.992910
G03 X107.193625 Y130.362389 Z-0.125000 I-7.953247 J-0.491941
G03 X93.270218 Y133.200223 Z-0.125000 I-11.413146 J-20.421413
G03 X79.160402 Y131.485183 Z-0.125000 I56.712061 J-525.475083
G02 X66.327805 Y131.769657 Z-0.125000 I-5.515262 J40.787877
G02 X53.021798 Y139.866068 Z-0.125000 I3.849624 J21.308698
G02 X52.125525 Y150.972124 Z-0.125000 I8.106838 J6.243425
G02 X59.200935 Y160.471420 Z-0.125000 I36.070320 J-19.481785
G03 X67.227871 Y169.642825 Z-0.125000 I-65.146559 J65.115487
G03 X66.725197 Y177.055980 Z-0.125000 I-4.473630 J3.420271
G03 X65.583973 Y177.717674 Z-0.125000 I-1.828450 J-1.838546
G02 X29.374703 Y190.533798 Z-0.125000 I70.808957 J257.614759
G02 X16.835999 Y196.848267 Z-0.125000 I51.721567 J118.310397
G02 X11.538390 Y201.460388 Z-0.125000 I9.000937 J15.687271
G02 X10.386396 Y204.170822 Z-0.125000 I4.577493 J3.545565
G02 X10.953610 Y206.533604 Z-0.125000 I3.238474 J0.472041
G02 X12.980422 Y208.336010 Z-0.125000 I4.897542 J-3.466524
G02 X19.019133 Y210.799339 Z-0.125000 I14.014308 J-25.721826
G00 Z10.000000

(End cutting path id: path19066)


(Start cutting path id: path19034)
(Change tool to Default tool)

G00 Z10.000000
G00 X20.938779 Y209.152464

G00 Z4.875000 (Fast pre-penetrate)
G01 Z-0.125000 F100.0(Penetrate)
G03 X33.036663 Y218.183921 Z-0.125000 I-20.251641 J39.746079 F800.000000
G02 X51.443859 Y237.145771 Z-0.125000 I865.068658 J-821.349217
G02 X69.989774 Y253.659754 Z-0.125000 I143.024434 J-141.951678
G02 X79.373864 Y254.891530 Z-0.125000 I5.730455 J-7.295077
G02 X87.864931 Y248.328999 Z-0.125000 I-8.437517 J-19.691492
G02 X90.717417 Y241.679276 Z-0.125000 I-11.358395 J-8.809001
G02 X90.603688 Y233.470264 Z-0.125000 I-24.760567 J-3.762256
G02 X88.517274 Y223.788480 Z-0.125000 I-144.404443 J26.053298
G03 X85.891890 Y205.968598 Z-0.125000 I87.730980 J-22.028648
G03 X94.119740 Y189.604970 Z-0.125000 I18.657594 J-0.869064
G03 X114.006632 Y187.413290 Z-0.125000 I12.034582 J17.878732
G03 X138.275569 Y199.374239 Z-0.125000 I-58.070202 J148.426750
G02 X162.336382 Y213.066918 Z-0.125000 I280.309731 J-464.574834
G02 X174.366944 Y211.335080 Z-0.125000 I4.839635 J-9.032780
G02 X188.865437 Y192.598155 Z-0.125000 I-62.018551 J-62.967368
G02 X192.173465 Y182.225496 Z-0.125000 I-22.050126 J-12.746008
G02 X190.254264 Y171.474980 Z-0.125000 I-20.383183 J-1.907726
G02 X184.176733 Y162.523988 Z-0.125000 I-32.684374 J15.653235
G02 X165.474863 Y146.450808 Z-0.125000 I-79.212193 J73.250133
G03 X155.642694 Y130.271831 Z-0.125000 I12.754917 J-18.828381
G03 X161.950223 Y112.726544 Z-0.125000 I20.777016 J-2.437086
G03 X175.124742 Y100.759958 Z-0.125000 I233.018809 J243.304755
G02 X181.421431 Y94.416516 Z-0.125000 I-37.366438 J-43.387894
G02 X184.624925 Y87.962732 Z-0.125000 I-11.424703 J-9.692889
G02 X184.222796 Y81.397089 Z-0.125000 I-11.656924 J-2.581179
G02 X177.476587 Y69.873990 Z-0.125000 I-33.428805 J11.834588
G02 X156.541476 Y54.445499 Z-0.125000 I-45.517754 J39.845802
G02 X133.778163 Y50.365246 Z-0.125000 I-19.678550 J44.247398
G02 X115.518769 Y57.908434 Z-0.125000 I1.953157 J30.599271
G02 X102.057693 Y82.533834 Z-0.125000 I26.920129 J30.707291
G02 X106.901666 Y102.394663 Z-0.125000 I26.668996 J4.016670
G03 X116.021243 Y120.301235 Z-0.125000 I-52.038560 J37.778067
G03 X116.213566 Y127.058702 Z-0.125000 I-11.406224 J3.706101
G03 X111.093893 Y132.478334 Z-0.125000 I-7.523752 J-1.979362
G03 X97.220917 Y132.555837 Z-0.125000 I-7.058059 J-21.722481
G03 X84.032800 Y128.237582 Z-0.125000 I153.963753 J-492.508857
G02 X71.688733 Y126.076523 Z-0.125000 I-13.016913 J38.017730
G02 X57.409847 Y131.307391 Z-0.125000 I-0.353982 J21.137945
G02 X54.445367 Y141.773997 Z-0.125000 I6.580167 J7.516837
G02 X59.420278 Y152.213474 Z-0.125000 I38.239945 J-11.818036
G03 X65.368672 Y162.519362 Z-0.125000 I-74.740793 J50.008793
G03 X63.481454 Y169.523813 Z-0.125000 I-4.933117 J2.427327
G03 X62.262993 Y169.941120 Z-0.125000 I-1.402502 J-2.107556
G02 X25.154014 Y175.348920 Z-0.125000 I18.962863 J260.152511
G02 X11.947915 Y179.018678 Z-0.125000 I27.099342 J123.117307
G02 X5.999633 Y182.431218 Z-0.125000 I5.645583 J16.731018
G02 X4.382343 Y184.808614 Z-0.125000 I3.711624 J4.263737
G02 X4.477512 Y187.179078 Z-0.125000 I3.012056 J1.066214
G02 X6.076846 Y189.289644 Z-0.125000 I5.347881 J-2.391237
G02 X11.393148 Y192.793992 Z-0.125000 I18.299636 J-21.976879
G00 Z10.000000

(End cutting path id: path19034)


(Start cutting path id: path19002)
(Change tool to Default tool)

G00 Z10.000000
G00 X13.652149 Y192.362150

G00 Z4.875000 (Fast pre-penetrate)
G01 Z-0.125000 F100.0(Penetrate)
G03 X23.525939 Y203.306003 Z-0.125000 I-26.932796 J34.225476 F800.000000
G02 X37.559175 Y224.956925 Z-0.125000 I984.257742 J-622.582004
G02 X52.189467 Y244.289768 Z-0.125000 I163.897464 J-108.828568
G02 X60.943272 Y247.249027 Z-0.125000 I6.871615 J-5.899997
G02 X73.756006 Y235.292379 Z-0.125000 I-3.532981 J-16.629320
G02 X75.598389 Y219.194710 Z-0.125000 I-47.570306 J-13.598700
G03 X76.463262 Y201.630265 Z-0.125000 I88.199685 J-4.460561
G03 X87.446414 Y187.518664 Z-0.125000 I18.033691 J2.705810
G03 X106.908244 Y189.190884 Z-0.125000 I8.135408 J19.405119
G03 X127.883043 Y205.248449 Z-0.125000 I-83.762321 J131.140166
G02 X148.330121 Y222.925069 Z-0.125000 I356.559688 J-391.779119
G02 X160.180532 Y223.547856 Z-0.125000 I6.347980 J-7.733173
G02 X177.619306 Y208.352422 Z-0.125000 I-47.456009 J-72.066431
G02 X182.754514 Y199.045566 Z-0.125000 I-18.700908 J-16.388672
G02 X182.955119 Y188.385560 Z-0.125000 I-19.159752 J-5.692447
G02 X178.831925 Y178.660440 Z-0.125000 I-34.271110 J8.793421
G02 X163.968680 Y159.720191 Z-0.125000 I-89.754448 J55.132214
G03 X157.620248 Y142.360626 Z-0.125000 I15.786248 J-15.613667
G03 X166.988340 Y126.753162 Z-0.125000 I20.360865 J1.605988
G03 X181.875215 Y117.790791 Z-0.125000 I177.029472 J277.208355
G02 X189.108662 Y112.909578 Z-0.125000 I-27.558971 J-48.639721
G02 X193.400597 Y107.336109 Z-0.125000 I-9.103634 J-11.449663
G02 X194.260542 Y100.971758 Z-0.125000 I-10.674670 J-4.682625
G02 X189.984699 Y88.656458 Z-0.125000 I-34.259928 J4.995035
G02 X172.860362 Y69.910147 Z-0.125000 I-51.149732 J29.529635
G02 X151.833081 Y61.685658 Z-0.125000 I-27.237534 J38.645186
G02 X132.915114 Y65.447352 Z-0.125000 I-3.932102 J29.676136
G02 X115.353242 Y86.479068 Z-0.125000 I19.958951 J34.514195
G02 X116.226139 Y106.418908 Z-0.125000 I24.779923 J8.904248
G03 X121.564488 Y125.297900 Z-0.125000 I-57.002739 J26.312724
G03 X120.467227 Y131.806182 Z-0.125000 I-11.626863 J1.386410
G03 X114.536229 Y136.025836 Z-0.125000 I-6.830338 J-3.322454
G03 X101.235010 Y133.469261 Z-0.125000 I-2.640350 J-22.142656
G03 X89.423288 Y126.832623 Z-0.125000 I240.852034 J-442.491824
G02 X78.010855 Y122.422050 Z-0.125000 I-19.676144 J33.942143
G02 X63.343629 Y124.724017 Z-0.125000 I-4.347512 J20.177244
G02 X58.519631 Y134.185994 Z-0.125000 I4.876545 J8.446905
G02 X61.304546 Y145.127581 Z-0.125000 I38.864546 J-4.066817
G03 X65.047126 Y156.125834 Z-0.125000 I-81.064714 J33.721297
G03 X61.911397 Y162.476306 Z-0.125000 I-5.184889 J1.389226
G03 X60.665307 Y162.644908 Z-0.125000 I-0.943547 J-2.284438
G02 X24.099531 Y160.786943 Z-0.125000 I-31.172774 J252.751104
G02 X10.755780 Y161.797231 Z-0.125000 I2.606421 J123.051752
G02 X4.411813 Y163.937509 Z-0.125000 I2.234141 J17.094348
G02 X2.412053 Y165.907711 Z-0.125000 I2.746169 J4.787350
G02 X2.053677 Y168.196014 Z-0.125000 I2.682535 J1.592333
G02 X3.185164 Y170.520650 Z-0.125000 I5.575270 J-1.276006
G02 X7.612182 Y174.885015 Z-0.125000 I21.693635 J-17.577595
G00 Z10.000000

(End cutting path id: path19002)


(Start cutting path id: path18970)
(Change tool to Default tool)

G00 Z10.000000
G00 X10.144367 Y174.306198

G00 Z4.875000 (Fast pre-penetrate)
G01 Z-0.125000 F100.0(Penetrate)
G03 X17.525422 Y186.659838 Z-0.125000 I-32.284607 J27.671253 F800.000000
G02 X26.859657 Y210.056702 Z-0.125000 I1060.712254 J-409.613257
G02 X37.205296 Y231.346701 Z-0.125000 I177.606619 J-73.147300
G02 X45.027875 Y235.840892 Z-0.125000 I7.699979 J-4.347489
G02 X59.566374 Y226.819431 Z-0.125000 I-0.230130 J-16.596325
G02 X64.383557 Y211.751640 Z-0.125000 I-42.980585 J-22.044843
G03 X68.542704 Y195.093709 Z-0.125000 I85.317087 J12.453755
G03 X81.737618 Y183.661442 Z-0.125000 I16.758231 J6.011246
G03 X100.059625 Y188.953617 Z-0.125000 I4.111609 J20.127563
G03 X117.102677 Y208.309935 Z-0.125000 I-105.090205 J109.712197
G02 X133.333286 Y229.116791 Z-0.125000 I415.781581 J-307.600985
G02 X144.564641 Y231.960504 Z-0.125000 I7.546111 J-6.202468
G02 X164.147811 Y220.714430 Z-0.125000 I-31.783578 J-78.019280
G02 X170.830843 Y212.774819 Z-0.125000 I-14.802497 J-19.242218
G02 X173.044478 Y202.603486 Z-0.125000 I-17.270322 J-9.085169
G02 X170.939808 Y192.507576 Z-0.125000 I-34.489903 J1.922694
G02 X160.296611 Y171.549399 Z-0.125000 I-96.415237 J35.781018
G03 X157.508528 Y153.719793 Z-0.125000 I18.079810 J-11.960003
G03 X169.440325 Y140.548621 Z-0.125000 I19.195598 J5.399232
G03 X185.397465 Y134.788191 Z-0.125000 I116.977390 J299.060665
G02 X193.250781 Y131.485037 Z-0.125000 I-17.170173 J-51.809722
G02 X198.418208 Y126.961077 Z-0.125000 I-6.547537 J-12.692018
G02 X200.448705 Y121.028843 Z-0.125000 I-9.335428 J-6.508967
G02 X198.689027 Y108.423299 Z-0.125000 I-33.758887 J-1.713003
G02 X185.843547 Y87.222077 Z-0.125000 I-54.587333 J18.581542
G02 X167.264807 Y75.357753 Z-0.125000 I-33.414600 J31.846339
G02 X148.433213 Y75.372918 Z-0.125000 I-9.393515 J27.675965
G02 X127.625384 Y92.185214 Z-0.125000 I12.570125 J36.840092
G02 X124.680087 Y111.447667 Z-0.125000 I22.043841 J13.226980
G03 X126.212649 Y130.540922 Z-0.125000 I-59.582857 J14.390681
G03 X123.927578 Y136.565999 Z-0.125000 I-11.398249 J-0.877043
G03 X117.447101 Y139.482552 Z-0.125000 I-5.911547 J-4.477275
G03 X105.192980 Y134.511675 Z-0.125000 I1.670287 J-21.707322
G03 X95.139116 Y125.915673 Z-0.125000 I314.581366 J-378.111148
G02 X85.045521 Y119.527351 Z-0.125000 I-25.281000 J28.776027
G02 X70.561789 Y118.950585 Z-0.125000 I-7.990045 J18.499852
G02 X64.147394 Y127.097778 Z-0.125000 I3.068571 J9.014595
G02 X64.739674 Y138.104946 Z-0.125000 I37.992823 J3.475179
G03 X66.238388 Y149.347990 Z-0.125000 I-84.032514 J16.923068
G03 X62.030943 Y154.835363 Z-0.125000 I-5.229154 J0.347262
G03 X60.805558 Y154.760538 Z-0.125000 I-0.470454 J-2.366780
G02 X26.137866 Y146.046961 Z-0.125000 I-77.785473 J236.155048
G02 X13.166610 Y144.484097 Z-0.125000 I-20.838686 J118.344228
G02 X6.684950 Y145.330861 Z-0.125000 I-1.101991 J16.795387
G02 X4.580940 Y148.328281 Z-0.125000 I0.988723 J2.931180
G02 X7.673999 Y156.422486 Z-0.125000 I12.858037 J-0.275393
G00 Z10.000000

(End cutting path id: path18970)


(Start cutting path id: path18942)
(Change tool to Default tool)

G00 Z10.000000
G00 X10.616167 Y157.964667

G00 Z4.875000 (Fast pre-penetrate)
G01 Z-0.125000 F100.0(Penetrate)
G03 X15.679518 Y171.115694 Z-0.125000 I-35.765536 J21.320539 F800.000000
G02 X20.786952 Y195.248551 Z-0.125000 I1091.817812 J-218.463443
G02 X27.221520 Y217.516944 Z-0.125000 I183.575364 J-40.981208
G02 X34.020918 Y223.157509 Z-0.125000 I8.154803 J-2.911740
G02 X49.553671 Y216.875399 Z-0.125000 I2.544171 J-16.053154
G02 X56.713524 Y203.138493 Z-0.125000 I-37.800171 J-28.436295
G03 X63.503440 Y187.757485 Z-0.125000 I80.251858 J26.237825
G03 X78.141511 Y178.925096 Z-0.125000 I15.169088 J8.593834
G03 X94.939437 Y187.085705 Z-0.125000 I0.612725 J20.107618
G03 X108.159044 Y208.604481 Z-0.125000 I-119.694451 J88.351746
G02 X120.352903 Y231.387553 Z-0.125000 I452.482873 J-227.521264
G02 X130.716734 Y236.003638 Z-0.125000 I8.315512 J-4.727369
G02 X151.488188 Y228.415698 Z-0.125000 I-17.665831 J-80.583137
G02 X159.260405 Y221.868199 Z-0.125000 I-11.076577 J-21.035226
G02 X163.091809 Y212.422228 Z-0.125000 I-15.150883 J-11.645405
G02 X162.743648 Y202.329273 Z-0.125000 I-33.601861 J-3.893371
G02 X155.966642 Y180.331478 Z-0.125000 I-99.000780 J18.457005
G03 X156.248047 Y162.661900 Z-0.125000 I19.439771 J-8.527433
G03 X169.957097 Y151.941003 Z-0.125000 I17.623061 J8.409518
G03 X186.315241 Y149.042114 Z-0.125000 I63.031736 J308.078692
G02 X194.443942 Y147.163674 Z-0.125000 I-7.933016 J-52.856233
G02 X200.184348 Y143.659527 Z-0.125000 I-4.202638 J-13.338624
G02 X203.132468 Y138.273594 Z-0.125000 I-7.923417 J-7.836903
G02 X203.535511 Y125.816446 Z-0.125000 I-32.290463 J-7.279832
G02 X194.673899 Y103.217053 Z-0.125000 I-55.771750 J8.831975
G02 X178.723667 Y88.671789 Z-0.125000 I-37.551845 J25.160998
G02 X160.549396 Y85.547617 Z-0.125000 I-13.677335 J25.140523
G02 X137.668434 Y98.302616 Z-0.125000 I5.989251 J37.644382
G02 X131.615719 Y116.399207 Z-0.125000 I19.066780 J16.437724
G03 X129.912162 Y135.078885 Z-0.125000 I-59.893608 J3.955317
G03 X126.702912 Y140.511973 Z-0.125000 I-10.852667 J-2.746144
G03 X119.963384 Y142.246182 Z-0.125000 I-4.958150 J-5.305724
G03 X108.967177 Y135.406996 Z-0.125000 I5.229882 J-20.668304
G03 X100.698355 Y125.436439 Z-0.125000 I366.580787 J-312.428271
G02 X92.023225 Y117.589584 Z-0.125000 I-29.191498 J23.553963
G02 X78.143132 Y114.618912 Z-0.125000 I-10.793589 J16.519860
G02 X70.595541 Y121.411495 Z-0.125000 I1.458519 J9.210189
G02 X69.332419 Y132.131696 Z-0.125000 I36.082350 J9.685967
G03 X68.904653 Y143.230591 Z-0.125000 I-83.908742 J2.323744
G03 X63.930013 Y147.824403 Z-0.125000 I-5.103808 J-0.536490
G03 X62.760033 Y147.547955 Z-0.125000 I-0.059486 J-2.362261
G02 X30.759441 Y133.361371 Z-0.125000 I-114.421685 J214.915240
G02 X18.503187 Y129.691251 Z-0.125000 I-39.833853 J110.724186
G02 X12.107505 Y129.427997 Z-0.125000 I-3.862794 J16.023209
G02 X9.577616 Y131.969697 Z-0.125000 I0.465517 J2.993271
G02 X11.213172 Y140.295827 Z-0.125000 I12.453395 J1.877404
G00 Z10.000000

(End cutting path id: path18942)


(Start cutting path id: path18914)
(Change tool to Default tool)

G00 Z10.000000
G00 X15.059848 Y141.740719

G00 Z4.875000 (Fast pre-penetrate)
G01 Z-0.125000 F100.0(Penetrate)
G03 X17.753798 Y155.274888 Z-0.125000 I-38.066007 J14.612164 F800.000000
G02 X18.659863 Y179.413435 Z-0.125000 I1089.972961 J-28.826949
G02 X21.157324 Y201.974052 Z-0.125000 I183.973599 J-8.947341
G02 X26.778319 Y208.550283 Z-0.125000 I8.354387 J-1.450492
G02 X42.813898 Y205.077256 Z-0.125000 I5.130724 J-15.066605
G02 X52.012508 Y193.015073 Z-0.125000 I-31.735980 J-33.740347
G03 X61.128178 Y179.304737 Z-0.125000 I73.066610 J38.694656
G03 X76.725499 Y173.221671 Z-0.125000 I13.205169 J10.821058
G03 X91.574642 Y183.896174 Z-0.125000 I-2.760235 J19.505186
G03 X100.744342 Y206.864352 Z-0.125000 I-130.226627 J65.305541
G02 X108.713505 Y230.881559 Z-0.125000 I474.551497 J-144.130476
G02 X117.944792 Y237.063319 Z-0.125000 I8.812088 J-3.175714
G02 X139.253162 Y233.203394 Z-0.125000 I-3.615419 J-80.704026
G02 X147.844365 Y228.180772 Z-0.125000 I-7.182356 J-22.144375
G02 X153.115950 Y219.704393 Z-0.125000 I-12.678974 J-13.762667
G02 X154.462258 Y209.907059 Z-0.125000 I-31.775533 J-9.357627
G02 X151.589256 Y187.550482 Z-0.125000 I-98.608230 J1.309067
G03 X154.805925 Y170.546942 Z-0.125000 I20.179941 J-4.988459
G03 X169.821548 Y162.486694 Z-0.125000 I15.603877 J11.052222
G03 X186.089692 Y162.415916 Z-0.125000 I9.473333 J307.790517
G02 X194.246661 Y161.958166 Z-0.125000 I1.154897 J-52.326423
G02 X200.369988 Y159.533599 Z-0.125000 I-1.832132 J-13.571731
G02 X204.112522 Y154.827772 Z-0.125000 I-6.339550 J-8.882957
G02 X206.577768 Y142.874294 Z-0.125000 I-29.945637 J-12.406843
G02 X201.793477 Y119.589740 Z-0.125000 I-55.289618 J-0.773401
G02 X188.826503 Y102.895590 Z-0.125000 I-40.429813 J18.020312
G02 X171.809779 Y96.851645 Z-0.125000 I-17.388449 J21.979906
G02 X147.604582 Y105.345971 Z-0.125000 I-0.495083 J37.323621
G02 X138.747654 Y121.799617 Z-0.125000 I15.658901 J19.039767
G03 X133.990307 Y139.540819 Z-0.125000 I-58.454310 J-6.166218
G03 X129.987931 Y144.248628 Z-0.125000 I-10.014696 J-4.458835
G03 X123.195502 Y144.798743 Z-0.125000 I-3.900073 J-5.946220
G03 X113.724537 Y136.366377 Z-0.125000 I8.491576 J-19.072392
G03 X107.407320 Y125.366957 Z-0.125000 I405.812277 J-240.380986
G02 X100.344057 Y116.349103 Z-0.125000 I-32.094546 J17.863068
G02 X87.445460 Y111.169023 Z-0.125000 I-13.168875 J14.141965
G02 X79.030159 Y116.465583 Z-0.125000 I-0.127720 J9.130570
G02 X76.024480 Y126.599619 Z-0.125000 I33.203594 J15.360688
G03 X73.761768 Y137.238315 Z-0.125000 I-81.355936 J-11.743376
G03 X68.195752 Y140.841999 Z-0.125000 I-4.835550 J-1.368380
G03 X67.112848 Y140.380227 Z-0.125000 I0.336343 J-2.289411
G02 X38.598127 Y121.356952 Z-0.125000 I-146.233902 J188.313089
G02 X27.383053 Y115.772589 Z-0.125000 I-56.893304 J100.205002
G02 X21.255351 Y114.452543 Z-0.125000 I-6.398150 J14.817917
G02 X18.390463 Y116.483508 Z-0.125000 I-0.049705 J2.965980
G02 X18.580931 Y124.790507 Z-0.125000 I11.704119 J3.887324
G00 Z10.000000

(End cutting path id: path18914)


(Start cutting path id: path18886)
(Change tool to Default tool)

G00 Z10.000000
G00 X23.015672 Y126.367476

G00 Z4.875000 (Fast pre-penetrate)
G01 Z-0.125000 F100.0(Penetrate)
G03 X23.359387 Y139.876435 Z-0.125000 I-39.167682 J7.755415 F800.000000
G02 X20.210349 Y163.320199 Z-0.125000 I1056.588723 J153.857616
G02 X18.859949 Y185.506572 Z-0.125000 I179.018665 J22.030463
G02 X23.187875 Y192.789268 Z-0.125000 I8.303416 J-0.007177
G02 X39.240449 Y192.110707 Z-0.125000 I7.462211 J-13.683499
G02 X50.127240 Y182.004380 Z-0.125000 I-25.000207 J-37.847780
G03 X61.208708 Y170.293826 Z-0.125000 I64.056866 J49.517392
G03 X77.273417 Y167.023631 Z-0.125000 I10.938840 J12.642900
G03 X89.823050 Y179.799121 Z-0.125000 I-5.914591 J18.361657
G03 X94.843166 Y203.490890 Z-0.125000 I-136.548573 J41.311412
G02 X98.529964 Y227.994826 Z-0.125000 I481.946317 J-59.983052
G02 X106.407430 Y235.498628 Z-0.125000 I9.032635 J-1.595661
G02 X127.612529 Y235.325580 Z-0.125000 I9.962815 J-78.478818
G02 X136.739859 Y231.910909 Z-0.125000 I-3.239720 J-22.565588
G02 X143.239553 Y224.610193 Z-0.125000 I-9.940780 J-15.393732
G02 X146.171683 Y215.380554 Z-0.125000 I-29.102420 J-14.326009
G02 X147.125691 Y193.328479 Z-0.125000 I-95.371212 J-15.172585
G03 X153.063759 Y177.456884 Z-0.125000 I20.304306 J-1.450122
G03 X168.896706 Y172.181831 Z-0.125000 I13.214967 J13.265776
G03 X184.606617 Y174.825069 Z-0.125000 I-42.160377 J298.584500
G02 X192.554066 Y175.742943 Z-0.125000 I9.836076 J-50.300434
G02 X198.866956 Y174.423954 Z-0.125000 I0.494170 J-13.401560
G02 X203.262710 Y170.506814 Z-0.125000 I-4.636825 J-9.628365
G02 X207.633954 Y159.383082 Z-0.125000 I-26.828412 J-16.963384
G02 X206.898315 Y136.116975 Z-0.125000 I-53.223388 J-9.961841
G02 X197.168240 Y117.846476 Z-0.125000 I-42.016756 J10.650144
G02 X181.755166 Y109.178001 Z-0.125000 I-20.442721 J18.311471
G02 X156.982295 Y113.340227 Z-0.125000 I-6.698746 J35.933293
G02 X145.693259 Y127.741089 Z-0.125000 I11.936717 J20.982606
G03 X138.145544 Y144.067708 Z-0.125000 I-55.378326 J-15.693181
G03 X133.498731 Y147.943446 Z-0.125000 I-8.920588 J-5.971815
G03 X126.852605 Y147.342141 Z-0.125000 I-2.772319 J-6.387927
G03 X119.118985 Y137.626642 Z-0.125000 I11.372979 J-16.988752
G03 X114.856478 Y125.959698 Z-0.125000 I431.657964 J-164.317962
G02 X109.543784 Y116.080539 Z-0.125000 I-33.947342 J11.887711
G02 X97.960553 Y108.932059 Z-0.125000 I-15.064593 J11.451478
G02 X88.957304 Y112.640386 Z-0.125000 I-1.645107 J8.789349
G02 X84.367826 Y121.918351 Z-0.125000 I29.479871 J20.356750
G03 X80.411166 Y131.807130 Z-0.125000 I-76.547962 J-24.892124
G03 X74.439527 Y134.356814 Z-0.125000 I-4.438037 J-2.126411
G03 X73.471535 Y133.730726 Z-0.125000 I0.706158 J-2.153136
G02 X49.126711 Y110.621253 Z-0.125000 I-172.497520 J157.340791
G02 X39.235396 Y103.363262 Z-0.125000 I-71.601725 J87.211037
G02 X33.542429 Y101.068119 Z-0.125000 I-8.643778 J13.232278
G02 X30.439409 Y102.550407 Z-0.125000 I-0.542326 J2.853768
G02 X29.238613 Y110.598078 Z-0.125000 I10.646079 J5.701927
G00 Z10.000000

(End cutting path id: path18886)


(Start cutting path id: path18858)
(Change tool to Default tool)

G00 Z10.000000
G00 X32.633666 Y112.611120

G00 Z4.875000 (Fast pre-penetrate)
G01 Z-0.125000 F100.0(Penetrate)
G03 X30.713696 Y125.704021 Z-0.125000 I-39.087923 J0.955292 F800.000000
G02 X23.767448 Y147.801452 Z-0.125000 I993.920967 J324.575961
G02 X18.766395 Y168.985343 Z-0.125000 I169.073896 J51.096912
G02 X21.728812 Y176.734222 Z-0.125000 I8.013658 J1.377066
G02 X37.332013 Y178.755043 Z-0.125000 I9.481473 J-11.960252
G02 X49.521834 Y170.817421 Z-0.125000 I-17.815827 J-40.688575
G03 X62.166898 Y161.364232 Z-0.125000 I53.558908 J58.459172
G03 X78.213775 Y160.886250 Z-0.125000 I8.448259 J14.023156
G03 X88.194288 Y175.305838 Z-0.125000 I-8.767828 J16.732447
G03 X89.089613 Y199.004197 Z-0.125000 I-138.649615 J17.104286
G02 X88.562969 Y223.264031 Z-0.125000 I475.057229 J22.448410
G02 X94.913696 Y231.817900 Z-0.125000 I8.982097 J-0.034211
G02 X115.404620 Y235.185331 Z-0.125000 I22.694382 J-74.068371
G02 X124.781282 Y233.411630 Z-0.125000 I0.634977 J-22.314886
G02 X132.270094 Y227.450082 Z-0.125000 I-7.026669 J-16.511247
G02 X136.637857 Y219.032565 Z-0.125000 I-25.694861 J-18.674753
G02 X141.234024 Y197.912196 Z-0.125000 I-89.500531 J-30.537191
G03 X149.609464 Y183.586478 Z-0.125000 I19.834553 J1.984963
G03 X165.766864 Y181.135258 Z-0.125000 I10.540812 J15.003587
G03 X180.485738 Y186.304368 Z-0.125000 I-90.450360 J281.094799
G02 X188.001722 Y188.514743 Z-0.125000 I17.875382 J-46.898478
G02 X194.313257 Y188.294187 Z-0.125000 I2.710595 J-12.849608
G02 X199.207885 Y185.246976 Z-0.125000 I-2.869519 J-10.063845
G02 X205.280039 Y175.241605 Z-0.125000 I-23.060936 J-20.840689
G02 X208.448116 Y152.668116 Z-0.125000 I-49.698059 J-18.483930
G02 X202.104261 Y133.416022 Z-0.125000 I-42.319648 J3.273715
G02 X188.676095 Y122.482272 Z-0.125000 I-22.778532 J14.262503
G02 X164.077503 Y122.369570 Z-0.125000 I-12.453304 J33.557682
G02 X150.783728 Y134.384202 Z-0.125000 I8.021119 J22.236957
G03 X140.779201 Y148.880708 Z-0.125000 I-50.822133 J-24.373585
G03 X135.649210 Y151.846123 Z-0.125000 I-7.612645 J-7.249423
G03 X129.336190 Y150.158130 Z-0.125000 I-1.610453 J-6.626180
G03 X123.492909 Y139.494037 Z-0.125000 I13.806119 J-14.497852
G03 X121.324376 Y127.525433 Z-0.125000 I443.921087 J-86.612645
G02 X117.844471 Y117.106927 Z-0.125000 I-34.739268 J5.812911
G02 X107.858603 Y108.278259 Z-0.125000 I-16.445446 J8.539294
G02 X98.552727 Y110.356010 Z-0.125000 I-3.052450 J8.207176
G02 X92.577632 Y118.543914 Z-0.125000 I25.053888 J24.557093
G03 X87.111374 Y127.426706 Z-0.125000 I-69.716806 J-36.778760
G03 X80.924006 Y128.891710 Z-0.125000 I-3.928103 J-2.791622
G03 X80.094287 Y128.126219 Z-0.125000 I1.040286 J-1.959984
G02 X60.454328 Y101.768754 Z-0.125000 I-192.678466 J123.076147
G02 X52.119346 Y93.116419 Z-0.125000 I-83.628959 J72.220788
G02 X47.008407 Y89.952806 Z-0.125000 I-10.546428 J11.327899
G02 X43.767051 Y90.865951 Z-0.125000 I-0.998983 J2.663379
G02 X41.266963 Y98.431490 Z-0.125000 I9.322662 J7.276598
G00 Z10.000000

(End cutting path id: path18858)


(Start cutting path id: path18854)
(Change tool to Default tool)

G00 Z10.000000
G00 X34.094047 Y110.797227

G00 Z4.875000 (Fast pre-penetrate)
G01 Z-0.125000 F100.0(Penetrate)
G03 X31.861459 Y123.800301 Z-0.125000 I-38.982647 J-0.000000 F800.000000
G02 X24.399780 Y145.655856 Z-0.125000 I982.744462 J347.719121
G02 X18.899153 Y166.648259 Z-0.125000 I167.273133 J55.047346
G02 X21.663072 Y174.443819 Z-0.125000 I7.953765 J1.567744
G02 X37.165733 Y176.838075 Z-0.125000 I9.741632 J-11.689957
G02 X49.508819 Y169.223489 Z-0.125000 I-16.766103 J-40.988744
G03 X62.342570 Y160.109410 Z-0.125000 I51.958747 J59.571549
G03 X78.348318 Y160.023888 Z-0.125000 I8.078884 J14.182832
G03 X87.944760 Y174.639171 Z-0.125000 I-9.146579 J16.463843
G03 X88.259871 Y198.281405 Z-0.125000 I-138.610294 J13.670658
G02 X87.144011 Y222.448631 Z-0.125000 I472.948276 J33.946562
G02 X93.265488 Y231.129065 Z-0.125000 I8.953389 J0.184697
G02 X113.606996 Y234.984563 Z-0.125000 I24.423989 J-73.271966
G02 X122.996027 Y233.445102 Z-0.125000 I1.176460 J-22.226032
G02 X130.605429 Y227.685580 Z-0.125000 I-6.601362 J-16.628110
G02 X135.163872 Y219.402140 Z-0.125000 I-25.155461 J-19.239243
G02 X140.259397 Y198.463187 Z-0.125000 I-88.462344 J-32.616923
G03 X148.956256 Y184.388599 Z-0.125000 I19.720975 J2.461588
G03 X165.120230 Y182.339021 Z-0.125000 I10.140673 J15.211009
G03 X179.664784 Y187.849671 Z-0.125000 I-97.000195 J277.967256
G02 X187.102208 Y190.235859 Z-0.125000 I18.958999 J-46.308809
G02 X193.398359 Y190.169772 Z-0.125000 I3.014685 J-12.741320
G02 X198.351117 Y187.251810 Z-0.125000 I-2.614936 J-10.100647
G02 X204.647024 Y177.427253 Z-0.125000 I-22.477443 J-21.333896
G02 X208.354551 Y155.005174 Z-0.125000 I-49.084359 J-19.633740
G02 X202.500522 Y135.661862 Z-0.125000 I-42.260221 J2.232082
G02 X189.382853 Y124.436972 Z-0.125000 I-23.051044 J13.660735
G02 X164.867904 Y123.725441 Z-0.125000 I-13.229782 J33.143965
G02 X151.325183 Y135.376737 Z-0.125000 I7.453074 J22.359222
G03 X141.000432 Y149.581869 Z-0.125000 I-50.061333 J-25.531450
G03 X135.815070 Y152.412572 Z-0.125000 I-7.411020 J-7.411020
G03 X129.563935 Y150.576347 Z-0.125000 I-1.443743 J-6.643616
G03 X123.999638 Y139.804988 Z-0.125000 I14.113868 J-14.113868
G03 X122.129781 Y127.822921 Z-0.125000 I444.570995 J-75.514282
G02 X118.915106 Y117.353910 Z-0.125000 I-34.766616 J4.947576
G02 X109.177136 Y108.311032 Z-0.125000 I-16.599366 J8.110613
G02 X99.851252 Y110.155266 Z-0.125000 I-3.242332 J8.105828
G02 X93.696358 Y118.170697 Z-0.125000 I24.373312 J25.086625
G03 X88.031699 Y126.891125 Z-0.125000 I-68.591608 J-38.356026
G03 X81.828991 Y128.200592 Z-0.125000 I-3.847184 J-2.878128
G03 X81.020645 Y127.417405 Z-0.125000 I1.084613 J-1.928205
G02 X62.087319 Y100.668210 Z-0.125000 I-195.042853 J117.977936
G02 X53.990511 Y91.841297 Z-0.125000 I-85.113170 J69.946158
G02 X48.973443 Y88.563591 Z-0.125000 I-10.787681 J11.033743
G02 X45.720504 Y89.394777 Z-0.125000 I-1.060575 J2.630286
G02 X43.044349 Y96.874535 Z-0.125000 I9.114753 J7.479759
G00 Z10.000000

(End cutting path id: path18854)


(Start cutting path id: path18862)
(Change tool to Default tool)

G00 Z10.000000
G00 X31.193508 Y114.464380

G00 Z4.875000 (Fast pre-penetrate)
G01 Z-0.125000 F100.0(Penetrate)
G03 X29.589201 Y127.639690 Z-0.125000 I-39.170069 J1.915740 F800.000000
G02 X23.165700 Y149.967018 Z-0.125000 I1004.560050 J301.096358
G02 X18.670261 Y171.330671 Z-0.125000 I170.782681 J47.091689
G02 X21.830567 Y179.027881 Z-0.125000 I8.069046 J1.184407
G02 X37.525425 Y180.671794 Z-0.125000 I9.213985 J-12.224898
G02 X49.553650 Y172.414018 Z-0.125000 I-18.861042 J-40.361880
G03 X62.001209 Y162.625426 Z-0.125000 I55.136095 J57.304531
G03 X78.079710 Y161.752918 Z-0.125000 I8.814719 J13.854001
G03 X88.440533 Y175.966867 Z-0.125000 I-8.381465 J16.992490
G03 X89.919016 Y199.707287 Z-0.125000 I-138.604937 J20.548150
G02 X89.985448 Y224.045544 Z-0.125000 I476.889830 J10.867533
G02 X96.562943 Y232.466887 Z-0.125000 I9.005516 J-0.254415
G02 X117.191726 Y235.341272 Z-0.125000 I20.940593 J-74.824535
G02 X126.550245 Y233.333002 Z-0.125000 I0.089855 J-22.390709
G02 X133.913191 Y227.171837 Z-0.125000 I-7.450261 J-16.383644
G02 X138.086474 Y218.624554 Z-0.125000 I-26.221887 J-18.095521
G02 X142.177489 Y197.334515 Z-0.125000 I-90.490569 J-28.426407
G03 X150.224489 Y182.764865 Z-0.125000 I19.936760 J1.504268
G03 X166.365454 Y179.911080 Z-0.125000 I10.936949 J14.785795
G03 X181.250749 Y184.733457 Z-0.125000 I-83.806249 J284.070388
G02 X188.841198 Y186.765618 Z-0.125000 I16.774388 J-47.463180
G02 X195.164374 Y186.389801 Z-0.125000 I2.403030 J-12.950736
G02 X199.997547 Y183.214415 Z-0.125000 I-3.123888 J-10.020707
G02 X205.840915 Y173.033222 Z-0.125000 I-23.633924 J-20.331855
G02 X208.464374 Y150.321139 Z-0.125000 I-50.285201 J-17.315972
G02 X201.631605 Y131.172512 Z-0.125000 I-42.353712 J4.319620
G02 X187.899237 Y120.538297 Z-0.125000 I-22.490543 J14.859223
G02 X163.231456 Y121.028089 Z-0.125000 I-11.664589 J33.953474
G02 X150.196204 Y133.400939 Z-0.125000 I8.587719 J22.100460
G03 X140.519900 Y148.181759 Z-0.125000 I-51.556692 J-23.194009
G03 X135.448722 Y151.280897 Z-0.125000 I-7.810853 J-7.082444
G03 X129.077287 Y149.743044 Z-0.125000 I-1.777178 J-6.604608
G03 X122.956897 Y139.193344 Z-0.125000 I13.488128 J-14.875331
G03 X120.489212 Y127.245559 Z-0.125000 I442.997533 J-97.725064
G02 X116.744598 Y116.884194 Z-0.125000 I-34.690626 J6.679910
G02 X106.515411 Y108.276395 Z-0.125000 I-16.280594 J8.965358
G02 X97.235322 Y110.587800 Z-0.125000 I-2.859573 J8.304138
G02 X91.444738 Y118.944241 Z-0.125000 I25.723351 J24.009467
G03 X86.181393 Y127.984976 Z-0.125000 I-70.806303 J-35.169615
G03 X80.013214 Y129.605561 Z-0.125000 I-4.007123 J-2.702904
G03 X79.162496 Y128.858336 Z-0.125000 I0.995065 J-1.990768
G02 X58.823594 Y102.910978 Z-0.125000 I-190.182757 J128.130203
G02 X50.254073 Y94.439529 Z-0.125000 I-82.084996 J74.465196
G02 X45.051805 Y91.392619 Z-0.125000 I-10.297314 J11.616938
G02 X41.824072 Y92.387661 Z-0.125000 I-0.936413 J2.695053
G02 X39.502630 Y100.034897 Z-0.125000 I9.526154 J7.067792
G00 Z10.000000

(End cutting path id: path18862)


(Start cutting path id: path18866)
(Change tool to Default tool)

G00 Z10.000000
G00 X29.774293 Y116.356300

G00 Z4.875000 (Fast pre-penetrate)
G01 Z-0.125000 F100.0(Penetrate)
G03 X28.488521 Y129.606504 Z-0.125000 I-39.228905 J2.880794 F800.000000
G02 X22.594816 Y152.151539 Z-0.125000 I1014.650884 J277.292093
G02 X18.610763 Y173.683050 Z-0.125000 I172.397907 J43.033749
G02 X21.968228 Y181.323603 Z-0.125000 I8.119865 J0.989870
G02 X37.745757 Y182.587348 Z-0.125000 I8.939293 J-12.483706
G02 X49.604104 Y174.012514 Z-0.125000 I-19.901057 J-40.008678
G03 X61.845405 Y163.892455 Z-0.125000 I56.689278 J56.108166
G03 X77.945947 Y162.623578 Z-0.125000 I9.178024 J13.675408
G03 X88.683071 Y176.622019 Z-0.125000 I-7.987696 J17.243775
G03 X90.747318 Y200.390320 Z-0.125000 I-138.475707 J24.000228
G02 X91.410350 Y224.792677 Z-0.125000 I478.444422 J-0.789554
G02 X98.211977 Y233.075577 Z-0.125000 I9.023602 J-0.475786
G02 X118.966907 Y235.452207 Z-0.125000 I19.163533 J-75.539766
G02 X128.301486 Y233.209178 Z-0.125000 I-0.458597 J-22.453380
G02 X135.533334 Y226.850942 Z-0.125000 I-7.871870 J-16.245319
G02 X139.508433 Y218.178308 Z-0.125000 I-26.736140 J-17.501811
G02 X143.088774 Y196.730522 Z-0.125000 I-91.431551 J-26.285665
G03 X150.800471 Y181.924328 Z-0.125000 I20.027471 J1.019772
G03 X166.915094 Y178.667295 Z-0.125000 I11.328817 J14.557714
G03 X181.958763 Y183.137924 Z-0.125000 I-77.071443 J286.891741
G02 X189.619508 Y184.989565 Z-0.125000 I15.656572 J-48.002399
G02 X195.950550 Y184.457779 Z-0.125000 I2.092153 J-13.044593
G02 X200.718960 Y181.155378 Z-0.125000 I-3.377888 J-9.971214
G02 X206.328612 Y170.803493 Z-0.125000 I-24.196004 J-19.807602
G02 X208.402584 Y147.965782 Z-0.125000 I-50.845360 J-16.130471
G02 X201.082116 Y128.932883 Z-0.125000 I-42.362238 J5.369185
G02 X187.052066 Y118.606469 Z-0.125000 I-22.187144 J15.450491
G02 X162.329668 Y119.702082 Z-0.125000 I-10.864041 J34.331019
G02 X149.562415 Y132.427781 Z-0.125000 I9.152489 J21.949696
G03 X140.222193 Y147.485639 Z-0.125000 I-52.264332 J-21.993235
G03 X135.213267 Y150.717416 Z-0.125000 I-8.005501 J-6.910162
G03 X128.786940 Y149.331549 Z-0.125000 I-1.943827 J-6.578904
G03 X122.391496 Y138.903343 Z-0.125000 I13.160018 J-15.246030
G03 X119.624361 Y126.983763 Z-0.125000 I441.799396 J-108.844872
G02 X115.615725 Y116.686178 Z-0.125000 I-34.620620 J7.548057
G02 X105.147974 Y108.305801 Z-0.125000 I-16.104864 J9.388533
G02 X95.899465 Y110.850862 Z-0.125000 I-2.663798 J8.396640
G02 X90.298023 Y119.371771 Z-0.125000 I26.381181 J23.443941
G03 X85.242012 Y128.565900 Z-0.125000 I-71.859316 J-33.529425
G03 X79.096887 Y130.342017 Z-0.125000 I-4.084181 J-2.612008
G03 X78.225560 Y129.613620 Z-0.125000 I0.948968 J-2.020531
G02 X57.195879 Y104.094603 Z-0.125000 I-187.556500 J133.136768
G02 X48.395618 Y95.810277 Z-0.125000 I-80.481883 J76.677837
G02 X43.104636 Y92.882623 Z-0.125000 I-10.040445 J11.900651
G02 X39.892571 Y93.959449 Z-0.125000 I-0.872898 J2.725278
G02 X37.752259 Y101.684224 Z-0.125000 I9.725079 J6.853435
G00 Z10.000000

(End cutting path id: path18866)


(Start cutting path id: path18870)
(Change tool to Default tool)

G00 Z10.000000
G00 X28.376714 Y118.286129

G00 Z4.875000 (Fast pre-penetrate)
G01 Z-0.125000 F100.0(Penetrate)
G03 X27.412170 Y131.603626 Z-0.125000 I-39.264276 J3.849893 F800.000000
G02 X22.055026 Y154.353975 Z-0.125000 I1024.185715 J253.176314
G02 X18.587854 Y176.041265 Z-0.125000 I173.918076 J38.925277
G02 X22.141620 Y183.620176 Z-0.125000 I8.166051 J0.793562
G02 X37.992727 Y184.500697 Z-0.125000 I8.657515 J-12.736482
G02 X49.672969 Y175.612112 Z-0.125000 I-20.935232 J-39.629037
G03 X61.699331 Y165.164743 Z-0.125000 I58.217332 J54.870491
G03 X77.812260 Y163.497888 Z-0.125000 I9.537932 J13.487427
G03 X88.921419 Y177.271014 Z-0.125000 I-7.586697 J17.486084
G03 X91.573694 Y201.052919 Z-0.125000 I-138.261506 J27.458451
G02 X92.836508 Y225.504928 Z-0.125000 I479.717322 J-12.516186
G02 X99.859479 Y233.643518 Z-0.125000 I9.036309 J-0.698198
G02 X120.728700 Y235.517957 Z-0.125000 I17.364149 J-76.213378
G02 X130.033521 Y233.040123 Z-0.125000 I-1.010066 J-22.502779
G02 X137.129088 Y226.487496 Z-0.125000 I-8.291228 J-16.096286
G02 X140.902395 Y217.694029 Z-0.125000 I-27.237232 J-16.893893
G02 X143.966816 Y196.100584 Z-0.125000 I-92.322598 J-24.116073
G03 X151.336504 Y181.065427 Z-0.125000 I20.106543 J0.531742
G03 X167.414832 Y177.404702 Z-0.125000 I11.716155 J14.319411
G03 X182.608683 Y181.518753 Z-0.125000 I-70.249144 J289.555092
G02 X190.335493 Y183.187665 Z-0.125000 I14.522538 J-48.515719
G02 X196.670601 Y182.499298 Z-0.125000 I1.778141 J-13.131092
G02 X201.370962 Y179.071127 Z-0.125000 I-3.631358 J-9.915366
G02 X206.742086 Y168.553820 Z-0.125000 I-24.746735 J-19.268159
G02 X208.262010 Y145.603611 Z-0.125000 I-51.377954 J-14.928044
G02 X200.455363 Y126.698702 Z-0.125000 I-42.345071 J6.421791
G02 X186.134370 Y116.688213 Z-0.125000 I-21.868443 J16.035923
G02 X161.372055 Y118.392618 Z-0.125000 I-10.052084 J34.689959
G02 X148.882174 Y131.465548 Z-0.125000 I9.715088 J21.784681
G03 X139.885727 Y146.792965 Z-0.125000 I-52.944481 J-20.771886
G03 X134.942465 Y150.156219 Z-0.125000 I-8.196476 J-6.732669
G03 X128.464828 Y148.924087 Z-0.125000 I-2.110293 J-6.549016
G03 X121.796564 Y138.624440 Z-0.125000 I12.821953 J-15.609701
G03 X118.729861 Y126.740481 Z-0.125000 I440.324123 J-119.965065
G02 X114.458052 Y116.513321 Z-0.125000 I-34.529148 J8.416837
G02 X103.756669 Y108.366832 Z-0.125000 I-15.918281 J9.808542
G02 X94.545552 Y111.145405 Z-0.125000 I-2.465229 J8.484592
G02 X89.137792 Y119.826592 Z-0.125000 I27.026925 J22.860765
G03 X84.293433 Y129.169452 Z-0.125000 I-72.875067 J-31.859035
G03 X78.175239 Y131.100953 Z-0.125000 I-4.159218 J-2.518975
G03 X77.283709 Y130.391941 Z-0.125000 I0.902017 J-2.049244
G02 X55.571879 Y105.319349 Z-0.125000 I-184.800465 J138.092508
G02 X46.544840 Y97.228304 Z-0.125000 I-78.820220 J78.857175
G02 X41.167825 Y94.422401 Z-0.125000 I-9.775931 J12.178837
G02 X37.973474 Y95.580848 Z-0.125000 I-0.808472 J2.754028
G02 X36.016681 Y103.378934 Z-0.125000 I9.919288 J6.633625
G00 Z10.000000

(End cutting path id: path18870)


(Start cutting path id: path18874)
(Change tool to Default tool)

G00 Z10.000000
G00 X27.001440 Y120.253062

G00 Z4.875000 (Fast pre-penetrate)
G01 Z-0.125000 F100.0(Penetrate)
G03 X26.360643 Y133.630159 Z-0.125000 I-39.275952 J4.822479 F800.000000
G02 X21.546539 Y156.573227 Z-0.125000 I1033.155025 J228.761753
G02 X18.601461 Y178.404051 Z-0.125000 I175.341586 J34.768447
G02 X22.350550 Y185.916341 Z-0.125000 I8.207547 J0.595592
G02 X38.266041 Y186.410801 Z-0.125000 I8.368781 J-12.983033
G02 X49.760007 Y177.211981 Z-0.125000 I-21.962904 J-39.223037
G03 X61.562831 Y166.441687 Z-0.125000 I59.719170 J53.592021
G03 X77.678428 Y164.375475 Z-0.125000 I9.894207 J13.290121
G03 X89.155105 Y177.913561 Z-0.125000 I-7.178679 J17.719221
G03 X92.397329 Y201.694696 Z-0.125000 I-137.962042 J30.920772
G02 X94.262762 Y226.181795 Z-0.125000 I480.705531 J-24.305659
G02 X101.504142 Y234.170264 Z-0.125000 I9.043604 J-0.921523
G02 X122.475657 Y235.538355 Z-0.125000 I15.543399 J-76.844717
G02 X131.744886 Y232.825809 Z-0.125000 I-1.564235 J-22.538797
G02 X138.699040 Y226.081606 Z-0.125000 I-8.708066 J-15.936574
G02 X142.267048 Y217.171925 Z-0.125000 I-27.724784 J-16.272055
G02 X144.810587 Y195.445068 Z-0.125000 I-93.162908 J-21.918789
G03 X151.831735 Y180.188710 Z-0.125000 I20.173870 J0.040457
G03 X167.863774 Y176.124090 Z-0.125000 I12.098701 J14.070968
G03 X183.199474 Y179.876918 Z-0.125000 I-63.343041 J292.058044
G02 X190.988048 Y181.360988 Z-0.125000 I13.372862 J-49.002637
G02 X197.323395 Y180.515518 Z-0.125000 I1.461160 J-13.210128
G02 X201.952441 Y176.962905 Z-0.125000 I-3.884144 J-9.853153
G02 X207.080338 Y166.285574 Z-0.125000 I-25.285733 J-18.713758
G02 X208.041962 Y143.236142 Z-0.125000 I-51.882516 J-13.709318
G02 X199.750958 Y124.471484 Z-0.125000 I-42.302054 J7.476818
G02 X185.145979 Y114.784904 Z-0.125000 I-21.534530 J16.615124
G02 X160.358558 Y117.100726 Z-0.125000 I-9.229135 J35.029975
G02 X148.155305 Y130.515034 Z-0.125000 I10.275168 J21.605438
G03 X139.510167 Y146.104304 Z-0.125000 I-53.596411 J-19.530516
G03 X134.635975 Y149.597776 Z-0.125000 I-8.383599 J-6.549994
G03 X128.110650 Y148.521055 Z-0.125000 I-2.276480 J-6.514990
G03 X121.171981 Y138.357003 Z-0.125000 I12.474055 J-15.966060
G03 X117.805775 Y126.516100 Z-0.125000 I438.575180 J-131.079848
G02 X113.271808 Y116.366003 Z-0.125000 I-34.416130 J9.285718
G02 X102.341890 Y108.459757 Z-0.125000 I-15.720906 J10.225117
G02 X93.173987 Y111.471555 Z-0.125000 I-2.263968 J8.567918
G02 X87.964359 Y120.308705 Z-0.125000 I27.660120 J22.260194
G03 X83.335868 Y129.795512 Z-0.125000 I-73.852737 J-30.159299
G03 X77.248485 Y131.882160 Z-0.125000 I-4.232179 J-2.423853
G03 X76.337170 Y131.193077 Z-0.125000 I0.854246 J-2.076897
G02 X53.952290 Y106.584835 Z-0.125000 I-181.915450 J142.994011
G02 X44.702599 Y98.693153 Z-0.125000 I-77.100610 J81.001628
G02 X39.242302 Y96.011439 Z-0.125000 I-9.503878 J12.451286
G02 X36.067713 Y97.251295 Z-0.125000 I-0.743166 J2.781278
G02 X34.296732 Y105.118395 Z-0.125000 I10.108644 J6.408465
G00 Z10.000000

(End cutting path id: path18874)


(Start cutting path id: path18878)
(Change tool to Default tool)

G00 Z10.000000
G00 X25.649114 Y122.256229

G00 Z4.875000 (Fast pre-penetrate)
G01 Z-0.125000 F100.0(Penetrate)
G03 X25.334400 Y135.685157 Z-0.125000 I-39.263845 J5.797981 F800.000000
G02 X21.069525 Y158.808155 Z-0.125000 I1041.552519 J204.061839
G02 X18.651468 Y180.770104 Z-0.125000 I176.667165 J30.565520
G02 X22.594774 Y188.210811 Z-0.125000 I8.244311 J0.396071
G02 X38.565364 Y188.316590 Z-0.125000 I8.073227 J-13.223176
G02 X49.864949 Y178.811263 Z-0.125000 I-22.983390 J-38.790744
G03 X61.435715 Y167.722648 Z-0.125000 I61.193759 J52.273314
G03 X77.544198 Y165.255937 Z-0.125000 I10.246606 J13.083546
G03 X89.383626 Y178.549341 Z-0.125000 I-6.763848 J17.942990
G03 X93.217373 Y202.315247 Z-0.125000 I-137.576888 J34.385098
G02 X95.687911 Y226.822763 Z-0.125000 I481.408319 J-36.151220
G02 X103.144608 Y234.655355 Z-0.125000 I9.045448 J-1.145630
G02 X124.206283 Y235.513224 Z-0.125000 I13.702258 J-77.433135
G02 X133.434072 Y232.566206 Z-0.125000 I-2.120783 J-22.561333
G02 X140.241736 Y225.633375 Z-0.125000 I-9.122117 J-15.766218
G02 X143.601045 Y216.612196 Z-0.125000 I-28.198412 J-15.636592
G02 X145.619027 Y194.764334 Z-0.125000 I-93.951631 J-19.694986
G03 X152.285271 Y179.294719 Z-0.125000 I20.229344 J-0.453803
G03 X168.261002 Y174.826251 Z-0.125000 I12.476190 J13.812487
G03 X183.730083 Y178.213404 Z-0.125000 I-56.357198 J294.399596
G02 X191.576060 Y179.510619 Z-0.125000 I12.208136 J-49.462668
G02 X197.907797 Y178.507614 Z-0.125000 I1.141384 J-13.281610
G02 X202.462286 Y174.831969 Z-0.125000 I-4.136092 J-9.784581
G02 X207.342378 Y164.000140 Z-0.125000 I-25.812618 J-18.144660
G02 X207.741761 Y140.864893 Z-0.125000 I-52.358595 J-12.474935
G02 X198.968530 Y122.252736 Z-0.125000 I-42.233068 J8.533641
G02 X184.086734 Y112.897899 Z-0.125000 I-21.185524 J17.187709
G02 X159.289121 Y115.827401 Z-0.125000 I-8.395634 J35.350749
G02 X147.381634 Y129.576984 Z-0.125000 I10.832381 J21.412000
G03 X139.095171 Y145.420203 Z-0.125000 I-54.219786 J-18.269881
G03 X134.293425 Y149.042554 Z-0.125000 I-8.566735 J-6.362219
G03 X127.724091 Y148.122831 Z-0.125000 I-2.442279 J-6.476808
G03 X120.517609 Y138.101367 Z-0.125000 I12.116482 J-16.314859
G03 X116.852144 Y126.310977 Z-0.125000 I436.546268 J-142.180992
G02 X112.057201 Y116.244576 Z-0.125000 I-34.281537 J10.154183
G02 X100.904019 Y108.584817 Z-0.125000 I-15.512797 J10.637981
G02 X91.785162 Y111.829416 Z-0.125000 I-2.060120 J8.646539
G02 X86.778024 Y120.818095 Z-0.125000 I28.280323 J21.642487
G03 X82.369513 Y130.443943 Z-0.125000 I-74.791114 J-28.430895
G03 X76.316823 Y132.685400 Z-0.125000 I-4.303007 J-2.326689
G03 X75.386161 Y132.016791 Z-0.125000 I0.805643 J-2.103423
G02 X52.337792 Y107.890643 Z-0.125000 I-178.902653 J147.838150
G02 X42.869731 Y100.204315 Z-0.125000 I-75.323879 J83.109798
G02 X37.328972 Y97.649166 Z-0.125000 I-9.224423 J12.717812
G02 X34.176193 Y98.970164 Z-0.125000 I-0.677017 J2.807001
G02 X32.593216 Y106.901907 Z-0.125000 I10.292981 J6.178054
G00 Z10.000000

(End cutting path id: path18878)


(Start cutting path id: path18882)
(Change tool to Default tool)

G00 Z10.000000
G00 X24.320332 Y124.294700

G00 Z4.875000 (Fast pre-penetrate)
G01 Z-0.125000 F100.0(Penetrate)
G03 X24.333849 Y137.767606 Z-0.125000 I-39.227821 J6.775815 F800.000000
G02 X20.624098 Y161.057564 Z-0.125000 I1049.364155 J179.088856
G02 X18.737700 Y183.138081 Z-0.125000 I177.893285 J26.318739
G02 X22.873993 Y190.502247 Z-0.125000 I8.276279 J0.195109
G02 X38.890305 Y190.216946 Z-0.125000 I7.770990 J-13.456724
G02 X49.987474 Y180.409047 Z-0.125000 I-23.996044 J-38.332284
G03 X61.317757 Y169.006938 Z-0.125000 I62.640026 J50.914925
G03 X77.409292 Y166.138819 Z-0.125000 I10.594895 J12.867779
G03 X89.606455 Y179.177993 Z-0.125000 I-6.342413 J18.157198
G03 X94.032950 Y202.914134 Z-0.125000 I-137.105821 J37.849349
G02 X97.110729 Y227.427292 Z-0.125000 I481.822285 J-48.045974
G02 X104.779505 Y235.098305 Z-0.125000 I9.041800 J-1.370387
G02 X125.919082 Y235.442365 Z-0.125000 I11.841727 J-77.978036
G02 X135.099574 Y232.261257 Z-0.125000 I-2.679387 J-22.570292
G02 X141.755731 Y225.142878 Z-0.125000 I-9.533111 J-15.585255
G02 X144.903044 Y216.015015 Z-0.125000 I-28.657746 J-14.987804
G02 X146.391083 Y194.058698 Z-0.125000 I-94.687982 J-17.445842
G03 X152.696239 Y178.383946 Z-0.125000 I20.272853 J-0.950759
G03 X168.605612 Y173.511917 Z-0.125000 I12.848365 J13.544051
G03 X184.199472 Y176.529141 Z-0.125000 I-49.294941 J296.575396
G02 X192.098427 Y177.637590 Z-0.125000 I11.029003 J-49.895419
G02 X198.422685 Y176.476714 Z-0.125000 I0.818995 J-13.345448
G02 X202.899399 Y172.679533 Z-0.125000 I-4.387037 J-9.709648
G02 X207.527231 Y161.698863 Z-0.125000 I-26.326969 J-17.561110
G02 X207.360754 Y138.491350 Z-0.125000 I-52.805687 J-11.225556
G02 X198.107731 Y120.043922 Z-0.125000 I-42.137998 J9.591627
G02 X182.956501 Y111.028507 Z-0.125000 I-20.821544 J17.753288
G02 X158.163710 Y114.573598 Z-0.125000 I-7.552020 J35.651952
G02 X146.561008 Y128.652109 Z-0.125000 I11.386340 J21.204367
G03 X138.640412 Y144.741183 Z-0.125000 I-54.813954 J-16.990544
G03 X133.914465 Y148.490987 Z-0.125000 I-8.745780 J-6.169466
G03 X127.304849 Y147.729763 Z-0.125000 I-2.607592 J-6.434449
G03 X119.833323 Y137.857833 Z-0.125000 I11.749399 J-16.655840
G03 X115.869031 Y126.125427 Z-0.125000 I434.240002 J-153.262399
G02 X110.814456 Y116.149343 Z-0.125000 I-34.125281 J11.021687
G02 X99.443449 Y108.742213 Z-0.125000 I-15.294000 J11.046856
G02 X90.379477 Y112.219035 Z-0.125000 I-1.853796 J8.720373
G02 X85.579087 Y121.354692 Z-0.125000 I28.887057 J21.007916
G03 X81.394556 Y131.114569 Z-0.125000 I-75.689867 J-26.674912
G03 X75.380448 Y133.510404 Z-0.125000 I-4.371644 J-2.227525
G03 X74.430889 Y132.862796 Z-0.125000 I0.756274 J-2.128846
G02 X50.729053 Y109.236305 Z-0.125000 I-175.762936 J152.621480
G02 X41.047066 Y101.761239 Z-0.125000 I-73.490647 J85.180086
G02 X35.428728 Y99.334968 Z-0.125000 I-8.937679 J12.978208
G02 X32.299806 Y100.736794 Z-0.125000 I-0.610058 J2.831172
G02 X30.906924 Y108.728748 Z-0.125000 I10.472172 J5.942504
G00 Z10.000000

(End cutting path id: path18882)


(Start cutting path id: path18890)
(Change tool to Default tool)

G00 Z10.000000
G00 X21.735649 Y128.473457

G00 Z4.875000 (Fast pre-penetrate)
G01 Z-0.125000 F100.0(Penetrate)
G03 X22.411335 Y142.010476 Z-0.125000 I-39.083440 J8.736179 F800.000000
G02 X19.828293 Y165.594722 Z-0.125000 I1063.209889 J128.380596
G02 X19.017936 Y187.874104 Z-0.125000 I180.041918 J17.703003
G02 X23.536017 Y195.070407 Z-0.125000 I8.325661 J-0.210677
G02 X39.615315 Y193.996638 Z-0.125000 I7.147044 J-13.903317
G02 X50.283845 Y183.596232 Z-0.125000 I-25.995193 J-37.337341
G03 X61.108266 Y171.582496 Z-0.125000 I65.443293 J48.081361
G03 X77.136223 Y167.909796 Z-0.125000 I11.278203 J12.408984
G03 X90.032818 Y180.412254 Z-0.125000 I-5.480606 J18.556188
G03 X95.647069 Y204.044984 Z-0.125000 I-135.904955 J44.769155
G02 X99.944303 Y228.524748 Z-0.125000 I481.777912 J-71.955343
G02 X108.026928 Y235.855775 Z-0.125000 I9.017928 J-1.821319
G02 X129.285051 Y235.162618 Z-0.125000 I8.066560 J-78.934891
G02 X138.353352 Y231.515056 Z-0.125000 I-3.801449 J-22.547136
G02 X144.691691 Y224.035346 Z-0.125000 I-10.344857 J-15.191701
G02 X147.405563 Y214.708928 Z-0.125000 I-29.532081 J-13.651530
G02 X147.821751 Y192.573921 Z-0.125000 I-96.000585 J-12.876445
G03 X153.386914 Y176.513950 Z-0.125000 I20.323601 J-1.951604
G03 X169.133352 Y170.836656 Z-0.125000 I13.575740 J12.977763
G03 X184.950463 Y173.102053 Z-0.125000 I-34.957246 J300.423780
G02 X192.941868 Y173.827651 Z-0.125000 I8.630003 J-50.677311
G02 X199.239483 Y172.350399 Z-0.125000 I0.167093 J-13.449858
G02 X203.551115 Y168.314961 Z-0.125000 I-4.885294 J-9.540737
G02 X207.661570 Y157.054069 Z-0.125000 I-27.316561 J-16.351749
G02 X206.353799 Y133.743158 Z-0.125000 I-53.611234 J-8.684481
G02 X196.149719 Y115.661757 Z-0.125000 I-41.869240 J11.708546
G02 X180.482595 Y107.347577 Z-0.125000 I-20.049200 J18.861885
G02 X155.744817 Y112.128112 Z-0.125000 I-5.836277 J36.194497
G02 X144.778194 Y126.844506 Z-0.125000 I12.483137 J20.746752
G03 X137.610187 Y143.400179 Z-0.125000 I-55.912462 J-14.378492
G03 X133.045795 Y147.400261 Z-0.125000 I-9.091036 J-5.769353
G03 X126.366997 Y146.960197 Z-0.125000 I-2.936338 J-6.337227
G03 X118.374408 Y137.407976 Z-0.125000 I10.987372 J-17.313329
G03 X113.814486 Y125.813979 Z-0.125000 I428.797290 J-175.339800
G02 X108.245350 Y116.038330 Z-0.125000 I-33.747695 J12.751705
G02 X96.455659 Y109.154399 Z-0.125000 I-14.824650 J11.851569
G02 X87.518970 Y113.093370 Z-0.125000 I-1.434162 J8.853401
G02 X83.144457 Y122.508857 Z-0.125000 I30.058327 J19.689306
G03 X79.419441 Y132.521301 Z-0.125000 I-77.364667 J-23.083504
G03 X73.494157 Y135.224208 Z-0.125000 I-4.502131 J-2.023398
G03 X72.508206 Y134.620151 Z-0.125000 I0.655292 J-2.176249
G02 X47.531330 Y112.044851 Z-0.125000 I-169.107700 J161.992877
G02 X37.435443 Y105.009650 Z-0.125000 I-69.657968 J89.201212
G02 X31.670859 Y102.847817 Z-0.125000 I-8.342859 J13.479832
G02 X28.595784 Y104.410148 Z-0.125000 I-0.473858 J2.874764
G02 X27.588958 Y112.508978 Z-0.125000 I10.814556 J5.456437
G00 Z10.000000

(End cutting path id: path18890)


(Start cutting path id: path18894)
(Change tool to Default tool)

G00 Z10.000000
G00 X20.480762 Y130.611689

G00 Z4.875000 (Fast pre-penetrate)
G01 Z-0.125000 F100.0(Penetrate)
G03 X21.490004 Y144.168708 Z-0.125000 I-38.974880 J9.717532 F800.000000
G02 X19.477930 Y167.879942 Z-0.125000 I1069.228767 J102.672999
G02 X19.211350 Y190.239349 Z-0.125000 I180.961973 J13.338809
G02 X23.917981 Y197.344370 Z-0.125000 I8.342985 J-0.415270
G02 X40.014389 Y195.873670 Z-0.125000 I6.825637 J-14.116007
G02 X50.456864 Y185.183739 Z-0.125000 I-26.980367 J-36.801150
G03 X61.016115 Y172.872301 Z-0.125000 I66.798291 J46.607493
G03 X76.997355 Y168.796910 Z-0.125000 I11.612748 J12.166116
G03 X90.235157 Y181.017095 Z-0.125000 I-5.040677 J18.740605
G03 X96.443701 Y204.576067 Z-0.125000 I-135.174879 J48.220470
G02 X101.352427 Y229.016634 Z-0.125000 I481.315587 J-83.955837
G02 X109.636530 Y236.169388 Z-0.125000 I8.997646 J-2.047226
G02 X130.935077 Y234.953420 Z-0.125000 I6.154010 J-79.345737
G02 X139.938483 Y231.073784 Z-0.125000 I-4.364243 J-22.514870
G02 X146.110646 Y223.418551 Z-0.125000 I-10.745074 J-14.979221
G02 X148.603298 Y214.000441 Z-0.125000 I-29.946374 J-12.964699
G02 X148.478181 Y191.795455 Z-0.125000 I-96.575388 J-10.558678
G03 X153.664816 Y175.555735 Z-0.125000 I20.330663 J-2.454914
G03 X169.314654 Y169.477236 Z-0.125000 I13.930429 J12.680132
G03 X185.229995 Y171.361145 Z-0.125000 I-27.689608 J302.091647
G02 X193.260762 Y171.892869 Z-0.125000 I7.411438 J-51.025656
G02 X199.539184 Y170.257302 Z-0.125000 I-0.162051 J-13.490280
G02 X203.763571 Y166.105307 Z-0.125000 I-5.132288 J-9.446790
G02 X207.609176 Y154.713276 Z-0.125000 I-27.791035 J-15.726509
G02 X205.726628 Y131.371459 Z-0.125000 I-53.968834 J-7.394166
G02 X195.051898 Y113.491286 Z-0.125000 I-41.695381 J12.766190
G02 X179.138720 Y105.538583 Z-0.125000 I-19.641125 J19.404140
G02 X154.451284 Y110.938239 Z-0.125000 I-4.965074 J36.435270
G02 X143.815678 Y125.963120 Z-0.125000 I13.025262 J20.496877
G03 X137.034016 Y142.739160 Z-0.125000 I-56.415790 J-13.047154
G03 X132.555327 Y146.861895 Z-0.125000 I-9.256945 J-5.562126
G03 X125.847700 Y146.584309 Z-0.125000 I-3.099569 J-6.282395
G03 X117.599447 Y137.202155 Z-0.125000 I10.592773 J-17.629334
G03 X112.743093 Y125.688590 Z-0.125000 I425.659285 J-186.321535
G02 X106.919360 Y116.023015 Z-0.125000 I-33.526356 J13.613151
G02 X94.929135 Y109.409403 Z-0.125000 I-14.574260 J12.246862
G02 X86.064839 Y113.578009 Z-0.125000 I-1.221079 J8.912453
G02 X81.909243 Y123.126125 Z-0.125000 I30.622020 J19.005896
G03 X78.419525 Y133.256893 Z-0.125000 I-78.139292 J-21.249997
G03 X72.544475 Y136.112301 Z-0.125000 I-4.563873 J-1.918535
G03 X71.541060 Y135.530772 Z-0.125000 I0.603746 J-2.198200
G02 X45.943511 Y113.506576 Z-0.125000 I-165.594649 J166.574398
G02 X35.647958 Y106.699780 Z-0.125000 I-67.660149 J91.149095
G02 X29.814828 Y104.673374 Z-0.125000 I-8.035059 J13.720681
G02 X26.769735 Y106.315281 Z-0.125000 I-0.404690 J2.894140
G02 X25.958655 Y114.460656 Z-0.125000 I10.977477 J5.206156
G00 Z10.000000

(End cutting path id: path18894)


(Start cutting path id: path18898)
(Change tool to Default tool)

G00 Z10.000000
G00 X19.253497 Y132.785902

G00 Z4.875000 (Fast pre-penetrate)
G01 Z-0.125000 F100.0(Penetrate)
G03 X20.597684 Y146.354800 Z-0.125000 I-38.842022 J10.698870 F800.000000
G02 X19.161230 Y170.179376 Z-0.125000 I1074.630012 J76.748199
G02 X19.441859 Y192.605698 Z-0.125000 I181.777461 J8.940267
G02 X24.335314 Y199.614570 Z-0.125000 I8.355340 J-0.620840
G02 X40.439153 Y197.745449 Z-0.125000 I6.498152 J-14.321394
G02 X50.647867 Y186.770750 Z-0.125000 I-27.955056 J-36.239366
G03 X60.933937 Y174.167304 Z-0.125000 I68.120827 J45.096437
G03 X76.858466 Y169.689280 Z-0.125000 I11.942244 J11.914393
G03 X90.431479 Y181.618067 Z-0.125000 I-4.595041 J18.914737
G03 X97.234113 Y205.088520 Z-0.125000 I-134.358272 J51.663218
G02 X102.755024 Y229.474803 Z-0.125000 I480.558390 J-95.977492
G02 X111.236780 Y236.443869 Z-0.125000 I8.971778 J-2.273246
G02 X132.563047 Y234.702687 Z-0.125000 I4.226226 J-79.710819
G02 X141.495695 Y230.591941 Z-0.125000 I-4.927766 J-22.468724
G02 X147.496930 Y222.764782 Z-0.125000 I-11.141165 J-14.756361
G02 X149.765519 Y213.260154 Z-0.125000 I-30.344955 J-12.265862
G02 X149.095922 Y190.998268 Z-0.125000 I-97.094962 J-8.220570
G03 X153.898603 Y174.587591 Z-0.125000 I20.325407 J-2.959755
G03 X169.441749 Y168.109171 Z-0.125000 I14.278781 J12.373004
G03 X185.446236 Y169.608155 Z-0.125000 I-20.361545 J303.586495
G02 X193.511722 Y169.944517 Z-0.125000 I6.181043 J-51.345056
G02 X199.767019 Y168.150676 Z-0.125000 I-0.493075 J-13.522738
G02 X203.901067 Y163.883947 Z-0.125000 I-5.377648 J-9.346532
G02 X207.477890 Y152.366910 Z-0.125000 I-28.251487 J-15.087949
G02 X205.018255 Y129.008187 Z-0.125000 I-54.295792 J-6.091601
G02 X193.876535 Y111.341315 Z-0.125000 I-41.495144 J13.822431
G02 X177.725498 Y103.757095 Z-0.125000 I-19.218660 J19.937856
G02 X153.103712 Y109.776311 Z-0.125000 I-4.085619 J36.655338
G02 X142.807573 Y125.102401 Z-0.125000 I13.562724 J20.233042
G03 X136.418703 Y142.089930 Z-0.125000 I-56.887821 J-11.699879
G03 X132.028942 Y146.333554 Z-0.125000 I-9.418245 J-5.350303
G03 X125.296406 Y146.219589 Z-0.125000 I-3.261886 J-6.223406
G03 X116.795962 Y137.014226 Z-0.125000 I10.189362 J-17.936526
G03 X111.644348 Y125.588575 Z-0.125000 I422.241538 J-197.255097
G02 X105.568028 Y116.039610 Z-0.125000 I-33.283306 J14.471496
G02 X93.383354 Y109.701964 Z-0.125000 I-14.313505 J12.637085
G02 X84.597271 Y114.099052 Z-0.125000 I-1.005972 J8.966448
G02 X80.664434 Y123.774787 Z-0.125000 I31.170446 J18.306806
G03 X77.413553 Y134.018430 Z-0.125000 I-78.871059 J-19.392538
G03 X71.592610 Y137.025520 Z-0.125000 I-4.623213 J-1.811876
G03 X70.572236 Y136.467012 Z-0.125000 I0.551504 J-2.218922
G02 X44.365846 Y115.010616 Z-0.125000 I-161.959845 J171.082183
G02 X33.875684 Y108.437735 Z-0.125000 I-65.609213 J93.053283
G02 X27.977143 Y106.548800 Z-0.125000 I-7.720527 J13.954640
G02 X24.964061 Y108.269762 Z-0.125000 I-0.334861 J2.911874
G02 X24.350395 Y116.457010 Z-0.125000 I11.134700 J4.951210
G00 Z10.000000

(End cutting path id: path18898)


(Start cutting path id: path18902)
(Change tool to Default tool)

G00 Z10.000000
G00 X18.096954 Y134.994110

G00 Z4.875000 (Fast pre-penetrate)
G01 Z-0.125000 F100.0(Penetrate)
G03 X19.777285 Y148.566712 Z-0.125000 I-38.684704 J11.679607 F800.000000
G02 X18.920784 Y172.490830 Z-0.125000 I1079.415969 J50.621278
G02 X19.751737 Y194.970842 Z-0.125000 I182.487558 J4.509880
G02 X24.830161 Y201.878723 Z-0.125000 I8.362686 J-0.827267
G02 X40.931686 Y199.609920 Z-0.125000 I6.164747 J-14.519313
G02 X50.899030 Y188.355415 Z-0.125000 I-28.918620 J-35.652189
G03 X60.904025 Y175.465868 Z-0.125000 I69.409898 J43.548893
G03 X76.761822 Y170.585513 Z-0.125000 I12.266462 J11.653920
G03 X90.663812 Y182.213902 Z-0.125000 I-4.143936 J19.078423
G03 X98.059972 Y205.581036 Z-0.125000 I-133.455080 J55.095258
G02 X104.193391 Y229.897883 Z-0.125000 I479.504388 J-108.013068
G02 X112.868832 Y236.677919 Z-0.125000 I8.940300 J-2.499243
G02 X134.210025 Y234.409424 Z-0.125000 I2.284286 J-80.029658
G02 X143.066061 Y230.068678 Z-0.125000 I-5.491681 J-22.408646
G02 X148.891695 Y222.073319 Z-0.125000 I-11.532863 J-14.523191
G02 X150.933495 Y212.487430 Z-0.125000 I-30.727482 J-11.555368
G02 X149.716549 Y190.181833 Z-0.125000 I-97.558612 J-5.863407
G03 X154.130048 Y173.609144 Z-0.125000 I20.307770 J-3.465834
G03 X169.556412 Y166.732335 Z-0.125000 I14.620548 J12.056507
G03 X185.640855 Y167.843171 Z-0.125000 I-12.976982 J304.904925
G02 X193.736365 Y167.982793 Z-0.125000 I4.939506 J-51.635207
G02 X199.964596 Y166.030820 Z-0.125000 I-0.825786 J-13.547173
G02 X204.005250 Y161.651262 Z-0.125000 I-5.621208 J-9.239988
G02 X207.309500 Y150.015472 Z-0.125000 I-28.697509 J-14.436372
G02 X204.270806 Y126.653944 Z-0.125000 I-54.591687 J-4.777507
G02 X192.666061 Y109.212394 Z-0.125000 I-41.268485 J14.876622
G02 X176.285551 Y102.003479 Z-0.125000 I-18.781978 J20.462666
G02 X151.744777 Y108.642318 Z-0.125000 I-3.198399 J36.854442
G02 X141.796407 Y124.262105 Z-0.125000 I14.095173 J19.955325
G03 X135.806567 Y141.452076 Z-0.125000 I-57.328235 J-10.337440
G03 X131.508948 Y145.814730 Z-0.125000 I-9.574804 J-5.133967
G03 X124.755430 Y145.865445 Z-0.125000 I-3.423210 J-6.160277
G03 X116.006450 Y136.843529 Z-0.125000 I9.777344 J-18.234663
G03 X110.560932 Y125.513265 Z-0.125000 I418.549511 J-208.135743
G02 X104.234201 Y116.087415 Z-0.125000 I-33.018559 J15.326202
G02 X91.861315 Y110.031246 Z-0.125000 I-14.042481 J13.021971
G02 X83.159258 Y114.655516 Z-0.125000 I-0.788961 J9.015314
G02 X79.452908 Y124.453758 Z-0.125000 I31.703255 J17.592404
G03 X76.444273 Y134.804728 Z-0.125000 I-79.559221 J-17.512126
G03 X70.681300 Y137.962582 Z-0.125000 I-4.680098 J-1.703475
G03 X69.644482 Y137.427570 Z-0.125000 I0.498613 J-2.238427
G02 X42.841520 Y116.555430 Z-0.125000 I-158.204811 J175.513146
G02 X32.161958 Y110.221865 Z-0.125000 I-63.506095 J94.912384
G02 X26.201199 Y108.472374 Z-0.125000 I-7.399413 J14.181520
G02 X23.222152 Y110.271821 Z-0.125000 I-0.264408 J2.927943
G02 X22.807463 Y118.496217 Z-0.125000 I11.286102 J4.691719
G00 Z10.000000

(End cutting path id: path18902)


(Start cutting path id: path18906)
(Change tool to Default tool)

G00 Z10.000000
G00 X17.012182 Y137.225540

G00 Z4.875000 (Fast pre-penetrate)
G01 Z-0.125000 F100.0(Penetrate)
G03 X19.029653 Y150.793620 Z-0.125000 I-38.502994 J12.659135 F800.000000
G02 X18.757110 Y174.803336 Z-0.125000 I1083.569036 J24.306359
G02 X20.141192 Y197.323693 Z-0.125000 I183.090809 J0.050111
G02 X25.402613 Y204.125780 Z-0.125000 I8.364999 J-1.034434
G02 X41.492023 Y201.456277 Z-0.125000 I5.825594 J-14.709592
G02 X51.210487 Y189.927123 Z-0.125000 I-29.870380 J-35.039795
G03 X60.926636 Y176.757588 Z-0.125000 I70.664579 J41.965600
G03 X76.707663 Y171.475447 Z-0.125000 I12.585176 J11.384795
G03 X90.932154 Y182.794565 Z-0.125000 I-3.687604 J19.231496
G03 X98.920911 Y206.043559 Z-0.125000 I-132.465386 J58.514436
G02 X105.666790 Y230.275773 Z-0.125000 I478.152169 J-120.055182
G02 X114.531808 Y236.861525 Z-0.125000 I8.903200 J-2.725079
G02 X135.875046 Y234.063927 Z-0.125000 I0.329290 J-80.301769
G02 X144.648626 Y229.494437 Z-0.125000 I-6.055647 J-22.334589
G02 X150.294063 Y221.334725 Z-0.125000 I-11.919907 J-14.279796
G02 X152.106471 Y211.672913 Z-0.125000 I-31.093634 J-10.833584
G02 X150.339630 Y189.336900 Z-0.125000 I-97.965761 J-3.488525
G03 X154.358927 Y172.611300 Z-0.125000 I20.277681 J-3.972844
G03 X169.658432 Y165.337888 Z-0.125000 I14.955485 J11.730785
G03 X185.813533 Y166.057565 Z-0.125000 I-5.540155 J306.046025
G02 X193.934327 Y165.999180 Z-0.125000 I3.687499 J-51.895703
G02 X200.131544 Y163.889310 Z-0.125000 I-1.159996 J-13.563524
G02 X204.075788 Y159.398907 Z-0.125000 I-5.862820 J-9.127193
G02 X207.103822 Y147.650722 Z-0.125000 I-29.128776 J-13.772116
G02 X203.484437 Y124.300568 Z-0.125000 I-54.856192 J-3.452617
G02 X191.420940 Y107.096295 Z-0.125000 I-41.015372 J15.928098
G02 X174.819535 Y100.269325 Z-0.125000 I-18.331251 J20.978186
G02 X150.375172 Y107.527478 Z-0.125000 I-2.303898 J37.032354
G02 X140.782704 Y123.433241 Z-0.125000 I14.622256 J19.663809
G03 X135.197941 Y140.816416 Z-0.125000 I-57.736407 J-8.960502
G03 X130.995625 Y145.296166 Z-0.125000 I-9.726472 J-4.913199
G03 X124.225110 Y145.512520 Z-0.125000 I-3.583419 J-6.093035
G03 X115.231415 Y136.680636 Z-0.125000 I9.356899 J-18.523505
G03 X109.493539 Y125.453218 Z-0.125000 I414.579963 J-218.954859
G02 X102.918736 Y116.156953 Z-0.125000 I-32.732139 J16.176719
G02 X90.364024 Y110.387632 Z-0.125000 I-13.761295 J13.401259
G02 X81.751786 Y115.237639 Z-0.125000 I-0.570167 J9.058996
G02 X78.275537 Y125.153167 Z-0.125000 I32.219984 J16.863012
G03 X75.512431 Y135.605820 Z-0.125000 I-80.203290 J-15.609800
G03 X69.811281 Y138.913428 Z-0.125000 I-4.734481 J-1.593387
G03 X68.758555 Y138.402379 Z-0.125000 I0.445107 J-2.256688
G02 X41.371727 Y118.130690 Z-0.125000 I-154.330995 J179.863977
G02 X30.508117 Y112.041729 Z-0.125000 I-61.351712 J96.724930
G02 X24.488388 Y110.433586 Z-0.125000 I-7.071869 J14.401144
G02 X21.545392 Y112.310895 Z-0.125000 I-0.193372 J2.942330
G02 X21.331125 Y120.567665 Z-0.125000 I11.431556 J4.427819
G00 Z10.000000

(End cutting path id: path18906)


(Start cutting path id: path18910)
(Change tool to Default tool)

G00 Z10.000000
G00 X15.999604 Y139.474696

G00 Z4.875000 (Fast pre-penetrate)
G01 Z-0.125000 F100.0(Penetrate)
G03 X18.355016 Y153.029976 Z-0.125000 I-38.296743 J13.636854 F800.000000
G02 X18.670107 Y177.111212 Z-0.125000 I1087.091034 J-2.181389
G02 X20.609798 Y199.658471 Z-0.125000 I183.586554 J-4.436485
G02 X26.052116 Y206.349995 Z-0.125000 I8.362241 J-1.242216
G02 X42.119559 Y203.279003 Z-0.125000 I5.480860 J-14.892075
G02 X51.581741 Y191.480557 Z-0.125000 I-30.809729 J-34.402446
G03 X61.001404 Y178.037358 Z-0.125000 I71.883762 J40.347243
G03 X76.695610 Y172.354232 Z-0.125000 I12.898154 J11.107138
G03 X91.235898 Y183.355341 Z-0.125000 I-3.226283 J19.373799
G03 X99.815956 Y206.471352 Z-0.125000 I-131.389151 J61.918567
G02 X107.173873 Y230.603696 Z-0.125000 I476.501284 J-132.096678
G02 X116.224221 Y236.989992 Z-0.125000 I8.860464 J-2.950615
G02 X137.556540 Y233.661813 Z-0.125000 I-1.637651 J-80.526691
G02 X146.241836 Y228.864982 Z-0.125000 I-6.619319 J-22.246506
G02 X151.702561 Y220.544890 Z-0.125000 I-12.302031 J-14.026255
G02 X153.283096 Y210.812572 Z-0.125000 I-31.443090 J-10.100876
G02 X150.964128 Y188.459534 Z-0.125000 I-98.315827 J-1.097245
G03 X154.584410 Y171.590269 Z-0.125000 I20.235089 J-4.480489
G03 X169.746992 Y163.922295 Z-0.125000 I15.283339 J11.395971
G03 X185.963359 Y164.248027 Z-0.125000 I1.944680 J307.008875
G02 X194.104653 Y163.990480 Z-0.125000 I2.425725 J-52.126209
G02 X200.266903 Y161.723045 Z-0.125000 I-1.495511 J-13.571729
G02 X204.111759 Y157.123859 Z-0.125000 I-6.102321 J-9.008172
G02 X206.860076 Y145.269743 Z-0.125000 I-29.544935 J-13.095494
G02 X202.658709 Y121.945224 Z-0.125000 I-55.088944 J-2.117663
G02 X190.141033 Y104.990110 Z-0.125000 I-40.735818 J16.976219
G02 X173.327495 Y98.551528 Z-0.125000 I-17.866678 J21.484058
G02 X148.994986 Y106.428302 Z-0.125000 I-1.402627 J37.188813
G02 X139.766391 Y122.612087 Z-0.125000 I15.143602 J19.358581
G03 X134.592528 Y140.179065 Z-0.125000 I-58.111828 J-7.569819
G03 X130.488642 Y144.773894 Z-0.125000 I-9.873126 J-4.688098
G03 X123.705147 Y145.156746 Z-0.125000 I-3.742406 J-6.021675
G03 X114.470733 Y136.521406 Z-0.125000 I8.928234 J-18.802822
G03 X108.442227 Y125.404276 Z-0.125000 I410.332816 J-229.705027
G02 X101.621860 Y116.244024 Z-0.125000 I-32.424126 J17.022526
G02 X88.891863 Y110.766781 Z-0.125000 I-13.470052 J13.774673
G02 X80.375219 Y115.840934 Z-0.125000 I-0.349711 J9.097433
G02 X77.132568 Y125.868426 Z-0.125000 I32.720235 J16.118987
G03 X74.618146 Y136.417018 Z-0.125000 I-80.802337 J-13.686526
G03 X68.982653 Y139.873268 Z-0.125000 I-4.786316 J-1.481671
G03 X67.914559 Y139.386635 Z-0.125000 I0.391016 J-2.273702
G02 X39.957003 Y119.731328 Z-0.125000 I-150.340125 J184.131670
G02 X28.914842 Y113.892141 Z-0.125000 I-59.147104 J98.489594
G02 X22.839447 Y112.427171 Z-0.125000 I-6.738060 J14.613335
G02 X19.934509 Y114.381670 Z-0.125000 I-0.121791 J2.955015
G02 X19.922000 Y122.665989 Z-0.125000 I11.570934 J4.159641
G00 Z10.000000

(End cutting path id: path18910)


(Start cutting path id: path18918)
(Change tool to Default tool)

G00 Z10.000000
G00 X14.194020 Y144.022722

G00 Z4.875000 (Fast pre-penetrate)
G01 Z-0.125000 F100.0(Penetrate)
G03 X17.226909 Y157.527425 Z-0.125000 I-37.810708 J15.584450 F800.000000
G02 X18.726947 Y181.708958 Z-0.125000 I1092.211015 J-55.615152
G02 X21.784011 Y204.269301 Z-0.125000 I184.251155 J-13.479860
G02 X27.581340 Y210.725544 Z-0.125000 I8.341400 J-1.659137
G02 X43.575115 Y206.850179 Z-0.125000 I4.775366 J-15.233022
G02 X52.502977 Y194.530004 Z-0.125000 I-32.648515 J-33.053762
G03 X61.307286 Y180.559258 Z-0.125000 I74.212141 J37.008608
G03 X76.797663 Y174.077543 Z-0.125000 I13.506009 J10.526685
G03 X91.948490 Y184.416987 Z-0.125000 I-2.289704 J19.625498
G03 X101.705799 Y207.222487 Z-0.125000 I-128.978017 J68.673186
G02 X110.285038 Y231.109268 Z-0.125000 I472.300893 J-156.148759
G02 X119.692742 Y237.081503 Z-0.125000 I8.758061 J-3.400234
G02 X140.964067 Y232.688982 Z-0.125000 I-5.602874 J-80.833378
G02 X149.455390 Y227.442264 Z-0.125000 I-7.744412 J-22.028172
G02 X154.533494 Y218.813811 Z-0.125000 I-13.050476 J-13.489132
G02 X155.643349 Y208.957027 Z-0.125000 I-32.090658 J-8.604225
G02 X152.214731 Y186.610478 Z-0.125000 I-98.842440 J3.729040
G03 X155.023407 Y169.482195 Z-0.125000 I20.112192 J-5.496449
G03 X169.882063 Y161.032213 Z-0.125000 I15.916857 J10.699691
G03 X186.192405 Y160.562587 Z-0.125000 I17.041448 J308.389426
G02 X194.360185 Y159.903711 Z-0.125000 I-0.124264 J-52.496029
G02 X200.440634 Y157.322542 Z-0.125000 I-2.169660 J-13.563483
G02 X204.077956 Y152.512294 Z-0.125000 I-6.574351 J-8.751592
G02 X206.256935 Y140.466121 Z-0.125000 I-30.330549 J-11.706519
G02 X200.889124 Y117.235927 Z-0.125000 I-55.457886 J0.579410
G02 X187.478033 Y100.814454 Z-0.125000 I-40.097402 J19.059729
G02 X170.267244 Y95.171189 Z-0.125000 I-16.896780 J22.465377
G02 X146.204834 Y104.281616 Z-0.125000 I0.418214 J37.436553
G02 X137.727193 Y120.996733 Z-0.125000 I16.167755 J18.707449
G03 X133.391751 Y138.902439 Z-0.125000 I-58.763290 J-4.750422
G03 X129.493933 Y143.721040 Z-0.125000 I-10.151007 J-4.225463
G03 X122.696642 Y144.439090 Z-0.125000 I-4.056317 J-5.866702
G03 X112.993460 Y136.216041 Z-0.125000 I8.047132 J-19.331991
G03 X106.389637 Y125.341722 Z-0.125000 I401.017188 J-250.974531
G02 X99.086313 Y116.472603 Z-0.125000 I-31.743477 J18.697798
G02 X86.025942 Y111.594620 Z-0.125000 I-12.857883 J14.502864
G02 X77.717712 Y117.111704 Z-0.125000 I0.095685 J9.158357
G02 X74.952254 Y127.346765 Z-0.125000 I33.669701 J14.588506
G03 X72.944137 Y138.069642 Z-0.125000 I-81.863469 J-9.781435
G03 X67.451400 Y141.819456 Z-0.125000 I-4.882142 J-1.253579
G03 X66.354254 Y141.382974 Z-0.125000 I0.281149 J-2.303840
G02 X37.296354 Y123.007093 Z-0.125000 I-142.014134 J192.405207
G02 X25.914146 Y117.682480 Z-0.125000 I-54.591387 J101.869826
G02 X19.737548 Y116.509031 Z-0.125000 I-6.052309 J15.014725
G02 X16.914693 Y118.615685 Z-0.125000 I0.022843 J2.975207
G02 X17.309242 Y126.940449 Z-0.125000 I11.830985 J3.611006
G00 Z10.000000

(End cutting path id: path18918)


(Start cutting path id: path18922)
(Change tool to Default tool)

G00 Z10.000000
G00 X13.403201 Y146.319807

G00 Z4.875000 (Fast pre-penetrate)
G01 Z-0.125000 F100.0(Penetrate)
G03 X16.775220 Y159.786660 Z-0.125000 I-37.530930 J16.553110 F800.000000
G02 X18.871889 Y183.996736 Z-0.125000 I1093.798078 J-82.530567
G02 X22.490062 Y206.543088 Z-0.125000 I184.418441 J-18.031435
G02 X28.461259 Y212.874701 Z-0.125000 I8.323269 J-1.868027
G02 X44.403260 Y208.596936 Z-0.125000 I4.414971 J-15.391183
G02 X53.053321 Y196.024707 Z-0.125000 I-33.546678 J-32.342958
G03 X61.539047 Y181.800478 Z-0.125000 I75.319512 J35.289971
G03 X76.912416 Y174.921661 Z-0.125000 I13.800440 J10.224137
G03 X92.357533 Y184.917749 Z-0.125000 I-1.814954 J19.734608
G03 X102.700051 Y207.545730 Z-0.125000 I-127.643452 J72.019302
G02 X111.887815 Y231.286779 Z-0.125000 I469.749572 J-168.144283
G02 X121.467278 Y237.044603 Z-0.125000 I8.698389 J-3.624037
G02 X142.688409 Y232.118955 Z-0.125000 I-7.598869 J-80.914386
G02 X151.074090 Y226.649984 Z-0.125000 I-8.305138 J-21.897883
G02 X155.954464 Y217.873788 Z-0.125000 I-13.416277 J-13.205753
G02 X156.825772 Y207.963188 Z-0.125000 I-32.388169 J-7.841065
G02 X152.840283 Y185.640311 Z-0.125000 I-99.017992 J6.161289
G03 X155.236807 Y168.396941 Z-0.125000 I20.031820 J-6.004153
G03 X169.928518 Y159.560020 Z-0.125000 I16.222042 J10.338532
G03 X186.271399 Y158.689432 Z-0.125000 I24.644684 J308.804283
G02 X194.445091 Y157.828622 Z-0.125000 I-1.411039 J-52.634765
G02 X200.478709 Y155.091478 Z-0.125000 I-2.507899 J-13.546947
G02 X204.007977 Y150.179105 Z-0.125000 I-6.806568 J-8.614121
G02 X205.897645 Y138.047004 Z-0.125000 I-30.699330 J-10.994872
G02 X199.946071 Y114.885616 Z-0.125000 I-55.593449 J1.939994
G02 X186.096348 Y98.748441 Z-0.125000 I-39.738620 J20.093807
G02 X168.700789 Y93.511695 Z-0.125000 I-16.391886 J22.940109
G02 X144.796653 Y103.236385 Z-0.125000 I1.336743 J37.527401
G02 X136.705731 Y120.204393 Z-0.125000 I16.669861 J18.361773
G03 X132.797371 Y138.264695 Z-0.125000 I-59.038401 J-3.323224
G03 X129.007115 Y143.191826 Z-0.125000 I-10.281948 J-3.988097
G03 X122.209059 Y144.078388 Z-0.125000 I-4.211042 J-5.783145
G03 X112.278165 Y136.070913 Z-0.125000 I7.595125 J-19.581397
G03 X105.390027 Y125.329056 Z-0.125000 I395.950382 J-261.479719
G02 X97.849637 Y116.614957 Z-0.125000 I-31.371007 J19.526185
G02 X84.634458 Y112.043850 Z-0.125000 I-12.537209 J14.857120
G02 X76.438989 Y117.779430 Z-0.125000 I0.320372 J9.180744
G02 X73.916878 Y128.109900 Z-0.125000 I34.118119 J13.802810
G03 X72.166107 Y138.910944 Z-0.125000 I-82.324216 J-7.801745
G03 X66.750427 Y142.805486 Z-0.125000 I-4.926045 J-1.137325
G03 X65.639622 Y142.394712 Z-0.125000 I0.225450 J-2.316949
G02 X36.052938 Y124.681283 Z-0.125000 I-137.682680 J196.404952
G02 X24.509508 Y119.621216 Z-0.125000 I-52.242451 J103.482732
G02 X18.287473 Y118.595958 Z-0.125000 I-5.700712 J15.203590
G02 X15.508619 Y120.777478 Z-0.125000 I0.095813 J2.982682
G02 X16.108236 Y129.115055 Z-0.125000 I11.951423 J3.330834
G00 Z10.000000

(End cutting path id: path18922)


(Start cutting path id: path18926)
(Change tool to Default tool)

G00 Z10.000000
G00 X12.688425 Y148.631049

G00 Z4.875000 (Fast pre-penetrate)
G01 Z-0.125000 F100.0(Penetrate)
G03 X16.399562 Y162.051636 Z-0.125000 I-37.226637 J17.517525 F800.000000
G02 X19.095173 Y186.275716 Z-0.125000 I1094.730488 J-109.557569
G02 X23.275624 Y208.794294 Z-0.125000 I184.474676 J-22.599394
G02 X29.418106 Y214.996678 Z-0.125000 I8.299969 J-2.077037
G02 X45.298333 Y210.316693 Z-0.125000 I4.049725 J-15.540942
G02 X53.663666 Y197.498539 Z-0.125000 I-34.429848 J-31.608222
G03 X61.823737 Y183.027948 Z-0.125000 I76.387719 J33.539533
G03 X77.070056 Y175.753820 Z-0.125000 I14.088261 J9.913564
G03 X92.801843 Y185.398414 Z-0.125000 I-1.336250 J19.832381
G03 X103.726802 Y207.834055 Z-0.125000 I-126.223278 J75.341756
G02 X113.521164 Y231.414068 Z-0.125000 I466.897924 J-180.109903
G02 X123.267597 Y236.952694 Z-0.125000 I8.633072 J-3.846983
G02 X144.425332 Y231.493709 Z-0.125000 I-9.602235 J-80.946685
G02 X152.699640 Y225.804473 Z-0.125000 I-8.864185 J-21.753498
G02 X157.378128 Y216.884980 Z-0.125000 I-13.776123 J-12.912643
G02 X158.008925 Y206.926263 Z-0.125000 I-32.667787 J-7.068552
G02 X153.465639 Y184.640768 Z-0.125000 I-99.134419 J8.604413
G03 X155.446080 Y167.292105 Z-0.125000 I19.938775 J-6.511254
G03 X169.960916 Y158.071293 Z-0.125000 I16.519204 J9.968927
G03 X186.326598 Y156.797864 Z-0.125000 I32.278641 J309.034433
G02 X194.501269 Y155.734429 Z-0.125000 I-2.704689 J-52.742318
G02 X200.484105 Y152.842036 Z-0.125000 I-2.846647 J-13.522074
G02 X203.902524 Y147.829910 Z-0.125000 I-7.036044 J-8.470587
G02 X205.499993 Y135.618737 Z-0.125000 I-31.051678 J-10.272266
G02 X198.964764 Y112.540645 Z-0.125000 I-55.696061 J3.307585
G02 X184.682188 Y96.699284 Z-0.125000 I-39.353533 J21.121888
G02 X167.111323 Y91.874682 Z-0.125000 I-15.873996 J23.403752
G02 X143.380939 Y102.211416 Z-0.125000 I2.259979 J37.595991
G02 X135.683974 Y119.423521 Z-0.125000 I17.164832 J18.002855
G03 X132.207636 Y137.628368 Z-0.125000 I-59.279196 J-1.885424
G03 X128.527881 Y142.661689 Z-0.125000 I-10.407463 J-3.746920
G03 X121.733197 Y143.717234 Z-0.125000 I-4.364130 J-5.695566
G03 X111.579255 Y135.931494 Z-0.125000 I7.135785 J-19.820401
G03 X104.409282 Y125.329425 Z-0.125000 I390.612183 J-271.888922
G02 X96.634986 Y116.776574 Z-0.125000 I-30.977212 J20.347665
G02 X83.272098 Y112.516968 Z-0.125000 I-12.206986 J15.204477
G02 X75.195050 Y118.468872 Z-0.125000 I0.546217 J9.197687
G02 X72.919281 Y128.889046 Z-0.125000 I34.548513 J13.004006
G03 X71.428467 Y139.762164 Z-0.125000 I-82.737758 J-5.805420
G03 X66.093599 Y143.799939 Z-0.125000 I-4.967220 J-1.019681
G03 X64.969732 Y143.415276 Z-0.125000 I0.169289 J-2.328738
G02 X34.869069 Y126.379045 Z-0.125000 I-133.241473 J200.309281
G02 X23.170466 Y121.588191 Z-0.125000 I-49.847625 J105.042394
G02 X16.906503 Y120.712639 Z-0.125000 I-5.343535 J15.384347
G02 X14.173603 Y122.968147 Z-0.125000 I0.169164 J2.988390
G02 X14.979156 Y131.313547 Z-0.125000 I12.065324 J3.046955
G00 Z10.000000

(End cutting path id: path18926)


(Start cutting path id: path18930)
(Change tool to Default tool)

G00 Z10.000000
G00 X12.051154 Y150.955487

G00 Z4.875000 (Fast pre-penetrate)
G01 Z-0.125000 F100.0(Penetrate)
G03 X16.101191 Y164.321373 Z-0.125000 I-36.897873 J18.477085 F800.000000
G02 X19.397704 Y188.544814 Z-0.125000 I1095.001834 J-136.680288
G02 X24.141274 Y211.021761 Z-0.125000 I184.419005 J-27.181058
G02 X30.452338 Y217.090372 Z-0.125000 I8.271488 J-2.286042
G02 X46.260765 Y212.008597 Z-0.125000 I3.679824 J-15.682150
G02 X54.334573 Y198.950829 Z-0.125000 I-35.297408 J-30.849865
G03 X62.162073 Y184.241193 Z-0.125000 I77.415880 J31.758178
G03 X77.271313 Y176.573802 Z-0.125000 I14.369247 J9.595100
G03 X93.281929 Y185.858926 Z-0.125000 I-0.853856 J19.918682
G03 X104.786189 Y208.087437 Z-0.125000 I-124.717917 J78.638408
G02 X115.184843 Y231.491117 Z-0.125000 I463.744885 J-192.037756
G02 X125.093324 Y236.805859 Z-0.125000 I8.562115 J-4.068931
G02 X146.174422 Y230.813651 Z-0.125000 I-11.611806 J-80.929980
G02 X154.331658 Y224.906285 Z-0.125000 I-9.421204 J-21.595025
G02 X158.804205 Y215.848055 Z-0.125000 I-14.129758 J-12.609925
G02 X159.192662 Y205.846986 Z-0.125000 I-32.929228 J-6.287102
G02 X154.090989 Y183.612641 Z-0.125000 I-99.191272 J11.056986
G03 X155.651639 Y166.168594 Z-0.125000 I19.833064 J-7.017450
G03 X169.979712 Y156.567188 Z-0.125000 I16.808108 J9.591039
G03 X186.358385 Y154.889271 Z-0.125000 I39.938885 J309.078322
G02 X194.529073 Y153.622640 Z-0.125000 I-4.004472 J-52.818480
G02 X200.457187 Y150.575823 Z-0.125000 I-3.185700 J-13.488834
G02 X203.762014 Y145.466392 Z-0.125000 I-7.262621 J-8.321041
G02 X205.064556 Y133.183096 Z-0.125000 I-31.387255 J-9.539069
G02 X197.946139 Y110.202828 Z-0.125000 I-55.765413 J4.681371
G02 X183.236793 Y94.668688 Z-0.125000 I-38.942203 J22.143303
G02 X165.500247 Y90.261639 Z-0.125000 I-15.343344 J23.855955
G02 X141.959084 Y101.207814 Z-0.125000 I3.187392 J37.642141
G02 X134.663123 Y118.655019 Z-0.125000 I17.652359 J17.630842
G03 X131.623514 Y136.994219 Z-0.125000 I-59.485503 J-0.437857
G03 X128.057166 Y142.131307 Z-0.125000 I-10.527377 J-3.501991
G03 X121.269999 Y143.356208 Z-0.125000 I-4.515487 J-5.604006
G03 X110.897843 Y135.798271 Z-0.125000 I6.669348 J-20.048793
G03 X103.448697 Y125.343274 Z-0.125000 I385.004422 J-282.195450
G02 X95.443814 Y116.957838 Z-0.125000 I-30.562252 J21.161740
G02 X81.940457 Y113.014192 Z-0.125000 I-11.867359 J15.544674
G02 X73.987450 Y119.180102 Z-0.125000 I0.773085 J9.209142
G02 X71.960886 Y129.684184 Z-0.125000 I34.960467 J12.192494
G03 X70.732497 Y140.623199 Z-0.125000 I-83.103454 J-3.793567
G03 X65.482170 Y144.802612 Z-0.125000 I-5.005623 J-0.900711
G03 X64.345836 Y144.444450 Z-0.125000 I0.112674 J-2.339173
G02 X33.746405 Y128.099842 Z-0.125000 I-128.692654 J204.115406
G02 X21.898807 Y123.582729 Z-0.125000 I-47.408141 J106.547619
G02 X15.596473 Y122.858314 Z-0.125000 I-4.980965 J15.556837
G02 X12.911465 Y125.186884 Z-0.125000 I0.242853 J2.992315
G02 X13.923701 Y133.535082 Z-0.125000 I12.172577 J2.759517
G00 Z10.000000

(End cutting path id: path18930)


(Start cutting path id: path18934)
(Change tool to Default tool)

G00 Z10.000000
G00 X11.492754 Y153.288448

G00 Z4.875000 (Fast pre-penetrate)
G01 Z-0.125000 F100.0(Penetrate)
G03 X15.881265 Y166.591183 Z-0.125000 I-36.544767 J19.431192 F800.000000
G02 X19.780288 Y190.799259 Z-0.125000 I1094.608183 J-163.882756
G02 X25.087478 Y213.220662 Z-0.125000 I184.250952 J-31.773745
G02 X31.564299 Y219.151005 Z-0.125000 I8.237803 J-2.494912
G02 X47.290886 Y213.668113 Z-0.125000 I3.305463 J-15.814678
G02 X55.066513 Y200.377229 Z-0.125000 I-36.148724 J-30.068201
G03 X62.554686 Y185.436053 Z-0.125000 I78.403198 J29.946836
G03 X77.516835 Y177.377698 Z-0.125000 I14.643182 J9.268887
G03 X93.798226 Y186.295551 Z-0.125000 I-0.368045 J19.993399
G03 X105.878274 Y208.302173 Z-0.125000 I-123.127648 J81.907041
G02 X116.878527 Y231.514232 Z-0.125000 I460.290935 J-203.920488
G02 X126.944008 Y236.600514 Z-0.125000 I8.485527 J-4.289738
G02 X147.935196 Y230.075523 Z-0.125000 I-13.626389 J-80.863989
G02 X155.969699 Y223.952306 Z-0.125000 I-9.975842 J-21.422473
G02 X160.232348 Y214.760012 Z-0.125000 I-14.476928 J-12.297723
G02 X160.376773 Y204.722414 Z-0.125000 I-33.172224 J-5.497134
G02 X154.716460 Y182.553043 Z-0.125000 I-99.188199 J13.517576
G03 X155.853851 Y165.023641 Z-0.125000 I19.714659 J-7.522420
G03 X169.985333 Y155.045188 Z-0.125000 I17.088535 J9.205051
G03 X186.367120 Y152.961373 Z-0.125000 I47.620813 J308.933961
G02 X194.528834 Y151.491095 Z-0.125000 I-5.309627 J-52.862996
G02 X200.398293 Y148.290779 Z-0.125000 I-3.524852 J-13.447192
G02 X203.586835 Y143.086564 Z-0.125000 I-7.486143 J-8.165536
G02 X204.591885 Y130.738177 Z-0.125000 I-31.705777 J-8.795667
G02 X196.891103 Y107.870289 Z-0.125000 I-55.801288 J6.060568
G02 X181.761361 Y92.654657 Z-0.125000 I-38.504739 J23.157400
G02 X163.868918 Y88.670349 Z-0.125000 I-14.800179 J24.296377
G02 X140.532421 Y100.222973 Z-0.125000 I4.118438 J37.665690
G02 X133.644309 Y117.896086 Z-0.125000 I18.132091 J17.245880
G03 X131.045901 Y136.359300 Z-0.125000 I-59.656910 J1.018676
G03 X127.595808 Y141.597656 Z-0.125000 I-10.641620 J-3.253467
G03 X120.820325 Y142.992190 Z-0.125000 I-4.665014 J-5.508493
G03 X110.234948 Y135.668017 Z-0.125000 I6.196052 J-20.266371
G03 X102.509480 Y125.367329 Z-0.125000 I379.127666 J-292.391388
G02 X94.277489 Y117.155409 Z-0.125000 I-30.126230 J21.967844
G02 X80.641027 Y113.532017 Z-0.125000 I-11.518479 J15.877464
G02 X72.817641 Y119.909470 Z-0.125000 I1.000847 J9.215067
G02 X71.043012 Y130.491581 Z-0.125000 I35.353670 J11.368700
G03 X70.079370 Y141.490238 Z-0.125000 I-83.420779 J-1.767327
G03 X64.917281 Y145.809600 Z-0.125000 I-5.041214 J-0.780479
G03 X63.769102 Y145.478312 Z-0.125000 I0.055679 J-2.348296
G02 X32.686502 Y129.839420 Z-0.125000 I-124.038220 J207.820279
G02 X20.696214 Y125.600440 Z-0.125000 I-44.925149 J107.997093
G02 X14.359107 Y125.028511 Z-0.125000 I-4.613187 J15.720911
G02 X11.723912 Y127.429167 Z-0.125000 I0.316837 J2.994444
G02 X12.943459 Y135.775104 Z-0.125000 I12.273072 J2.468673
G00 Z10.000000

(End cutting path id: path18934)


(Start cutting path id: path18938)
(Change tool to Default tool)

G00 Z10.000000
G00 X11.014127 Y155.625233

G00 Z4.875000 (Fast pre-penetrate)
G01 Z-0.125000 F100.0(Penetrate)
G03 X15.740480 Y168.856348 Z-0.125000 I-36.167250 J20.379204 F800.000000
G02 X20.243262 Y193.034254 Z-0.125000 I1093.549889 J-191.149470
G02 X26.114230 Y215.386155 Z-0.125000 I183.969949 J-36.374704
G02 X32.753869 Y221.173799 Z-0.125000 I8.198914 J-2.703521
G02 X48.388565 Y215.290712 Z-0.125000 I2.926844 J-15.938387
G02 X55.859491 Y201.773389 Z-0.125000 I-36.983182 J-29.263559
G03 X63.001745 Y186.608361 Z-0.125000 I79.348812 J28.106406
G03 X77.806825 Y178.161591 Z-0.125000 I14.909862 J8.935076
G03 X94.350721 Y186.704544 Z-0.125000 I0.120907 J20.056414
G03 X107.002675 Y208.474571 Z-0.125000 I-121.453002 J85.145545
G02 X118.601458 Y231.479749 Z-0.125000 I456.537135 J-215.750996
G02 X128.818763 Y236.333109 Z-0.125000 I8.403321 J-4.509265
G02 X149.706742 Y229.276098 Z-0.125000 I-15.644796 J-80.748450
G02 X157.612891 Y222.939456 Z-0.125000 I-10.527750 J-21.235863
G02 X161.661790 Y213.617879 Z-0.125000 I-14.817384 J-11.976169
G02 X161.560629 Y203.549635 Z-0.125000 I-33.396516 J-4.699079
G02 X155.341758 Y181.459102 Z-0.125000 I-99.124794 J15.984735
G03 X156.052652 Y163.854488 Z-0.125000 I19.583560 J-8.025853
G03 X169.977769 Y153.502789 Z-0.125000 I17.360256 J8.811144
G03 X186.352731 Y151.011902 Z-0.125000 I55.319971 J308.601128
G02 X194.500457 Y149.337647 Z-0.125000 I-6.619401 J-52.875651
G02 X200.307342 Y145.984854 Z-0.125000 I-3.863901 J-13.397131
G02 X203.376964 Y140.688448 Z-0.125000 I-7.706460 J-8.004137
G02 X204.082126 Y128.282085 Z-0.125000 I-32.006937 J-8.042456
G02 X195.800158 Y105.541152 Z-0.125000 I-55.803474 J7.444377
G02 X180.256690 Y90.655189 Z-0.125000 I-38.041246 J24.163519
G02 X162.218291 Y87.098583 Z-0.125000 I-14.244755 J24.724676
G02 X139.101874 Y99.254276 Z-0.125000 I5.052573 J37.666481
G02 X132.628247 Y117.143916 Z-0.125000 I18.603671 J16.848118
G03 X130.475275 Y135.720666 Z-0.125000 I-59.793083 J2.483353
G03 X127.144231 Y141.057716 Z-0.125000 I-10.750102 J-3.001487
G03 X120.384630 Y142.622050 Z-0.125000 I-4.812595 J-5.409043
G03 X109.591184 Y135.537496 Z-0.125000 I5.716150 J-20.472940
G03 X101.592429 Y125.398307 Z-0.125000 I372.987324 J-302.472480
G02 X93.136970 Y117.365939 Z-0.125000 I-29.669245 J22.765420
G02 X79.374888 Y114.066932 Z-0.125000 I-11.160499 J16.202608
G02 X71.686655 Y120.653324 Z-0.125000 I1.229369 J9.215428
G02 X70.166552 Y131.307502 Z-0.125000 I35.727734 J10.533045
G03 X69.469835 Y142.359478 Z-0.125000 I-83.689467 J0.272165
G03 X64.399655 Y146.817002 Z-0.125000 I-5.073951 J-0.659048
G03 X63.240261 Y146.513046 Z-0.125000 I-0.002058 J-2.355299
G02 X31.690477 Y131.593585 Z-0.125000 I-119.281322 J211.422544
G02 X19.563928 Y127.636964 Z-0.125000 I-42.400428 J109.390512
G02 X13.195694 Y127.218768 Z-0.125000 I-4.240439 J15.876447
G02 X10.612214 Y129.690473 Z-0.125000 I0.391062 J2.994754
G02 X12.039573 Y138.029053 Z-0.125000 I12.366693 J2.174581
G00 Z10.000000

(End cutting path id: path18938)


(Start cutting path id: path18946)
(Change tool to Default tool)

G00 Z10.000000
G00 X10.299734 Y160.305569

G00 Z4.875000 (Fast pre-penetrate)
G01 Z-0.125000 F100.0(Penetrate)
G03 X15.699031 Y173.368031 Z-0.125000 I-35.339656 J22.254568 F800.000000
G02 X21.411645 Y197.440902 Z-0.125000 I1089.412629 J-245.808887
G02 X28.409288 Y219.611752 Z-0.125000 I183.066882 J-45.590487
G02 X35.365273 Y225.100928 Z-0.125000 I8.105473 J-3.119442
G02 X50.786027 Y218.421214 Z-0.125000 I2.157650 J-16.158855
G02 X57.628587 Y204.471755 Z-0.125000 I-38.599106 J-27.586784
G03 X64.059922 Y188.882821 Z-0.125000 I81.111545 J24.342077
G03 X78.521084 Y179.667867 Z-0.125000 I15.420651 J8.245319
G03 X95.564351 Y187.438872 Z-0.125000 I1.107128 J20.146901
G03 X109.346987 Y208.691809 Z-0.125000 I-117.852605 J91.523521
G02 X122.132087 Y231.237594 Z-0.125000 I448.129544 J-239.224119
G02 X132.637026 Y235.612177 Z-0.125000 I8.222124 J-4.943912
G02 X153.278630 Y227.494731 Z-0.125000 I-19.688262 J-80.367852
G02 X160.911387 Y220.739089 Z-0.125000 I-11.621967 J-20.820595
G02 X164.521660 Y211.173718 Z-0.125000 I-15.477174 J-11.305575
G02 X163.925226 Y201.062038 Z-0.125000 I-33.788013 J-3.080456
G02 X156.590853 Y179.170910 Z-0.125000 I-98.815846 J20.932912
G03 X156.440016 Y161.446718 Z-0.125000 I19.283300 J-9.026842
G03 X169.923370 Y150.360922 Z-0.125000 I17.876734 J8.000370
G03 X186.254652 Y147.053340 Z-0.125000 I70.751658 J307.366498
G02 X194.359273 Y144.970629 Z-0.125000 I-9.249706 J-52.804559
G02 X200.029310 Y141.316347 Z-0.125000 I-4.540858 J-13.271657
G02 X202.853407 Y135.843624 Z-0.125000 I-8.136864 J-7.663900
G02 X202.952270 Y123.342955 Z-0.125000 I-32.556070 J-6.508198
G02 X193.512918 Y100.899687 Z-0.125000 I-55.705925 J10.222531
G02 X177.163172 Y86.706011 Z-0.125000 I-37.036667 J26.149166
G02 X158.863260 Y84.018773 Z-0.125000 I-13.098190 J25.543588
G02 X136.233069 Y97.368930 Z-0.125000 I6.927925 J37.599288
G02 X130.607475 Y115.662717 Z-0.125000 I19.521107 J16.014879
G03 X129.357074 Y134.434587 Z-0.125000 I-59.958565 J5.433717
G03 X126.272300 Y139.960993 Z-0.125000 I-10.949270 J-2.487607
G03 X119.557070 Y141.865043 Z-0.125000 I-5.101562 J-5.198552
G03 X108.363570 Y135.276852 Z-0.125000 I4.737526 J-20.852285
G03 X99.828085 Y125.481999 Z-0.125000 I359.916269 J-322.256678
G02 X90.937236 Y117.826541 Z-0.125000 I-28.693118 J24.332912
G02 X76.946860 Y115.187987 Z-0.125000 I-10.417909 J16.828977
G02 X69.545340 Y122.183871 Z-0.125000 I1.688157 J9.199319
G02 X68.541511 Y132.963976 Z-0.125000 I36.417137 J8.827906
G03 X68.384576 Y144.103328 Z-0.125000 I-84.078450 J4.386254
G03 X63.509075 Y148.831451 Z-0.125000 I-5.130737 J-0.412866
G03 X62.329162 Y148.582924 Z-0.125000 I-0.117522 J-2.367209
G02 X29.894501 Y135.142219 Z-0.125000 I-109.464060 J218.299542
G02 X17.515209 Y131.762534 Z-0.125000 I-37.228062 J111.999320
G02 X11.095805 Y131.655299 Z-0.125000 I-3.480567 J16.161138
G02 X8.621369 Y134.265859 Z-0.125000 I0.540126 J2.989946
G02 X10.465379 Y142.574394 Z-0.125000 I12.533035 J1.577296
G00 Z10.000000

(End cutting path id: path18946)


(Start cutting path id: path18950)
(Change tool to Default tool)

G00 Z10.000000
G00 X10.065649 Y162.646725

G00 Z4.875000 (Fast pre-penetrate)
G01 Z-0.125000 F100.0(Penetrate)
G03 X15.799629 Y175.612153 Z-0.125000 I-34.889749 J23.180689 F800.000000
G02 X22.117587 Y199.610044 Z-0.125000 I1086.330663 J-273.169183
G02 X29.677434 Y221.669286 Z-0.125000 I182.444031 J-50.199742
G02 X36.786721 Y227.002827 Z-0.125000 I8.050921 J-3.326495
G02 X52.085429 Y219.927182 Z-0.125000 I1.767497 J-16.255366
G02 X58.604629 Y205.772371 Z-0.125000 I-39.379370 J-26.715391
G03 X64.671317 Y189.983734 Z-0.125000 I81.927115 J22.420134
G03 X78.945716 Y180.389515 Z-0.125000 I15.664352 J7.889695
G03 X96.225442 Y187.763853 Z-0.125000 I1.603826 J20.174179
G03 X110.566112 Y208.736436 Z-0.125000 I-115.928062 J94.658733
G02 X123.938235 Y231.029802 Z-0.125000 I443.477442 J-250.851795
G02 X134.578745 Y235.158770 Z-0.125000 I8.123175 J-5.158750
G02 X155.077171 Y226.513569 Z-0.125000 I-21.710890 J-80.102425
G02 X162.564991 Y219.552637 Z-0.125000 I-12.163574 J-20.592023
G02 X165.950609 Y209.872963 Z-0.125000 I-15.796021 J-10.956832
G02 X165.104773 Y199.748591 Z-0.125000 I-33.954749 J-2.260784
G02 X157.214141 Y177.978078 Z-0.125000 I-98.569739 J23.410971
G03 X156.628559 Y160.209716 Z-0.125000 I19.114168 J-9.523765
G03 X169.876662 Y148.763567 Z-0.125000 I18.121064 J7.583898
G03 X186.170996 Y145.046845 Z-0.125000 I78.474972 J306.463024
G02 X194.246467 Y142.759901 Z-0.125000 I-10.568693 J-52.720504
G02 X199.842267 Y138.956803 Z-0.125000 I-4.878351 J-13.196227
G02 X202.539879 Y133.400094 Z-0.125000 I-8.346647 J-7.485201
G02 X202.332675 Y120.863244 Z-0.125000 I-32.803471 J-5.727973
G02 X192.317848 Y98.590682 Z-0.125000 I-55.605859 J11.615240
G02 X175.576126 Y84.759333 Z-0.125000 I-36.495891 J27.127386
G02 X157.160941 Y82.513285 Z-0.125000 I-12.507607 J25.933551
G02 X134.796789 Y96.454055 Z-0.125000 I7.868019 J37.531053
G02 X129.604301 Y114.935103 Z-0.125000 I19.966262 J15.579750
G03 X128.810534 Y133.788316 Z-0.125000 I-59.987231 J6.917705
G03 X125.852853 Y139.405243 Z-0.125000 I-11.039813 J-2.226015
G03 X119.166151 Y141.478992 Z-0.125000 I-5.242726 J-5.087568
G03 X107.780976 Y135.147313 Z-0.125000 I4.239319 J-21.024689
G03 X98.982411 Y125.535175 Z-0.125000 I352.990544 J-331.946325
G02 X89.879950 Y118.076917 Z-0.125000 I-28.174325 J25.101774
G02 X75.787135 Y115.774078 Z-0.125000 I-10.033642 J17.129719
G02 X68.537063 Y122.970234 Z-0.125000 I1.918151 J9.182796
G02 X67.794694 Y133.804052 Z-0.125000 I36.731823 J7.959329
G03 X67.910310 Y144.977333 Z-0.125000 I-84.198053 J6.458481
G03 X63.137509 Y149.837699 Z-0.125000 I-5.154708 J-0.288250
G03 X61.948320 Y149.617417 Z-0.125000 I-0.175854 J-2.370704
G02 X29.096694 Y136.935239 Z-0.125000 I-104.410136 J221.571505
G02 X16.601151 Y133.849787 Z-0.125000 I-34.584000 J113.214059
G02 X10.161781 Y133.899573 Z-0.125000 I-3.093931 J16.290075
G02 X7.744635 Y136.577821 Z-0.125000 I0.614855 J2.984786
G02 X9.797229 Y144.863608 Z-0.125000 I12.605537 J1.274430
G00 Z10.000000

(End cutting path id: path18950)


(Start cutting path id: path18954)
(Change tool to Default tool)

G00 Z10.000000
G00 X9.914682 Y164.986895

G00 Z4.875000 (Fast pre-penetrate)
G01 Z-0.125000 F100.0(Penetrate)
G03 X15.981871 Y177.846822 Z-0.125000 I-34.415909 J24.098276 F800.000000
G02 X22.904971 Y201.754698 Z-0.125000 I1082.571162 J-300.528213
G02 X31.025807 Y223.688257 Z-0.125000 I181.706646 J-54.806210
G02 X38.284991 Y228.861984 Z-0.125000 I7.991144 J-3.532769
G02 X53.451624 Y221.392329 Z-0.125000 I1.373926 J-16.342578
G02 X59.641560 Y207.039535 Z-0.125000 I-40.140390 J-25.822530
G03 X65.337724 Y191.059592 Z-0.125000 I82.697784 J20.473022
G03 X79.415562 Y181.089662 Z-0.125000 I15.899997 J7.527141
G03 X96.922668 Y188.060468 Z-0.125000 I2.102535 J20.189364
G03 X111.816009 Y208.738264 Z-0.125000 I-113.921452 J97.755223
G02 X125.770553 Y230.764145 Z-0.125000 I438.528048 J-262.396990
G02 X136.540979 Y234.643511 Z-0.125000 I8.018692 J-5.371742
G02 X156.882908 Y225.472639 Z-0.125000 I-23.732469 J-79.786707
G02 X164.220368 Y218.309416 Z-0.125000 I-12.701040 J-20.349559
G02 X167.377925 Y208.520634 Z-0.125000 I-16.107183 J-10.599332
G02 X166.281702 Y198.389648 Z-0.125000 I-34.101849 J-1.434812
G02 X157.836263 Y176.753704 Z-0.125000 I-98.262220 J25.889690
G03 X156.813677 Y158.951712 Z-0.125000 I18.932397 J-10.017885
G03 X169.817064 Y147.150000 Z-0.125000 I18.355849 J7.160315
G03 X186.064322 Y143.023941 Z-0.125000 I86.196880 J305.367475
G02 X194.105559 Y140.532928 Z-0.125000 I-11.889174 J-52.603891
G02 X199.623274 Y136.582432 Z-0.125000 I-5.214904 J-13.112316
G02 X202.192001 Y130.944611 Z-0.125000 I-8.552614 J-7.300876
G02 X201.677016 Y118.378983 Z-0.125000 I-33.032423 J-4.939576
G02 X191.089344 Y96.291691 Z-0.125000 I-55.471384 J13.009253
G02 X173.963465 Y82.833252 Z-0.125000 I-35.929688 J28.095000
G02 X155.443507 Y81.032411 Z-0.125000 I-11.905871 J26.310090
G02 X133.360584 Y95.558876 Z-0.125000 I8.808983 J37.439594
G02 X128.606959 Y114.217077 Z-0.125000 I20.401966 J15.132541
G03 X128.273058 Y133.140657 Z-0.125000 I-59.979744 J8.406410
G03 X125.445037 Y138.845231 Z-0.125000 I-11.124152 J-1.961478
G03 X118.791093 Y141.088440 Z-0.125000 I-5.381559 J-4.972839
G03 X107.220008 Y135.018660 Z-0.125000 I3.735550 J-21.185359
G03 X98.162133 Y125.596176 Z-0.125000 I345.808899 J-341.492539
G02 X88.852322 Y118.340836 Z-0.125000 I-27.635278 J25.859982
G02 X74.665015 Y116.377129 Z-0.125000 I-9.640966 J17.421857
G02 X67.571710 Y123.770384 Z-0.125000 I2.148358 J9.160588
G02 X67.092824 Y134.651652 Z-0.125000 I37.026071 J7.080693
G03 X67.482559 Y145.852275 Z-0.125000 I-84.267187 J8.539239
G03 X62.815974 Y150.842728 Z-0.125000 I-5.175693 J-0.162710
G03 X61.618178 Y150.650994 Z-0.125000 I-0.234424 J-2.372793
G02 X28.367048 Y138.739611 Z-0.125000 I-99.262390 J224.728516
G02 X15.762149 Y135.952036 Z-0.125000 I-31.903033 J114.367312
G02 X9.306609 Y136.159756 Z-0.125000 I-2.703090 J16.409888
G02 X6.948567 Y138.904471 Z-0.125000 I0.689659 J2.977779
G02 X9.209751 Y147.162334 Z-0.125000 I12.670809 J0.968967
G00 Z10.000000

(End cutting path id: path18954)


(Start cutting path id: path18958)
(Change tool to Default tool)

G00 Z10.000000
G00 X9.847575 Y167.324829

G00 Z4.875000 (Fast pre-penetrate)
G01 Z-0.125000 F100.0(Penetrate)
G03 X16.246289 Y180.070808 Z-0.125000 I-33.918323 J25.006742 F800.000000
G02 X23.773960 Y203.873594 Z-0.125000 I1078.130706 J-327.868936
G02 X32.454219 Y225.667381 Z-0.125000 I180.854279 J-59.407020
G02 X39.859792 Y230.677189 Z-0.125000 I7.926151 J-3.738136
G02 X54.884336 Y222.815696 Z-0.125000 I0.977153 J-16.420382
G02 X60.739267 Y208.272453 Z-0.125000 I-40.881593 J-24.908611
G03 X66.059219 Y192.109768 Z-0.125000 I83.422827 J18.501768
G03 X79.930756 Y181.767931 Z-0.125000 I16.127389 J7.157830
G03 X97.655964 Y188.328542 Z-0.125000 I2.602963 J20.192362
G03 X113.096245 Y208.697211 Z-0.125000 I-111.833550 J100.810900
G02 X127.628229 Y230.440613 Z-0.125000 I433.282132 J-273.851910
G02 X138.522810 Y234.066525 Z-0.125000 I7.908715 J-5.582754
G02 X158.694936 Y224.372399 Z-0.125000 I-25.751765 J-79.420596
G02 X165.876674 Y217.010023 Z-0.125000 I-13.234015 J-20.093269
G02 X168.802880 Y207.117428 Z-0.125000 I-16.410424 J-10.233243
G02 X167.455432 Y196.985946 Z-0.125000 I-34.229108 J-0.603005
G02 X158.456986 Y175.498530 Z-0.125000 I-97.893157 J28.367568
G03 X156.995393 Y157.673519 Z-0.125000 I18.738037 J-10.508888
G03 X169.744690 Y145.521280 Z-0.125000 I18.580886 J6.729830
G03 X185.934714 Y140.985932 Z-0.125000 I93.912792 J304.079682
G02 X193.936623 Y138.291138 Z-0.125000 I-13.210364 J-52.454600
G02 X199.372431 Y134.194758 Z-0.125000 I-5.550311 J-13.019934
G02 X201.809938 Y128.478763 Z-0.125000 I-8.754624 J-7.111007
G02 X200.985635 Y115.891819 Z-0.125000 I-33.242684 J-4.143441
G02 X189.828109 Y94.004333 Z-0.125000 I-55.302395 J14.403741
G02 X172.326175 Y80.929228 Z-0.125000 I-35.338232 J29.051344
G02 X153.712073 Y79.577365 Z-0.125000 I-11.293280 J26.672901
G02 X131.925492 Y94.684212 Z-0.125000 I9.750250 J37.324834
G02 X127.616258 Y113.509293 Z-0.125000 I20.827909 J14.673452
G03 X127.745184 Y132.492158 Z-0.125000 I-59.935756 J9.898937
G03 X125.049320 Y138.281439 Z-0.125000 I-11.202268 J-1.694176
G03 X118.432375 Y140.693767 Z-0.125000 I-5.517959 J-4.854391
G03 X106.681299 Y134.891148 Z-0.125000 I3.226484 J-21.334117
G03 X97.368060 Y125.665186 Z-0.125000 I338.374462 J-350.889081
G02 X87.855313 Y118.618395 Z-0.125000 I-27.076193 J26.607028
G02 X73.581571 Y116.997052 Z-0.125000 I-9.240071 J17.705163
G02 X66.650285 Y124.584098 Z-0.125000 I2.378645 J9.132680
G02 X66.436757 Y135.506487 Z-0.125000 I37.299570 J6.192472
G03 X67.102022 Y146.727808 Z-0.125000 I-84.285512 J10.627315
G03 X62.545128 Y151.846097 Z-0.125000 I-5.193660 J-0.036316
G03 X61.339396 Y151.683196 Z-0.125000 I-0.293201 J-2.373471
G02 X27.706576 Y140.554480 Z-0.125000 I-94.023380 J227.767887
G02 X14.999325 Y138.068266 Z-0.125000 I-29.186563 J115.457958
G02 X8.531443 Y138.434743 Z-0.125000 I-2.308257 J16.520438
G02 X6.234294 Y141.244655 Z-0.125000 I0.764493 J2.968920
G02 X8.703950 Y149.469409 Z-0.125000 I12.728778 J0.661076
G00 Z10.000000

(End cutting path id: path18958)


(Start cutting path id: path18962)
(Change tool to Default tool)

G00 Z10.000000
G00 X9.865003 Y169.659256

G00 Z4.875000 (Fast pre-penetrate)
G01 Z-0.125000 F100.0(Penetrate)
G03 X16.593343 Y182.282854 Z-0.125000 I-33.397122 J25.905458 F800.000000
G02 X24.724641 Y205.965452 Z-0.125000 I1073.006723 J-355.174119
G02 X33.962409 Y227.605380 Z-0.125000 I179.886842 J-63.999353
G02 X41.510750 Y232.447241 Z-0.125000 I7.855951 J-3.942465
G02 X56.383220 Y224.196333 Z-0.125000 I0.577403 J-16.488673
G02 X61.897574 Y209.470338 Z-0.125000 I-41.602382 J-23.974050
G03 X66.835817 Y193.133635 Z-0.125000 I84.101538 J16.507418
G03 X80.491383 Y182.423938 Z-0.125000 I16.346350 J6.781950
G03 X98.425230 Y188.567902 Z-0.125000 I3.104816 J20.183105
G03 X114.406353 Y208.613209 Z-0.125000 I-109.665193 J103.823722
G02 X129.510416 Y230.059217 Z-0.125000 I427.741054 J-285.209058
G02 X140.523272 Y233.427940 Z-0.125000 I7.793262 J-5.791636
G02 X160.512316 Y223.213307 Z-0.125000 I-27.767552 J-79.004021
G02 X167.533030 Y215.655056 Z-0.125000 I-13.762150 J-19.823227
G02 X170.224715 Y205.664038 Z-0.125000 I-16.705512 J-9.858733
G02 X168.625352 Y195.538214 Z-0.125000 I-34.336325 J0.234167
G02 X159.076047 Y174.213282 Z-0.125000 I-97.462389 J30.843103
G03 X157.173697 Y156.375949 Z-0.125000 I18.531115 J-10.996450
G03 X169.659629 Y143.878464 Z-0.125000 I18.795984 J6.292671
