%
(Header)
(Generated by gcodetools from Inkscape.)
(Using default header. To add your own header create file "header" in the output dir.)
M3
(Header end.)
G21 (All units in mm)

(Start cutting path id: polyline23787)
(Change tool to Default tool)

G00 Z3.000000
G00 X105.033440 Y136.044260

G00 Z4.875000 (Fast pre-penetrate)
G01 Z-0.125000 F400.0(Penetrate)
G01 X105.091585 Y136.383560 Z-0.125000 F800.000000
G01 X104.673387 Y135.840126 Z-0.125000
G01 X104.790930 Y135.275580 Z-0.125000
G01 X105.218610 Y135.488839 Z-0.125000
G01 X105.601832 Y136.162876 Z-0.125000
G01 X105.702200 Y136.866881 Z-0.125000
G01 X105.470782 Y137.250818 Z-0.125000
G01 X104.842992 Y136.977894 Z-0.125000
G01 X104.259840 Y136.014382 Z-0.125000
G01 X104.084599 Y134.967500 Z-0.125000
G01 X104.404667 Y134.395083 Z-0.125000
G01 X105.233012 Y134.735545 Z-0.125000
G01 X106.016273 Y135.993182 Z-0.125000
G01 X106.267908 Y137.378827 Z-0.125000
G01 X105.859102 Y138.134626 Z-0.125000
G01 X104.826711 Y137.730382 Z-0.125000
G01 X103.851034 Y136.195706 Z-0.125000
G01 X103.523453 Y134.464320 Z-0.125000
G01 X104.022429 Y133.506087 Z-0.125000
G01 X104.591984 Y133.533639 Z-0.125000
G01 X105.256271 Y133.987798 Z-0.125000
G01 X106.425616 Y135.808906 Z-0.125000
G01 X106.837552 Y137.881292 Z-0.125000
G01 X106.662133 Y138.619468 Z-0.125000
G01 X106.256547 Y139.018344 Z-0.125000
G01 X105.589756 Y139.001616 Z-0.125000
G01 X104.815977 Y138.491638 Z-0.125000
G01 X103.450906 Y136.399035 Z-0.125000
G01 X102.964722 Y133.977152 Z-0.125000
G01 X103.164831 Y133.089320 Z-0.125000
G01 X103.634555 Y132.616017 Z-0.125000
G01 X104.395632 Y132.642496 Z-0.125000
G01 X105.276129 Y133.232357 Z-0.125000
G01 X106.840952 Y135.635544 Z-0.125000
G01 X107.410864 Y138.387334 Z-0.125000
G01 X107.188481 Y139.369988 Z-0.125000
G01 X106.652919 Y139.904835 Z-0.125000
G01 X105.792996 Y139.891685 Z-0.125000
G01 X104.800322 Y139.252267 Z-0.125000
G01 X103.046394 Y136.593867 Z-0.125000
G01 X102.411806 Y133.464938 Z-0.125000
G01 X102.663977 Y132.322876 Z-0.125000
G01 X103.264036 Y131.715750 Z-0.125000
G01 X104.202321 Y131.747685 Z-0.125000
G01 X105.294557 Y132.470475 Z-0.125000
G01 X106.356199 Y133.752175 Z-0.125000
G01 X107.250294 Y135.441786 Z-0.125000
G01 X107.822264 Y137.242141 Z-0.125000
G01 X107.989365 Y138.885147 Z-0.125000
G01 X107.721539 Y140.118452 Z-0.125000
G01 X107.057162 Y140.790342 Z-0.125000
G01 X106.005718 Y140.786764 Z-0.125000
G01 X104.796118 Y140.028103 Z-0.125000
G01 X103.622479 Y138.637537 Z-0.125000
G01 X102.652080 Y136.816250 Z-0.125000
G01 X102.036814 Y134.837881 Z-0.125000
G01 X101.863362 Y132.970793 Z-0.125000
G01 X102.164197 Y131.561889 Z-0.125000
G01 X102.893785 Y130.811816 Z-0.125000
G01 X104.017777 Y130.850281 Z-0.125000
G01 X105.338121 Y131.725590 Z-0.125000
G01 X106.611502 Y133.265544 Z-0.125000
G01 X107.667956 Y135.260552 Z-0.125000
G01 X108.365520 Y137.436973 Z-0.125000
G01 X108.572874 Y139.402729 Z-0.125000
G01 X108.257727 Y140.873624 Z-0.125000
G01 X107.465968 Y141.676207 Z-0.125000
G01 X106.223181 Y141.685421 Z-0.125000
G01 X104.798086 Y140.815121 Z-0.125000
G01 X103.406894 Y139.187412 Z-0.125000
G01 X102.264385 Y137.059029 Z-0.125000
G01 X101.528267 Y134.696006 Z-0.125000
G01 X101.321359 Y132.478795 Z-0.125000
G01 X101.671841 Y130.795446 Z-0.125000
G01 X102.533732 Y129.900277 Z-0.125000
G01 X103.841016 Y129.949477 Z-0.125000
G01 X105.379091 Y130.971312 Z-0.125000
G01 X106.853296 Y132.750020 Z-0.125000
G01 X108.088212 Y135.076902 Z-0.125000
G01 X108.914589 Y137.638781 Z-0.125000
G01 X109.162735 Y139.928093 Z-0.125000
G01 X108.804292 Y141.622803 Z-0.125000
G01 X107.885508 Y142.560015 Z-0.125000
G01 X106.440465 Y142.586046 Z-0.125000
G01 X104.800770 Y141.608848 Z-0.125000
G01 X103.191310 Y139.745964 Z-0.125000
G01 X101.879732 Y137.314063 Z-0.125000
G01 X101.032243 Y134.598591 Z-0.125000
G01 X100.786155 Y131.999678 Z-0.125000
G01 X101.190488 Y130.017731 Z-0.125000
G01 X102.178867 Y128.982656 Z-0.125000
G01 X103.664522 Y129.041517 Z-0.125000
G01 X105.417735 Y130.206837 Z-0.125000
G01 X107.102516 Y132.236374 Z-0.125000
G01 X108.505337 Y134.875630 Z-0.125000
G01 X109.461512 Y137.809818 Z-0.125000
G01 X109.760379 Y140.430021 Z-0.125000
G01 X109.361682 Y142.365810 Z-0.125000
G01 X108.305317 Y143.446327 Z-0.125000
G01 X106.652651 Y143.487297 Z-0.125000
G01 X104.783505 Y142.392199 Z-0.125000
G01 X102.970447 Y140.306484 Z-0.125000
G01 X101.494095 Y137.573569 Z-0.125000
G01 X100.535236 Y134.480332 Z-0.125000
G01 X100.259985 Y131.490594 Z-0.125000
G01 X100.717096 Y129.236796 Z-0.125000
G01 X101.841088 Y128.054032 Z-0.125000
G01 X103.503326 Y128.131321 Z-0.125000
G01 X105.485810 Y129.461147 Z-0.125000
G01 X107.364348 Y131.731226 Z-0.125000
G01 X108.941426 Y134.707993 Z-0.125000
G01 X110.022211 Y138.018693 Z-0.125000
G01 X110.365358 Y140.944293 Z-0.125000
G01 X109.923633 Y143.116778 Z-0.125000
G01 X108.746684 Y144.325841 Z-0.125000
G01 X106.886842 Y144.397404 Z-0.125000
G01 X104.786099 Y143.200328 Z-0.125000
G01 X102.769980 Y140.907527 Z-0.125000
G01 X101.115346 Y137.856781 Z-0.125000
G01 X100.045206 Y134.379339 Z-0.125000
G01 X99.741509 Y131.007184 Z-0.125000
G01 X100.259627 Y128.436538 Z-0.125000
G01 X100.803419 Y127.603630 Z-0.125000
G01 X101.512791 Y127.117178 Z-0.125000
G01 X102.368242 Y126.987380 Z-0.125000
G01 X103.362525 Y127.220677 Z-0.125000
G01 X105.576695 Y128.727533 Z-0.125000
G01 X107.643624 Y131.241554 Z-0.125000
G01 X109.379841 Y134.533468 Z-0.125000
G01 X110.594897 Y138.253958 Z-0.125000
G01 X110.977851 Y141.501950 Z-0.125000
G01 X110.488268 Y143.880448 Z-0.125000
G01 X109.172396 Y145.215015 Z-0.125000
G01 X108.199224 Y145.438293 Z-0.125000
G01 X107.094733 Y145.302412 Z-0.125000
G01 X104.776259 Y144.005863 Z-0.125000
G01 X102.560568 Y141.506691 Z-0.125000
G01 X100.743038 Y138.164235 Z-0.125000
G01 X99.562153 Y134.296236 Z-0.125000
G01 X99.231888 Y130.530840 Z-0.125000
G01 X99.806094 Y127.645584 Z-0.125000
G01 X100.409195 Y126.710967 Z-0.125000
G01 X101.194960 Y126.171647 Z-0.125000
G01 X102.142996 Y126.036750 Z-0.125000
G01 X103.229686 Y126.304218 Z-0.125000
G01 X105.657294 Y127.974507 Z-0.125000
G01 X107.910645 Y130.720841 Z-0.125000
G01 X109.820939 Y134.351518 Z-0.125000
G01 X111.160069 Y138.429199 Z-0.125000
G01 X111.599915 Y142.012644 Z-0.125000
G01 X111.078844 Y144.609142 Z-0.125000
G01 X110.461789 Y145.505831 Z-0.125000
G01 X109.635590 Y146.089967 Z-0.125000
G01 X108.563034 Y146.350547 Z-0.125000
G01 X107.344668 Y146.221375 Z-0.125000
G01 X104.789677 Y144.839218 Z-0.125000
G01 X102.355450 Y142.124552 Z-0.125000
G01 X100.377081 Y138.496379 Z-0.125000
G01 X99.092787 Y134.266268 Z-0.125000
G01 X98.731660 Y130.061474 Z-0.125000
G01 X99.371973 Y126.830746 Z-0.125000
G01 X100.026420 Y125.809716 Z-0.125000
G01 X100.888401 Y125.217082 Z-0.125000
G01 X101.912025 Y125.077354 Z-0.125000
G01 X103.086648 Y125.374163 Z-0.125000
G01 X105.743885 Y127.216651 Z-0.125000
G01 X108.179902 Y130.190556 Z-0.125000
G01 X110.265080 Y134.161965 Z-0.125000
G01 X111.738032 Y138.630828 Z-0.125000
G01 X112.230567 Y142.547938 Z-0.125000
G01 X111.663428 Y145.369413 Z-0.125000
G01 X110.999141 Y146.328094 Z-0.125000
G01 X110.094490 Y146.969212 Z-0.125000
G01 X108.918615 Y147.264053 Z-0.125000
G01 X107.582706 Y147.139265 Z-0.125000
G01 X106.198223 Y146.605939 Z-0.125000
G01 X104.809268 Y145.685634 Z-0.125000
G01 X102.174752 Y142.790091 Z-0.125000
G01 X100.017027 Y138.853659 Z-0.125000
G01 X98.624047 Y134.223688 Z-0.125000
G01 X98.241183 Y129.598996 Z-0.125000
G01 X98.942146 Y126.027447 Z-0.125000
G01 X99.656259 Y124.899519 Z-0.125000
G01 X100.594007 Y124.253034 Z-0.125000
G01 X101.690268 Y124.109728 Z-0.125000
G01 X102.969821 Y124.444913 Z-0.125000
G01 X105.859281 Y126.475523 Z-0.125000
G01 X108.472596 Y129.682367 Z-0.125000
G01 X110.712619 Y133.964629 Z-0.125000
G01 X112.322437 Y138.829864 Z-0.125000
G01 X112.870523 Y143.084127 Z-0.125000
G01 X112.267243 Y146.108931 Z-0.125000
G01 X111.547227 Y147.147047 Z-0.125000
G01 X110.563230 Y147.846221 Z-0.125000
G01 X109.282425 Y148.177828 Z-0.125000
G01 X107.826826 Y148.060911 Z-0.125000
G01 X106.319702 Y147.503522 Z-0.125000
G01 X104.810162 Y146.525609 Z-0.125000
G01 X101.956931 Y143.416002 Z-0.125000
G01 X99.662520 Y139.236344 Z-0.125000
G01 X98.161747 Y134.200520 Z-0.125000
G01 X97.760635 Y129.143763 Z-0.125000
G01 X98.000104 Y126.981118 Z-0.125000
G01 X98.525289 Y125.218155 Z-0.125000
G01 X99.299694 Y123.980019 Z-0.125000
G01 X100.312584 Y123.279325 Z-0.125000
G01 X101.497316 Y123.135393 Z-0.125000
G01 X102.862387 Y123.509580 Z-0.125000
G01 X105.984786 Y125.733053 Z-0.125000
G01 X108.793737 Y129.203876 Z-0.125000
G01 X111.181448 Y133.800480 Z-0.125000
G01 X112.923658 Y139.067544 Z-0.125000
G01 X113.519960 Y143.621389 Z-0.125000
G01 X113.353039 Y145.397949 Z-0.125000
G01 X112.881973 Y146.845318 Z-0.125000
G01 X112.105868 Y147.962601 Z-0.125000
G01 X111.041810 Y148.720725 Z-0.125000
G01 X109.654376 Y149.091513 Z-0.125000
G01 X108.077030 Y148.985957 Z-0.125000
G01 X106.444938 Y148.408262 Z-0.125000
G01 X104.812936 Y147.376139 Z-0.125000
G01 X101.762726 Y144.089592 Z-0.125000
G01 X99.295400 Y139.602211 Z-0.125000
G01 X97.705710 Y134.197299 Z-0.125000
G01 X97.291805 Y128.657132 Z-0.125000
G01 X97.563836 Y126.278277 Z-0.125000
G01 X98.132406 Y124.378806 Z-0.125000
G01 X98.971308 Y123.035651 Z-0.125000
G01 X100.062202 Y122.289425 Z-0.125000
G01 X101.317155 Y122.153096 Z-0.125000
G01 X102.787782 Y122.578362 Z-0.125000
G01 X104.426851 Y123.549655 Z-0.125000
G01 X106.146698 Y125.014736 Z-0.125000
G01 X109.100923 Y128.689067 Z-0.125000
G01 X111.657076 Y133.634543 Z-0.125000
G01 X113.533647 Y139.309160 Z-0.125000
G01 X114.178611 Y144.195595 Z-0.125000
G01 X114.002655 Y146.059552 Z-0.125000
G01 X113.495986 Y147.601832 Z-0.125000
G01 X112.658427 Y148.791663 Z-0.125000
G01 X111.529962 Y149.592457 Z-0.125000
G01 X110.009151 Y150.007345 Z-0.125000
G01 X108.305496 Y149.908677 Z-0.125000
G01 X106.545037 Y149.306203 Z-0.125000
G01 X104.817319 Y148.236868 Z-0.125000
G01 X103.161343 Y146.731711 Z-0.125000
G01 X101.571384 Y144.781431 Z-0.125000
G01 X98.930606 Y139.987670 Z-0.125000
G01 X97.246720 Y134.165543 Z-0.125000
G01 X96.831742 Y128.213797 Z-0.125000
G01 X97.128194 Y125.635817 Z-0.125000
G01 X97.744265 Y123.554933 Z-0.125000
G01 X98.645158 Y122.095488 Z-0.125000
G01 X99.810030 Y121.295499 Z-0.125000
G01 X101.150233 Y121.162838 Z-0.125000
G01 X102.701727 Y121.631668 Z-0.125000
G01 X104.464690 Y122.696888 Z-0.125000
G01 X106.295192 Y124.271819 Z-0.125000
G01 X109.415175 Y128.169607 Z-0.125000
G01 X112.119912 Y133.419316 Z-0.125000
G01 X114.141488 Y139.507569 Z-0.125000
G01 X114.847281 Y144.738045 Z-0.125000
G01 X114.661932 Y146.722229 Z-0.125000
G01 X114.131380 Y148.333210 Z-0.125000
G01 X113.254639 Y149.583064 Z-0.125000
G01 X112.027685 Y150.461146 Z-0.125000
G01 X110.395325 Y150.920315 Z-0.125000
G01 X108.565539 Y150.839895 Z-0.125000
G01 X106.675372 Y150.224182 Z-0.125000
G01 X104.823044 Y149.107615 Z-0.125000
G01 X103.051672 Y147.520876 Z-0.125000
G01 X101.355262 Y145.453411 Z-0.125000
G01 X98.567691 Y140.392718 Z-0.125000
G01 X97.534942 Y137.412373 Z-0.125000
G01 X96.801596 Y134.200162 Z-0.125000
G01 X96.411576 Y130.919518 Z-0.125000
G01 X96.384024 Y127.733070 Z-0.125000
G01 X96.719656 Y124.920541 Z-0.125000
G01 X97.382780 Y122.697067 Z-0.125000
G01 X98.350496 Y121.128309 Z-0.125000
G01 X99.592031 Y120.284845 Z-0.125000
G01 X100.974814 Y120.161846 Z-0.125000
G01 X102.626317 Y120.679070 Z-0.125000
G01 X104.514158 Y121.842154 Z-0.125000
G01 X106.484387 Y123.557527 Z-0.125000
G01 X109.763689 Y127.688075 Z-0.125000
G01 X112.609227 Y133.246848 Z-0.125000
G01 X114.769456 Y139.754373 Z-0.125000
G01 X115.525434 Y145.282195 Z-0.125000
G01 X115.337222 Y147.352613 Z-0.125000
G01 X114.777060 Y149.061278 Z-0.125000
G01 X113.844232 Y150.387525 Z-0.125000
G01 X112.558954 Y151.314539 Z-0.125000
G01 X110.789192 Y151.832300 Z-0.125000
G01 X108.831129 Y151.773618 Z-0.125000
G01 X106.809017 Y151.148512 Z-0.125000
G01 X104.829753 Y149.988112 Z-0.125000
G01 X102.941375 Y148.321939 Z-0.125000
G01 X101.166603 Y146.178795 Z-0.125000
G01 X99.547661 Y143.625325 Z-0.125000
G01 X98.227317 Y140.869151 Z-0.125000
G01 X97.132487 Y137.694332 Z-0.125000
G01 X96.371053 Y134.312964 Z-0.125000
G01 X95.963053 Y130.786858 Z-0.125000
G01 X95.941673 Y127.351459 Z-0.125000
G01 X96.302263 Y124.315741 Z-0.125000
G01 X97.025947 Y121.857987 Z-0.125000
G01 X98.057981 Y120.166945 Z-0.125000
G01 X99.371884 Y119.270524 Z-0.125000
G01 X100.834907 Y119.155576 Z-0.125000
G01 X102.561910 Y119.720837 Z-0.125000
G01 X104.575614 Y120.985808 Z-0.125000
G01 X106.657481 Y122.815415 Z-0.125000
G01 X110.094938 Y127.162889 Z-0.125000
G01 X113.106682 Y133.073128 Z-0.125000
G01 X115.407354 Y140.005918 Z-0.125000
G01 X116.010633 Y143.108906 Z-0.125000
G01 X116.213068 Y145.828313 Z-0.125000
G01 X116.015374 Y148.016005 Z-0.125000
G01 X115.432670 Y149.786214 Z-0.125000
G01 X114.443485 Y151.188051 Z-0.125000
G01 X113.076357 Y152.175268 Z-0.125000
G01 X111.190573 Y152.742855 Z-0.125000
G01 X109.102175 Y152.709488 Z-0.125000
G01 X106.945613 Y152.078925 Z-0.125000
G01 X104.837267 Y150.877824 Z-0.125000
G01 X102.863192 Y149.168623 Z-0.125000
G01 X100.979555 Y146.921265 Z-0.125000
G01 X99.263734 Y144.231914 Z-0.125000
G01 X97.867801 Y141.316333 Z-0.125000
G01 X96.716794 Y137.942389 Z-0.125000
G01 X95.925750 Y134.334254 Z-0.125000
G01 X95.517839 Y130.619668 Z-0.125000
G01 X95.511577 Y126.933529 Z-0.125000
G01 X95.913674 Y123.633027 Z-0.125000
G01 X96.685306 Y121.011840 Z-0.125000
G01 X97.800084 Y119.176597 Z-0.125000
G01 X99.189039 Y118.239475 Z-0.125000
G01 X100.734271 Y118.145727 Z-0.125000
G01 X102.565220 Y118.785414 Z-0.125000
G01 X104.712389 Y120.176785 Z-0.125000
G01 X106.941588 Y122.173402 Z-0.125000
G01 X110.494172 Y126.729036 Z-0.125000
G01 X113.636877 Y132.955675 Z-0.125000
G01 X116.055539 Y140.262294 Z-0.125000
G01 X116.697015 Y143.551167 Z-0.125000
G01 X116.910274 Y146.376578 Z-0.125000
G01 X116.710076 Y148.643616 Z-0.125000
G01 X116.098120 Y150.508110 Z-0.125000
G01 X115.052221 Y151.984283 Z-0.125000
G01 X113.602526 Y153.031971 Z-0.125000
G01 X111.599378 Y153.651441 Z-0.125000
G01 X109.342538 Y153.641959 Z-0.125000
G01 X107.047859 Y152.999409 Z-0.125000
G01 X104.845497 Y151.776391 Z-0.125000
G01 X102.752716 Y149.993927 Z-0.125000
G01 X100.761376 Y147.636362 Z-0.125000
G01 X98.980522 Y144.856841 Z-0.125000
G01 X97.508821 Y141.782658 Z-0.125000
G01 X96.319796 Y138.271222 Z-0.125000
G01 X95.494134 Y134.434800 Z-0.125000
G01 X95.079066 Y130.469385 Z-0.125000
G01 X95.090606 Y126.525170 Z-0.125000
G01 X95.529647 Y122.992535 Z-0.125000
G01 X96.360855 Y120.158983 Z-0.125000
G01 X97.543887 Y118.193853 Z-0.125000
G01 X99.003332 Y117.205116 Z-0.125000
G01 X100.600090 Y117.120761 Z-0.125000
G01 X102.526397 Y117.818861 Z-0.125000
G01 X104.801933 Y119.321871 Z-0.125000
G01 X107.179178 Y121.473334 Z-0.125000
G01 X110.876857 Y126.252424 Z-0.125000
G01 X114.153385 Y132.783207 Z-0.125000
G01 X116.713833 Y140.524037 Z-0.125000
G01 X117.393327 Y144.000585 Z-0.125000
G01 X117.616157 Y146.974579 Z-0.125000
G01 X117.398157 Y149.347263 Z-0.125000
G01 X116.757039 Y151.257468 Z-0.125000
G01 X115.669366 Y152.776400 Z-0.125000
G01 X114.136478 Y153.884469 Z-0.125000
G01 X112.014625 Y154.557791 Z-0.125000
G01 X109.621367 Y154.580959 Z-0.125000
G01 X107.187497 Y153.940199 Z-0.125000
G01 X104.853548 Y152.683278 Z-0.125000
G01 X102.640182 Y150.829787 Z-0.125000
G01 X100.574327 Y148.409425 Z-0.125000
G01 X98.666806 Y145.445539 Z-0.125000
G01 X97.149394 Y142.267857 Z-0.125000
G01 X95.906696 Y138.559086 Z-0.125000
G01 X95.065469 Y134.558158 Z-0.125000
G01 X94.645661 Y130.336724 Z-0.125000
G01 X94.678669 Y126.127010 Z-0.125000
G01 X95.158233 Y122.354726 Z-0.125000
G01 X96.053133 Y119.299239 Z-0.125000
G01 X97.306386 Y117.200822 Z-0.125000
G01 X98.857343 Y116.154298 Z-0.125000
G01 X100.531657 Y116.097852 Z-0.125000
G01 X102.530064 Y116.864117 Z-0.125000
G01 X104.939155 Y118.494509 Z-0.125000
G01 X107.469725 Y120.816382 Z-0.125000
G01 X109.481371 Y123.156415 Z-0.125000
G01 X111.271887 Y125.778317 Z-0.125000
G01 X114.705944 Y132.674610 Z-0.125000
G01 X117.382682 Y140.791326 Z-0.125000
G01 X118.091517 Y144.399551 Z-0.125000
G01 X118.330986 Y147.480443 Z-0.125000
G01 X118.117906 Y149.933814 Z-0.125000
G01 X117.455140 Y151.942508 Z-0.125000
G01 X116.318535 Y153.540070 Z-0.125000
G01 X114.708806 Y154.716393 Z-0.125000
G01 X112.436312 Y155.461368 Z-0.125000
G01 X109.904758 Y155.520944 Z-0.125000
G01 X107.329372 Y154.885730 Z-0.125000
G01 X104.861420 Y153.598037 Z-0.125000
G01 X102.564594 Y151.714131 Z-0.125000
G01 X100.387457 Y149.197874 Z-0.125000
G01 X98.381179 Y146.103206 Z-0.125000
G01 X96.789252 Y142.771574 Z-0.125000
G01 X95.493597 Y138.864841 Z-0.125000
G01 X94.628575 Y134.632047 Z-0.125000
G01 X94.214312 Y130.151286 Z-0.125000
G01 X94.275231 Y125.739584 Z-0.125000
G01 X94.809809 Y121.668165 Z-0.125000
G01 X95.762496 Y118.432786 Z-0.125000
G01 X97.088208 Y116.197862 Z-0.125000
G01 X98.708313 Y115.100706 Z-0.125000
G01 X100.427443 Y115.058484 Z-0.125000
G01 X102.548492 Y115.907583 Z-0.125000
G01 X105.129156 Y117.700514 Z-0.125000
G01 X107.780668 Y120.169718 Z-0.125000
G01 X109.883736 Y122.646794 Z-0.125000
G01 X111.713432 Y125.363160 Z-0.125000
G01 X115.243295 Y132.504915 Z-0.125000
G01 X118.045627 Y140.997339 Z-0.125000
G01 X118.798652 Y144.800485 Z-0.125000
G01 X119.054223 Y148.036580 Z-0.125000
G01 X118.829693 Y150.600426 Z-0.125000
G01 X118.145905 Y152.655279 Z-0.125000
G01 X116.952676 Y154.322079 Z-0.125000
G01 X115.291153 Y155.541429 Z-0.125000
G01 X112.863814 Y156.361814 Z-0.125000
G01 X110.192264 Y156.461108 Z-0.125000
G01 X107.473035 Y155.835286 Z-0.125000
G01 X104.868755 Y154.519952 Z-0.125000
G01 X102.449377 Y152.570745 Z-0.125000
G01 X100.162659 Y149.950900 Z-0.125000
G01 X98.094567 Y146.777422 Z-0.125000
G01 X96.427857 Y143.293360 Z-0.125000
G01 X95.079961 Y139.188486 Z-0.125000
G01 X94.204025 Y134.798074 Z-0.125000
G01 X93.790210 Y130.051365 Z-0.125000
G01 X93.879754 Y125.363786 Z-0.125000
G01 X94.463711 Y121.033845 Z-0.125000
G01 X95.488945 Y117.559892 Z-0.125000
G01 X96.889798 Y115.184972 Z-0.125000
G01 X98.578067 Y114.037990 Z-0.125000
G01 X100.365452 Y114.018042 Z-0.125000
G01 X102.549386 Y114.931280 Z-0.125000
G01 X105.263874 Y116.852667 Z-0.125000
G01 X108.072915 Y119.492102 Z-0.125000
G01 X110.229835 Y122.048524 Z-0.125000
G01 X112.100501 Y124.839853 Z-0.125000
G01 X115.791202 Y132.335489 Z-0.125000
G01 X118.735050 Y141.273574 Z-0.125000
G01 X119.523858 Y145.267435 Z-0.125000
G01 X119.785511 Y148.595847 Z-0.125000
G01 X119.557224 Y151.224638 Z-0.125000
G01 X118.843916 Y153.365277 Z-0.125000
G01 X117.619646 Y155.073226 Z-0.125000
G01 X115.849169 Y156.377110 Z-0.125000
G01 X113.296593 Y157.258503 Z-0.125000
G01 X110.438173 Y157.397246 Z-0.125000
G01 X107.618219 Y156.788331 Z-0.125000
G01 X104.875196 Y155.448397 Z-0.125000
G01 X102.331208 Y153.436035 Z-0.125000
G01 X99.933656 Y150.713675 Z-0.125000
G01 X97.771548 Y147.405838 Z-0.125000
G01 X96.036316 Y143.762190 Z-0.125000
G01 X94.665072 Y139.529754 Z-0.125000
G01 X93.769367 Y134.906939 Z-0.125000
G01 X93.369596 Y129.970857 Z-0.125000
G01 X93.491523 Y125.000245 Z-0.125000
G01 X94.129420 Y120.403730 Z-0.125000
G01 X95.232749 Y116.680646 Z-0.125000
G01 X96.711605 Y114.162421 Z-0.125000
G01 X98.490849 Y112.959709 Z-0.125000
G01 X100.348366 Y112.979031 Z-0.125000
G01 X102.630790 Y113.992279 Z-0.125000
G01 X105.530805 Y116.105992 Z-0.125000
G01 X108.466245 Y118.911008 Z-0.125000
G01 X110.669591 Y121.560552 Z-0.125000
G01 X112.608243 Y124.499748 Z-0.125000
G01 X116.380437 Y132.241830 Z-0.125000
G01 X118.119874 Y136.986302 Z-0.125000
G01 X119.435387 Y141.556517 Z-0.125000
G01 X120.249152 Y145.675883 Z-0.125000
G01 X120.524582 Y149.158425 Z-0.125000
G01 X120.282787 Y151.894024 Z-0.125000
G01 X119.548547 Y154.072591 Z-0.125000
G01 X118.268010 Y155.844858 Z-0.125000
G01 X116.448333 Y157.188281 Z-0.125000
G01 X113.734113 Y158.151166 Z-0.125000
G01 X110.730241 Y158.336962 Z-0.125000
G01 X107.764477 Y157.744239 Z-0.125000
G01 X104.880473 Y156.382746 Z-0.125000
G01 X102.209729 Y154.309198 Z-0.125000
G01 X99.741151 Y151.539874 Z-0.125000
G01 X97.479749 Y148.108680 Z-0.125000
G01 X95.669464 Y144.315285 Z-0.125000
G01 X94.248484 Y139.888375 Z-0.125000
G01 X93.334888 Y135.031191 Z-0.125000
G01 X92.949877 Y129.826120 Z-0.125000
G01 X93.109821 Y124.649853 Z-0.125000
G01 X93.819551 Y119.716811 Z-0.125000
G01 X94.993816 Y115.795318 Z-0.125000
G01 X96.553987 Y113.130388 Z-0.125000
G01 X98.400232 Y111.879729 Z-0.125000
G01 X100.292278 Y111.921057 Z-0.125000
G01 X102.660489 Y113.013561 Z-0.125000
G01 X105.740128 Y115.303499 Z-0.125000
G01 X108.841863 Y118.300662 Z-0.125000
G01 X111.047983 Y120.975342 Z-0.125000
G01 X113.059629 Y124.047021 Z-0.125000
G01 X116.951870 Y132.077861 Z-0.125000
G01 X118.771101 Y137.053393 Z-0.125000
G01 X120.127495 Y141.768613 Z-0.125000
G01 X120.972747 Y146.016704 Z-0.125000
G01 X121.270630 Y149.665183 Z-0.125000
G01 X121.033129 Y152.469572 Z-0.125000
G01 X120.278135 Y154.739651 Z-0.125000
G01 X118.950098 Y156.583302 Z-0.125000
G01 X117.055458 Y157.991580 Z-0.125000
G01 X114.175659 Y159.039267 Z-0.125000
G01 X111.024904 Y159.275248 Z-0.125000
G01 X107.859924 Y158.686013 Z-0.125000
G01 X104.884052 Y157.322283 Z-0.125000
G01 X102.131904 Y155.233438 Z-0.125000
G01 X99.547035 Y152.378150 Z-0.125000
G01 X97.185355 Y148.825745 Z-0.125000
G01 X95.299660 Y144.884661 Z-0.125000
G01 X93.829302 Y140.264083 Z-0.125000
G01 X92.910786 Y135.260731 Z-0.125000
G01 X92.535525 Y129.870489 Z-0.125000
G01 X92.733935 Y124.313236 Z-0.125000
G01 X93.508250 Y119.093494 Z-0.125000
G01 X94.753363 Y114.949350 Z-0.125000
G01 X96.395743 Y112.114367 Z-0.125000
G01 X97.331344 Y111.257217 Z-0.125000
G01 X98.329832 Y110.791697 Z-0.125000
G01 X100.252650 Y110.857536 Z-0.125000
G01 X102.704053 Y112.033590 Z-0.125000
G01 X105.967968 Y114.508698 Z-0.125000
G01 X109.240203 Y117.704181 Z-0.125000
G01 X111.526563 Y120.512238 Z-0.125000
G01 X113.564777 Y123.667288 Z-0.125000
G01 X117.568210 Y131.997889 Z-0.125000
G01 X119.434046 Y137.125046 Z-0.125000
G01 X120.848853 Y142.062649 Z-0.125000
G01 X121.724968 Y146.501098 Z-0.125000
G01 X122.023655 Y150.232770 Z-0.125000
G01 X121.770500 Y153.140657 Z-0.125000
G01 X120.994664 Y155.440704 Z-0.125000
G01 X119.638985 Y157.314769 Z-0.125000
G01 X117.669919 Y158.786649 Z-0.125000
G01 X114.667747 Y159.911804 Z-0.125000
G01 X111.374043 Y160.213712 Z-0.125000
G01 X108.058781 Y159.662137 Z-0.125000
G01 X104.938708 Y158.297334 Z-0.125000
G01 X102.054257 Y156.166535 Z-0.125000
G01 X99.351041 Y153.227696 Z-0.125000
G01 X96.848560 Y149.487258 Z-0.125000
G01 X94.926278 Y145.469602 Z-0.125000
G01 X93.428726 Y140.745168 Z-0.125000
G01 X92.485431 Y135.514602 Z-0.125000
G01 X92.120279 Y129.851704 Z-0.125000
G01 X92.354828 Y124.076719 Z-0.125000
G01 X93.192209 Y118.545408 Z-0.125000
G01 X94.528207 Y114.102487 Z-0.125000
G01 X96.279542 Y111.065248 Z-0.125000
G01 X97.239385 Y110.180278 Z-0.125000
G01 X98.280095 Y109.696062 Z-0.125000
G01 X100.259359 Y109.797861 Z-0.125000
G01 X102.761930 Y111.053172 Z-0.125000
G01 X106.214593 Y113.722575 Z-0.125000
G01 X109.615016 Y117.070845 Z-0.125000
G01 X111.894846 Y119.882033 Z-0.125000
G01 X114.006323 Y123.158919 Z-0.125000
G01 X118.130340 Y131.755557 Z-0.125000
G01 X120.051190 Y137.024410 Z-0.125000
G01 X121.539261 Y142.193968 Z-0.125000
G01 X122.452767 Y146.764988 Z-0.125000
G01 X122.782316 Y150.675479 Z-0.125000
G01 X122.542758 Y153.658955 Z-0.125000
G01 X121.756277 Y156.058832 Z-0.125000
G01 X120.364280 Y158.008755 Z-0.125000
G01 X118.330449 Y159.550945 Z-0.125000
G01 X115.166454 Y160.776736 Z-0.125000
G01 X111.674788 Y161.146898 Z-0.125000
G01 X108.205933 Y160.622786 Z-0.125000
G01 X104.940408 Y159.245638 Z-0.125000
G01 X101.924728 Y157.061256 Z-0.125000
G01 X99.105758 Y154.027864 Z-0.125000
G01 X96.505145 Y150.156286 Z-0.125000
G01 X94.516131 Y145.986737 Z-0.125000
G01 X92.981007 Y141.064967 Z-0.125000
G01 X92.035476 Y135.596005 Z-0.125000
G01 X91.704406 Y129.756435 Z-0.125000
G01 X91.995848 Y123.684731 Z-0.125000
G01 X92.915795 Y117.866183 Z-0.125000
G01 X94.338564 Y113.205261 Z-0.125000
G01 X96.161909 Y110.034825 Z-0.125000
G01 X97.168806 Y109.095556 Z-0.125000
G01 X98.251380 Y108.593360 Z-0.125000
G01 X100.254260 Y108.725305 Z-0.125000
G01 X102.871958 Y110.098338 Z-0.125000
G01 X106.572500 Y113.028142 Z-0.125000
G01 X110.106567 Y116.556842 Z-0.125000
G01 X112.412338 Y119.444155 Z-0.125000
G01 X114.544658 Y122.798061 Z-0.125000
G01 X116.699341 Y126.932634 Z-0.125000
G01 X118.774142 Y131.687930 Z-0.125000
G01 X120.766198 Y137.191510 Z-0.125000
G01 X122.280836 Y142.496949 Z-0.125000
G01 X123.221358 Y147.259491 Z-0.125000
G01 X123.547508 Y151.246733 Z-0.125000
G01 X123.289701 Y154.331203 Z-0.125000
G01 X122.482287 Y156.753265 Z-0.125000
G01 X121.065422 Y158.725551 Z-0.125000
G01 X118.958418 Y160.327945 Z-0.125000
G01 X115.620255 Y161.646231 Z-0.125000
G01 X111.976428 Y162.076953 Z-0.125000
G01 X108.352370 Y161.583613 Z-0.125000
G01 X104.939513 Y160.196805 Z-0.125000
G01 X101.790278 Y157.960539 Z-0.125000
G01 X98.902786 Y154.895212 Z-0.125000
G01 X96.196886 Y150.905913 Z-0.125000
G01 X94.132730 Y146.597351 Z-0.125000
G01 X92.550464 Y141.489337 Z-0.125000
G01 X91.604844 Y135.889683 Z-0.125000
G01 X91.288534 Y129.776741 Z-0.125000
G01 X91.621751 Y123.489453 Z-0.125000
G01 X92.615587 Y117.340550 Z-0.125000
G01 X94.143823 Y112.355804 Z-0.125000
G01 X96.088110 Y108.970141 Z-0.125000
G01 X97.144385 Y107.986503 Z-0.125000
G01 X98.244045 Y107.484128 Z-0.125000
G01 X100.266963 Y107.648903 Z-0.125000
G01 X102.921963 Y109.094572 Z-0.125000
G01 X106.861705 Y112.266350 Z-0.125000
G01 X110.525660 Y115.951058 Z-0.125000
G01 X112.858625 Y118.891775 Z-0.125000
G01 X115.058125 Y122.374674 Z-0.125000
G01 X117.244117 Y126.589398 Z-0.125000
G01 X119.358994 Y131.444167 Z-0.125000
G01 X121.401949 Y137.082555 Z-0.125000
G01 X122.987882 Y142.622633 Z-0.125000
G01 X123.962038 Y147.513899 Z-0.125000
G01 X124.317082 Y151.682822 Z-0.125000
G01 X124.072067 Y154.839482 Z-0.125000
G01 X123.254277 Y157.359854 Z-0.125000
G01 X121.802882 Y159.402899 Z-0.125000
G01 X119.633528 Y161.071577 Z-0.125000
G01 X116.128176 Y162.495420 Z-0.125000
G01 X112.278336 Y163.003251 Z-0.125000
G01 X108.497733 Y162.543904 Z-0.125000
G01 X104.935398 Y161.149939 Z-0.125000
G01 X101.650551 Y158.863579 Z-0.125000
G01 X98.645874 Y155.707635 Z-0.125000
G01 X95.840232 Y151.589879 Z-0.125000
G01 X93.709522 Y147.132466 Z-0.125000
G01 X92.114822 Y141.928826 Z-0.125000
G01 X91.159183 Y136.100348 Z-0.125000
G01 X90.871409 Y129.711708 Z-0.125000
G01 X91.269570 Y123.121438 Z-0.125000
G01 X92.358138 Y116.669912 Z-0.125000
G01 X93.963036 Y111.507063 Z-0.125000
G01 X96.011537 Y107.926837 Z-0.125000
G01 X97.117996 Y106.886932 Z-0.125000
G01 X98.258537 Y106.368903 Z-0.125000
G01 X100.297824 Y106.569280 Z-0.125000
G01 X103.024746 Y108.118090 Z-0.125000
G01 X107.220774 Y111.561809 Z-0.125000
G01 X111.017568 Y115.417285 Z-0.125000
G01 X113.369766 Y118.416326 Z-0.125000
G01 X115.587873 Y121.959607 Z-0.125000
G01 X117.844444 Y126.338032 Z-0.125000
G01 X119.992955 Y131.293884 Z-0.125000
G01 X122.077954 Y137.064754 Z-0.125000
G01 X123.702174 Y142.741875 Z-0.125000
G01 X124.720520 Y147.845595 Z-0.125000
G01 X125.091040 Y152.113008 Z-0.125000
G01 X124.847814 Y155.397945 Z-0.125000
G01 X124.030739 Y157.959645 Z-0.125000
G01 X122.545620 Y160.071837 Z-0.125000
G01 X120.358644 Y161.778176 Z-0.125000
G01 X116.695405 Y163.320277 Z-0.125000
G01 X112.641878 Y163.923914 Z-0.125000
G01 X108.705714 Y163.518239 Z-0.125000
G01 X104.990949 Y162.137335 Z-0.125000
G01 X101.564048 Y159.819487 Z-0.125000
G01 X98.434225 Y156.588938 Z-0.125000
G01 X95.520880 Y152.357128 Z-0.125000
G01 X93.313956 Y147.765533 Z-0.125000
G01 X91.673455 Y142.382806 Z-0.125000
G01 X90.709050 Y136.326220 Z-0.125000
G01 X90.451064 Y129.772626 Z-0.125000
G01 X90.896009 Y122.970976 Z-0.125000
G01 X92.070095 Y116.170668 Z-0.125000
G01 X93.795667 Y110.659842 Z-0.125000
G01 X95.955270 Y106.878344 Z-0.125000
G01 X97.113702 Y105.781010 Z-0.125000
G01 X98.294945 Y105.248221 Z-0.125000
G01 X100.347292 Y105.487242 Z-0.125000
G01 X103.103466 Y107.115845 Z-0.125000
G01 X107.604354 Y110.874442 Z-0.125000
G01 X111.534435 Y114.902207 Z-0.125000
G01 X113.900856 Y117.955190 Z-0.125000
G01 X116.180239 Y121.635514 Z-0.125000
G01 X118.461231 Y126.096685 Z-0.125000
G01 X120.640604 Y131.148163 Z-0.125000
G01 X122.798239 Y137.150540 Z-0.125000
G01 X124.448401 Y142.956118 Z-0.125000
G01 X125.485175 Y148.174607 Z-0.125000
G01 X125.870096 Y152.613325 Z-0.125000
G01 X125.626781 Y155.952829 Z-0.125000
G01 X124.788416 Y158.599063 Z-0.125000
G01 X123.292384 Y160.732546 Z-0.125000
G01 X121.046905 Y162.498640 Z-0.125000
G01 X117.213166 Y164.149428 Z-0.125000
G01 X112.944680 Y164.839925 Z-0.125000
G01 X108.849825 Y164.475041 Z-0.125000
G01 X104.982004 Y163.092706 Z-0.125000
G01 X101.415107 Y160.728431 Z-0.125000
G01 X98.164073 Y157.409680 Z-0.125000
G01 X95.148930 Y153.051919 Z-0.125000
G01 X92.875362 Y148.315140 Z-0.125000
G01 X91.201495 Y142.743396 Z-0.125000
G01 X90.253549 Y136.567030 Z-0.125000
G01 X90.028929 Y129.738991 Z-0.125000
G01 X90.546690 Y122.629708 Z-0.125000
G01 X91.806563 Y115.601023 Z-0.125000
G01 X93.641000 Y109.814679 Z-0.125000
G01 X95.919220 Y105.825111 Z-0.125000
G01 X97.106098 Y104.687164 Z-0.125000
G01 X98.327327 Y104.128343 Z-0.125000
G01 X100.385042 Y104.390713 Z-0.125000
G01 X103.156691 Y106.085065 Z-0.125000
G01 X107.959845 Y110.155857 Z-0.125000
G01 X112.021602 Y114.342850 Z-0.125000
G01 X114.401710 Y117.435282 Z-0.125000
G01 X116.697731 Y121.157561 Z-0.125000
G01 X119.005292 Y125.674103 Z-0.125000
G01 X121.219104 Y130.797950 Z-0.125000
G01 X123.426029 Y136.916886 Z-0.125000
G01 X125.152316 Y142.961485 Z-0.125000
G01 X126.241421 Y148.406204 Z-0.125000
G01 X126.650674 Y152.955577 Z-0.125000
G01 X126.419345 Y156.441696 Z-0.125000
G01 X125.593593 Y159.140172 Z-0.125000
G01 X124.076897 Y161.349333 Z-0.125000
G01 X121.785349 Y163.179923 Z-0.125000
G01 X117.792024 Y164.950580 Z-0.125000
G01 X113.312337 Y165.746991 Z-0.125000
G01 X109.060758 Y165.443294 Z-0.125000
G01 X105.037197 Y164.081085 Z-0.125000
G01 X101.323417 Y161.690600 Z-0.125000
G01 X97.942495 Y158.300823 Z-0.125000
G01 X94.816697 Y153.832407 Z-0.125000
G01 X92.465483 Y148.966814 Z-0.125000
G01 X90.745994 Y143.220902 Z-0.125000
G01 X89.791965 Y136.822512 Z-0.125000
G01 X89.600086 Y129.841774 Z-0.125000
G01 X90.183596 Y122.412692 Z-0.125000
G01 X91.571030 Y114.949171 Z-0.125000
G01 X93.525157 Y108.909313 Z-0.125000
G01 X95.903118 Y104.767583 Z-0.125000
G01 X97.146353 Y103.570239 Z-0.125000
G01 X98.408462 Y102.998358 Z-0.125000
G01 X100.411431 Y103.278618 Z-0.125000
G01 X103.183617 Y105.023512 Z-0.125000
G01 X108.337342 Y109.452568 Z-0.125000
G01 X112.531223 Y113.799148 Z-0.125000
G01 X114.920544 Y116.926109 Z-0.125000
G01 X117.278647 Y120.772102 Z-0.125000
G01 X119.607318 Y125.348848 Z-0.125000
G01 X121.849041 Y130.546673 Z-0.125000
G01 X124.132359 Y136.892465 Z-0.125000
G01 X125.861330 Y142.952361 Z-0.125000
G01 X126.987200 Y148.528488 Z-0.125000
G01 X127.433756 Y153.285305 Z-0.125000
G01 X127.224880 Y156.857211 Z-0.125000
G01 X126.401454 Y159.672066 Z-0.125000
G01 X124.899787 Y161.919066 Z-0.125000
G01 X122.576035 Y163.818984 Z-0.125000
G01 X118.376250 Y165.738403 Z-0.125000
G01 X113.751289 Y166.640727 Z-0.125000
G01 X109.273659 Y166.406984 Z-0.125000
G01 X105.093017 Y165.068570 Z-0.125000
G01 X101.296401 Y162.707426 Z-0.125000
G01 X97.775484 Y159.266034 Z-0.125000
G01 X94.478023 Y154.618977 Z-0.125000
G01 X92.048358 Y149.627433 Z-0.125000
G01 X90.307758 Y143.825434 Z-0.125000
G01 X89.333423 Y137.217363 Z-0.125000
G01 X89.164891 Y129.968441 Z-0.125000
G01 X89.801626 Y122.336209 Z-0.125000
G01 X91.267959 Y114.595827 Z-0.125000
G01 X93.366913 Y108.133834 Z-0.125000
G01 X94.586979 Y105.652196 Z-0.125000
G01 X95.879145 Y103.740291 Z-0.125000
G01 X97.182492 Y102.467537 Z-0.125000
G01 X98.485572 Y101.869983 Z-0.125000
G01 X100.488451 Y102.176989 Z-0.125000
G01 X103.224855 Y103.960885 Z-0.125000
G01 X108.794274 Y108.819501 Z-0.125000
G01 X113.063565 Y113.272173 Z-0.125000
G01 X115.457806 Y116.428743 Z-0.125000
G01 X117.827448 Y120.307746 Z-0.125000
G01 X120.176515 Y124.926713 Z-0.125000
G01 X122.446237 Y130.182148 Z-0.125000
G01 X124.773835 Y136.633316 Z-0.125000
G01 X126.575443 Y142.928566 Z-0.125000
G01 X127.735485 Y148.631897 Z-0.125000
G01 X128.219164 Y153.602241 Z-0.125000
G01 X128.021380 Y157.327740 Z-0.125000
G01 X127.211104 Y160.195195 Z-0.125000
G01 X125.690920 Y162.516710 Z-0.125000
G01 X123.372714 Y164.443464 Z-0.125000
G01 X118.964590 Y166.512718 Z-0.125000
G01 X114.124849 Y167.528918 Z-0.125000
G01 X109.487901 Y167.365038 Z-0.125000
G01 X105.149104 Y166.054087 Z-0.125000
G01 X101.134847 Y163.619949 Z-0.125000
G01 X97.485742 Y160.094469 Z-0.125000
G01 X94.080757 Y155.323250 Z-0.125000
G01 X91.583196 Y150.193320 Z-0.125000
G01 X89.811108 Y144.212413 Z-0.125000
G01 X88.846971 Y137.376323 Z-0.125000
G01 X88.732559 Y129.853046 Z-0.125000
G01 X89.448103 Y122.040116 Z-0.125000
G01 X91.040030 Y113.964906 Z-0.125000
G01 X93.245702 Y107.299674 Z-0.125000
G01 X94.527492 Y104.706575 Z-0.125000
G01 X95.901419 Y102.677038 Z-0.125000
G01 X97.267384 Y101.341756 Z-0.125000
G01 X98.612418 Y100.733378 Z-0.125000
G01 X100.555542 Y101.060064 Z-0.125000
G01 X103.240778 Y102.865429 Z-0.125000
G01 X109.278042 Y108.208260 Z-0.125000
G01 X113.618986 Y112.762642 Z-0.125000
G01 X116.068421 Y116.024679 Z-0.125000
G01 X118.443251 Y119.942862 Z-0.125000
G01 X120.807346 Y124.609509 Z-0.125000
G01 X123.098537 Y129.924877 Z-0.125000
G01 X125.460396 Y136.479186 Z-0.125000
G01 X127.294655 Y142.890101 Z-0.125000
G01 X128.503270 Y148.824134 Z-0.125000
G01 X129.006450 Y153.906117 Z-0.125000
G01 X128.829510 Y157.719013 Z-0.125000
G01 X128.021828 Y160.709735 Z-0.125000
G01 X126.519266 Y163.066406 Z-0.125000
G01 X124.174045 Y165.053989 Z-0.125000
G01 X119.619931 Y167.250895 Z-0.125000
G01 X114.498768 Y168.407180 Z-0.125000
G01 X109.702949 Y168.316741 Z-0.125000
G01 X105.205192 Y167.036920 Z-0.125000
G01 X101.108995 Y164.639369 Z-0.125000
G01 X97.313543 Y161.067820 Z-0.125000
G01 X93.780460 Y156.205358 Z-0.125000
G01 X91.148717 Y150.866374 Z-0.125000
G01 X89.330560 Y144.724806 Z-0.125000
G01 X88.371522 Y137.807402 Z-0.125000
G01 X88.283410 Y130.017462 Z-0.125000
G01 X89.073022 Y121.885897 Z-0.125000
G01 X90.788574 Y113.446877 Z-0.125000
G01 X93.133795 Y106.470791 Z-0.125000
G01 X94.481333 Y103.762744 Z-0.125000
G01 X95.942657 Y101.611281 Z-0.125000
G01 X97.374908 Y100.212217 Z-0.125000
G01 X98.735328 Y99.599098 Z-0.125000
G01 X100.613776 Y99.926948 Z-0.125000
G01 X103.192830 Y101.703151 Z-0.125000
G01 X109.850370 Y107.678512 Z-0.125000
G01 X114.197665 Y112.271628 Z-0.125000
G01 X116.644774 Y115.555223 Z-0.125000
G01 X119.024882 Y119.494965 Z-0.125000
G01 X121.453743 Y124.299013 Z-0.125000
G01 X123.715681 Y129.548096 Z-0.125000
G01 X126.114843 Y136.191681 Z-0.125000
G01 X128.019055 Y142.837054 Z-0.125000
G01 X129.257459 Y148.893283 Z-0.125000
G01 X129.792126 Y154.101843 Z-0.125000
G01 X129.638265 Y158.096152 Z-0.125000
G01 X128.856167 Y161.159958 Z-0.125000
G01 X127.384645 Y163.565203 Z-0.125000
G01 X125.027348 Y165.618982 Z-0.125000
G01 X120.280372 Y167.971985 Z-0.125000
G01 X114.948365 Y169.265761 Z-0.125000
G01 X109.918087 Y169.261288 Z-0.125000
G01 X105.260743 Y168.015907 Z-0.125000
G01 X100.937601 Y165.549476 Z-0.125000
G01 X97.009130 Y161.896077 Z-0.125000
G01 X93.365213 Y156.911868 Z-0.125000
G01 X90.663160 Y151.436913 Z-0.125000
G01 X88.814231 Y145.121893 Z-0.125000
G01 X87.867805 Y137.984253 Z-0.125000
G01 X87.832024 Y130.062905 Z-0.125000
G01 X88.712611 Y121.617802 Z-0.125000
G01 X90.567354 Y112.831611 Z-0.125000
G01 X93.063305 Y105.572313 Z-0.125000
G01 X94.480170 Y102.765598 Z-0.125000
G01 X96.002591 Y100.543466 Z-0.125000
G01 X97.476528 Y99.100033 Z-0.125000
G01 X98.881317 Y98.462672 Z-0.125000
G01 X100.665034 Y98.777819 Z-0.125000
G01 X103.124935 Y100.505538 Z-0.125000
G01 X110.391836 Y107.116650 Z-0.125000
G01 X114.799871 Y111.799846 Z-0.125000
G01 X117.240539 Y115.099901 Z-0.125000
G01 X119.676914 Y119.153608 Z-0.125000
G01 X124.342487 Y129.164427 Z-0.125000
G01 X126.775373 Y135.888252 Z-0.125000
G01 X128.717066 Y142.641239 Z-0.125000
G01 X129.995277 Y148.824940 Z-0.125000
G01 X130.578250 Y154.275205 Z-0.125000
G01 X130.456771 Y158.380079 Z-0.125000
G01 X129.690327 Y161.597210 Z-0.125000
G01 X128.250741 Y164.052549 Z-0.125000
G01 X125.932535 Y166.136295 Z-0.125000
G01 X123.634368 Y167.496267 Z-0.125000
G01 X120.944838 Y168.675989 Z-0.125000
G01 X115.401092 Y170.110030 Z-0.125000
G01 X110.215522 Y170.206998 Z-0.125000
G01 X105.397698 Y169.022624 Z-0.125000
G01 X100.912196 Y166.567286 Z-0.125000
G01 X96.831116 Y162.873364 Z-0.125000
G01 X92.995946 Y157.708815 Z-0.125000
G01 X90.209537 Y152.117838 Z-0.125000
G01 X88.313466 Y145.649673 Z-0.125000
G01 X87.363463 Y138.307362 Z-0.125000
G01 X87.372408 Y130.122303 Z-0.125000
G01 X88.324916 Y121.503212 Z-0.125000
G01 X90.316346 Y112.340239 Z-0.125000
G01 X92.968842 Y104.753181 Z-0.125000
G01 X94.459685 Y101.825166 Z-0.125000
G01 X96.048929 Y99.513043 Z-0.125000
G01 X97.628421 Y97.965217 Z-0.125000
G01 X99.077848 Y97.320610 Z-0.125000
G01 X100.769516 Y97.641483 Z-0.125000
G01 X103.041563 Y99.273038 Z-0.125000
G01 X111.092352 Y106.706592 Z-0.125000
G01 X115.362090 Y111.270635 Z-0.125000
G01 X117.797660 Y114.571137 Z-0.125000
G01 X120.237434 Y118.624397 Z-0.125000
G01 X124.979401 Y128.774496 Z-0.125000
G01 X127.442254 Y135.569527 Z-0.125000
G01 X129.418118 Y142.421540 Z-0.125000
G01 X130.753580 Y148.848913 Z-0.125000
G01 X131.364731 Y154.425399 Z-0.125000
G01 X131.265437 Y158.723941 Z-0.125000
G01 X130.524041 Y162.020865 Z-0.125000
G01 X129.116658 Y164.528893 Z-0.125000
G01 X126.791117 Y166.674183 Z-0.125000
G01 X124.414229 Y168.104735 Z-0.125000
G01 X121.612166 Y169.362819 Z-0.125000
G01 X115.775548 Y170.951883 Z-0.125000
G01 X110.431464 Y171.133565 Z-0.125000
G01 X107.853842 Y170.715724 Z-0.125000
G01 X105.368804 Y169.958942 Z-0.125000
G01 X100.730067 Y167.471041 Z-0.125000
G01 X96.511317 Y163.697416 Z-0.125000
G01 X92.559768 Y158.410852 Z-0.125000
G01 X89.701885 Y152.688824 Z-0.125000
G01 X87.775310 Y146.053559 Z-0.125000
G01 X86.848385 Y138.642457 Z-0.125000
G01 X86.903310 Y130.195655 Z-0.125000
G01 X87.952787 Y121.264906 Z-0.125000
G01 X90.062475 Y111.865953 Z-0.125000
G01 X92.880371 Y103.941831 Z-0.125000
G01 X94.449756 Y100.888581 Z-0.125000
G01 X96.143392 Y98.444066 Z-0.125000
G01 X97.772890 Y96.849813 Z-0.125000
G01 X99.270353 Y96.182127 Z-0.125000
G01 X100.868900 Y96.489939 Z-0.125000
G01 X102.948263 Y98.006814 Z-0.125000
G01 X111.830617 Y106.332495 Z-0.125000
G01 X116.010454 Y110.837587 Z-0.125000
G01 X118.491377 Y114.234074 Z-0.125000
G01 X120.925605 Y118.306655 Z-0.125000
G01 X125.626423 Y128.379019 Z-0.125000
G01 X128.160571 Y135.373890 Z-0.125000
G01 X130.156563 Y142.315536 Z-0.125000
G01 X131.514209 Y148.852134 Z-0.125000
G01 X132.151481 Y154.551529 Z-0.125000
G01 X132.082512 Y158.965110 Z-0.125000
G01 X131.356412 Y162.430655 Z-0.125000
G01 X129.981680 Y164.994770 Z-0.125000
G01 X127.699077 Y167.165555 Z-0.125000
G01 X125.314675 Y168.635824 Z-0.125000
G01 X122.350163 Y170.005010 Z-0.125000
G01 X119.192609 Y171.087854 Z-0.125000
G01 X116.146425 Y171.781392 Z-0.125000
G01 X113.353128 Y172.087415 Z-0.125000
G01 X110.645170 Y172.050381 Z-0.125000
G01 X107.986681 Y171.661613 Z-0.125000
G01 X105.420330 Y170.921111 Z-0.125000
G01 X102.983060 Y169.849450 Z-0.125000
G01 X100.621827 Y168.426323 Z-0.125000
G01 X96.253868 Y164.595268 Z-0.125000
G01 X92.111691 Y159.107968 Z-0.125000
G01 X89.181888 Y153.257127 Z-0.125000
G01 X87.225166 Y146.457802 Z-0.125000
G01 X86.313896 Y138.838094 Z-0.125000
G01 X86.423925 Y130.282694 Z-0.125000
G01 X87.574038 Y121.039392 Z-0.125000
G01 X89.841523 Y111.282175 Z-0.125000
G01 X92.836002 Y103.053641 Z-0.125000
G01 X94.486969 Y99.894029 Z-0.125000
G01 X96.254673 Y97.374909 Z-0.125000
G01 X97.968079 Y95.712134 Z-0.125000
G01 X99.486206 Y95.043554 Z-0.125000
G01 X100.965242 Y95.324261 Z-0.125000
G01 X102.816676 Y96.678150 Z-0.125000
G01 X112.607080 Y105.995342 Z-0.125000
G01 X116.616328 Y110.344426 Z-0.125000
G01 X119.086158 Y113.732594 Z-0.125000
G01 X121.575669 Y117.898297 Z-0.125000
G01 X126.283822 Y127.978622 Z-0.125000
G01 X128.841944 Y135.029671 Z-0.125000
G01 X130.865219 Y142.052541 Z-0.125000
G01 X132.255784 Y148.701582 Z-0.125000
G01 X132.931969 Y154.538558 Z-0.125000
G01 X132.898423 Y159.181142 Z-0.125000
G01 X132.209805 Y162.758147 Z-0.125000
G01 X130.845181 Y165.450360 Z-0.125000
G01 X128.606500 Y167.645924 Z-0.125000
G01 X126.157602 Y169.182747 Z-0.125000
G01 X123.020264 Y170.657042 Z-0.125000
G01 X119.798393 Y171.801877 Z-0.125000
G01 X116.597900 Y172.582365 Z-0.125000
G01 X113.642155 Y172.952884 Z-0.125000
G01 X110.855925 Y172.956462 Z-0.125000
G01 X108.208617 Y172.616357 Z-0.125000
G01 X105.560504 Y171.906986 Z-0.125000
G01 X102.952020 Y170.808399 Z-0.125000
G01 X100.510278 Y169.376505 Z-0.125000
G01 X95.990604 Y165.489541 Z-0.125000
G01 X91.776238 Y159.996785 Z-0.125000
G01 X88.695793 Y153.939752 Z-0.125000
G01 X86.689872 Y146.999984 Z-0.125000
G01 X85.775382 Y139.190991 Z-0.125000
G01 X85.933448 Y130.383062 Z-0.125000
G01 X87.187596 Y120.826759 Z-0.125000
G01 X89.619766 Y110.706895 Z-0.125000
G01 X92.758266 Y102.256604 Z-0.125000
G01 X94.497077 Y98.964510 Z-0.125000
G01 X96.346453 Y96.348422 Z-0.125000
G01 X98.154054 Y94.595657 Z-0.125000
G01 X99.725317 Y93.904981 Z-0.125000
G01 X101.115525 Y94.172538 Z-0.125000
G01 X102.791002 Y95.413179 Z-0.125000
G01 X113.493929 Y105.767234 Z-0.125000
G01 X117.311387 Y109.952796 Z-0.125000
G01 X119.761090 Y113.338190 Z-0.125000
G01 X122.243265 Y117.500673 Z-0.125000
G01 X126.952045 Y127.573663 Z-0.125000
G01 X129.530204 Y134.671049 Z-0.125000
G01 X131.577185 Y141.765393 Z-0.125000
G01 X132.997986 Y148.518559 Z-0.125000
G01 X133.718718 Y154.608422 Z-0.125000
G01 X133.713351 Y159.370069 Z-0.125000
G01 X133.039314 Y163.133944 Z-0.125000
G01 X131.706983 Y165.894858 Z-0.125000
G01 X129.512403 Y168.116722 Z-0.125000
G01 X127.000797 Y169.716342 Z-0.125000
G01 X123.761214 Y171.262468 Z-0.125000
G01 X120.324652 Y172.521268 Z-0.125000
G01 X116.961353 Y173.383606 Z-0.125000
G01 X113.926977 Y173.805472 Z-0.125000
G01 X111.063279 Y173.851720 Z-0.125000
G01 X108.244756 Y173.525570 Z-0.125000
G01 X105.610062 Y172.853232 Z-0.125000
G01 X102.918296 Y171.760817 Z-0.125000
G01 X100.395598 Y170.321142 Z-0.125000
G01 X97.985880 Y168.517566 Z-0.125000
G01 X95.721705 Y166.379968 Z-0.125000
G01 X93.480788 Y163.768353 Z-0.125000
G01 X91.307140 Y160.684956 Z-0.125000
G01 X88.151465 Y154.501882 Z-0.125000
G01 X86.997416 Y151.097434 Z-0.125000
G01 X86.114950 Y147.405659 Z-0.125000
G01 X85.217635 Y139.395036 Z-0.125000
G01 X85.445028 Y130.328942 Z-0.125000
G01 X86.792655 Y120.627992 Z-0.125000
G01 X89.353997 Y110.278856 Z-0.125000
G01 X92.726868 Y101.378074 Z-0.125000
G01 X94.556296 Y97.974431 Z-0.125000
G01 X96.451025 Y95.326050 Z-0.125000
G01 X98.359888 Y93.480431 Z-0.125000
G01 X99.987955 Y92.767928 Z-0.125000
G01 X101.291571 Y93.022068 Z-0.125000
G01 X102.800395 Y94.149996 Z-0.125000
G01 X114.423805 Y105.583405 Z-0.125000
G01 X117.961808 Y109.498726 Z-0.125000
G01 X120.456954 Y112.961677 Z-0.125000
G01 X122.928753 Y117.115215 Z-0.125000
G01 X127.687537 Y127.305211 Z-0.125000
G01 X130.225800 Y134.299188 Z-0.125000
G01 X132.293087 Y141.454719 Z-0.125000
G01 X133.741171 Y148.303243 Z-0.125000
G01 X134.497954 Y154.526571 Z-0.125000
G01 X134.526848 Y159.531265 Z-0.125000
G01 X133.888592 Y163.418229 Z-0.125000
G01 X132.566012 Y166.328711 Z-0.125000
G01 X130.415354 Y168.580184 Z-0.125000
G01 X127.902943 Y170.205656 Z-0.125000
G01 X124.501984 Y171.850629 Z-0.125000
G01 X120.846796 Y173.224378 Z-0.125000
G01 X117.317917 Y174.171340 Z-0.125000
G01 X114.205805 Y174.645447 Z-0.125000
G01 X111.265714 Y174.735170 Z-0.125000
G01 X108.368203 Y174.442475 Z-0.125000
G01 X105.559520 Y173.759940 Z-0.125000
G01 X102.786530 Y172.660548 Z-0.125000
G01 X100.185649 Y171.200387 Z-0.125000
G01 X97.700522 Y169.363534 Z-0.125000
G01 X95.366035 Y167.181746 Z-0.125000
G01 X93.058385 Y164.513775 Z-0.125000
G01 X90.825072 Y161.364808 Z-0.125000
G01 X89.028921 Y158.241694 Z-0.125000
G01 X87.593628 Y155.058108 Z-0.125000
G01 X86.418468 Y151.582902 Z-0.125000
G01 X85.526431 Y147.809187 Z-0.125000
G01 X84.647186 Y139.600422 Z-0.125000
G01 X84.946500 Y130.278042 Z-0.125000
G01 X86.421063 Y120.274111 Z-0.125000
G01 X89.169453 Y109.586123 Z-0.125000
G01 X90.881517 Y104.715431 Z-0.125000
G01 X92.701195 Y100.503838 Z-0.125000
G01 X94.582416 Y97.055558 Z-0.125000
G01 X96.566690 Y94.308151 Z-0.125000
G01 X98.551678 Y92.390611 Z-0.125000
G01 X100.245583 Y91.635528 Z-0.125000
G01 X101.466007 Y91.859879 Z-0.125000
G01 X102.844943 Y92.889139 Z-0.125000
G01 X115.471314 Y105.521593 Z-0.125000
G01 X118.703563 Y109.152002 Z-0.125000
G01 X121.237800 Y112.702976 Z-0.125000
G01 X123.694034 Y116.855887 Z-0.125000
G01 X128.436627 Y127.040695 Z-0.125000
G01 X131.029010 Y134.223778 Z-0.125000
G01 X133.091018 Y141.434591 Z-0.125000
G01 X134.535435 Y148.352890 Z-0.125000
G01 X135.294096 Y154.667104 Z-0.125000
G01 X135.332562 Y159.769035 Z-0.125000
G01 X134.692338 Y163.834907 Z-0.125000
G01 X133.386843 Y166.805234 Z-0.125000
G01 X131.266063 Y169.076029 Z-0.125000
G01 X128.681463 Y170.752490 Z-0.125000
G01 X125.093276 Y172.485754 Z-0.125000
G01 X121.195041 Y173.966848 Z-0.125000
G01 X117.483676 Y174.984836 Z-0.125000
G01 X114.286314 Y175.491326 Z-0.125000
G01 X111.265625 Y175.601534 Z-0.125000
G01 X108.287873 Y175.316085 Z-0.125000
G01 X105.499407 Y174.657434 Z-0.125000
G01 X102.645281 Y173.551154 Z-0.125000
G01 X99.966039 Y172.070508 Z-0.125000
G01 X97.404786 Y170.200378 Z-0.125000
G01 X94.916438 Y167.888882 Z-0.125000
G01 X92.548228 Y165.153820 Z-0.125000
G01 X90.262494 Y161.930427 Z-0.125000
G01 X88.430383 Y158.736912 Z-0.125000
G01 X86.972816 Y155.481584 Z-0.125000
G01 X85.787011 Y151.925869 Z-0.125000
G01 X84.896674 Y148.061001 Z-0.125000
G01 X84.059293 Y139.638619 Z-0.125000
G01 X84.437416 Y130.230274 Z-0.125000
G01 X86.043476 Y119.923629 Z-0.125000
G01 X88.938125 Y109.041526 Z-0.125000
G01 X90.755924 Y103.995683 Z-0.125000
G01 X92.680262 Y99.634612 Z-0.125000
G01 X94.659168 Y96.072545 Z-0.125000
G01 X96.733611 Y93.247671 Z-0.125000
G01 X98.827823 Y91.255347 Z-0.125000
G01 X100.553842 Y90.502322 Z-0.125000
G01 X101.693131 Y90.713076 Z-0.125000
G01 X102.954525 Y91.659501 Z-0.125000
G01 X108.069426 Y97.201994 Z-0.125000
G01 X116.409152 Y105.349930 Z-0.125000
G01 X119.398443 Y108.739797 Z-0.125000
G01 X121.911032 Y112.264561 Z-0.125000
G01 X124.416823 Y116.498517 Z-0.125000
G01 X129.141079 Y126.634394 Z-0.125000
G01 X131.741870 Y133.834562 Z-0.125000
G01 X133.817029 Y141.086704 Z-0.125000
G01 X135.283004 Y148.082291 Z-0.125000
G01 X136.073332 Y154.517447 Z-0.125000
G01 X136.144716 Y159.874591 Z-0.125000
G01 X135.537948 Y164.073929 Z-0.125000
G01 X134.275929 Y167.159383 Z-0.125000
G01 X132.161500 Y169.528488 Z-0.125000
G01 X129.577973 Y171.224718 Z-0.125000
G01 X125.827963 Y173.043143 Z-0.125000
G01 X121.702694 Y174.639275 Z-0.125000
G01 X117.819666 Y175.746628 Z-0.125000
G01 X114.546536 Y176.306612 Z-0.125000
G01 X111.451242 Y176.462172 Z-0.125000
G01 X108.396292 Y176.212058 Z-0.125000
G01 X105.531432 Y175.575234 Z-0.125000
G01 X102.594382 Y174.477899 Z-0.125000
G01 X99.833110 Y172.991528 Z-0.125000
G01 X97.190185 Y171.101898 Z-0.125000
G01 X94.620792 Y168.756856 Z-0.125000
G01 X92.099168 Y165.877594 Z-0.125000
G01 X89.752605 Y162.588899 Z-0.125000
G01 X87.875767 Y159.335629 Z-0.125000
G01 X86.386444 Y156.020456 Z-0.125000
G01 X85.179528 Y152.397293 Z-0.125000
G01 X84.280155 Y148.454331 Z-0.125000
G01 X83.720172 Y144.363769 Z-0.125000
G01 X83.463349 Y139.840786 Z-0.125000
G01 X83.916971 Y130.185547 Z-0.125000
G01 X85.658823 Y119.576458 Z-0.125000
G01 X88.752239 Y108.356217 Z-0.125000
G01 X90.681766 Y103.155618 Z-0.125000
G01 X92.714255 Y98.669490 Z-0.125000
G01 X94.791918 Y95.019491 Z-0.125000
G01 X96.955815 Y92.141660 Z-0.125000
G01 X99.123917 Y90.121963 Z-0.125000
G01 X100.884823 Y89.372068 Z-0.125000
G01 X101.971602 Y89.581480 Z-0.125000
G01 X103.097562 Y90.432548 Z-0.125000
G01 X108.002246 Y95.981928 Z-0.125000
G01 X116.752477 Y104.563001 Z-0.125000
G01 X120.187250 Y108.440125 Z-0.125000
G01 X122.736605 Y112.048708 Z-0.125000
G01 X125.222537 Y116.273630 Z-0.125000
G01 X129.976670 Y126.526244 Z-0.125000
G01 X132.567264 Y133.759242 Z-0.125000
G01 X134.629541 Y141.048865 Z-0.125000
G01 X136.085408 Y148.097409 Z-0.125000
G01 X136.872784 Y154.610837 Z-0.125000
G01 X136.950251 Y160.064323 Z-0.125000
G01 X136.338564 Y164.458850 Z-0.125000
G01 X135.055075 Y167.674192 Z-0.125000
G01 X133.003711 Y170.016818 Z-0.125000
G01 X130.408824 Y171.725662 Z-0.125000
G01 X126.482679 Y173.619050 Z-0.125000
G01 X122.026607 Y175.355713 Z-0.125000
G01 X117.953489 Y176.538656 Z-0.125000
G01 X114.596631 Y177.131737 Z-0.125000
G01 X111.422349 Y177.308230 Z-0.125000
G01 X108.393698 Y177.080927 Z-0.125000
G01 X105.453428 Y176.452064 Z-0.125000
G01 X102.435869 Y175.348736 Z-0.125000
G01 X99.595967 Y173.842238 Z-0.125000
G01 X96.875843 Y171.919330 Z-0.125000
G01 X94.230951 Y169.528220 Z-0.125000
G01 X91.637405 Y166.590186 Z-0.125000
G01 X89.229298 Y163.236101 Z-0.125000
G01 X87.307196 Y159.923880 Z-0.125000
G01 X85.734859 Y156.419601 Z-0.125000
G01 X84.518193 Y152.718791 Z-0.125000
G01 X83.621951 Y148.687806 Z-0.125000
G01 X83.077712 Y144.501081 Z-0.125000
G01 X82.851035 Y139.866280 Z-0.125000
G01 X83.406277 Y129.955202 Z-0.125000
G01 X85.266477 Y119.232953 Z-0.125000
G01 X88.565727 Y107.673056 Z-0.125000
G01 X90.555725 Y102.449378 Z-0.125000
G01 X92.702447 Y97.809030 Z-0.125000
G01 X94.836824 Y94.117434 Z-0.125000
G01 X97.104935 Y91.135747 Z-0.125000
G01 X99.367053 Y89.041356 Z-0.125000
G01 X101.209541 Y88.247808 Z-0.125000
G01 X102.248284 Y88.440224 Z-0.125000
G01 X103.300533 Y89.235919 Z-0.125000
G01 X108.460699 Y95.305655 Z-0.125000
G01 X117.509886 Y104.201696 Z-0.125000
G01 X121.000120 Y108.165948 Z-0.125000
G01 X123.518077 Y111.751630 Z-0.125000
G01 X126.049184 Y116.068332 Z-0.125000
G01 X130.767803 Y126.277561 Z-0.125000
G01 X133.351509 Y133.521831 Z-0.125000
G01 X135.408508 Y140.835964 Z-0.125000
G01 X136.892732 Y148.100182 Z-0.125000
G01 X137.674473 Y154.684905 Z-0.125000
G01 X137.749793 Y160.352723 Z-0.125000
G01 X137.137479 Y164.830085 Z-0.125000
G01 X135.866693 Y168.122000 Z-0.125000
G01 X133.841092 Y170.502734 Z-0.125000
G01 X131.295583 Y172.189661 Z-0.125000
G01 X127.207437 Y174.149245 Z-0.125000
G01 X122.425036 Y176.028588 Z-0.125000
G01 X118.166211 Y177.297138 Z-0.125000
G01 X114.730991 Y177.933962 Z-0.125000
G01 X111.481657 Y178.144180 Z-0.125000
G01 X108.379117 Y177.938346 Z-0.125000
G01 X105.364242 Y177.317712 Z-0.125000
G01 X102.266801 Y176.208301 Z-0.125000
G01 X99.348357 Y174.681587 Z-0.125000
G01 X96.550498 Y172.725223 Z-0.125000
G01 X93.829302 Y170.287775 Z-0.125000
G01 X91.162851 Y167.290612 Z-0.125000
G01 X88.692394 Y163.871046 Z-0.125000
G01 X86.724581 Y160.500681 Z-0.125000
G01 X85.118788 Y156.937273 Z-0.125000
G01 X83.881100 Y153.172682 Z-0.125000
G01 X82.975913 Y149.067808 Z-0.125000
G01 X82.435788 Y144.798159 Z-0.125000
G01 X82.227450 Y140.063348 Z-0.125000
G01 X82.863022 Y129.910922 Z-0.125000
G01 X84.865365 Y118.893206 Z-0.125000
G01 X86.488422 Y112.789120 Z-0.125000
G01 X88.377605 Y106.992399 Z-0.125000
G01 X90.485056 Y101.615843 Z-0.125000
G01 X92.692070 Y96.955727 Z-0.125000
G01 X94.935761 Y93.146767 Z-0.125000
G01 X97.261122 Y90.136723 Z-0.125000
G01 X99.661536 Y87.940175 Z-0.125000
G01 X101.584891 Y87.125068 Z-0.125000
G01 X102.575418 Y87.315158 Z-0.125000
G01 X103.560487 Y88.069078 Z-0.125000
G01 X108.940263 Y94.655859 Z-0.125000
G01 X118.294757 Y103.868032 Z-0.125000
G01 X121.837143 Y107.917623 Z-0.125000
G01 X124.389987 Y111.583367 Z-0.125000
G01 X126.896941 Y115.883162 Z-0.125000
G01 X131.573249 Y126.035230 Z-0.125000
G01 X134.146041 Y133.281557 Z-0.125000
G01 X136.236586 Y140.786317 Z-0.125000
G01 X137.704798 Y148.090610 Z-0.125000
G01 X138.478666 Y154.739293 Z-0.125000
G01 X138.556312 Y160.500591 Z-0.125000
G01 X137.957595 Y165.090486 Z-0.125000
G01 X136.675359 Y168.559252 Z-0.125000
G01 X134.673821 Y170.986591 Z-0.125000
G01 X132.176170 Y172.653123 Z-0.125000
G01 X128.003847 Y174.634444 Z-0.125000
G01 X122.718357 Y176.719711 Z-0.125000
G01 X118.261927 Y178.067786 Z-0.125000
G01 X114.850412 Y178.723664 Z-0.125000
G01 X111.527010 Y178.968053 Z-0.125000
G01 X108.351833 Y178.783777 Z-0.125000
G01 X105.263427 Y178.171553 Z-0.125000
G01 X102.086550 Y177.056059 Z-0.125000
G01 X99.089745 Y175.508859 Z-0.125000
G01 X96.114230 Y173.439962 Z-0.125000
G01 X93.323259 Y170.941954 Z-0.125000
G01 X90.591775 Y167.873585 Z-0.125000
G01 X88.067557 Y164.379415 Z-0.125000
G01 X86.063693 Y160.941421 Z-0.125000
G01 X84.435537 Y157.308418 Z-0.125000
G01 X83.188724 Y153.469223 Z-0.125000
G01 X82.314667 Y149.441458 Z-0.125000
G01 X81.764971 Y144.917848 Z-0.125000
G01 X81.588747 Y140.259074 Z-0.125000
G01 X81.769981 Y135.158753 Z-0.125000
G01 X82.306348 Y129.869147 Z-0.125000
G01 X84.454680 Y118.557395 Z-0.125000
G01 X86.182488 Y112.279589 Z-0.125000
G01 X88.187067 Y106.314872 Z-0.125000
G01 X90.416177 Y100.784456 Z-0.125000
G01 X92.741896 Y95.998835 Z-0.125000
G01 X95.094810 Y92.101316 Z-0.125000
G01 X97.520003 Y89.039656 Z-0.125000
G01 X100.010229 Y86.817167 Z-0.125000
G01 X101.982157 Y86.007248 Z-0.125000
G01 X102.926078 Y86.194118 Z-0.125000
G01 X103.848977 Y86.905368 Z-0.125000
G01 X109.381540 Y93.968225 Z-0.125000
G01 X119.191356 Y103.649585 Z-0.125000
G01 X122.698140 Y107.695509 Z-0.125000
G01 X125.285692 Y111.440956 Z-0.125000
G01 X127.765899 Y115.718566 Z-0.125000
G01 X132.455804 Y125.960446 Z-0.125000
G01 X135.005875 Y133.214377 Z-0.125000
G01 X137.072804 Y140.733449 Z-0.125000
G01 X138.521962 Y148.068873 Z-0.125000
G01 X139.285543 Y154.773465 Z-0.125000
G01 X139.357106 Y160.755715 Z-0.125000
G01 X138.731553 Y165.527559 Z-0.125000
G01 X137.443770 Y169.053307 Z-0.125000
G01 X135.451983 Y171.511688 Z-0.125000
G01 X132.988593 Y173.151294 Z-0.125000
G01 X128.794354 Y175.109983 Z-0.125000
G01 X122.899143 Y177.431945 Z-0.125000
G01 X118.232676 Y178.853552 Z-0.125000
G01 X114.737790 Y179.530809 Z-0.125000
G01 X111.335578 Y179.782086 Z-0.125000
G01 X108.085707 Y179.588776 Z-0.125000
G01 X105.037376 Y178.982902 Z-0.125000
G01 X101.783569 Y177.843435 Z-0.125000
G01 X98.712070 Y176.258754 Z-0.125000
G01 X95.661234 Y174.138152 Z-0.125000
G01 X92.800310 Y171.578510 Z-0.125000
G01 X90.003614 Y168.438310 Z-0.125000
G01 X87.425544 Y164.869534 Z-0.125000
G01 X85.385899 Y161.364361 Z-0.125000
G01 X83.735826 Y157.662925 Z-0.125000
G01 X82.480426 Y153.750824 Z-0.125000
G01 X81.584363 Y149.478939 Z-0.125000
G01 X81.067586 Y144.848343 Z-0.125000
G01 X80.937431 Y140.075871 Z-0.125000
G01 X81.180835 Y134.847721 Z-0.125000
G01 X81.793060 Y129.423397 Z-0.125000
G01 X84.084787 Y118.025322 Z-0.125000
G01 X85.869309 Y111.773994 Z-0.125000
G01 X87.993041 Y105.640746 Z-0.125000
G01 X90.348191 Y99.955752 Z-0.125000
G01 X92.797000 Y95.044090 Z-0.125000
G01 X95.263073 Y91.058011 Z-0.125000
G01 X97.741581 Y87.999125 Z-0.125000
G01 X100.336111 Y85.725289 Z-0.125000
G01 X102.370657 Y84.896317 Z-0.125000
G01 X103.299728 Y85.077730 Z-0.125000
G01 X104.165645 Y85.745058 Z-0.125000
G01 X109.842140 Y93.305101 Z-0.125000
G01 X120.032852 Y103.375050 Z-0.125000
G01 X123.583289 Y107.500230 Z-0.125000
G01 X126.205281 Y111.324844 Z-0.125000
G01 X128.725117 Y115.705238 Z-0.125000
G01 X133.354550 Y125.900333 Z-0.125000
G01 X135.877517 Y133.153727 Z-0.125000
G01 X137.917072 Y140.677809 Z-0.125000
G01 X139.344135 Y148.034791 Z-0.125000
G01 X140.105748 Y154.950853 Z-0.125000
G01 X140.158795 Y160.995631 Z-0.125000
G01 X139.527337 Y165.851741 Z-0.125000
G01 X138.246979 Y169.469269 Z-0.125000
G01 X136.224778 Y172.036515 Z-0.125000
G01 X133.855494 Y173.619139 Z-0.125000
G01 X129.734339 Y175.512706 Z-0.125000
G01 X123.153641 Y178.099274 Z-0.125000
G01 X118.175962 Y179.630372 Z-0.125000
G01 X114.598778 Y180.328115 Z-0.125000
G01 X111.232527 Y180.583775 Z-0.125000
G01 X108.026041 Y180.410055 Z-0.125000
G01 X104.908741 Y179.811517 Z-0.125000
G01 X101.577198 Y178.665072 Z-0.125000
G01 X98.428142 Y177.058742 Z-0.125000
G01 X95.296440 Y174.901733 Z-0.125000
G01 X92.357601 Y172.293786 Z-0.125000
G01 X89.485763 Y169.093025 Z-0.125000
G01 X86.843376 Y165.458411 Z-0.125000
G01 X84.691108 Y161.768783 Z-0.125000
G01 X83.019388 Y158.000167 Z-0.125000
G01 X81.756026 Y154.016772 Z-0.125000
G01 X80.865509 Y149.664020 Z-0.125000
G01 X80.368860 Y144.940928 Z-0.125000
G01 X80.272518 Y140.067016 Z-0.125000
G01 X80.566196 Y134.721143 Z-0.125000
G01 X81.243543 Y129.168363 Z-0.125000
G01 X83.710332 Y117.487076 Z-0.125000
G01 X85.611323 Y111.078756 Z-0.125000
G01 X87.862975 Y104.795761 Z-0.125000
G01 X90.280117 Y99.130269 Z-0.125000
G01 X92.856398 Y94.092029 Z-0.125000
G01 X95.379990 Y90.100762 Z-0.125000
G01 X97.970942 Y86.964229 Z-0.125000
G01 X100.675589 Y84.639494 Z-0.125000
G01 X102.809877 Y83.789589 Z-0.125000
G01 X103.695831 Y83.966351 Z-0.125000
G01 X104.534107 Y84.615430 Z-0.125000
G01 X108.012176 Y89.774701 Z-0.125000
G01 X110.321883 Y92.667382 Z-0.125000
G01 X120.814503 Y103.039507 Z-0.125000
G01 X124.492502 Y107.331967 Z-0.125000
G01 X127.076565 Y111.119726 Z-0.125000
G01 X129.637460 Y115.586174 Z-0.125000
G01 X134.269220 Y125.855427 Z-0.125000
G01 X136.817054 Y133.284061 Z-0.125000
G01 X138.812777 Y140.810022 Z-0.125000
G01 X140.199317 Y148.173981 Z-0.125000
G01 X140.928906 Y155.118311 Z-0.125000
G01 X140.961557 Y161.219713 Z-0.125000
G01 X140.298254 Y166.267793 Z-0.125000
G01 X138.969948 Y170.021202 Z-0.125000
G01 X136.940411 Y172.606339 Z-0.125000
G01 X134.653336 Y174.124645 Z-0.125000
G01 X130.822102 Y175.850306 Z-0.125000
G01 X123.190317 Y178.824837 Z-0.125000
G01 X117.982562 Y180.424904 Z-0.125000
G01 X114.432751 Y181.115312 Z-0.125000
G01 X111.108633 Y181.373566 Z-0.125000
G01 X107.833983 Y181.204229 Z-0.125000
G01 X104.648787 Y180.596119 Z-0.125000
G01 X101.242013 Y179.423554 Z-0.125000
G01 X98.019068 Y177.777507 Z-0.125000
G01 X94.812314 Y175.566468 Z-0.125000
G01 X91.802896 Y172.895007 Z-0.125000
G01 X88.864951 Y169.620984 Z-0.125000
G01 X86.089635 Y165.791091 Z-0.125000
G01 X83.979231 Y162.153794 Z-0.125000
G01 X82.286311 Y158.319250 Z-0.125000
G01 X81.015345 Y154.266170 Z-0.125000
G01 X80.131001 Y149.834699 Z-0.125000
G01 X79.655373 Y145.021079 Z-0.125000
G01 X79.593918 Y140.047693 Z-0.125000
G01 X79.939390 Y134.585709 Z-0.125000
G01 X80.683828 Y128.905815 Z-0.125000
G01 X83.330867 Y116.943105 Z-0.125000
G01 X85.351727 Y110.378240 Z-0.125000
G01 X87.662955 Y104.125212 Z-0.125000
G01 X90.210969 Y98.308632 Z-0.125000
G01 X92.919284 Y93.143189 Z-0.125000
G01 X95.561672 Y89.065151 Z-0.125000
G01 X98.207190 Y85.935685 Z-0.125000
G01 X101.027681 Y83.560139 Z-0.125000
G01 X103.238094 Y82.690465 Z-0.125000
G01 X104.140419 Y82.873578 Z-0.125000
G01 X104.952752 Y83.517112 Z-0.125000
G01 X108.400496 Y88.935800 Z-0.125000
G01 X110.821037 Y92.056141 Z-0.125000
G01 X121.709045 Y102.822223 Z-0.125000
G01 X125.425688 Y107.191076 Z-0.125000
G01 X128.042849 Y111.054961 Z-0.125000
G01 X130.570825 Y115.489206 Z-0.125000
G01 X135.134331 Y125.654423 Z-0.125000
G01 X137.656045 Y133.053627 Z-0.125000
G01 X139.673506 Y140.754560 Z-0.125000
G01 X141.059598 Y148.311562 Z-0.125000
G01 X141.754926 Y155.275750 Z-0.125000
G01 X141.756715 Y161.575115 Z-0.125000
G01 X141.067292 Y166.674362 Z-0.125000
G01 X139.728073 Y170.493520 Z-0.125000
G01 X137.702114 Y173.130987 Z-0.125000
G01 X135.692078 Y174.503215 Z-0.125000
G01 X132.502857 Y175.952194 Z-0.125000
G01 X123.298467 Y179.505225 Z-0.125000
G01 X117.866092 Y181.183833 Z-0.125000
G01 X114.354120 Y181.875941 Z-0.125000
G01 X110.962822 Y182.151012 Z-0.125000
G01 X107.741487 Y181.999030 Z-0.125000
G01 X104.490006 Y181.397540 Z-0.125000
G01 X101.007733 Y180.216834 Z-0.125000
G01 X97.592461 Y178.478828 Z-0.125000
G01 X94.310655 Y176.212327 Z-0.125000
G01 X91.230568 Y173.476281 Z-0.125000
G01 X88.226427 Y170.128189 Z-0.125000
G01 X85.395202 Y166.221098 Z-0.125000
G01 X83.249732 Y162.518678 Z-0.125000
G01 X81.535879 Y158.619459 Z-0.125000
G01 X80.257847 Y154.498662 Z-0.125000
G01 X79.380212 Y149.990438 Z-0.125000
G01 X78.926411 Y145.088527 Z-0.125000
G01 X78.901006 Y140.017547 Z-0.125000
G01 X79.299703 Y134.441330 Z-0.125000
G01 X80.113021 Y128.635753 Z-0.125000
G01 X81.355450 Y122.497763 Z-0.125000
G01 X82.945409 Y116.393319 Z-0.125000
G01 X85.089537 Y109.672804 Z-0.125000
G01 X87.532531 Y103.275934 Z-0.125000
G01 X90.216068 Y97.335370 Z-0.125000
G01 X93.056775 Y92.076716 Z-0.125000
G01 X95.815006 Y87.946973 Z-0.125000
G01 X98.563218 Y84.800869 Z-0.125000
G01 X101.481482 Y82.431227 Z-0.125000
G01 X103.716674 Y81.597067 Z-0.125000
G01 X104.687342 Y81.829558 Z-0.125000
G01 X105.563456 Y82.627848 Z-0.125000
G01 X108.939994 Y88.311767 Z-0.125000
G01 X111.920966 Y92.140854 Z-0.125000
G01 X122.540253 Y102.541605 Z-0.125000
G01 X126.460226 Y107.183473 Z-0.125000
G01 X129.106639 Y111.138332 Z-0.125000
G01 X131.597223 Y115.553702 Z-0.125000
G01 X136.145432 Y125.813115 Z-0.125000
G01 X138.619109 Y133.207489 Z-0.125000
G01 X140.585312 Y140.896972 Z-0.125000
G01 X141.924621 Y148.447443 Z-0.125000
G01 X142.592307 Y155.602258 Z-0.125000
G01 X142.552052 Y161.923897 Z-0.125000
G01 X141.835524 Y167.070823 Z-0.125000
G01 X140.442007 Y171.037938 Z-0.125000
G01 X138.405403 Y173.702421 Z-0.125000
G01 X136.540014 Y174.986625 Z-0.125000
G01 X133.782947 Y176.234154 Z-0.125000
G01 X123.068838 Y180.285982 Z-0.125000
G01 X117.606765 Y181.961190 Z-0.125000
G01 X114.016789 Y182.657860 Z-0.125000
G01 X110.674511 Y182.917903 Z-0.125000
G01 X107.388501 Y182.752144 Z-0.125000
G01 X104.194270 Y182.153338 Z-0.125000
G01 X100.638913 Y180.944096 Z-0.125000
G01 X97.148589 Y179.161990 Z-0.125000
G01 X93.792089 Y176.838596 Z-0.125000
G01 X90.641333 Y174.036801 Z-0.125000
G01 X87.570728 Y170.613925 Z-0.125000
G01 X84.683594 Y166.629456 Z-0.125000
G01 X82.434715 Y162.727106 Z-0.125000
G01 X80.714242 Y158.751762 Z-0.125000
G01 X79.444261 Y154.550813 Z-0.125000
G01 X78.589795 Y149.953225 Z-0.125000
G01 X78.175174 Y144.950499 Z-0.125000
G01 X78.202905 Y139.771190 Z-0.125000
G01 X78.672719 Y134.071884 Z-0.125000
G01 X79.572091 Y128.135257 Z-0.125000
G01 X80.917303 Y121.858166 Z-0.125000
G01 X82.620243 Y115.617841 Z-0.125000
G01 X84.900520 Y108.755183 Z-0.125000
G01 X87.483689 Y102.236298 Z-0.125000
G01 X90.306595 Y96.202165 Z-0.125000
G01 X93.203033 Y91.009974 Z-0.125000
G01 X96.011984 Y86.918250 Z-0.125000
G01 X98.874250 Y83.727329 Z-0.125000
G01 X101.906300 Y81.337292 Z-0.125000
G01 X104.215024 Y80.511451 Z-0.125000
G01 X105.202777 Y80.767111 Z-0.125000
G01 X106.052860 Y81.575687 Z-0.125000
G01 X109.367228 Y87.513568 Z-0.125000
G01 X112.400262 Y91.527199 Z-0.125000
G01 X123.486947 Y102.382913 Z-0.125000
G01 X127.520526 Y107.207894 Z-0.125000
G01 X130.121407 Y111.131355 Z-0.125000
G01 X132.646878 Y115.647361 Z-0.125000
G01 X137.106707 Y125.816604 Z-0.125000
G01 X139.594249 Y133.378257 Z-0.125000
G01 X141.505259 Y141.047434 Z-0.125000
G01 X142.795010 Y148.581982 Z-0.125000
G01 X143.424141 Y155.744490 Z-0.125000
G01 X143.358840 Y162.108530 Z-0.125000
G01 X142.602952 Y167.456550 Z-0.125000
G01 X141.194764 Y171.495139 Z-0.125000
G01 X139.102609 Y174.274838 Z-0.125000
G01 X137.383299 Y175.474866 Z-0.125000
G01 X134.902645 Y176.595906 Z-0.125000
G01 X122.581939 Y181.135886 Z-0.125000
G01 X117.312371 Y182.729781 Z-0.125000
G01 X113.766049 Y183.412495 Z-0.125000
G01 X110.358917 Y183.671913 Z-0.125000
G01 X107.134540 Y183.505259 Z-0.125000
G01 X103.878676 Y182.893661 Z-0.125000
G01 X100.251576 Y181.654273 Z-0.125000
G01 X96.687005 Y179.826455 Z-0.125000
G01 X93.256258 Y177.444648 Z-0.125000
G01 X90.034833 Y174.575762 Z-0.125000
G01 X86.897496 Y171.077298 Z-0.125000
G01 X83.954542 Y167.015451 Z-0.125000
G01 X81.669971 Y163.047263 Z-0.125000
G01 X79.929729 Y159.010016 Z-0.125000
G01 X78.653754 Y154.744840 Z-0.125000
G01 X77.807697 Y150.074704 Z-0.125000
G01 X77.416871 Y144.987981 Z-0.125000
G01 X77.483246 Y139.715013 Z-0.125000
G01 X78.009684 Y133.904784 Z-0.125000
G01 X78.982051 Y127.845246 Z-0.125000
G01 X80.418686 Y121.431917 Z-0.125000
G01 X82.226287 Y115.052490 Z-0.125000
G01 X84.557374 Y108.248783 Z-0.125000
G01 X87.274813 Y101.567091 Z-0.125000
G01 X90.240757 Y95.383122 Z-0.125000
G01 X93.277816 Y90.068916 Z-0.125000
G01 X96.213882 Y85.894625 Z-0.125000
G01 X99.132147 Y82.717302 Z-0.125000
G01 X102.295873 Y80.279317 Z-0.125000
G01 X104.697987 Y79.434154 Z-0.125000
G01 X105.712129 Y79.697060 Z-0.125000
G01 X106.565969 Y80.531131 Z-0.125000
G01 X109.814857 Y86.733527 Z-0.125000
G01 X112.897448 Y90.938948 Z-0.125000
G01 X124.367713 Y102.158741 Z-0.125000
G01 X128.526976 Y107.154400 Z-0.125000
G01 X131.159702 Y111.152556 Z-0.125000
G01 X133.644471 Y115.624818 Z-0.125000
G01 X138.015561 Y125.653976 Z-0.125000
G01 X140.466249 Y133.163567 Z-0.125000
G01 X142.389693 Y140.996713 Z-0.125000
G01 X143.670319 Y148.715179 Z-0.125000
G01 X144.259196 Y155.876346 Z-0.125000
G01 X144.156056 Y162.438437 Z-0.125000
G01 X143.369932 Y167.831005 Z-0.125000
G01 X141.901273 Y172.029717 Z-0.125000
G01 X139.793911 Y174.847792 Z-0.125000
G01 X138.160209 Y176.002109 Z-0.125000
G01 X135.868571 Y177.031817 Z-0.125000
G01 X121.928834 Y182.020230 Z-0.125000
G01 X116.982374 Y183.489158 Z-0.125000
G01 X113.363505 Y184.172051 Z-0.125000
G01 X110.015592 Y184.412504 Z-0.125000
G01 X106.731907 Y184.228497 Z-0.125000
G01 X103.543133 Y183.618240 Z-0.125000
G01 X99.845544 Y182.346917 Z-0.125000
G01 X96.207620 Y180.471599 Z-0.125000
G01 X92.702984 Y178.029768 Z-0.125000
G01 X89.302114 Y174.983673 Z-0.125000
G01 X86.109583 Y171.396649 Z-0.125000
G01 X83.123960 Y167.248837 Z-0.125000
G01 X80.818009 Y163.204792 Z-0.125000
G01 X79.073116 Y159.094103 Z-0.125000
G01 X77.807428 Y154.752085 Z-0.125000
G01 X76.987133 Y149.996163 Z-0.125000
G01 X76.638620 Y144.812203 Z-0.125000
G01 X76.761887 Y139.434127 Z-0.125000
G01 X77.363914 Y133.503582 Z-0.125000
G01 X78.427435 Y127.315409 Z-0.125000
G01 X79.972757 Y120.765214 Z-0.125000
G01 X81.899689 Y114.252412 Z-0.125000
G01 X84.369699 Y107.313897 Z-0.125000
G01 X87.234559 Y100.513946 Z-0.125000
G01 X90.258648 Y94.405119 Z-0.125000
G01 X93.435256 Y89.005485 Z-0.125000
G01 X96.493695 Y84.786556 Z-0.125000
G01 X99.521183 Y81.599214 Z-0.125000
G01 X102.744754 Y79.201215 Z-0.125000
G01 X105.232207 Y78.365087 Z-0.125000
G01 X106.269518 Y78.651877 Z-0.125000
G01 X107.125416 Y79.528528 Z-0.125000
G01 X110.283149 Y85.972182 Z-0.125000
G01 X113.344004 Y90.296130 Z-0.125000
G01 X116.601926 Y93.763643 Z-0.125000
G01 X125.271916 Y101.962568 Z-0.125000
G01 X129.637102 Y107.241171 Z-0.125000
G01 X132.298454 Y111.331285 Z-0.125000
G01 X134.737602 Y115.774654 Z-0.125000
G01 X139.073626 Y125.874928 Z-0.125000
G01 X141.520466 Y133.566021 Z-0.125000
G01 X143.367159 Y141.373405 Z-0.125000
G01 X144.575238 Y149.058057 Z-0.125000
G01 X145.109011 Y156.387934 Z-0.125000
G01 X144.939853 Y162.928646 Z-0.125000
G01 X144.073668 Y168.456737 Z-0.125000
G01 X142.556972 Y172.650708 Z-0.125000
G01 X140.420985 Y175.473704 Z-0.125000
G01 X138.869133 Y176.569428 Z-0.125000
G01 X136.755689 Y177.510844 Z-0.125000
G01 X121.213737 Y182.901354 Z-0.125000
G01 X116.616238 Y184.239142 Z-0.125000
G01 X113.051488 Y184.903518 Z-0.125000
G01 X109.644267 Y185.139230 Z-0.125000
G01 X106.432057 Y184.951913 Z-0.125000
G01 X103.187016 Y184.326449 Z-0.125000
G01 X99.420547 Y183.021402 Z-0.125000
G01 X95.710255 Y181.096705 Z-0.125000
G01 X92.132266 Y178.593329 Z-0.125000
G01 X88.658491 Y175.475224 Z-0.125000
G01 X85.399406 Y171.811001 Z-0.125000
G01 X82.358411 Y167.585901 Z-0.125000
G01 X80.017663 Y163.477716 Z-0.125000
G01 X78.253894 Y159.308077 Z-0.125000
G01 X76.983376 Y154.905857 Z-0.125000
G01 X76.172832 Y150.081950 Z-0.125000
G01 X75.850081 Y144.818823 Z-0.125000
G01 X76.014319 Y139.351292 Z-0.125000
G01 X76.676190 Y133.313760 Z-0.125000
G01 X77.816642 Y127.005808 Z-0.125000
G01 X79.458305 Y120.322148 Z-0.125000
G01 X81.495356 Y113.672480 Z-0.125000
G01 X84.098205 Y106.587797 Z-0.125000
G01 X87.109234 Y99.649372 Z-0.125000
G01 X90.279401 Y93.426669 Z-0.125000
G01 X93.599046 Y87.943753 Z-0.125000
G01 X96.705701 Y83.773309 Z-0.125000
G01 X99.855294 Y80.545712 Z-0.125000
G01 X103.205086 Y78.131879 Z-0.125000
G01 X105.783782 Y77.305323 Z-0.125000
G01 X106.818678 Y77.598553 Z-0.125000
G01 X107.684415 Y78.501236 Z-0.125000
G01 X110.813523 Y85.305570 Z-0.125000
G01 X113.875988 Y89.758868 Z-0.125000
G01 X117.263171 Y93.385699 Z-0.125000
G01 X126.294020 Y101.892883 Z-0.125000
G01 X130.772276 Y107.360503 Z-0.125000
G01 X133.384160 Y111.412509 Z-0.125000
G01 X135.776254 Y115.802743 Z-0.125000
G01 X140.078465 Y125.930479 Z-0.125000
G01 X142.470828 Y133.574877 Z-0.125000
G01 X144.266621 Y141.330467 Z-0.125000
G01 X145.459314 Y149.194385 Z-0.125000
G01 X145.949612 Y156.509860 Z-0.125000
G01 X145.736801 Y163.248714 Z-0.125000
G01 X144.838233 Y168.816790 Z-0.125000
G01 X143.303110 Y173.085634 Z-0.125000
G01 X141.100658 Y176.048089 Z-0.125000
G01 X139.573317 Y177.141040 Z-0.125000
G01 X137.564981 Y178.030662 Z-0.125000
G01 X116.213694 Y184.979196 Z-0.125000
G01 X112.709416 Y185.622730 Z-0.125000
G01 X109.374205 Y185.851196 Z-0.125000
G01 X106.110021 Y185.660211 Z-0.125000
G01 X102.942627 Y185.052728 Z-0.125000
G01 X98.976407 Y183.677280 Z-0.125000
G01 X95.194909 Y181.701415 Z-0.125000
G01 X91.544015 Y179.134706 Z-0.125000
G01 X87.997603 Y175.943249 Z-0.125000
G01 X84.571150 Y172.074712 Z-0.125000
G01 X81.489184 Y167.764272 Z-0.125000
G01 X79.128846 Y163.582288 Z-0.125000
G01 X77.362304 Y159.342070 Z-0.125000
G01 X76.104131 Y154.866676 Z-0.125000
G01 X75.321854 Y149.961097 Z-0.125000
G01 X75.044546 Y144.604759 Z-0.125000
G01 X75.269255 Y139.035609 Z-0.125000
G01 X76.011009 Y132.880981 Z-0.125000
G01 X77.247713 Y126.447166 Z-0.125000
G01 X79.003789 Y119.629236 Z-0.125000
G01 X81.166254 Y112.848965 Z-0.125000
G01 X83.914824 Y105.633321 Z-0.125000
G01 X87.080340 Y98.581736 Z-0.125000
G01 X90.398912 Y92.278882 Z-0.125000
G01 X93.768383 Y86.884257 Z-0.125000
G01 X97.000095 Y82.674722 Z-0.125000
G01 X100.195220 Y79.500081 Z-0.125000
G01 X103.675973 Y77.071847 Z-0.125000
G01 X106.314245 Y76.254415 Z-0.125000
G01 X107.415516 Y76.572335 Z-0.125000
G01 X108.288678 Y77.519029 Z-0.125000
G01 X111.363309 Y84.663825 Z-0.125000
G01 X114.494832 Y89.333692 Z-0.125000
G01 X117.944633 Y93.038617 Z-0.125000
G01 X127.245634 Y101.754497 Z-0.125000
G01 X131.850915 Y107.396016 Z-0.125000
G01 X134.413778 Y111.388536 Z-0.125000
G01 X136.834408 Y115.855252 Z-0.125000
G01 X141.028558 Y125.809895 Z-0.125000
G01 X143.431029 Y133.593305 Z-0.125000
G01 X145.215014 Y141.510806 Z-0.125000
G01 X146.348041 Y149.329819 Z-0.125000
G01 X146.796744 Y156.826618 Z-0.125000
G01 X146.534732 Y163.560998 Z-0.125000
G01 X145.568180 Y169.304405 Z-0.125000
G01 X143.948522 Y173.703942 Z-0.125000
G01 X141.713598 Y176.678025 Z-0.125000
G01 X140.205579 Y177.754159 Z-0.125000
G01 X138.296448 Y178.589304 Z-0.125000
G01 X130.942418 Y180.707311 Z-0.125000
G01 X120.440763 Y184.376991 Z-0.125000
G01 X115.774474 Y185.709053 Z-0.125000
G01 X112.207935 Y186.345520 Z-0.125000
G01 X108.948045 Y186.549565 Z-0.125000
G01 X105.765175 Y186.353034 Z-0.125000
G01 X102.547150 Y185.728196 Z-0.125000
G01 X98.512945 Y184.314104 Z-0.125000
G01 X94.661405 Y182.285104 Z-0.125000
G01 X90.938410 Y179.653451 Z-0.125000
G01 X87.319362 Y176.387299 Z-0.125000
G01 X83.824297 Y172.437539 Z-0.125000
G01 X80.687496 Y168.049989 Z-0.125000
G01 X78.293075 Y163.805655 Z-0.125000
G01 X76.508464 Y159.509707 Z-0.125000
G01 X75.246444 Y154.978404 Z-0.125000
G01 X74.475170 Y150.010029 Z-0.125000
G01 X74.225324 Y144.579712 Z-0.125000
G01 X74.493240 Y138.925848 Z-0.125000
G01 X75.297791 Y132.668527 Z-0.125000
G01 X76.615183 Y126.118422 Z-0.125000
G01 X78.472162 Y119.169978 Z-0.125000
G01 X80.750024 Y112.255615 Z-0.125000
G01 X83.637785 Y104.896844 Z-0.125000
G01 X86.854110 Y97.915481 Z-0.125000
G01 X90.326901 Y91.470395 Z-0.125000
G01 X93.848892 Y85.960374 Z-0.125000
G01 X97.218900 Y81.674176 Z-0.125000
G01 X100.540156 Y78.462860 Z-0.125000
G01 X104.156610 Y76.021655 Z-0.125000
G01 X105.676795 Y75.396459 Z-0.125000
G01 X106.897039 Y75.214331 Z-0.125000
G01 X108.031498 Y75.556672 Z-0.125000
G01 X108.891779 Y76.510164 Z-0.125000
G01 X111.932237 Y84.047575 Z-0.125000
G01 X115.062419 Y88.854218 Z-0.125000
G01 X118.646312 Y92.722933 Z-0.125000
G01 X128.219790 Y101.644648 Z-0.125000
G01 X133.034931 Y107.578681 Z-0.125000
G01 X135.623735 Y111.662623 Z-0.125000
G01 X137.989441 Y116.090338 Z-0.125000
G01 X142.060144 Y125.898365 Z-0.125000
G01 X144.400981 Y133.621751 Z-0.125000
G01 X146.128789 Y141.472073 Z-0.125000
G01 X147.241152 Y149.464537 Z-0.125000
G01 X147.643785 Y156.932710 Z-0.125000
G01 X147.333827 Y163.865143 Z-0.125000
G01 X146.333371 Y169.642900 Z-0.125000
G01 X144.693317 Y174.119904 Z-0.125000
G01 X143.626576 Y175.858804 Z-0.125000
G01 X142.384057 Y177.251516 Z-0.125000
G01 X140.901354 Y178.332570 Z-0.125000
G01 X139.022995 Y179.159932 Z-0.125000
G01 X130.818703 Y181.358090 Z-0.125000
G01 X119.930516 Y185.123486 Z-0.125000
G01 X115.298310 Y186.428354 Z-0.125000
G01 X111.802618 Y187.039416 Z-0.125000
G01 X108.493081 Y187.232995 Z-0.125000
G01 X105.261906 Y187.012222 Z-0.125000
G01 X102.130383 Y186.386311 Z-0.125000
G01 X98.030160 Y184.931607 Z-0.125000
G01 X94.109740 Y182.847324 Z-0.125000
G01 X90.315272 Y180.148848 Z-0.125000
G01 X86.623945 Y176.806750 Z-0.125000
G01 X83.060179 Y172.774960 Z-0.125000
G01 X79.868453 Y168.310211 Z-0.125000
G01 X77.440219 Y164.004423 Z-0.125000
G01 X75.582255 Y159.492084 Z-0.125000
G01 X74.297872 Y154.713083 Z-0.125000
G01 X73.576692 Y149.650244 Z-0.125000
G01 X73.395547 Y144.113655 Z-0.125000
G01 X73.747281 Y138.346453 Z-0.125000
G01 X74.656136 Y131.962018 Z-0.125000
G01 X76.093486 Y125.280594 Z-0.125000
G01 X78.087420 Y118.198505 Z-0.125000
G01 X80.510287 Y111.162038 Z-0.125000
G01 X83.560407 Y103.691717 Z-0.125000
G01 X86.937303 Y96.630561 Z-0.125000
G01 X90.457773 Y90.319030 Z-0.125000
G01 X94.121101 Y84.774569 Z-0.125000
G01 X97.524476 Y80.587487 Z-0.125000
G01 X100.963453 Y77.375276 Z-0.125000
G01 X104.704785 Y74.953124 Z-0.125000
G01 X106.227028 Y74.358075 Z-0.125000
G01 X107.494683 Y74.184802 Z-0.125000
G01 X108.665996 Y74.552012 Z-0.125000
G01 X109.538980 Y75.549605 Z-0.125000
G01 X112.480413 Y83.373627 Z-0.125000
G01 X113.891016 Y85.939979 Z-0.125000
G01 X115.647449 Y88.403547 Z-0.125000
G01 X119.368207 Y92.439184 Z-0.125000
G01 X129.216131 Y101.563423 Z-0.125000
G01 X134.160443 Y107.673592 Z-0.125000
G01 X136.696023 Y111.692233 Z-0.125000
G01 X139.085970 Y116.195447 Z-0.125000
G01 X143.104611 Y126.005620 Z-0.125000
G01 X145.436682 Y133.883136 Z-0.125000
G01 X147.129960 Y141.899753 Z-0.125000
G01 X148.159220 Y149.829957 Z-0.125000
G01 X148.494495 Y157.460490 Z-0.125000
G01 X148.113062 Y164.349179 Z-0.125000
G01 X147.020826 Y170.267559 Z-0.125000
G01 X145.274680 Y174.838758 Z-0.125000
G01 X142.985100 Y177.883689 Z-0.125000
G01 X141.451676 Y178.994174 Z-0.125000
G01 X139.594160 Y179.792284 Z-0.125000
G01 X130.757337 Y181.968794 Z-0.125000
G01 X119.375721 Y185.862735 Z-0.125000
G01 X114.785021 Y187.136742 Z-0.125000
G01 X111.366440 Y187.720252 Z-0.125000
G01 X108.009134 Y187.900949 Z-0.125000
G01 X104.868844 Y187.672752 Z-0.125000
G01 X101.692057 Y187.026892 Z-0.125000
G01 X97.527696 Y185.529071 Z-0.125000
G01 X93.539917 Y183.387627 Z-0.125000
G01 X89.544803 Y180.515163 Z-0.125000
G01 X85.791394 Y177.078870 Z-0.125000
G01 X82.172883 Y172.952258 Z-0.125000
G01 X78.942423 Y168.403512 Z-0.125000
G01 X76.497014 Y164.027144 Z-0.125000
G01 X74.638960 Y159.447000 Z-0.125000
G01 X73.370947 Y154.598403 Z-0.125000
G01 X72.682597 Y149.460243 Z-0.125000
G01 X72.552262 Y143.836794 Z-0.125000
G01 X72.970461 Y137.973161 Z-0.125000
G01 X73.966623 Y131.476281 Z-0.125000
G01 X75.508187 Y124.673200 Z-0.125000
G01 X77.625568 Y117.461402 Z-0.125000
G01 X80.183063 Y110.299520 Z-0.125000
G01 X83.281041 Y102.942181 Z-0.125000
G01 X86.812872 Y95.754715 Z-0.125000
G01 X90.597679 Y89.165250 Z-0.125000
G01 X94.303140 Y83.725629 Z-0.125000
G01 X97.836134 Y79.507506 Z-0.125000
G01 X101.318049 Y76.355856 Z-0.125000
G01 X105.204119 Y73.924133 Z-0.125000
G01 X106.788174 Y73.330783 Z-0.125000
G01 X108.106460 Y73.166545 Z-0.125000
G01 X109.318296 Y73.558623 Z-0.125000
G01 X110.229835 Y74.642629 Z-0.125000
G01 X113.087896 Y82.807114 Z-0.125000
G01 X114.487676 Y85.454600 Z-0.125000
G01 X116.249655 Y87.982397 Z-0.125000
G01 X120.014782 Y92.095680 Z-0.125000
G01 X130.234298 Y101.510914 Z-0.125000
G01 X132.909068 Y104.560318 Z-0.125000
G01 X135.392317 Y107.920128 Z-0.125000
G01 X137.869662 Y111.888764 Z-0.125000
G01 X140.200391 Y116.325781 Z-0.125000
G01 X144.161244 Y126.131840 Z-0.125000
G01 X146.424525 Y133.936361 Z-0.125000
G01 X148.095708 Y142.108808 Z-0.125000
G01 X149.078720 Y150.204949 Z-0.125000
G01 X149.345025 Y157.777516 Z-0.125000
G01 X148.889703 Y164.834737 Z-0.125000
G01 X147.744153 Y170.742381 Z-0.125000
G01 X145.961152 Y175.347305 Z-0.125000
G01 X143.580060 Y178.517025 Z-0.125000
G01 X142.067211 Y179.619458 Z-0.125000
G01 X140.235278 Y180.409965 Z-0.125000
G01 X130.660369 Y182.570105 Z-0.125000
G01 X118.903493 Y186.553680 Z-0.125000
G01 X114.234610 Y187.833859 Z-0.125000
G01 X110.764234 Y188.402430 Z-0.125000
G01 X107.496025 Y188.553160 Z-0.125000
G01 X104.313065 Y188.297142 Z-0.125000
G01 X101.232173 Y187.649404 Z-0.125000
G01 X97.146532 Y186.170100 Z-0.125000
G01 X92.951935 Y183.905656 Z-0.125000
G01 X88.884631 Y180.960198 Z-0.125000
G01 X85.059659 Y177.445006 Z-0.125000
G01 X81.372715 Y173.234933 Z-0.125000
G01 X77.997250 Y168.465861 Z-0.125000
G01 X75.535828 Y164.020256 Z-0.125000
G01 X73.678759 Y159.374273 Z-0.125000
G01 X72.428458 Y154.458497 Z-0.125000
G01 X71.774279 Y149.247342 Z-0.125000
G01 X71.696454 Y143.539091 Z-0.125000
G01 X72.183264 Y137.580994 Z-0.125000
G01 X73.268969 Y130.973370 Z-0.125000
G01 X74.917431 Y124.050152 Z-0.125000
G01 X77.161211 Y116.710256 Z-0.125000
G01 X79.856287 Y109.424927 Z-0.125000
G01 X83.107947 Y101.950402 Z-0.125000
G01 X86.801959 Y94.664984 Z-0.125000
G01 X90.746441 Y88.009949 Z-0.125000
G01 X94.593062 Y82.545729 Z-0.125000
G01 X98.245477 Y78.341023 Z-0.125000
G01 X101.834111 Y75.228643 Z-0.125000
G01 X105.773674 Y72.878234 Z-0.125000
G01 X107.412922 Y72.301881 Z-0.125000
G01 X108.731477 Y72.159828 Z-0.125000
G01 X109.987682 Y72.576863 Z-0.125000
G01 X110.918185 Y73.708011 Z-0.125000
G01 X113.714255 Y82.267705 Z-0.125000
G01 X115.102047 Y84.998294 Z-0.125000
G01 X116.940778 Y87.684157 Z-0.125000
G01 X120.774785 Y91.875712 Z-0.125000
G01 X131.273846 Y101.487029 Z-0.125000
G01 X133.970353 Y104.558081 Z-0.125000
G01 X136.563362 Y108.074615 Z-0.125000
G01 X138.982025 Y111.970614 Z-0.125000
G01 X141.252730 Y116.314868 Z-0.125000
G01 X145.160716 Y126.068775 Z-0.125000
G01 X147.420955 Y134.000411 Z-0.125000
G01 X149.028447 Y142.085102 Z-0.125000
G01 X149.982118 Y150.348792 Z-0.125000
G01 X150.196361 Y158.094631 Z-0.125000
G01 X149.689692 Y165.124210 Z-0.125000
G01 X148.466048 Y171.212284 Z-0.125000
G01 X146.586168 Y175.960871 Z-0.125000
G01 X144.169474 Y179.151166 Z-0.125000
G01 X142.602326 Y180.290902 Z-0.125000
G01 X140.712158 Y181.087312 Z-0.125000
G01 X130.527350 Y183.162113 Z-0.125000
G01 X118.261659 Y187.277096 Z-0.125000
G01 X113.646896 Y188.519167 Z-0.125000
G01 X110.263827 Y189.055893 Z-0.125000
G01 X107.092944 Y189.192131 Z-0.125000
G01 X104.012052 Y188.944880 Z-0.125000
G01 X100.892963 Y188.293474 Z-0.125000
G01 X96.749981 Y186.793506 Z-0.125000
G01 X92.486505 Y184.490240 Z-0.125000
G01 X88.341913 Y181.491288 Z-0.125000
G01 X84.311106 Y177.785200 Z-0.125000
G01 X80.555908 Y173.490862 Z-0.125000
G01 X77.124714 Y168.642802 Z-0.125000
G01 X74.630641 Y164.139141 Z-0.125000
G01 X72.756397 Y159.443243 Z-0.125000
G01 X71.504396 Y154.479429 Z-0.125000
G01 X70.864440 Y149.216123 Z-0.125000
G01 X70.818372 Y143.444359 Z-0.125000
G01 X71.385690 Y137.170131 Z-0.125000
G01 X72.563355 Y130.453462 Z-0.125000
G01 X74.321398 Y123.411717 Z-0.125000
G01 X76.694260 Y115.945422 Z-0.125000
G01 X79.529869 Y108.538704 Z-0.125000
G01 X82.938074 Y100.949678 Z-0.125000
G01 X86.797039 Y93.570064 Z-0.125000
G01 X90.784907 Y87.032572 Z-0.125000
G01 X94.783957 Y81.505555 Z-0.125000
G01 X98.474479 Y77.369819 Z-0.125000
G01 X102.197831 Y74.228903 Z-0.125000
G01 X106.288035 Y71.872680 Z-0.125000
G01 X107.995000 Y71.298473 Z-0.125000
G01 X109.368838 Y71.165097 Z-0.125000
G01 X110.673438 Y71.607090 Z-0.125000
G01 X111.626215 Y72.786007 Z-0.125000
G01 X114.359040 Y81.755759 Z-0.125000
G01 X115.733862 Y84.571508 Z-0.125000
G01 X117.577424 Y87.325535 Z-0.125000
G01 X121.554557 Y91.688932 Z-0.125000
G01 X132.334594 Y101.491860 Z-0.125000
G01 X135.231210 Y104.805870 Z-0.125000
G01 X137.841573 Y108.385469 Z-0.125000
G01 X140.279200 Y112.372264 Z-0.125000
G01 X142.481026 Y116.663024 Z-0.125000
G01 X146.240338 Y126.230150 Z-0.125000
G01 X148.425436 Y134.075552 Z-0.125000
G01 X150.004929 Y142.309453 Z-0.125000
G01 X150.889273 Y150.492366 Z-0.125000
G01 X151.048681 Y158.411836 Z-0.125000
G01 X150.463471 Y165.607889 Z-0.125000
G01 X149.186691 Y171.676820 Z-0.125000
G01 X147.269777 Y176.457431 Z-0.125000
G01 X146.062503 Y178.340174 Z-0.125000
G01 X144.754236 Y179.785485 Z-0.125000
G01 X143.129658 Y180.967175 Z-0.125000
G01 X141.260781 Y181.749273 Z-0.125000
G01 X130.468221 Y183.715566 Z-0.125000
G01 X117.706953 Y187.951044 Z-0.125000
G01 X113.022147 Y189.192489 Z-0.125000
G01 X109.732201 Y189.695401 Z-0.125000
G01 X106.523210 Y189.812943 Z-0.125000
G01 X103.405195 Y189.534651 Z-0.125000
G01 X100.391125 Y188.880920 Z-0.125000
G01 X96.192860 Y187.333452 Z-0.125000
G01 X91.864708 Y184.964884 Z-0.125000
G01 X87.649895 Y181.889448 Z-0.125000
G01 X83.545915 Y178.099005 Z-0.125000
G01 X79.611004 Y173.577543 Z-0.125000
G01 X76.142686 Y168.644770 Z-0.125000
G01 X73.634300 Y164.074555 Z-0.125000
G01 X71.762740 Y159.317023 Z-0.125000
G01 X70.530150 Y154.291128 Z-0.125000
G01 X69.926603 Y148.960194 Z-0.125000
G01 X69.935816 Y143.108906 Z-0.125000
G01 X70.578008 Y136.740840 Z-0.125000
G01 X71.849957 Y129.917005 Z-0.125000
G01 X73.719997 Y122.758165 Z-0.125000
G01 X76.224715 Y115.167260 Z-0.125000
G01 X79.203629 Y107.641299 Z-0.125000
G01 X82.771242 Y99.940634 Z-0.125000
G01 X86.670819 Y92.689298 Z-0.125000
G01 X90.822030 Y86.058595 Z-0.125000
G01 X94.976373 Y80.471286 Z-0.125000
G01 X98.799735 Y76.313365 Z-0.125000
G01 X102.646981 Y73.181573 Z-0.125000
G01 X106.807227 Y70.879380 Z-0.125000
G01 X108.585040 Y70.307678 Z-0.125000
G01 X110.017560 Y70.182711 Z-0.125000
G01 X111.409288 Y70.674709 Z-0.125000
G01 X112.376914 Y71.923937 Z-0.125000
G01 X115.022164 Y81.271901 Z-0.125000
G01 X116.383031 Y84.174690 Z-0.125000
G01 X118.230529 Y86.997864 Z-0.125000
G01 X122.353831 Y91.535697 Z-0.125000
G01 X133.316353 Y101.421728 Z-0.125000
G01 X136.244994 Y104.746114 Z-0.125000
G01 X138.970396 Y108.470629 Z-0.125000
G01 X141.346568 Y112.359203 Z-0.125000
G01 X143.565389 Y116.697642 Z-0.125000
G01 X147.261726 Y126.196068 Z-0.125000
G01 X149.437521 Y134.162054 Z-0.125000
G01 X150.985526 Y142.544271 Z-0.125000
G01 X151.814498 Y150.887217 Z-0.125000
G01 X151.901716 Y158.729219 Z-0.125000
G01 X151.234477 Y166.092820 Z-0.125000
G01 X149.855362 Y172.303715 Z-0.125000
G01 X147.820368 Y177.186036 Z-0.125000
G01 X146.622755 Y179.005892 Z-0.125000
G01 X145.256968 Y180.490295 Z-0.125000
G01 X143.567536 Y181.693454 Z-0.125000
G01 X141.718429 Y182.444959 Z-0.125000
G01 X130.377336 Y184.260790 Z-0.125000
G01 X116.978170 Y188.657642 Z-0.125000
G01 X112.360365 Y189.853287 Z-0.125000
G01 X109.029359 Y190.333298 Z-0.125000
G01 X105.924404 Y190.416938 Z-0.125000
G01 X102.915433 Y190.128359 Z-0.125000
G01 X99.867281 Y189.449938 Z-0.125000
G01 X95.468997 Y187.783854 Z-0.125000
G01 X91.079658 Y185.322164 Z-0.125000
G01 X86.801422 Y182.146182 Z-0.125000
G01 X82.635450 Y178.252509 Z-0.125000
G01 X78.646598 Y173.631484 Z-0.125000
G01 X75.142319 Y168.614982 Z-0.125000
G01 X72.620695 Y163.979823 Z-0.125000
G01 X70.752802 Y159.162982 Z-0.125000
G01 X69.540876 Y154.077601 Z-0.125000
G01 X68.975078 Y148.681723 Z-0.125000
G01 X69.041185 Y142.753236 Z-0.125000
G01 X69.760307 Y136.293480 Z-0.125000
G01 X71.128778 Y129.364089 Z-0.125000
G01 X73.197943 Y121.816212 Z-0.125000
G01 X75.856611 Y114.100608 Z-0.125000
G01 X78.996543 Y106.464887 Z-0.125000
G01 X82.736355 Y98.673963 Z-0.125000
G01 X86.804105 Y91.367254 Z-0.125000
G01 X91.113114 Y84.723402 Z-0.125000
G01 X95.286600 Y79.305608 Z-0.125000
G01 X99.230188 Y75.171929 Z-0.125000
G01 X103.101229 Y72.145783 Z-0.125000
G01 X107.401203 Y69.871142 Z-0.125000
G01 X109.181968 Y69.329676 Z-0.125000
G01 X110.676748 Y69.213117 Z-0.125000
G01 X112.126711 Y69.730609 Z-0.125000
G01 X113.123231 Y71.029126 Z-0.125000
G01 X115.739855 Y80.915157 Z-0.125000
G01 X117.103764 Y83.908205 Z-0.125000
G01 X118.974162 Y86.800796 Z-0.125000
G01 X123.069912 Y91.318681 Z-0.125000
G01 X134.417624 Y101.483183 Z-0.125000
G01 X137.459067 Y104.938083 Z-0.125000
G01 X140.292081 Y108.843564 Z-0.125000
G01 X142.598837 Y112.671309 Z-0.125000
G01 X144.745201 Y116.927808 Z-0.125000
G01 X148.362192 Y126.393404 Z-0.125000
G01 X150.510614 Y134.503143 Z-0.125000
G01 X151.969880 Y142.789465 Z-0.125000
G01 X152.727289 Y151.035890 Z-0.125000
G01 X152.755467 Y159.046513 Z-0.125000
G01 X152.036881 Y166.366014 Z-0.125000
G01 X150.571979 Y172.761631 Z-0.125000
G01 X148.500846 Y177.673203 Z-0.125000
G01 X147.252692 Y179.574284 Z-0.125000
G01 X145.831622 Y181.125957 Z-0.125000
G01 X144.078499 Y182.379747 Z-0.125000
G01 X142.166236 Y183.149411 Z-0.125000
G01 X133.906483 Y184.105229 Z-0.125000
G01 X130.138493 Y184.825693 Z-0.125000
G01 X116.341077 Y189.313789 Z-0.125000
G01 X111.661907 Y190.501115 Z-0.125000
G01 X108.433684 Y190.943555 Z-0.125000
G01 X105.296435 Y191.004026 Z-0.125000
G01 X102.255798 Y190.680918 Z-0.125000
G01 X99.321253 Y190.000350 Z-0.125000
G01 X94.870459 Y188.279698 Z-0.125000
G01 X90.419755 Y185.747429 Z-0.125000
G01 X85.931927 Y182.371249 Z-0.125000
G01 X81.704769 Y178.373004 Z-0.125000
G01 X77.662781 Y173.652327 Z-0.125000
G01 X74.123883 Y168.553258 Z-0.125000
G01 X71.590003 Y163.854766 Z-0.125000
G01 X69.726851 Y158.981033 Z-0.125000
G01 X68.536663 Y153.838937 Z-0.125000
G01 X68.010046 Y148.380710 Z-0.125000
G01 X68.134746 Y142.377618 Z-0.125000
G01 X68.932856 Y135.828228 Z-0.125000
G01 X70.400084 Y128.795250 Z-0.125000
G01 X72.590906 Y121.129382 Z-0.125000
G01 X75.387245 Y113.292837 Z-0.125000
G01 X78.676028 Y105.542793 Z-0.125000
G01 X82.580704 Y97.647029 Z-0.125000
G01 X86.815556 Y90.260885 Z-0.125000
G01 X91.155426 Y83.753450 Z-0.125000
G01 X95.484025 Y78.283952 Z-0.125000
G01 X99.564031 Y74.134171 Z-0.125000
G01 X103.559682 Y71.122069 Z-0.125000
G01 X108.003230 Y68.876769 Z-0.125000
G01 X109.847955 Y68.353104 Z-0.125000
G01 X111.397033 Y68.261324 Z-0.125000
G01 X112.931441 Y68.856016 Z-0.125000
G01 X113.958286 Y70.304547 Z-0.125000
G01 X116.264594 Y79.981613 Z-0.125000
G01 X117.371411 Y82.751742 Z-0.125000
G01 X118.880145 Y85.419892 Z-0.125000
G01 X122.790099 Y90.143521 Z-0.125000
G01 X134.397139 Y100.435585 Z-0.125000
G01 X139.690234 Y106.451290 Z-0.125000
G01 X142.588729 Y110.776669 Z-0.125000
G01 X145.122608 Y115.447162 Z-0.125000
G01 X147.438488 Y120.745445 Z-0.125000
G01 X149.403707 Y126.389289 Z-0.125000
G01 X151.483070 Y134.369678 Z-0.125000
G01 X152.924267 Y142.784187 Z-0.125000
G01 X153.643479 Y151.184652 Z-0.125000
G01 X153.609844 Y159.363897 Z-0.125000
G01 X152.805561 Y166.848261 Z-0.125000
G01 X151.288507 Y173.213106 Z-0.125000
G01 X149.110387 Y178.278540 Z-0.125000
G01 X147.803193 Y180.239108 Z-0.125000
G01 X146.404040 Y181.759829 Z-0.125000
G01 X144.583826 Y183.069617 Z-0.125000
G01 X142.513676 Y183.886782 Z-0.125000
G01 X133.944769 Y184.662886 Z-0.125000
G01 X129.980338 Y185.354099 Z-0.125000
G01 X125.541442 Y186.601806 Z-0.125000
G01 X115.801758 Y189.918589 Z-0.125000
G01 X111.067663 Y191.109582 Z-0.125000
G01 X107.949736 Y191.528317 Z-0.125000
G01 X104.929494 Y191.587446 Z-0.125000
G01 X101.863541 Y191.265143 Z-0.125000
G01 X98.902160 Y190.576524 Z-0.125000
G01 X94.402971 Y188.827158 Z-0.125000
G01 X89.742229 Y186.148989 Z-0.125000
G01 X85.185253 Y182.687111 Z-0.125000
G01 X80.886621 Y178.600307 Z-0.125000
G01 X76.775485 Y173.790265 Z-0.125000
G01 X73.182735 Y168.613998 Z-0.125000
G01 X70.542674 Y163.699473 Z-0.125000
G01 X68.685157 Y158.771263 Z-0.125000
G01 X67.517869 Y153.575405 Z-0.125000
G01 X67.026408 Y147.842732 Z-0.125000
G01 X67.236983 Y141.746339 Z-0.125000
G01 X68.141723 Y135.089515 Z-0.125000
G01 X69.734992 Y127.938368 Z-0.125000
G01 X72.073682 Y120.146012 Z-0.125000
G01 X75.030591 Y112.189061 Z-0.125000
G01 X78.486117 Y104.335609 Z-0.125000
G01 X82.568002 Y96.358620 Z-0.125000
G01 X86.831747 Y89.152100 Z-0.125000
G01 X91.332188 Y82.603874 Z-0.125000
G01 X95.805971 Y77.131424 Z-0.125000
G01 X99.899395 Y73.106700 Z-0.125000
G01 X104.021624 Y70.111058 Z-0.125000
G01 X108.612413 Y67.896619 Z-0.125000
G01 X110.523781 Y67.391114 Z-0.125000
G01 X112.076348 Y67.318566 Z-0.125000
G01 X113.679278 Y67.939736 Z-0.125000
G01 X114.741636 Y69.441314 Z-0.125000
G01 X116.984253 Y79.570035 Z-0.125000
G01 X118.122379 Y82.532668 Z-0.125000
G01 X119.646141 Y85.268893 Z-0.125000
G01 X123.623365 Y90.076967 Z-0.125000
G01 X135.424968 Y100.447571 Z-0.125000
G01 X138.259593 Y103.391241 Z-0.125000
G01 X140.862173 Y106.592896 Z-0.125000
G01 X143.783658 Y110.961839 Z-0.125000
G01 X146.329793 Y115.700407 Z-0.125000
G01 X148.566953 Y120.893313 Z-0.125000
G01 X150.522600 Y126.623391 Z-0.125000
G01 X152.567523 Y134.742254 Z-0.125000
G01 X153.947802 Y143.312056 Z-0.125000
G01 X154.579885 Y151.866472 Z-0.125000
G01 X154.448745 Y159.933362 Z-0.125000
G01 X153.571647 Y167.331403 Z-0.125000
G01 X151.944564 Y173.840270 Z-0.125000
G01 X149.716350 Y178.881819 Z-0.125000
G01 X148.347969 Y180.904289 Z-0.125000
G01 X146.887182 Y182.470811 Z-0.125000
G01 X144.992631 Y183.812535 Z-0.125000
G01 X142.940999 Y184.608498 Z-0.125000
G01 X140.563664 Y184.963631 Z-0.125000
G01 X133.846459 Y185.229131 Z-0.125000
G01 X129.789353 Y185.874633 Z-0.125000
G01 X125.257425 Y187.111427 Z-0.125000
G01 X114.947023 Y190.597815 Z-0.125000
G01 X110.297999 Y191.731289 Z-0.125000
G01 X107.149121 Y192.119878 Z-0.125000
G01 X104.246512 Y192.142689 Z-0.125000
G01 X101.301321 Y191.808219 Z-0.125000
G01 X98.313372 Y191.091154 Z-0.125000
G01 X93.767131 Y189.282480 Z-0.125000
G01 X89.047259 Y186.526486 Z-0.125000
G01 X84.422298 Y182.976943 Z-0.125000
G01 X79.918189 Y178.657110 Z-0.125000
G01 X75.755349 Y173.747148 Z-0.125000
G01 X72.129860 Y168.490104 Z-0.125000
G01 X69.478974 Y163.513856 Z-0.125000
G01 X67.628077 Y158.533851 Z-0.125000
G01 X66.484763 Y153.287094 Z-0.125000
G01 X66.037045 Y147.495382 Z-0.125000
G01 X66.310417 Y141.328767 Z-0.125000
G01 X67.298796 Y134.586246 Z-0.125000
G01 X68.996011 Y127.334552 Z-0.125000
G01 X71.461816 Y119.427606 Z-0.125000
G01 X74.561851 Y111.353738 Z-0.125000
G01 X78.307924 Y103.112501 Z-0.125000
G01 X82.569254 Y95.059566 Z-0.125000
G01 X87.000636 Y87.816281 Z-0.125000
G01 X91.656817 Y81.273511 Z-0.125000
G01 X96.134805 Y75.986857 Z-0.125000
G01 X100.347650 Y71.997289 Z-0.125000
G01 X104.582323 Y69.057556 Z-0.125000
G01 X109.228037 Y66.931230 Z-0.125000
G01 X111.140657 Y66.454528 Z-0.125000
G01 X112.763088 Y66.389495 Z-0.125000
G01 X114.439549 Y67.036428 Z-0.125000
G01 X115.565867 Y68.648840 Z-0.125000
G01 X117.752843 Y79.295857 Z-0.125000
G01 X118.889538 Y82.350361 Z-0.125000
G01 X120.428955 Y85.154660 Z-0.125000
G01 X122.211509 Y87.577348 Z-0.125000
G01 X124.474969 Y90.045211 Z-0.125000
G01 X136.470777 Y100.488005 Z-0.125000
G01 X139.332953 Y103.432926 Z-0.125000
G01 X141.961297 Y106.638339 Z-0.125000
G01 X144.820700 Y110.880973 Z-0.125000
G01 X147.384994 Y115.632332 Z-0.125000
G01 X149.629758 Y120.860483 Z-0.125000
G01 X151.582185 Y126.649959 Z-0.125000
G01 X153.604834 Y134.879835 Z-0.125000
G01 X154.910597 Y143.319212 Z-0.125000
G01 X155.498669 Y152.025969 Z-0.125000
G01 X155.301602 Y160.255934 Z-0.125000
G01 X154.335049 Y167.815261 Z-0.125000
G01 X152.658946 Y174.283158 Z-0.125000
G01 X150.319539 Y179.482325 Z-0.125000
G01 X148.974774 Y181.459889 Z-0.125000
G01 X147.454411 Y183.102179 Z-0.125000
G01 X145.486240 Y184.509920 Z-0.125000
G01 X143.263213 Y185.362597 Z-0.125000
G01 X140.809127 Y185.686332 Z-0.125000
G01 X133.829910 Y185.780974 Z-0.125000
G01 X129.565449 Y186.387563 Z-0.125000
G01 X124.806575 Y187.653787 Z-0.125000
G01 X114.331846 Y191.183561 Z-0.125000
G01 X109.636038 Y192.314351 Z-0.125000
G01 X106.605955 Y192.676820 Z-0.125000
G01 X103.682056 Y192.689164 Z-0.125000
G01 X100.714949 Y192.334299 Z-0.125000
G01 X97.854114 Y191.633873 Z-0.125000
G01 X93.265830 Y189.792906 Z-0.125000
G01 X88.488617 Y186.984759 Z-0.125000
G01 X83.643510 Y183.240564 Z-0.125000
G01 X79.066943 Y178.826357 Z-0.125000
G01 X74.835670 Y173.826047 Z-0.125000
G01 X71.060077 Y168.334006 Z-0.125000
G01 X68.399262 Y163.298092 Z-0.125000
G01 X66.555879 Y158.269067 Z-0.125000
G01 X65.437612 Y152.974362 Z-0.125000
G01 X65.035157 Y147.126652 Z-0.125000
G01 X65.372937 Y140.892499 Z-0.125000
G01 X66.446924 Y134.066249 Z-0.125000
G01 X68.330561 Y126.435269 Z-0.125000
G01 X70.950764 Y118.404965 Z-0.125000
G01 X74.217542 Y110.215344 Z-0.125000
G01 X77.999218 Y102.156057 Z-0.125000
G01 X82.280764 Y94.269685 Z-0.125000
G01 X86.877726 Y86.930326 Z-0.125000
G01 X91.703333 Y80.314651 Z-0.125000
G01 X96.337150 Y74.988190 Z-0.125000
G01 X100.687218 Y70.992003 Z-0.125000
G01 X105.051599 Y68.073739 Z-0.125000
G01 X109.849207 Y65.980868 Z-0.125000
G01 X111.901823 Y65.512397 Z-0.125000
G01 X113.515040 Y65.481177 Z-0.125000
G01 X115.252420 Y66.179099 Z-0.125000
G01 X116.407363 Y67.874166 Z-0.125000
G01 X118.537088 Y79.057999 Z-0.125000
G01 X119.672441 Y82.205176 Z-0.125000
G01 X121.228139 Y85.077372 Z-0.125000
G01 X123.039229 Y87.545413 Z-0.125000
G01 X125.344553 Y90.048252 Z-0.125000
G01 X137.534030 Y100.556795 Z-0.125000
G01 X140.423400 Y103.500912 Z-0.125000
G01 X143.076880 Y106.708203 Z-0.125000
G01 X145.959631 Y110.967117 Z-0.125000
G01 X148.536091 Y115.757032 Z-0.125000
G01 X150.779781 Y121.047085 Z-0.125000
G01 X152.650090 Y126.690840 Z-0.125000
G01 X154.647423 Y135.029671 Z-0.125000
G01 X155.906849 Y143.603140 Z-0.125000
G01 X156.419958 Y152.185734 Z-0.125000
G01 X156.154726 Y160.578506 Z-0.125000
G01 X155.095946 Y168.299745 Z-0.125000
G01 X153.306415 Y174.910589 Z-0.125000
G01 X150.920493 Y180.079700 Z-0.125000
G01 X149.513825 Y182.121135 Z-0.125000
G01 X147.926818 Y183.815487 Z-0.125000
G01 X145.877870 Y185.262677 Z-0.125000
G01 X143.572099 Y186.124657 Z-0.125000
G01 X140.936241 Y186.421109 Z-0.125000
G01 X133.786972 Y186.331565 Z-0.125000
G01 X129.308447 Y186.893069 Z-0.125000
G01 X124.315919 Y188.188097 Z-0.125000
G01 X113.537672 Y191.801600 Z-0.125000
G01 X108.796510 Y192.908595 Z-0.125000
G01 X105.887996 Y193.228484 Z-0.125000
G01 X102.943074 Y193.210861 Z-0.125000
G01 X100.104335 Y192.843473 Z-0.125000
G01 X97.222389 Y192.112811 Z-0.125000
G01 X92.592955 Y190.207615 Z-0.125000
G01 X87.761265 Y187.316813 Z-0.125000
G01 X82.849156 Y183.477797 Z-0.125000
G01 X78.200848 Y178.967785 Z-0.125000
G01 X73.901142 Y173.876588 Z-0.125000
G01 X70.071071 Y168.306454 Z-0.125000
G01 X67.378947 Y163.220983 Z-0.125000
G01 X65.468921 Y157.976999 Z-0.125000
G01 X64.376864 Y152.637567 Z-0.125000
G01 X64.021015 Y146.736900 Z-0.125000
G01 X64.454421 Y140.192520 Z-0.125000
G01 X65.643983 Y133.263040 Z-0.125000
G01 X67.668331 Y125.513354 Z-0.125000
G01 X70.446421 Y117.361303 Z-0.125000
G01 X73.882804 Y109.058701 Z-0.125000
G01 X77.839095 Y100.906650 Z-0.125000
G01 X82.298118 Y92.956051 Z-0.125000
G01 X87.065580 Y85.590392 Z-0.125000
G01 X91.896912 Y79.176615 Z-0.125000
G01 X96.674213 Y73.861157 Z-0.125000
G01 X101.144777 Y69.907550 Z-0.125000
G01 X105.521949 Y67.103966 Z-0.125000
G01 X110.475118 Y65.045982 Z-0.125000
G01 X112.529344 Y64.605152 Z-0.125000
G01 X114.216361 Y64.580642 Z-0.125000
G01 X116.079334 Y65.337961 Z-0.125000
G01 X117.265586 Y67.117294 Z-0.125000
G01 X117.821186 Y69.275377 Z-0.125000
G01 X119.305321 Y78.740615 Z-0.125000
G01 X120.420725 Y81.982435 Z-0.125000
G01 X122.043335 Y85.037117 Z-0.125000
G01 X123.883855 Y87.549797 Z-0.125000
G01 X126.231849 Y90.086091 Z-0.125000
G01 X138.614457 Y100.653853 Z-0.125000
G01 X141.629153 Y103.703883 Z-0.125000
G01 X144.301419 Y106.924771 Z-0.125000
G01 X147.201703 Y111.222867 Z-0.125000
G01 X149.699532 Y115.903200 Z-0.125000
G01 X151.863251 Y121.048784 Z-0.125000
G01 X153.725955 Y126.746033 Z-0.125000
G01 X155.645911 Y134.929661 Z-0.125000
G01 X156.877695 Y143.618884 Z-0.125000
G01 X157.343662 Y152.345946 Z-0.125000
G01 X157.007940 Y160.900899 Z-0.125000
G01 X155.903807 Y168.545744 Z-0.125000
G01 X154.019991 Y175.343548 Z-0.125000
G01 X151.519657 Y180.673408 Z-0.125000
G01 X150.049119 Y182.781217 Z-0.125000
G01 X148.492616 Y184.441398 Z-0.125000
G01 X146.053648 Y186.125820 Z-0.125000
G01 X143.240134 Y187.013116 Z-0.125000
G01 X140.936331 Y187.160716 Z-0.125000
G01 X133.363406 Y186.893874 Z-0.125000
G01 X127.710617 Y187.658171 Z-0.125000
G01 X123.231645 Y188.887987 Z-0.125000
G01 X113.137186 Y192.283042 Z-0.125000
G01 X108.067995 Y193.465537 Z-0.125000
G01 X102.325125 Y193.726207 Z-0.125000
G01 X96.722429 Y192.622610 Z-0.125000
G01 X91.900937 Y190.600767 Z-0.125000
G01 X87.017185 Y187.624625 Z-0.125000
G01 X82.039417 Y183.688641 Z-0.125000
G01 X77.179281 Y178.929319 Z-0.125000
G01 X72.830107 Y173.738024 Z-0.125000
G01 X68.969085 Y168.087917 Z-0.125000
G01 X66.193232 Y162.776574 Z-0.125000
G01 X64.367650 Y157.658094 Z-0.125000
G01 X63.302877 Y152.277067 Z-0.125000
G01 X62.994976 Y146.326484 Z-0.125000
G01 X63.499050 Y139.717071 Z-0.125000
G01 X64.778871 Y132.707529 Z-0.125000
G01 X66.918616 Y124.858549 Z-0.125000
G01 X69.831960 Y116.596917 Z-0.125000
G01 X73.419342 Y108.183928 Z-0.125000
G01 X77.691406 Y99.644004 Z-0.125000
G01 X82.329517 Y91.634812 Z-0.125000
G01 X87.103688 Y84.478118 Z-0.125000
G01 X92.095142 Y78.044035 Z-0.125000
G01 X97.016376 Y72.744321 Z-0.125000
G01 X101.607434 Y68.837320 Z-0.125000
G01 X106.097229 Y66.095906 Z-0.125000
G01 X111.192004 Y64.103403 Z-0.125000
G01 X113.310011 Y63.696118 Z-0.125000
G01 X114.985846 Y63.702380 Z-0.125000
G01 X116.919577 Y64.512835 Z-0.125000
G01 X118.140001 Y66.377866 Z-0.125000
G01 X118.694886 Y68.629965 Z-0.125000
G01 X120.119712 Y78.571994 Z-0.125000
G01 X121.233596 Y81.908815 Z-0.125000
G01 X122.874275 Y85.033718 Z-0.125000
G01 X124.744941 Y87.589872 Z-0.125000
G01 X127.136410 Y90.158370 Z-0.125000
G01 X139.711524 Y100.778641 Z-0.125000
G01 X142.753324 Y103.823752 Z-0.125000
G01 X145.449295 Y107.043119 Z-0.125000
G01 X148.280789 Y111.206944 Z-0.125000
G01 X150.791231 Y115.893270 Z-0.125000
G01 X152.956291 Y121.066854 Z-0.125000
G01 X154.809156 Y126.815628 Z-0.125000
G01 X156.746019 Y135.366197 Z-0.125000
G01 X157.903109 Y144.203914 Z-0.125000
G01 X158.268708 Y153.078755 Z-0.125000
G01 X157.833871 Y161.495501 Z-0.125000
G01 X156.610048 Y169.269518 Z-0.125000
G01 X154.660036 Y175.969906 Z-0.125000
G01 X152.117658 Y181.262643 Z-0.125000
G01 X150.581282 Y183.439421 Z-0.125000
G01 X148.957510 Y185.154437 Z-0.125000
G01 X146.311723 Y186.942537 Z-0.125000
G01 X143.393548 Y187.803981 Z-0.125000
G01 X141.015766 Y187.903901 Z-0.125000
G01 X133.260713 Y187.435072 Z-0.125000
G01 X127.358972 Y188.141134 Z-0.125000
G01 X122.792067 Y189.364152 Z-0.125000
G01 X112.269748 Y192.881759 Z-0.125000
G01 X107.307187 Y194.009240 Z-0.125000
G01 X101.681055 Y194.226077 Z-0.125000
G01 X96.202521 Y193.116487 Z-0.125000
G01 X91.348379 Y191.055194 Z-0.125000
G01 X86.256556 Y187.907837 Z-0.125000
G01 X81.214828 Y183.872737 Z-0.125000
G01 X76.282234 Y179.011796 Z-0.125000
G01 X71.741986 Y173.565467 Z-0.125000
G01 X67.851355 Y167.836998 Z-0.125000
G01 X65.067808 Y162.470999 Z-0.125000
G01 X63.252335 Y157.312265 Z-0.125000
G01 X62.192840 Y151.689442 Z-0.125000
G01 X61.963479 Y145.669264 Z-0.125000
G01 X62.570426 Y138.972543 Z-0.125000
G01 X63.972084 Y131.862097 Z-0.125000
G01 X66.258891 Y123.896827 Z-0.125000
G01 X69.336294 Y115.516937 Z-0.125000
G01 X73.098738 Y106.996156 Z-0.125000
G01 X77.556151 Y98.368745 Z-0.125000
G01 X82.374691 Y90.306775 Z-0.125000
G01 X87.314978 Y83.137379 Z-0.125000
G01 X92.458684 Y76.732905 Z-0.125000
G01 X97.363011 Y71.638131 Z-0.125000
G01 X101.949685 Y67.869425 Z-0.125000
