%
(Header)
(Generated by gcodetools from Inkscape.)
(Using default header. To add your own header create file "header" in the output dir.)
M3
(Header end.)
G21 (All units in mm)

(Start cutting path id: polyline42155)
(Change tool to Default tool)

G00 Z5.000000
G00 X33.686157 Y241.641992

G00 Z4.875000 (Fast pre-penetrate)
G01 Z-0.125000 F100.0(Penetrate)
G01 X48.797561 Y211.192272 Z-0.125000 F800.000000
G01 X49.487023 Y185.004624 Z-0.125000
G01 X54.315534 Y161.143501 Z-0.125000
G01 X52.004574 Y126.250743 Z-0.125000
G01 X38.609935 Y104.673616 Z-0.125000
G01 X41.299232 Y48.218651 Z-0.125000
G00 Z5.000000

(End cutting path id: polyline42155)


(Start cutting path id: polyline41949)
(Change tool to Default tool)

G00 Z5.000000
G00 X39.927495 Y48.466331

G00 Z4.875000 (Fast pre-penetrate)
G01 Z-0.125000 F100.0(Penetrate)
G01 X37.382336 Y81.726785 Z-0.125000 F800.000000
G01 X36.039844 Y104.726255 Z-0.125000
G01 X51.524528 Y126.381944 Z-0.125000
G01 X53.232569 Y161.097503 Z-0.125000
G01 X48.519050 Y185.262862 Z-0.125000
G01 X47.031379 Y211.034503 Z-0.125000
G01 X30.619862 Y241.808385 Z-0.125000
G00 Z5.000000

(End cutting path id: polyline41949)


(Start cutting path id: polyline41951)
(Change tool to Default tool)

G00 Z5.000000
G00 X30.269481 Y240.790896

G00 Z4.875000 (Fast pre-penetrate)
G01 Z-0.125000 F100.0(Penetrate)
G01 X44.512193 Y210.738198 Z-0.125000 F800.000000
G01 X46.668012 Y184.749161 Z-0.125000
G01 X51.149711 Y161.434799 Z-0.125000
G01 X48.199995 Y125.584280 Z-0.125000
G01 X34.477279 Y104.798423 Z-0.125000
G01 X35.567976 Y81.198462 Z-0.125000
G01 X38.780491 Y48.369529 Z-0.125000
G00 Z5.000000

(End cutting path id: polyline41951)


(Start cutting path id: polyline41945)
(Change tool to Default tool)

G00 Z5.000000
G00 X22.722527 Y47.013902

G00 Z4.875000 (Fast pre-penetrate)
G01 Z-0.125000 F100.0(Penetrate)
G01 X10.167386 Y73.801644 Z-0.125000 F800.000000
G01 X12.601170 Y105.809171 Z-0.125000
G01 X1.656772 Y114.417181 Z-0.125000
G01 X21.989547 Y166.156348 Z-0.125000
G01 X20.753125 Y177.557546 Z-0.125000
G01 X9.243576 Y206.589632 Z-0.125000
G01 X25.363944 Y226.546003 Z-0.125000
G00 Z5.000000

(End cutting path id: polyline41945)


(Start cutting path id: polyline41947)
(Change tool to Default tool)

G00 Z5.000000
G00 X25.714325 Y227.563492

G00 Z4.875000 (Fast pre-penetrate)
G01 Z-0.125000 F100.0(Penetrate)
G01 X11.762763 Y206.885937 Z-0.125000 F800.000000
G01 X22.604164 Y178.071247 Z-0.125000
G01 X24.072455 Y165.819102 Z-0.125000
G01 X4.981306 Y115.214846 Z-0.125000
G01 X14.163735 Y105.737003 Z-0.125000
G01 X11.981696 Y74.330016 Z-0.125000
G01 X23.869532 Y47.110754 Z-0.125000
G00 Z5.000000

(End cutting path id: polyline41947)


(Start cutting path id: polyline41953)
(Change tool to Default tool)

G00 Z5.000000
G00 X60.503094 Y44.750971

G00 Z4.875000 (Fast pre-penetrate)
G01 Z-0.125000 F100.0(Penetrate)
G01 X73.151915 Y74.936009 Z-0.125000 F800.000000
G01 X74.591209 Y103.936720 Z-0.125000
G01 X58.725066 Y124.413930 Z-0.125000
G01 X69.476603 Y161.787213 Z-0.125000
G01 X63.038736 Y181.389238 Z-0.125000
G01 X73.524749 Y213.401176 Z-0.125000
G01 X76.614341 Y239.312742 Z-0.125000
G00 Z5.000000

(End cutting path id: polyline41953)


(Start cutting path id: polyline41955)
(Change tool to Default tool)

G00 Z5.000000
G00 X77.914752 Y239.397896

G00 Z4.875000 (Fast pre-penetrate)
G01 Z-0.125000 F100.0(Penetrate)
G01 X74.981343 Y212.541654 Z-0.125000 F800.000000
G01 X65.596337 Y181.550129 Z-0.125000
G01 X71.264594 Y161.472271 Z-0.125000
G01 X60.986906 Y124.745625 Z-0.125000
G01 X76.139202 Y104.188316 Z-0.125000
G01 X74.230320 Y74.987260 Z-0.125000
G01 X63.205129 Y44.553798 Z-0.125000
G00 Z5.000000

(End cutting path id: polyline41955)


(Start cutting path id: polyline41957)
(Change tool to Default tool)

G00 Z5.000000
G00 X101.033675 Y41.793373

G00 Z4.875000 (Fast pre-penetrate)
G01 Z-0.125000 F100.0(Penetrate)
G01 X89.328341 Y75.704181 Z-0.125000 F800.000000
G01 X97.810752 Y107.710568 Z-0.125000
G01 X92.652726 Y129.389454 Z-0.125000
G01 X96.296117 Y157.063434 Z-0.125000
G01 X101.403040 Y183.802453 Z-0.125000
G01 X95.373943 Y200.508193 Z-0.125000
G01 X96.120406 Y240.589856 Z-0.125000
G00 Z5.000000

(End cutting path id: polyline41957)


(Start cutting path id: polyline41959)
(Change tool to Default tool)

G00 Z5.000000
G00 X97.325749 Y240.561802

G00 Z4.875000 (Fast pre-penetrate)
G01 Z-0.125000 F100.0(Penetrate)
G01 X97.424088 Y200.658824 Z-0.125000 F800.000000
G01 X102.638570 Y183.574648 Z-0.125000
G01 X97.912114 Y156.086887 Z-0.125000
G01 X94.887999 Y129.649526 Z-0.125000
G01 X98.747299 Y107.672502 Z-0.125000
G01 X90.647736 Y74.939479 Z-0.125000
G01 X102.550045 Y42.268710 Z-0.125000
G00 Z5.000000

(End cutting path id: polyline41959)


(Start cutting path id: polyline41961)
(Change tool to Default tool)

G00 Z5.000000
G00 X123.779120 Y48.923527

G00 Z4.875000 (Fast pre-penetrate)
G01 Z-0.125000 F100.0(Penetrate)
G01 X109.119063 Y64.233294 Z-0.125000 F800.000000
G01 X111.858471 Y107.139470 Z-0.125000
G01 X126.182223 Y133.290042 Z-0.125000
G01 X120.535973 Y142.414678 Z-0.125000
G01 X119.935284 Y180.385082 Z-0.125000
G01 X126.125570 Y202.767506 Z-0.125000
G01 X114.200163 Y240.168893 Z-0.125000
G00 Z5.000000

(End cutting path id: polyline41961)


(Start cutting path id: polyline41963)
(Change tool to Default tool)

G00 Z5.000000
G00 X112.994819 Y240.196948

G00 Z4.875000 (Fast pre-penetrate)
G01 Z-0.125000 F100.0(Penetrate)
G01 X124.075474 Y202.616875 Z-0.125000 F800.000000
G01 X118.699854 Y180.612887 Z-0.125000
G01 X118.919976 Y143.391226 Z-0.125000
G01 X123.946950 Y133.030020 Z-0.125000
G01 X110.921973 Y107.177537 Z-0.125000
G01 X107.799668 Y64.997997 Z-0.125000
G01 X122.262750 Y48.448190 Z-0.125000
G00 Z5.000000

(End cutting path id: polyline41963)


(Start cutting path id: polyline41965)
(Change tool to Default tool)

G00 Z5.000000
G00 X139.281648 Y57.535900

G00 Z4.875000 (Fast pre-penetrate)
G01 Z-0.125000 F100.0(Penetrate)
G01 X149.321469 Y75.284804 Z-0.125000 F800.000000
G01 X136.153842 Y96.030711 Z-0.125000
G01 X152.381023 Y150.369708 Z-0.125000
G01 X147.549934 Y163.346209 Z-0.125000
G01 X149.804142 Y173.015575 Z-0.125000
G01 X152.186527 Y210.052950 Z-0.125000
G01 X143.222930 Y226.710264 Z-0.125000
G00 Z5.000000

(End cutting path id: polyline41965)


(Start cutting path id: polyline41967)
(Change tool to Default tool)

G00 Z5.000000
G00 X141.288076 Y227.607506

G00 Z4.875000 (Fast pre-penetrate)
G01 Z-0.125000 F100.0(Penetrate)
G01 X150.449143 Y209.567254 Z-0.125000 F800.000000
G01 X147.812931 Y173.506872 Z-0.125000
G01 X145.749007 Y161.950780 Z-0.125000
G01 X150.634470 Y149.231030 Z-0.125000
G01 X134.534177 Y96.771325 Z-0.125000
G01 X146.641292 Y74.548057 Z-0.125000
G01 X138.248150 Y56.961778 Z-0.125000
G00 Z5.000000

(End cutting path id: polyline41967)


(Start cutting path id: polyline41969)
(Change tool to Default tool)

G00 Z5.000000
G00 X160.443066 Y37.256904

G00 Z4.875000 (Fast pre-penetrate)
G01 Z-0.125000 F100.0(Penetrate)
G01 X175.202700 Y77.433783 Z-0.125000 F800.000000
G01 X178.178835 Y111.418445 Z-0.125000
G01 X176.541277 Y127.205679 Z-0.125000
G01 X172.302996 Y152.079880 Z-0.125000
G01 X173.519442 Y186.587957 Z-0.125000
G01 X167.550766 Y228.783160 Z-0.125000
G01 X178.051302 Y239.431947 Z-0.125000
G00 Z5.000000

(End cutting path id: polyline41969)


(Start cutting path id: polyline41971)
(Change tool to Default tool)

G00 Z5.000000
G00 X179.381601 Y239.368354

G00 Z4.875000 (Fast pre-penetrate)
G01 Z-0.125000 F100.0(Penetrate)
G01 X170.132951 Y227.804580 Z-0.125000 F800.000000
G01 X175.371621 Y185.951184 Z-0.125000
G01 X174.204443 Y152.552293 Z-0.125000
G01 X178.652289 Y127.694350 Z-0.125000
G01 X179.905414 Y111.018200 Z-0.125000
G01 X177.212597 Y76.937431 Z-0.125000
G01 X163.050827 Y38.742394 Z-0.125000
G00 Z5.000000

(End cutting path id: polyline41971)


(Start cutting path id: polyline41973)
(Change tool to Default tool)

G00 Z5.000000
G00 X199.559582 Y59.539155

G00 Z4.875000 (Fast pre-penetrate)
G01 Z-0.125000 F100.0(Penetrate)
G01 X205.350861 Y69.988390 Z-0.125000 F800.000000
G01 X204.077464 Y105.415122 Z-0.125000
G01 X208.207146 Y134.535633 Z-0.125000
G01 X200.824503 Y159.165524 Z-0.125000
G01 X201.301972 Y177.036559 Z-0.125000
G01 X206.284138 Y214.104467 Z-0.125000
G01 X198.005790 Y238.478647 Z-0.125000
G00 Z5.000000

(End cutting path id: polyline41973)


(Start cutting path id: polyline41975)
(Change tool to Default tool)

G00 Z5.000000
G00 X196.675491 Y238.542190

G00 Z4.875000 (Fast pre-penetrate)
G01 Z-0.125000 F100.0(Penetrate)
G01 X203.701903 Y215.082997 Z-0.125000 F800.000000
G01 X199.449793 Y177.673282 Z-0.125000
G01 X198.923056 Y158.693161 Z-0.125000
G01 X206.096035 Y134.046963 Z-0.125000
G01 X202.350885 Y105.815366 Z-0.125000
G01 X203.340964 Y70.484743 Z-0.125000
G01 X196.951771 Y58.053715 Z-0.125000
G00 Z5.000000

(End cutting path id: polyline41975)


(Start cutting path id: polyline41977)
(Change tool to Default tool)

G00 Z5.000000
G00 X145.544845 Y227.558387

G00 Z4.875000 (Fast pre-penetrate)
G01 Z-0.125000 F100.0(Penetrate)
G01 X153.210806 Y211.301614 Z-0.125000 F800.000000
G01 X151.385195 Y173.920400 Z-0.125000
G01 X149.200132 Y162.595137 Z-0.125000
G01 X153.991717 Y148.825433 Z-0.125000
G01 X138.955504 Y97.056576 Z-0.125000
G01 X151.046858 Y75.428099 Z-0.125000
G01 X140.692393 Y56.183990 Z-0.125000
G00 Z5.000000

(End cutting path id: polyline41977)


(Start cutting path id: polyline41979)
(Change tool to Default tool)

G00 Z5.000000
G00 X139.353221 Y228.504748

G00 Z4.875000 (Fast pre-penetrate)
G01 Z-0.125000 F100.0(Penetrate)
G01 X148.711709 Y209.081557 Z-0.125000 F800.000000
G01 X145.821670 Y173.998169 Z-0.125000
G01 X143.948079 Y160.555352 Z-0.125000
G01 X148.887866 Y148.092403 Z-0.125000
G01 X132.914462 Y97.511889 Z-0.125000
G01 X143.961115 Y73.811309 Z-0.125000
G01 X137.214651 Y56.387607 Z-0.125000
G00 Z5.000000

(End cutting path id: polyline41979)


(Start cutting path id: polyline41981)
(Change tool to Default tool)

G00 Z5.000000
G00 X147.866710 Y228.406509

G00 Z4.875000 (Fast pre-penetrate)
G01 Z-0.125000 F100.0(Penetrate)
G01 X154.235085 Y212.550328 Z-0.125000 F800.000000
G01 X152.966198 Y174.825226 Z-0.125000
G01 X150.850329 Y161.844015 Z-0.125000
G01 X155.602410 Y147.281158 Z-0.125000
G01 X141.757167 Y98.082442 Z-0.125000
G01 X152.772297 Y75.571345 Z-0.125000
G01 X142.103187 Y54.832030 Z-0.125000
G00 Z5.000000

(End cutting path id: polyline41981)


(Start cutting path id: polyline41983)
(Change tool to Default tool)

G00 Z5.000000
G00 X150.188624 Y229.254631

G00 Z4.875000 (Fast pre-penetrate)
G01 Z-0.125000 F100.0(Penetrate)
G01 X155.259365 Y213.798992 Z-0.125000 F800.000000
G01 X154.547251 Y175.730051 Z-0.125000
G01 X152.500527 Y161.092943 Z-0.125000
G01 X157.213104 Y145.736882 Z-0.125000
G01 X144.558830 Y99.108258 Z-0.125000
G01 X154.497685 Y75.714640 Z-0.125000
G01 X143.513932 Y53.480121 Z-0.125000
G00 Z5.000000

(End cutting path id: polyline41983)


(Start cutting path id: polyline41985)
(Change tool to Default tool)

G00 Z5.000000
G00 X137.418367 Y229.401990

G00 Z4.875000 (Fast pre-penetrate)
G01 Z-0.125000 F100.0(Penetrate)
G01 X146.974325 Y208.595861 Z-0.125000 F800.000000
G01 X143.830410 Y174.489466 Z-0.125000
G01 X142.147152 Y159.159873 Z-0.125000
G01 X147.141263 Y146.953775 Z-0.125000
G01 X131.294797 Y98.252502 Z-0.125000
G01 X141.280988 Y73.074512 Z-0.125000
G01 X136.181152 Y55.813435 Z-0.125000
G00 Z5.000000

(End cutting path id: polyline41985)


(Start cutting path id: polyline41987)
(Change tool to Default tool)

G00 Z5.000000
G00 X135.483562 Y230.299232

G00 Z4.875000 (Fast pre-penetrate)
G01 Z-0.125000 F100.0(Penetrate)
G01 X145.236941 Y208.110165 Z-0.125000 F800.000000
G01 X141.839149 Y174.980763 Z-0.125000
G01 X140.346175 Y157.764445 Z-0.125000
G01 X145.394710 Y145.815147 Z-0.125000
G01 X129.675083 Y98.993066 Z-0.125000
G01 X138.600811 Y72.337765 Z-0.125000
G01 X135.147654 Y55.239264 Z-0.125000
G00 Z5.000000

(End cutting path id: polyline41987)


(Start cutting path id: polyline41989)
(Change tool to Default tool)

G00 Z5.000000
G00 X152.510489 Y230.102753

G00 Z4.875000 (Fast pre-penetrate)
G01 Z-0.125000 F100.0(Penetrate)
G01 X156.283644 Y215.047656 Z-0.125000 F800.000000
G01 X156.128255 Y176.634877 Z-0.125000
G01 X154.150724 Y160.341871 Z-0.125000
G01 X158.823748 Y144.192607 Z-0.125000
G01 X147.360493 Y100.134123 Z-0.125000
G01 X156.223124 Y75.857885 Z-0.125000
G01 X144.924676 Y52.128161 Z-0.125000
G00 Z5.000000

(End cutting path id: polyline41989)


(Start cutting path id: polyline41991)
(Change tool to Default tool)

G00 Z5.000000
G00 X154.832404 Y230.950875

G00 Z4.875000 (Fast pre-penetrate)
G01 Z-0.125000 F100.0(Penetrate)
G01 X157.307923 Y216.296370 Z-0.125000 F800.000000
G01 X157.709258 Y177.539702 Z-0.125000
G01 X155.800971 Y159.590799 Z-0.125000
G01 X160.434441 Y142.648332 Z-0.125000
G01 X150.162156 Y101.159988 Z-0.125000
G01 X157.948513 Y76.001131 Z-0.125000
G01 X146.335470 Y50.776251 Z-0.125000
G00 Z5.000000

(End cutting path id: polyline41991)


(Start cutting path id: polyline41993)
(Change tool to Default tool)

G00 Z5.000000
G00 X133.548658 Y231.196474

G00 Z4.875000 (Fast pre-penetrate)
G01 Z-0.125000 F100.0(Penetrate)
G01 X143.499508 Y207.624469 Z-0.125000 F800.000000
G01 X139.847889 Y175.472061 Z-0.125000
G01 X138.545297 Y156.369016 Z-0.125000
G01 X143.648107 Y144.676470 Z-0.125000
G01 X128.055418 Y99.733631 Z-0.125000
G01 X135.920684 Y71.600967 Z-0.125000
G01 X134.114155 Y54.665142 Z-0.125000
G00 Z5.000000

(End cutting path id: polyline41993)


(Start cutting path id: polyline41995)
(Change tool to Default tool)

G00 Z5.000000
G00 X131.613803 Y232.093716

G00 Z4.875000 (Fast pre-penetrate)
G01 Z-0.125000 F100.0(Penetrate)
G01 X141.762124 Y207.138772 Z-0.125000 F800.000000
G01 X137.856628 Y175.963358 Z-0.125000
G01 X136.744320 Y154.973587 Z-0.125000
G01 X141.901503 Y143.537842 Z-0.125000
G01 X126.435703 Y100.474244 Z-0.125000
G01 X133.240507 Y70.864220 Z-0.125000
G01 X133.080657 Y54.090971 Z-0.125000
G00 Z5.000000

(End cutting path id: polyline41995)


(Start cutting path id: polyline41997)
(Change tool to Default tool)

G00 Z5.000000
G00 X129.678998 Y232.990958

G00 Z4.875000 (Fast pre-penetrate)
G01 Z-0.125000 F100.0(Penetrate)
G01 X140.024740 Y206.653076 Z-0.125000 F800.000000
G01 X135.865368 Y176.454655 Z-0.125000
G01 X134.943393 Y153.578158 Z-0.125000
G01 X140.154950 Y142.399214 Z-0.125000
G01 X124.816038 Y101.214808 Z-0.125000
G01 X130.560330 Y70.127423 Z-0.125000
G01 X132.047158 Y53.516799 Z-0.125000
G00 Z5.000000

(End cutting path id: polyline41997)


(Start cutting path id: polyline41999)
(Change tool to Default tool)

G00 Z5.000000
G00 X157.154269 Y231.798948

G00 Z4.875000 (Fast pre-penetrate)
G01 Z-0.125000 F100.0(Penetrate)
G01 X158.332203 Y217.545034 Z-0.125000 F800.000000
G01 X159.290311 Y178.444528 Z-0.125000
G01 X157.451169 Y158.839678 Z-0.125000
G01 X162.045135 Y141.104057 Z-0.125000
G01 X152.963869 Y102.185804 Z-0.125000
G01 X159.673952 Y76.144426 Z-0.125000
G01 X147.746215 Y49.424292 Z-0.125000
G00 Z5.000000

(End cutting path id: polyline41999)


(Start cutting path id: polyline42001)
(Change tool to Default tool)

G00 Z5.000000
G00 X159.476184 Y232.647070

G00 Z4.875000 (Fast pre-penetrate)
G01 Z-0.125000 F100.0(Penetrate)
G01 X159.356482 Y218.793748 Z-0.125000 F800.000000
G01 X160.871315 Y179.349353 Z-0.125000
G01 X159.101366 Y158.088606 Z-0.125000
G01 X163.655779 Y139.559831 Z-0.125000
G01 X155.765532 Y103.211670 Z-0.125000
G01 X161.399341 Y76.287671 Z-0.125000
G01 X149.156960 Y48.072382 Z-0.125000
G00 Z5.000000

(End cutting path id: polyline42001)


(Start cutting path id: polyline42003)
(Change tool to Default tool)

G00 Z5.000000
G00 X161.798049 Y233.495142

G00 Z4.875000 (Fast pre-penetrate)
G01 Z-0.125000 F100.0(Penetrate)
G01 X160.380761 Y220.042412 Z-0.125000 F800.000000
G01 X162.452319 Y180.254179 Z-0.125000
G01 X160.751564 Y157.337533 Z-0.125000
G01 X165.266472 Y138.015556 Z-0.125000
G01 X158.567195 Y104.237535 Z-0.125000
G01 X163.124779 Y76.430917 Z-0.125000
G01 X150.567754 Y46.720422 Z-0.125000
G00 Z5.000000

(End cutting path id: polyline42003)


(Start cutting path id: polyline42005)
(Change tool to Default tool)

G00 Z5.000000
G00 X164.119963 Y234.343264

G00 Z4.875000 (Fast pre-penetrate)
G01 Z-0.125000 F100.0(Penetrate)
G01 X161.405041 Y221.291076 Z-0.125000 F800.000000
G01 X164.033372 Y181.159004 Z-0.125000
G01 X162.401761 Y156.586412 Z-0.125000
G01 X166.877166 Y136.471281 Z-0.125000
G01 X161.368858 Y105.263351 Z-0.125000
G01 X164.850218 Y76.574212 Z-0.125000
G01 X151.978499 Y45.368512 Z-0.125000
G00 Z5.000000

(End cutting path id: polyline42005)


(Start cutting path id: polyline42007)
(Change tool to Default tool)

G00 Z5.000000
G00 X127.744144 Y233.888200

G00 Z4.875000 (Fast pre-penetrate)
G01 Z-0.125000 F100.0(Penetrate)
G01 X138.287356 Y206.167380 Z-0.125000 F800.000000
G01 X133.874108 Y176.945952 Z-0.125000
G01 X133.142465 Y152.182729 Z-0.125000
G01 X138.408347 Y141.260536 Z-0.125000
G01 X123.196324 Y101.955372 Z-0.125000
G01 X127.880153 Y69.390675 Z-0.125000
G01 X131.013610 Y52.942677 Z-0.125000
G00 Z5.000000

(End cutting path id: polyline42007)


(Start cutting path id: polyline42009)
(Change tool to Default tool)

G00 Z5.000000
G00 X125.809290 Y234.785442

G00 Z4.875000 (Fast pre-penetrate)
G01 Z-0.125000 F100.0(Penetrate)
G01 X136.549972 Y205.681684 Z-0.125000 F800.000000
G01 X131.882847 Y177.437299 Z-0.125000
G01 X131.341538 Y150.787301 Z-0.125000
G01 X136.661743 Y140.121909 Z-0.125000
G01 X121.576609 Y102.695986 Z-0.125000
G01 X125.200025 Y68.653928 Z-0.125000
G01 X129.980111 Y52.368506 Z-0.125000
G00 Z5.000000

(End cutting path id: polyline42009)


(Start cutting path id: polyline42011)
(Change tool to Default tool)

G00 Z5.000000
G00 X123.874385 Y235.682684

G00 Z4.875000 (Fast pre-penetrate)
G01 Z-0.125000 F100.0(Penetrate)
G01 X134.812539 Y205.195987 Z-0.125000 F800.000000
G01 X129.891587 Y177.928547 Z-0.125000
G01 X129.540610 Y149.391822 Z-0.125000
G01 X134.915190 Y138.983281 Z-0.125000
G01 X119.956945 Y103.436550 Z-0.125000
G01 X122.519849 Y67.917131 Z-0.125000
G01 X128.946613 Y51.794335 Z-0.125000
G00 Z5.000000

(End cutting path id: polyline42011)


(Start cutting path id: polyline42013)
(Change tool to Default tool)

G00 Z5.000000
G00 X121.939581 Y236.579926

G00 Z4.875000 (Fast pre-penetrate)
G01 Z-0.125000 F100.0(Penetrate)
G01 X133.075155 Y204.710291 Z-0.125000 F800.000000
G01 X127.900326 Y178.419893 Z-0.125000
G01 X127.739683 Y147.996393 Z-0.125000
G01 X133.168587 Y137.844603 Z-0.125000
G01 X118.337230 Y104.177164 Z-0.125000
G01 X119.839721 Y67.180383 Z-0.125000
G01 X127.913114 Y51.220163 Z-0.125000
G00 Z5.000000

(End cutting path id: polyline42013)


(Start cutting path id: polyline42015)
(Change tool to Default tool)

G00 Z5.000000
G00 X120.004726 Y237.477168

G00 Z4.875000 (Fast pre-penetrate)
G01 Z-0.125000 F100.0(Penetrate)
G01 X131.337771 Y204.224595 Z-0.125000 F800.000000
G01 X125.909066 Y178.911191 Z-0.125000
G01 X125.938756 Y146.600965 Z-0.125000
G01 X131.421983 Y136.705975 Z-0.125000
G01 X116.717565 Y104.917728 Z-0.125000
G01 X117.159544 Y66.443586 Z-0.125000
G01 X126.879616 Y50.646041 Z-0.125000
G00 Z5.000000

(End cutting path id: polyline42015)


(Start cutting path id: polyline42017)
(Change tool to Default tool)

G00 Z5.000000
G00 X118.069872 Y238.374409

G00 Z4.875000 (Fast pre-penetrate)
G01 Z-0.125000 F100.0(Penetrate)
G01 X129.600387 Y203.738899 Z-0.125000 F800.000000
G01 X123.917805 Y179.402488 Z-0.125000
G01 X124.137828 Y145.205536 Z-0.125000
G01 X129.675430 Y135.567348 Z-0.125000
G01 X115.097851 Y105.658292 Z-0.125000
G01 X114.479367 Y65.706838 Z-0.125000
G01 X125.846117 Y50.071870 Z-0.125000
G00 Z5.000000

(End cutting path id: polyline42017)


(Start cutting path id: polyline42019)
(Change tool to Default tool)

G00 Z5.000000
G00 X116.135017 Y239.271651

G00 Z4.875000 (Fast pre-penetrate)
G01 Z-0.125000 F100.0(Penetrate)
G01 X127.862953 Y203.253202 Z-0.125000 F800.000000
G01 X121.926545 Y179.893785 Z-0.125000
G01 X122.336901 Y143.810107 Z-0.125000
G01 X127.928827 Y134.428670 Z-0.125000
G01 X113.478186 Y106.398906 Z-0.125000
G01 X111.799240 Y64.970041 Z-0.125000
G01 X124.812569 Y49.497699 Z-0.125000
G00 Z5.000000

(End cutting path id: polyline42019)


(Start cutting path id: polyline42021)
(Change tool to Default tool)

G00 Z5.000000
G00 X166.441878 Y235.191386

G00 Z4.875000 (Fast pre-penetrate)
G01 Z-0.125000 F100.0(Penetrate)
G01 X162.429320 Y222.539740 Z-0.125000 F800.000000
G01 X165.614375 Y182.063830 Z-0.125000
G01 X164.052008 Y155.835340 Z-0.125000
G01 X168.487859 Y134.927006 Z-0.125000
G01 X164.170520 Y106.289216 Z-0.125000
G01 X166.575656 Y76.717457 Z-0.125000
G01 X153.389243 Y44.016553 Z-0.125000
G00 Z5.000000

(End cutting path id: polyline42021)


(Start cutting path id: polyline42023)
(Change tool to Default tool)

G00 Z5.000000
G00 X168.763743 Y236.039509

G00 Z4.875000 (Fast pre-penetrate)
G01 Z-0.125000 F100.0(Penetrate)
G01 X163.453599 Y223.788454 Z-0.125000 F800.000000
G01 X167.195379 Y182.968655 Z-0.125000
G01 X165.702156 Y155.084268 Z-0.125000
G01 X170.098503 Y133.382730 Z-0.125000
G01 X166.972183 Y107.315082 Z-0.125000
G01 X168.301045 Y76.860703 Z-0.125000
G01 X154.799988 Y42.664643 Z-0.125000
G00 Z5.000000

(End cutting path id: polyline42023)


(Start cutting path id: polyline42025)
(Change tool to Default tool)

G00 Z5.000000
G00 X171.085608 Y236.887581

G00 Z4.875000 (Fast pre-penetrate)
G01 Z-0.125000 F100.0(Penetrate)
G01 X164.477879 Y225.037118 Z-0.125000 F800.000000
G01 X168.776382 Y183.873481 Z-0.125000
G01 X167.352403 Y154.333146 Z-0.125000
G01 X171.709196 Y131.838505 Z-0.125000
G01 X169.773846 Y108.340898 Z-0.125000
G01 X170.026484 Y77.003998 Z-0.125000
G01 X156.210782 Y41.312733 Z-0.125000
G00 Z5.000000

(End cutting path id: polyline42025)


(Start cutting path id: polyline42027)
(Change tool to Default tool)

G00 Z5.000000
G00 X173.407522 Y237.735703

G00 Z4.875000 (Fast pre-penetrate)
G01 Z-0.125000 F100.0(Penetrate)
G01 X165.502158 Y226.285782 Z-0.125000 F800.000000
G01 X170.357435 Y184.778306 Z-0.125000
G01 X169.002601 Y153.582074 Z-0.125000
G01 X173.319890 Y130.294230 Z-0.125000
G01 X172.575509 Y109.366763 Z-0.125000
G01 X171.751873 Y77.147243 Z-0.125000
G01 X157.621527 Y39.960773 Z-0.125000
G00 Z5.000000

(End cutting path id: polyline42027)


(Start cutting path id: polyline42029)
(Change tool to Default tool)

G00 Z5.000000
G00 X175.729387 Y238.583825

G00 Z4.875000 (Fast pre-penetrate)
G01 Z-0.125000 F100.0(Penetrate)
G01 X166.526487 Y227.534496 Z-0.125000 F800.000000
G01 X171.938439 Y185.683132 Z-0.125000
G01 X170.652798 Y152.831002 Z-0.125000
G01 X174.930583 Y128.749955 Z-0.125000
G01 X175.377172 Y110.392579 Z-0.125000
G01 X173.477311 Y77.290538 Z-0.125000
G01 X159.032271 Y38.608864 Z-0.125000
G00 Z5.000000

(End cutting path id: polyline42029)


(Start cutting path id: polyline42031)
(Change tool to Default tool)

G00 Z5.000000
G00 X180.711900 Y239.304811

G00 Z4.875000 (Fast pre-penetrate)
G01 Z-0.125000 F100.0(Penetrate)
G01 X172.715186 Y226.826001 Z-0.125000 F800.000000
G01 X177.223799 Y185.314460 Z-0.125000
G01 X176.105890 Y153.024656 Z-0.125000
G01 X180.763350 Y128.183020 Z-0.125000
G01 X181.631992 Y110.618005 Z-0.125000
G01 X179.222495 Y76.441078 Z-0.125000
G01 X165.658588 Y40.227884 Z-0.125000
G00 Z5.000000

(End cutting path id: polyline42031)


(Start cutting path id: polyline42033)
(Change tool to Default tool)

G00 Z5.000000
G00 X182.042200 Y239.241267

G00 Z4.875000 (Fast pre-penetrate)
G01 Z-0.125000 F100.0(Penetrate)
G01 X175.297421 Y225.847421 Z-0.125000 F800.000000
G01 X179.075978 Y184.677687 Z-0.125000
G01 X178.007288 Y153.497019 Z-0.125000
G01 X182.874411 Y128.671690 Z-0.125000
G01 X183.358571 Y110.217760 Z-0.125000
G01 X181.232342 Y75.944725 Z-0.125000
G01 X168.266349 Y41.713374 Z-0.125000
G00 Z5.000000

(End cutting path id: polyline42033)


(Start cutting path id: polyline42035)
(Change tool to Default tool)

G00 Z5.000000
G00 X183.372499 Y239.177724

G00 Z4.875000 (Fast pre-penetrate)
G01 Z-0.125000 F100.0(Penetrate)
G01 X177.879655 Y224.868842 Z-0.125000 F800.000000
G01 X180.928156 Y184.040914 Z-0.125000
G01 X179.908735 Y153.969382 Z-0.125000
G01 X184.985472 Y129.160360 Z-0.125000
G01 X185.085149 Y109.817565 Z-0.125000
G01 X183.242190 Y75.448372 Z-0.125000
G01 X170.874110 Y43.198864 Z-0.125000
G00 Z5.000000

(End cutting path id: polyline42035)


(Start cutting path id: polyline42037)
(Change tool to Default tool)

G00 Z5.000000
G00 X184.702798 Y239.114181

G00 Z4.875000 (Fast pre-penetrate)
G01 Z-0.125000 F100.0(Penetrate)
G01 X180.461890 Y223.890262 Z-0.125000 F800.000000
G01 X182.780285 Y183.404141 Z-0.125000
G01 X181.810182 Y154.441794 Z-0.125000
G01 X187.096534 Y129.649030 Z-0.125000
G01 X186.811728 Y109.417320 Z-0.125000
G01 X185.252087 Y74.951969 Z-0.125000
G01 X173.481871 Y44.684354 Z-0.125000
G00 Z5.000000

(End cutting path id: polyline42037)


(Start cutting path id: polyline42039)
(Change tool to Default tool)

G00 Z5.000000
G00 X186.033097 Y239.050637

G00 Z4.875000 (Fast pre-penetrate)
G01 Z-0.125000 F100.0(Penetrate)
G01 X183.044075 Y222.911683 Z-0.125000 F800.000000
G01 X184.632464 Y182.767368 Z-0.125000
G01 X183.711579 Y154.914157 Z-0.125000
G01 X189.207595 Y130.137651 Z-0.125000
G01 X187.261935 Y74.455616 Z-0.125000
G01 X176.089632 Y46.169795 Z-0.125000
G00 Z5.000000

(End cutting path id: polyline42039)


(Start cutting path id: polyline42041)
(Change tool to Default tool)

G00 Z5.000000
G00 X187.363396 Y238.987094

G00 Z4.875000 (Fast pre-penetrate)
G01 Z-0.125000 F100.0(Penetrate)
G01 X185.626310 Y221.933103 Z-0.125000 F800.000000
G01 X186.484643 Y182.130644 Z-0.125000
G01 X185.613026 Y155.386520 Z-0.125000
G01 X191.318656 Y130.626321 Z-0.125000
G01 X190.264835 Y108.616881 Z-0.125000
G01 X189.271832 Y73.959263 Z-0.125000
G01 X178.697394 Y47.655285 Z-0.125000
G00 Z5.000000

(End cutting path id: polyline42041)


(Start cutting path id: polyline42043)
(Change tool to Default tool)

G00 Z5.000000
G00 X188.693696 Y238.923500

G00 Z4.875000 (Fast pre-penetrate)
G01 Z-0.125000 F100.0(Penetrate)
G01 X188.208545 Y220.954523 Z-0.125000 F800.000000
G01 X188.336821 Y181.493871 Z-0.125000
G01 X187.514473 Y155.858884 Z-0.125000
G01 X193.429717 Y131.114991 Z-0.125000
G01 X191.991414 Y108.216686 Z-0.125000
G01 X191.281729 Y73.462911 Z-0.125000
G01 X181.305204 Y49.140775 Z-0.125000
G00 Z5.000000

(End cutting path id: polyline42043)


(Start cutting path id: polyline42045)
(Change tool to Default tool)

G00 Z5.000000
G00 X190.023995 Y238.859957

G00 Z4.875000 (Fast pre-penetrate)
G01 Z-0.125000 F100.0(Penetrate)
G01 X190.790779 Y219.975944 Z-0.125000 F800.000000
G01 X190.188950 Y180.857098 Z-0.125000
G01 X189.415871 Y156.331247 Z-0.125000
G01 X195.540779 Y131.603662 Z-0.125000
G01 X193.717993 Y107.816441 Z-0.125000
G01 X193.291627 Y72.966558 Z-0.125000
G01 X183.912965 Y50.626265 Z-0.125000
G00 Z5.000000

(End cutting path id: polyline42045)


(Start cutting path id: polyline42047)
(Change tool to Default tool)

G00 Z5.000000
G00 X192.684593 Y238.732820

G00 Z4.875000 (Fast pre-penetrate)
G01 Z-0.125000 F100.0(Penetrate)
G01 X195.955249 Y218.018785 Z-0.125000 F800.000000
G01 X193.893307 Y179.583602 Z-0.125000
G01 X193.218765 Y157.276022 Z-0.125000
G01 X199.762901 Y132.581002 Z-0.125000
G01 X197.171150 Y107.016001 Z-0.125000
G01 X197.311372 Y71.973852 Z-0.125000
G01 X189.128488 Y53.597245 Z-0.125000
G00 Z5.000000

(End cutting path id: polyline42047)


(Start cutting path id: polyline42049)
(Change tool to Default tool)

G00 Z5.000000
G00 X195.345192 Y238.605734

G00 Z4.875000 (Fast pre-penetrate)
G01 Z-0.125000 F100.0(Penetrate)
G01 X201.119668 Y216.061626 Z-0.125000 F800.000000
G01 X197.597615 Y178.310055 Z-0.125000
G01 X197.021609 Y158.220748 Z-0.125000
G01 X203.985024 Y133.558293 Z-0.125000
G01 X200.624307 Y106.215562 Z-0.125000
G01 X201.331117 Y70.981096 Z-0.125000
G01 X194.344059 Y56.568225 Z-0.125000
G00 Z5.000000

(End cutting path id: polyline42049)


(Start cutting path id: polyline42051)
(Change tool to Default tool)

G00 Z5.000000
G00 X194.014892 Y238.669277

G00 Z4.875000 (Fast pre-penetrate)
G01 Z-0.125000 F100.0(Penetrate)
G01 X198.537483 Y217.040205 Z-0.125000 F800.000000
G01 X195.745486 Y178.946828 Z-0.125000
G01 X195.120162 Y157.748385 Z-0.125000
G01 X201.873962 Y133.069623 Z-0.125000
G01 X198.897728 Y106.615806 Z-0.125000
G01 X199.321219 Y71.477499 Z-0.125000
G01 X191.736249 Y55.082735 Z-0.125000
G00 Z5.000000

(End cutting path id: polyline42051)


(Start cutting path id: polyline42053)
(Change tool to Default tool)

G00 Z5.000000
G00 X191.354294 Y238.796414

G00 Z4.875000 (Fast pre-penetrate)
G01 Z-0.125000 F100.0(Penetrate)
G01 X193.373014 Y218.997364 Z-0.125000 F800.000000
G01 X191.317318 Y156.803659 Z-0.125000
G01 X197.651840 Y132.092332 Z-0.125000
G01 X195.444571 Y107.416246 Z-0.125000
G01 X195.301474 Y72.470205 Z-0.125000
G01 X186.520726 Y52.111755 Z-0.125000
G00 Z5.000000

(End cutting path id: polyline42053)


(Start cutting path id: polyline42055)
(Change tool to Default tool)

G00 Z5.000000
G00 X111.789525 Y240.225002

G00 Z4.875000 (Fast pre-penetrate)
G01 Z-0.125000 F100.0(Penetrate)
G01 X122.025379 Y202.466294 Z-0.125000 F800.000000
G01 X117.464325 Y180.840692 Z-0.125000
G01 X117.303979 Y144.367823 Z-0.125000
G01 X121.711627 Y132.769997 Z-0.125000
G01 X109.985475 Y107.215603 Z-0.125000
G01 X106.480274 Y65.762749 Z-0.125000
G01 X120.746381 Y47.972853 Z-0.125000
G00 Z5.000000

(End cutting path id: polyline42055)


(Start cutting path id: polyline42057)
(Change tool to Default tool)

G00 Z5.000000
G00 X110.584182 Y240.253056

G00 Z4.875000 (Fast pre-penetrate)
G01 Z-0.125000 F100.0(Penetrate)
G01 X119.975234 Y202.315663 Z-0.125000 F800.000000
G01 X116.228845 Y181.068546 Z-0.125000
G01 X115.687982 Y145.344420 Z-0.125000
G01 X119.476354 Y132.509925 Z-0.125000
G01 X109.048927 Y107.253719 Z-0.125000
G01 X105.160929 Y66.527452 Z-0.125000
G01 X119.230011 Y47.497516 Z-0.125000
G00 Z5.000000

(End cutting path id: polyline42057)


(Start cutting path id: polyline42059)
(Change tool to Default tool)

G00 Z5.000000
G00 X109.378888 Y240.281160

G00 Z4.875000 (Fast pre-penetrate)
G01 Z-0.125000 F100.0(Penetrate)
G01 X117.925139 Y202.165033 Z-0.125000 F800.000000
G01 X114.993366 Y181.296401 Z-0.125000
G01 X114.071985 Y146.321016 Z-0.125000
G01 X117.241031 Y132.249902 Z-0.125000
G01 X108.112429 Y107.291786 Z-0.125000
G01 X103.841534 Y67.292204 Z-0.125000
G01 X117.713642 Y47.022130 Z-0.125000
G00 Z5.000000

(End cutting path id: polyline42059)


(Start cutting path id: polyline42061)
(Change tool to Default tool)

G00 Z5.000000
G00 X108.173594 Y240.309214

G00 Z4.875000 (Fast pre-penetrate)
G01 Z-0.125000 F100.0(Penetrate)
G01 X115.875044 Y202.014402 Z-0.125000 F800.000000
G01 X113.757886 Y181.524206 Z-0.125000
G01 X112.455988 Y147.297613 Z-0.125000
G01 X115.005708 Y131.989879 Z-0.125000
G01 X107.175931 Y107.329853 Z-0.125000
G01 X102.522139 Y68.056906 Z-0.125000
G01 X116.197272 Y46.546793 Z-0.125000
G00 Z5.000000

(End cutting path id: polyline42061)


(Start cutting path id: polyline42063)
(Change tool to Default tool)

G00 Z5.000000
G00 X106.968250 Y240.337269

G00 Z4.875000 (Fast pre-penetrate)
G01 Z-0.125000 F100.0(Penetrate)
G01 X113.824899 Y201.863771 Z-0.125000 F800.000000
G01 X112.522407 Y181.752011 Z-0.125000
G01 X110.839991 Y148.274161 Z-0.125000
G01 X112.770434 Y131.729807 Z-0.125000
G01 X106.239383 Y107.367919 Z-0.125000
G01 X101.202794 Y68.821659 Z-0.125000
G01 X114.680952 Y46.071456 Z-0.125000
G00 Z5.000000

(End cutting path id: polyline42063)


(Start cutting path id: polyline42065)
(Change tool to Default tool)

G00 Z5.000000
G00 X105.762956 Y240.365323

G00 Z4.875000 (Fast pre-penetrate)
G01 Z-0.125000 F100.0(Penetrate)
G01 X111.774804 Y201.713190 Z-0.125000 F800.000000
G01 X111.286927 Y181.979865 Z-0.125000
G01 X109.223994 Y149.250758 Z-0.125000
G01 X110.535111 Y131.469784 Z-0.125000
G01 X105.302885 Y107.405986 Z-0.125000
G01 X99.883399 Y69.586361 Z-0.125000
G01 X113.164582 Y45.596119 Z-0.125000
G00 Z5.000000

(End cutting path id: polyline42065)


(Start cutting path id: polyline42067)
(Change tool to Default tool)

G00 Z5.000000
G00 X104.557613 Y240.393377

G00 Z4.875000 (Fast pre-penetrate)
G01 Z-0.125000 F100.0(Penetrate)
G01 X109.724709 Y201.562559 Z-0.125000 F800.000000
G01 X110.051447 Y182.207670 Z-0.125000
G01 X107.608047 Y150.227355 Z-0.125000
G01 X108.299838 Y131.209761 Z-0.125000
G01 X104.366387 Y107.444052 Z-0.125000
G01 X98.564005 Y70.351114 Z-0.125000
G01 X111.648213 Y45.120782 Z-0.125000
G00 Z5.000000

(End cutting path id: polyline42067)


(Start cutting path id: polyline42069)
(Change tool to Default tool)

G00 Z5.000000
G00 X103.352319 Y240.421481

G00 Z4.875000 (Fast pre-penetrate)
G01 Z-0.125000 F100.0(Penetrate)
G01 X107.674614 Y201.411928 Z-0.125000 F800.000000
G01 X108.815968 Y182.435524 Z-0.125000
G01 X105.992050 Y151.203952 Z-0.125000
G01 X106.064515 Y130.949739 Z-0.125000
G01 X103.429840 Y107.482119 Z-0.125000
G01 X97.244610 Y71.115816 Z-0.125000
G01 X110.131843 Y44.645445 Z-0.125000
G00 Z5.000000

(End cutting path id: polyline42069)


(Start cutting path id: polyline42071)
(Change tool to Default tool)

G00 Z5.000000
G00 X102.147025 Y240.449535

G00 Z4.875000 (Fast pre-penetrate)
G01 Z-0.125000 F100.0(Penetrate)
G01 X105.624469 Y201.261297 Z-0.125000 F800.000000
G01 X107.580488 Y182.663329 Z-0.125000
G01 X104.376053 Y152.180499 Z-0.125000
G01 X103.829242 Y130.689666 Z-0.125000
G01 X102.493341 Y107.520186 Z-0.125000
G01 X95.925265 Y71.880569 Z-0.125000
G01 X108.615474 Y44.170058 Z-0.125000
G00 Z5.000000

(End cutting path id: polyline42071)


(Start cutting path id: polyline42073)
(Change tool to Default tool)

G00 Z5.000000
G00 X100.941681 Y240.477590

G00 Z4.875000 (Fast pre-penetrate)
G01 Z-0.125000 F100.0(Penetrate)
G01 X103.574374 Y201.110667 Z-0.125000 F800.000000
G01 X106.345008 Y182.891184 Z-0.125000
G01 X102.760056 Y153.157096 Z-0.125000
G01 X101.593919 Y130.429644 Z-0.125000
G01 X101.556843 Y107.558252 Z-0.125000
G01 X94.605870 Y72.645271 Z-0.125000
G01 X107.099154 Y43.694721 Z-0.125000
G00 Z5.000000

(End cutting path id: polyline42073)


(Start cutting path id: polyline42075)
(Change tool to Default tool)

G00 Z5.000000
G00 X99.736387 Y240.505644

G00 Z4.875000 (Fast pre-penetrate)
G01 Z-0.125000 F100.0(Penetrate)
G01 X101.524279 Y200.960036 Z-0.125000 F800.000000
G01 X105.109529 Y183.118988 Z-0.125000
G01 X101.144059 Y154.133693 Z-0.125000
G01 X99.358596 Y130.169571 Z-0.125000
G01 X100.620296 Y107.596319 Z-0.125000
G01 X93.286476 Y73.410024 Z-0.125000
G01 X105.582784 Y43.219384 Z-0.125000
G00 Z5.000000

(End cutting path id: polyline42075)


(Start cutting path id: polyline42077)
(Change tool to Default tool)

G00 Z5.000000
G00 X98.531043 Y240.533748

G00 Z4.875000 (Fast pre-penetrate)
G01 Z-0.125000 F100.0(Penetrate)
G01 X99.474183 Y200.809455 Z-0.125000 F800.000000
G01 X103.874049 Y183.346793 Z-0.125000
G01 X99.528061 Y155.110290 Z-0.125000
G01 X97.123322 Y129.909549 Z-0.125000
G01 X99.683798 Y107.634435 Z-0.125000
G01 X91.967081 Y74.174726 Z-0.125000
G01 X104.066414 Y42.744047 Z-0.125000
G00 Z5.000000

(End cutting path id: polyline42077)


(Start cutting path id: polyline42079)
(Change tool to Default tool)

G00 Z5.000000
G00 X90.918812 Y240.249289

G00 Z4.875000 (Fast pre-penetrate)
G01 Z-0.125000 F100.0(Penetrate)
G01 X89.547472 Y203.946332 Z-0.125000 F800.000000
G01 X91.172589 Y183.158939 Z-0.125000
G01 X89.144253 Y158.323102 Z-0.125000
G01 X83.605363 Y128.062674 Z-0.125000
G01 X91.618880 Y106.704182 Z-0.125000
G01 X85.014621 Y75.499375 Z-0.125000
G01 X90.225533 Y42.582017 Z-0.125000
G00 Z5.000000

(End cutting path id: polyline42079)


(Start cutting path id: polyline42081)
(Change tool to Default tool)

G00 Z5.000000
G00 X26.064706 Y228.580981

G00 Z4.875000 (Fast pre-penetrate)
G01 Z-0.125000 F100.0(Penetrate)
G01 X14.281950 Y207.182242 Z-0.125000 F800.000000
G01 X24.455252 Y178.584898 Z-0.125000
G01 X26.155313 Y165.481855 Z-0.125000
G01 X8.305839 Y116.012460 Z-0.125000
G01 X15.726350 Y105.664785 Z-0.125000
G01 X13.796056 Y74.858339 Z-0.125000
G01 X25.016536 Y47.207556 Z-0.125000
G00 Z5.000000

(End cutting path id: polyline42081)


(Start cutting path id: polyline42083)
(Change tool to Default tool)

G00 Z5.000000
G00 X26.415137 Y229.598469

G00 Z4.875000 (Fast pre-penetrate)
G01 Z-0.125000 F100.0(Penetrate)
G01 X16.801137 Y207.478596 Z-0.125000 F800.000000
G01 X26.306290 Y179.098599 Z-0.125000
G01 X28.238171 Y165.144609 Z-0.125000
G01 X11.630323 Y116.810124 Z-0.125000
G01 X17.288915 Y105.592617 Z-0.125000
G01 X15.610366 Y75.386712 Z-0.125000
G01 X26.163541 Y47.304408 Z-0.125000
G00 Z5.000000

(End cutting path id: polyline42083)


(Start cutting path id: polyline42085)
(Change tool to Default tool)

G00 Z5.000000
G00 X26.765519 Y230.615958

G00 Z4.875000 (Fast pre-penetrate)
G01 Z-0.125000 F100.0(Penetrate)
G01 X19.320324 Y207.774901 Z-0.125000 F800.000000
G01 X28.157379 Y179.612300 Z-0.125000
G01 X30.321029 Y164.807362 Z-0.125000
G01 X14.954857 Y117.607788 Z-0.125000
G01 X18.851480 Y105.520400 Z-0.125000
G01 X17.424676 Y75.915035 Z-0.125000
G01 X27.310496 Y47.401259 Z-0.125000
G00 Z5.000000

(End cutting path id: polyline42085)


(Start cutting path id: polyline42087)
(Change tool to Default tool)

G00 Z5.000000
G00 X27.115900 Y231.633447

G00 Z4.875000 (Fast pre-penetrate)
G01 Z-0.125000 F100.0(Penetrate)
G01 X21.839511 Y208.071256 Z-0.125000 F800.000000
G01 X30.008417 Y180.126001 Z-0.125000
G01 X32.403888 Y164.470066 Z-0.125000
G01 X18.279390 Y118.405452 Z-0.125000
G01 X20.414095 Y105.448182 Z-0.125000
G01 X19.239036 Y76.443358 Z-0.125000
G01 X28.457500 Y47.498062 Z-0.125000
G00 Z5.000000

(End cutting path id: polyline42087)


(Start cutting path id: polyline42089)
(Change tool to Default tool)

G00 Z5.000000
G00 X27.466281 Y232.650936

G00 Z4.875000 (Fast pre-penetrate)
G01 Z-0.125000 F100.0(Penetrate)
G01 X24.358648 Y208.367561 Z-0.125000 F800.000000
G01 X31.859505 Y180.639653 Z-0.125000
G01 X34.486746 Y164.132820 Z-0.125000
G01 X21.603874 Y119.203067 Z-0.125000
G01 X21.976660 Y105.376014 Z-0.125000
G01 X21.053346 Y76.971730 Z-0.125000
G01 X29.604505 Y47.594864 Z-0.125000
G00 Z5.000000

(End cutting path id: polyline42089)


(Start cutting path id: polyline42091)
(Change tool to Default tool)

G00 Z5.000000
G00 X27.816712 Y233.668425

G00 Z4.875000 (Fast pre-penetrate)
G01 Z-0.125000 F100.0(Penetrate)
G01 X26.877884 Y208.663915 Z-0.125000 F800.000000
G01 X33.710544 Y181.153354 Z-0.125000
G01 X36.569654 Y163.795574 Z-0.125000
G01 X24.928408 Y120.000731 Z-0.125000
G01 X23.539225 Y105.303797 Z-0.125000
G01 X22.867706 Y77.500053 Z-0.125000
G01 X30.751509 Y47.691716 Z-0.125000
G00 Z5.000000

(End cutting path id: polyline42091)


(Start cutting path id: polyline42093)
(Change tool to Default tool)

G00 Z5.000000
G00 X28.167094 Y234.685913

G00 Z4.875000 (Fast pre-penetrate)
G01 Z-0.125000 F100.0(Penetrate)
G01 X29.397071 Y208.960220 Z-0.125000 F800.000000
G01 X35.561632 Y181.667055 Z-0.125000
G01 X38.652512 Y163.458327 Z-0.125000
G01 X28.252892 Y120.798395 Z-0.125000
G01 X25.101790 Y105.231629 Z-0.125000
G01 X24.682016 Y78.028426 Z-0.125000
G01 X31.898514 Y47.788567 Z-0.125000
G00 Z5.000000

(End cutting path id: polyline42093)


(Start cutting path id: polyline42095)
(Change tool to Default tool)

G00 Z5.000000
G00 X28.517475 Y235.703402

G00 Z4.875000 (Fast pre-penetrate)
G01 Z-0.125000 F100.0(Penetrate)
G01 X31.916258 Y209.256575 Z-0.125000 F800.000000
G01 X37.412670 Y182.180756 Z-0.125000
G01 X40.735370 Y163.121081 Z-0.125000
G01 X31.577426 Y121.596009 Z-0.125000
G01 X26.664404 Y105.159411 Z-0.125000
G01 X26.496326 Y78.556748 Z-0.125000
G01 X33.045518 Y47.885370 Z-0.125000
G00 Z5.000000

(End cutting path id: polyline42095)


(Start cutting path id: polyline42097)
(Change tool to Default tool)

G00 Z5.000000
G00 X28.867906 Y236.720891

G00 Z4.875000 (Fast pre-penetrate)
G01 Z-0.125000 F100.0(Penetrate)
G01 X34.435395 Y209.552879 Z-0.125000 F800.000000
G01 X42.818228 Y162.783785 Z-0.125000
G01 X34.901959 Y122.393673 Z-0.125000
G01 X28.226969 Y105.087243 Z-0.125000
G01 X28.310686 Y79.085071 Z-0.125000
G01 X34.192523 Y47.982172 Z-0.125000
G00 Z5.000000

(End cutting path id: polyline42097)


(Start cutting path id: polyline42099)
(Change tool to Default tool)

G00 Z5.000000
G00 X29.218287 Y237.738380

G00 Z4.875000 (Fast pre-penetrate)
G01 Z-0.125000 F100.0(Penetrate)
G01 X36.954632 Y209.849234 Z-0.125000 F800.000000
G01 X41.114797 Y183.208108 Z-0.125000
G01 X44.901087 Y162.446539 Z-0.125000
G01 X38.226443 Y123.191337 Z-0.125000
G01 X29.789534 Y105.015026 Z-0.125000
G01 X30.124996 Y79.613444 Z-0.125000
G01 X35.339527 Y48.079024 Z-0.125000
G00 Z5.000000

(End cutting path id: polyline42099)


(Start cutting path id: polyline42101)
(Change tool to Default tool)

G00 Z5.000000
G00 X29.568668 Y238.755918

G00 Z4.875000 (Fast pre-penetrate)
G01 Z-0.125000 F100.0(Penetrate)
G01 X39.473819 Y210.145539 Z-0.125000 F800.000000
G01 X42.965885 Y183.721809 Z-0.125000
G01 X46.983994 Y162.109292 Z-0.125000
G01 X41.550977 Y123.989001 Z-0.125000
G01 X31.352099 Y104.942858 Z-0.125000
G01 X31.939356 Y80.141767 Z-0.125000
G01 X36.486482 Y48.175875 Z-0.125000
G00 Z5.000000

(End cutting path id: polyline42101)


(Start cutting path id: polyline42103)
(Change tool to Default tool)

G00 Z5.000000
G00 X29.919099 Y239.773407

G00 Z4.875000 (Fast pre-penetrate)
G01 Z-0.125000 F100.0(Penetrate)
G01 X41.993006 Y210.441844 Z-0.125000 F800.000000
G01 X44.816924 Y184.235510 Z-0.125000
G01 X49.066853 Y161.772046 Z-0.125000
G01 X44.875511 Y124.786616 Z-0.125000
G01 X32.914714 Y104.870640 Z-0.125000
G01 X33.753666 Y80.670090 Z-0.125000
G01 X37.633486 Y48.272678 Z-0.125000
G00 Z5.000000

(End cutting path id: polyline42103)


(Start cutting path id: polyline42105)
(Change tool to Default tool)

G00 Z5.000000
G00 X49.017634 Y240.810127

G00 Z4.875000 (Fast pre-penetrate)
G01 Z-0.125000 F100.0(Penetrate)
G01 X57.628718 Y211.981212 Z-0.125000 F800.000000
G01 X54.326935 Y183.713432 Z-0.125000
G01 X59.730213 Y161.373387 Z-0.125000
G01 X54.404753 Y125.594738 Z-0.125000
G01 X51.460390 Y104.410421 Z-0.125000
G01 X51.690177 Y79.010475 Z-0.125000
G01 X48.157715 Y46.980197 Z-0.125000
G00 Z5.000000

(End cutting path id: polyline42105)


(Start cutting path id: polyline42107)
(Change tool to Default tool)

G00 Z5.000000
G00 X58.216520 Y240.310999

G00 Z4.875000 (Fast pre-penetrate)
G01 Z-0.125000 F100.0(Penetrate)
G01 X62.927411 Y212.454517 Z-0.125000 F800.000000
G01 X57.230852 Y182.938668 Z-0.125000
G01 X62.979009 Y161.511329 Z-0.125000
G01 X55.844841 Y125.201135 Z-0.125000
G01 X59.170663 Y104.252554 Z-0.125000
G01 X58.844073 Y77.652320 Z-0.125000
G01 X52.272825 Y46.237105 Z-0.125000
G00 Z5.000000

(End cutting path id: polyline42107)


(Start cutting path id: polyline42109)
(Change tool to Default tool)

G00 Z5.000000
G00 X61.282864 Y240.144606

G00 Z4.875000 (Fast pre-penetrate)
G01 Z-0.125000 F100.0(Penetrate)
G01 X64.693643 Y212.612285 Z-0.125000 F800.000000
G01 X58.198824 Y182.680479 Z-0.125000
G01 X64.061925 Y161.557326 Z-0.125000
G01 X56.324887 Y125.069934 Z-0.125000
G01 X61.740754 Y104.199915 Z-0.125000
G01 X61.228738 Y77.199634 Z-0.125000
G01 X53.644561 Y45.989424 Z-0.125000
G00 Z5.000000

(End cutting path id: polyline42109)


(Start cutting path id: polyline42111)
(Change tool to Default tool)

G00 Z5.000000
G00 X64.349110 Y239.978263

G00 Z4.875000 (Fast pre-penetrate)
G01 Z-0.125000 F100.0(Penetrate)
G01 X66.459874 Y212.770053 Z-0.125000 F800.000000
G01 X59.166797 Y182.422191 Z-0.125000
G01 X65.144841 Y161.603274 Z-0.125000
G01 X56.804932 Y124.938733 Z-0.125000
G01 X64.310845 Y104.147276 Z-0.125000
G01 X63.613354 Y76.746899 Z-0.125000
G01 X55.016248 Y45.741744 Z-0.125000
G00 Z5.000000

(End cutting path id: polyline42111)


(Start cutting path id: polyline42113)
(Change tool to Default tool)

G00 Z5.000000
G00 X67.415405 Y239.811920

G00 Z4.875000 (Fast pre-penetrate)
G01 Z-0.125000 F100.0(Penetrate)
G01 X68.226056 Y212.927822 Z-0.125000 F800.000000
G01 X60.134819 Y182.163953 Z-0.125000
G01 X66.227806 Y161.649271 Z-0.125000
G01 X57.284978 Y124.807532 Z-0.125000
G01 X66.880936 Y104.094637 Z-0.125000
G01 X65.998019 Y76.294164 Z-0.125000
G01 X56.387984 Y45.494013 Z-0.125000
G00 Z5.000000

(End cutting path id: polyline42113)


(Start cutting path id: polyline42115)
(Change tool to Default tool)

G00 Z5.000000
G00 X70.481750 Y239.645527

G00 Z4.875000 (Fast pre-penetrate)
G01 Z-0.125000 F100.0(Penetrate)
G01 X69.992287 Y213.085639 Z-0.125000 F800.000000
G01 X61.102791 Y181.905714 Z-0.125000
G01 X67.310722 Y161.695219 Z-0.125000
G01 X57.765024 Y124.676331 Z-0.125000
G01 X69.451027 Y104.041998 Z-0.125000
G01 X68.382634 Y75.841479 Z-0.125000
G01 X57.759671 Y45.246332 Z-0.125000
G00 Z5.000000

(End cutting path id: polyline42115)


(Start cutting path id: polyline42117)
(Change tool to Default tool)

G00 Z5.000000
G00 X73.548045 Y239.479134

G00 Z4.875000 (Fast pre-penetrate)
G01 Z-0.125000 F100.0(Penetrate)
G01 X71.758518 Y213.243408 Z-0.125000 F800.000000
G01 X62.070764 Y181.647476 Z-0.125000
G01 X68.393688 Y161.741216 Z-0.125000
G01 X58.245069 Y124.545131 Z-0.125000
G01 X72.021118 Y103.989359 Z-0.125000
G01 X70.767299 Y75.388744 Z-0.125000
G01 X59.131357 Y44.998652 Z-0.125000
G00 Z5.000000

(End cutting path id: polyline42117)


(Start cutting path id: polyline42119)
(Change tool to Default tool)

G00 Z5.000000
G00 X79.215163 Y239.483050

G00 Z4.875000 (Fast pre-penetrate)
G01 Z-0.125000 F100.0(Penetrate)
G01 X76.437985 Y211.682131 Z-0.125000 F800.000000
G01 X68.153987 Y181.710970 Z-0.125000
G01 X73.052535 Y161.157379 Z-0.125000
G01 X63.248747 Y125.077320 Z-0.125000
G01 X77.687145 Y104.439913 Z-0.125000
G01 X75.308775 Y75.038462 Z-0.125000
G01 X65.907165 Y44.356624 Z-0.125000
G00 Z5.000000

(End cutting path id: polyline42119)


(Start cutting path id: polyline42121)
(Change tool to Default tool)

G00 Z5.000000
G00 X80.515524 Y239.568204

G00 Z4.875000 (Fast pre-penetrate)
G01 Z-0.125000 F100.0(Penetrate)
G01 X77.894578 Y210.822560 Z-0.125000 F800.000000
G01 X70.711587 Y181.871910 Z-0.125000
G01 X74.840526 Y160.842437 Z-0.125000
G01 X65.510588 Y125.409015 Z-0.125000
G01 X79.235138 Y104.691509 Z-0.125000
G01 X76.387180 Y75.089663 Z-0.125000
G01 X68.609200 Y44.159451 Z-0.125000
G00 Z5.000000

(End cutting path id: polyline42121)


(Start cutting path id: polyline42123)
(Change tool to Default tool)

G00 Z5.000000
G00 X81.815935 Y239.653309

G00 Z4.875000 (Fast pre-penetrate)
G01 Z-0.125000 F100.0(Penetrate)
G01 X79.351221 Y209.963037 Z-0.125000 F800.000000
G01 X73.269237 Y182.032752 Z-0.125000
G01 X76.628467 Y160.527545 Z-0.125000
G01 X67.772429 Y125.740759 Z-0.125000
G01 X80.783081 Y104.943106 Z-0.125000
G01 X77.465635 Y75.140865 Z-0.125000
G01 X71.311236 Y43.962278 Z-0.125000
G00 Z5.000000

(End cutting path id: polyline42123)


(Start cutting path id: polyline42125)
(Change tool to Default tool)

G00 Z5.000000
G00 X83.116346 Y239.738463

G00 Z4.875000 (Fast pre-penetrate)
G01 Z-0.125000 F100.0(Penetrate)
G01 X80.807814 Y209.103515 Z-0.125000 F800.000000
G01 X75.826838 Y182.193643 Z-0.125000
G01 X78.416458 Y160.212603 Z-0.125000
G01 X70.034269 Y126.072454 Z-0.125000
G01 X82.331073 Y105.194653 Z-0.125000
G01 X78.544040 Y75.192116 Z-0.125000
G01 X74.013271 Y43.765105 Z-0.125000
G00 Z5.000000

(End cutting path id: polyline42125)


(Start cutting path id: polyline42127)
(Change tool to Default tool)

G00 Z5.000000
G00 X84.416757 Y239.823617

G00 Z4.875000 (Fast pre-penetrate)
G01 Z-0.125000 F100.0(Penetrate)
G01 X82.264407 Y208.243993 Z-0.125000 F800.000000
G01 X78.384488 Y182.354534 Z-0.125000
G01 X80.204399 Y159.897711 Z-0.125000
G01 X72.296110 Y126.404149 Z-0.125000
G01 X83.879016 Y105.446249 Z-0.125000
G01 X79.622495 Y75.243318 Z-0.125000
G01 X76.715306 Y43.567882 Z-0.125000
G00 Z5.000000

(End cutting path id: polyline42127)


(Start cutting path id: polyline42129)
(Change tool to Default tool)

G00 Z5.000000
G00 X85.717168 Y239.908722

G00 Z4.875000 (Fast pre-penetrate)
G01 Z-0.125000 F100.0(Penetrate)
G01 X83.721050 Y207.384470 Z-0.125000 F800.000000
G01 X80.942088 Y182.515425 Z-0.125000
G01 X81.992390 Y159.582770 Z-0.125000
G01 X74.557951 Y126.735844 Z-0.125000
G01 X85.427009 Y105.697846 Z-0.125000
G01 X80.700900 Y75.294519 Z-0.125000
G01 X79.417342 Y43.370709 Z-0.125000
G00 Z5.000000

(End cutting path id: polyline42129)


(Start cutting path id: polyline42131)
(Change tool to Default tool)

G00 Z5.000000
G00 X87.017579 Y239.993876

G00 Z4.875000 (Fast pre-penetrate)
G01 Z-0.125000 F100.0(Penetrate)
G01 X85.177643 Y206.524899 Z-0.125000 F800.000000
G01 X83.499689 Y182.676266 Z-0.125000
G01 X83.780331 Y159.267877 Z-0.125000
G01 X76.819841 Y127.067539 Z-0.125000
G01 X86.974952 Y105.949442 Z-0.125000
G01 X81.779355 Y75.345721 Z-0.125000
G01 X82.119377 Y43.173536 Z-0.125000
G00 Z5.000000

(End cutting path id: polyline42131)


(Start cutting path id: polyline42133)
(Change tool to Default tool)

G00 Z5.000000
G00 X88.317990 Y240.079030

G00 Z4.875000 (Fast pre-penetrate)
G01 Z-0.125000 F100.0(Penetrate)
G01 X86.634286 Y205.665376 Z-0.125000 F800.000000
G01 X85.568321 Y158.952936 Z-0.125000
G01 X79.081682 Y127.399234 Z-0.125000
G01 X88.522945 Y106.201039 Z-0.125000
G01 X82.857761 Y75.396922 Z-0.125000
G01 X84.821462 Y42.976363 Z-0.125000
G00 Z5.000000

(End cutting path id: polyline42133)


(Start cutting path id: polyline42135)
(Change tool to Default tool)

G00 Z5.000000
G00 X89.618401 Y240.164185

G00 Z4.875000 (Fast pre-penetrate)
G01 Z-0.125000 F100.0(Penetrate)
G01 X88.090879 Y204.805854 Z-0.125000 F800.000000
G01 X88.614939 Y182.998048 Z-0.125000
G01 X87.356263 Y158.638044 Z-0.125000
G01 X81.343522 Y127.730979 Z-0.125000
G01 X90.070937 Y106.452635 Z-0.125000
G01 X83.936215 Y75.448124 Z-0.125000
G01 X87.523498 Y42.779190 Z-0.125000
G00 Z5.000000

(End cutting path id: polyline42135)


(Start cutting path id: polyline42137)
(Change tool to Default tool)

G00 Z5.000000
G00 X92.219223 Y240.334443

G00 Z4.875000 (Fast pre-penetrate)
G01 Z-0.125000 F100.0(Penetrate)
G01 X91.004115 Y203.086810 Z-0.125000 F800.000000
G01 X93.730189 Y183.319780 Z-0.125000
G01 X90.932194 Y158.008210 Z-0.125000
G01 X85.867204 Y128.394369 Z-0.125000
G01 X93.166873 Y106.955779 Z-0.125000
G01 X86.093026 Y75.550577 Z-0.125000
G01 X92.927569 Y42.384843 Z-0.125000
G00 Z5.000000

(End cutting path id: polyline42137)


(Start cutting path id: polyline42139)
(Change tool to Default tool)

G00 Z5.000000
G00 X93.519634 Y240.419598

G00 Z4.875000 (Fast pre-penetrate)
G01 Z-0.125000 F100.0(Penetrate)
G01 X92.460708 Y202.227287 Z-0.125000 F800.000000
G01 X96.287839 Y183.480720 Z-0.125000
G01 X92.720185 Y157.693268 Z-0.125000
G01 X88.129045 Y128.726064 Z-0.125000
G01 X94.714816 Y107.207375 Z-0.125000
G01 X87.171481 Y75.601778 Z-0.125000
G01 X95.629604 Y42.187720 Z-0.125000
G00 Z5.000000

(End cutting path id: polyline42139)


(Start cutting path id: polyline42141)
(Change tool to Default tool)

G00 Z5.000000
G00 X94.820044 Y240.504752

G00 Z4.875000 (Fast pre-penetrate)
G01 Z-0.125000 F100.0(Penetrate)
G01 X93.917350 Y201.367715 Z-0.125000 F800.000000
G01 X98.845440 Y183.641562 Z-0.125000
G01 X94.508126 Y157.378376 Z-0.125000
G01 X90.390885 Y129.057759 Z-0.125000
G01 X96.262809 Y107.458972 Z-0.125000
G01 X88.249886 Y75.652980 Z-0.125000
G01 X98.331640 Y41.990547 Z-0.125000
G00 Z5.000000

(End cutting path id: polyline42141)


(Start cutting path id: polyline42143)
(Change tool to Default tool)

G00 Z5.000000
G00 X55.150224 Y240.477391

G00 Z4.875000 (Fast pre-penetrate)
G01 Z-0.125000 F100.0(Penetrate)
G01 X61.161180 Y212.296749 Z-0.125000 F800.000000
G01 X56.262880 Y183.196956 Z-0.125000
G01 X61.896044 Y161.465332 Z-0.125000
G01 X55.364845 Y125.332336 Z-0.125000
G01 X56.600572 Y104.305143 Z-0.125000
G01 X56.459458 Y78.105054 Z-0.125000
G01 X50.901138 Y46.484835 Z-0.125000
G00 Z5.000000

(End cutting path id: polyline42143)


(Start cutting path id: polyline42145)
(Change tool to Default tool)

G00 Z5.000000
G00 X52.083929 Y240.643735

G00 Z4.875000 (Fast pre-penetrate)
G01 Z-0.125000 F100.0(Penetrate)
G01 X59.394949 Y212.138980 Z-0.125000 F800.000000
G01 X55.294907 Y183.455194 Z-0.125000
G01 X60.813128 Y161.419384 Z-0.125000
G01 X54.884799 Y125.463537 Z-0.125000
G01 X54.030481 Y104.357782 Z-0.125000
G01 X54.074793 Y78.557789 Z-0.125000
G01 X49.529451 Y46.732516 Z-0.125000
G00 Z5.000000

(End cutting path id: polyline42145)


(Start cutting path id: polyline42147)
(Change tool to Default tool)

G00 Z5.000000
G00 X45.951338 Y240.976520

G00 Z4.875000 (Fast pre-penetrate)
G01 Z-0.125000 F100.0(Penetrate)
G01 X55.862486 Y211.823394 Z-0.125000 F800.000000
G01 X53.358962 Y183.971671 Z-0.125000
G01 X58.647247 Y161.327440 Z-0.125000
G01 X53.924707 Y125.725939 Z-0.125000
G01 X48.890299 Y104.463060 Z-0.125000
G01 X49.305512 Y79.463210 Z-0.125000
G01 X46.786028 Y47.227878 Z-0.125000
G00 Z5.000000

(End cutting path id: polyline42147)


(Start cutting path id: polyline42149)
(Change tool to Default tool)

G00 Z5.000000
G00 X42.885043 Y241.142913

G00 Z4.875000 (Fast pre-penetrate)
G01 Z-0.125000 F100.0(Penetrate)
G01 X54.096255 Y211.665626 Z-0.125000 F800.000000
G01 X52.390990 Y184.229909 Z-0.125000
G01 X57.564331 Y161.281443 Z-0.125000
G01 X53.444662 Y125.857140 Z-0.125000
G01 X46.320208 Y104.515699 Z-0.125000
G01 X46.920897 Y79.915945 Z-0.125000
G01 X45.414341 Y47.475559 Z-0.125000
G00 Z5.000000

(End cutting path id: polyline42149)


(Start cutting path id: polyline42151)
(Change tool to Default tool)

G00 Z5.000000
G00 X39.818748 Y241.309256

G00 Z4.875000 (Fast pre-penetrate)
G01 Z-0.125000 F100.0(Penetrate)
G01 X52.330073 Y211.507858 Z-0.125000 F800.000000
G01 X51.422968 Y184.488147 Z-0.125000
G01 X56.481366 Y161.235445 Z-0.125000
G01 X52.964616 Y125.988341 Z-0.125000
G01 X43.750117 Y104.568338 Z-0.125000
G01 X44.536232 Y80.368630 Z-0.125000
G01 X44.042605 Y47.723289 Z-0.125000
G00 Z5.000000

(End cutting path id: polyline42151)


(Start cutting path id: polyline42153)
(Change tool to Default tool)

G00 Z5.000000
G00 X36.752453 Y241.475599

G00 Z4.875000 (Fast pre-penetrate)
G01 Z-0.125000 F100.0(Penetrate)
G01 X50.563842 Y211.350089 Z-0.125000 F800.000000
G01 X50.454995 Y184.746386 Z-0.125000
G01 X55.398450 Y161.189498 Z-0.125000
G01 X52.484620 Y126.119542 Z-0.125000
G01 X41.180026 Y104.620977 Z-0.125000
G01 X42.151617 Y80.821365 Z-0.125000
G01 X42.670918 Y47.970970 Z-0.125000
G00 Z5.000000

(End cutting path id: polyline42153)



(Footer)
M5
G00 X0.0000 Y0.0000
M2
(Using default footer. To add your own footer create file "footer" in the output dir.)
(end)
%