%
(Header)
(Generated by gcodetools from Inkscape.)
(Using default header. To add your own header create file "header" in the output dir.)
M3
(Header end.)
G21 (All units in mm)

(Start cutting path id: polyline1059428)
(Change tool to Default tool)

G00 Z3.000000
G00 X105.258493 Y148.156384

G00 Z4.875000 (Fast pre-penetrate)
G01 Z-0.125000 F400.0(Penetrate)
G01 X105.346193 Y147.957414 Z-0.125000 F800.000000
G01 X105.268093 Y147.855684 Z-0.125000
G01 X105.006213 Y148.029514 Z-0.125000
G01 X104.777133 Y148.408744 Z-0.125000
G01 X104.680233 Y148.893354 Z-0.125000
G01 X104.840383 Y149.176214 Z-0.125000
G01 X105.122303 Y149.162214 Z-0.125000
G01 X105.450303 Y148.949804 Z-0.125000
G01 X105.795003 Y148.559594 Z-0.125000
G01 X106.092713 Y148.038744 Z-0.125000
G01 X106.266413 Y147.536824 Z-0.125000
G01 X106.324813 Y147.059704 Z-0.125000
G01 X106.247913 Y146.673254 Z-0.125000
G01 X106.031983 Y146.441584 Z-0.125000
G01 X105.573863 Y146.451784 Z-0.125000
G01 X105.049773 Y146.789234 Z-0.125000
G01 X104.494493 Y147.414024 Z-0.125000
G01 X104.001573 Y148.241794 Z-0.125000
G01 X103.697853 Y149.027904 Z-0.125000
G01 X103.571833 Y149.761114 Z-0.125000
G01 X103.657333 Y150.344704 Z-0.125000
G01 X103.958693 Y150.695574 Z-0.125000
G01 X104.291593 Y150.769974 Z-0.125000
G01 X104.614093 Y150.714774 Z-0.125000
G01 X105.352023 Y150.300014 Z-0.125000
G01 X106.110473 Y149.521984 Z-0.125000
G01 X106.763523 Y148.482354 Z-0.125000
G01 X107.202253 Y147.331764 Z-0.125000
G01 X107.350233 Y146.250014 Z-0.125000
G01 X107.170603 Y145.405994 Z-0.125000
G01 X106.958753 Y145.122704 Z-0.125000
G01 X106.750183 Y144.985644 Z-0.125000
G01 X106.412123 Y144.914644 Z-0.125000
G01 X106.014983 Y144.980344 Z-0.125000
G01 X105.571253 Y145.187214 Z-0.125000
G01 X105.095743 Y145.533584 Z-0.125000
G01 X104.118323 Y146.601104 Z-0.125000
G01 X103.236863 Y148.024874 Z-0.125000
G01 X102.616813 Y149.562184 Z-0.125000
G01 X102.401833 Y150.784584 Z-0.125000
G01 X102.440433 Y151.367914 Z-0.125000
G01 X102.548833 Y151.732534 Z-0.125000
G01 X102.796433 Y152.103874 Z-0.125000
G01 X103.054373 Y152.286864 Z-0.125000
G01 X103.603653 Y152.395894 Z-0.125000
G01 X104.128663 Y152.301794 Z-0.125000
G01 X104.704873 Y152.048964 Z-0.125000
G01 X105.307273 Y151.646424 Z-0.125000
G01 X105.910313 Y151.107444 Z-0.125000
G01 X106.489113 Y150.449524 Z-0.125000
G01 X107.429953 Y148.977464 Z-0.125000
G01 X108.078923 Y147.355914 Z-0.125000
G01 X108.274793 Y146.504614 Z-0.125000
G01 X108.355593 Y145.707104 Z-0.125000
G01 X108.316993 Y144.990694 Z-0.125000
G01 X108.158213 Y144.380224 Z-0.125000
G01 X107.883073 Y143.904744 Z-0.125000
G01 X107.499083 Y143.590284 Z-0.125000
G01 X107.017383 Y143.458654 Z-0.125000
G01 X106.452203 Y143.525754 Z-0.125000
G01 X105.820673 Y143.799944 Z-0.125000
G01 X105.142523 Y144.280234 Z-0.125000
G01 X104.440023 Y144.954154 Z-0.125000
G01 X103.738273 Y145.796564 Z-0.125000
G01 X102.450653 Y147.836684 Z-0.125000
G01 X101.564483 Y149.901024 Z-0.125000
G01 X101.286533 Y150.943004 Z-0.125000
G01 X101.177263 Y151.771224 Z-0.125000
G01 X101.215063 Y152.594214 Z-0.125000
G01 X101.358303 Y153.109044 Z-0.125000
G01 X101.597653 Y153.521794 Z-0.125000
G01 X102.056123 Y153.896304 Z-0.125000
G01 X102.653973 Y154.055954 Z-0.125000
G01 X103.362603 Y153.994654 Z-0.125000
G01 X104.250363 Y153.666704 Z-0.125000
G01 X105.080013 Y153.159494 Z-0.125000
G01 X105.910493 Y152.469174 Z-0.125000
G01 X106.739643 Y151.578614 Z-0.125000
G01 X107.468833 Y150.588994 Z-0.125000
G01 X108.105023 Y149.502404 Z-0.125000
G01 X108.625773 Y148.358154 Z-0.125000
G01 X109.039773 Y147.103294 Z-0.125000
G01 X109.270673 Y145.979054 Z-0.125000
G01 X109.349373 Y144.934104 Z-0.125000
G01 X109.271773 Y143.999434 Z-0.125000
G01 X109.038563 Y143.205954 Z-0.125000
G01 X108.656323 Y142.591034 Z-0.125000
G01 X108.136233 Y142.188764 Z-0.125000
G01 X107.493643 Y142.028264 Z-0.125000
G01 X106.747253 Y142.131484 Z-0.125000
G01 X105.918813 Y142.510574 Z-0.125000
G01 X105.145543 Y143.068444 Z-0.125000
G01 X104.269053 Y143.907784 Z-0.125000
G01 X103.349683 Y145.005494 Z-0.125000
G01 X102.477933 Y146.253584 Z-0.125000
G01 X101.655613 Y147.646454 Z-0.125000
G01 X100.984733 Y149.001674 Z-0.125000
G01 X100.457099 Y150.316554 Z-0.125000
G01 X100.086920 Y151.568084 Z-0.125000
G01 X99.898484 Y152.707404 Z-0.125000
G01 X99.900584 Y153.659324 Z-0.125000
G01 X100.082062 Y154.460714 Z-0.125000
G01 X100.377337 Y155.007664 Z-0.125000
G01 X100.957727 Y155.512434 Z-0.125000
G01 X101.723853 Y155.742834 Z-0.125000
G01 X102.758083 Y155.666034 Z-0.125000
G01 X103.779163 Y155.307024 Z-0.125000
G01 X104.890093 Y154.663634 Z-0.125000
G01 X105.953483 Y153.814714 Z-0.125000
G01 X106.970063 Y152.764564 Z-0.125000
G01 X107.900793 Y151.547374 Z-0.125000
G01 X108.712183 Y150.204714 Z-0.125000
G01 X109.377273 Y148.784484 Z-0.125000
G01 X109.909503 Y147.219584 Z-0.125000
G01 X110.213033 Y145.810434 Z-0.125000
G01 X110.330533 Y144.389384 Z-0.125000
G01 X110.231633 Y143.171164 Z-0.125000
G01 X109.941703 Y142.173374 Z-0.125000
G01 X109.398563 Y141.309794 Z-0.125000
G01 X108.739173 Y140.819554 Z-0.125000
G01 X107.933863 Y140.629314 Z-0.125000
G01 X107.005883 Y140.768454 Z-0.125000
G01 X106.069363 Y141.200624 Z-0.125000
G01 X105.072603 Y141.926114 Z-0.125000
G01 X103.967283 Y143.006174 Z-0.125000
G01 X102.899183 Y144.295614 Z-0.125000
G01 X101.788783 Y145.885684 Z-0.125000
G01 X100.805720 Y147.532004 Z-0.125000
G01 X99.962069 Y149.190094 Z-0.125000
G01 X99.268729 Y150.853074 Z-0.125000
G01 X98.807851 Y152.326494 Z-0.125000
G01 X98.554433 Y153.699224 Z-0.125000
G01 X98.532893 Y154.818864 Z-0.125000
G01 X98.718498 Y155.773454 Z-0.125000
G01 X99.131989 Y156.567554 Z-0.125000
G01 X99.754130 Y157.122834 Z-0.125000
G01 X100.686866 Y157.443954 Z-0.125000
G01 X101.905673 Y157.405754 Z-0.125000
G01 X103.157973 Y157.023984 Z-0.125000
G01 X104.577883 Y156.265054 Z-0.125000
G01 X105.910563 Y155.259874 Z-0.125000
G01 X107.231043 Y153.947094 Z-0.125000
G01 X108.362243 Y152.503184 Z-0.125000
G01 X109.344983 Y150.906394 Z-0.125000
G01 X110.148213 Y149.213034 Z-0.125000
G01 X110.780273 Y147.378334 Z-0.125000
G01 X111.168493 Y145.585254 Z-0.125000
G01 X111.306213 Y143.822234 Z-0.125000
G01 X111.168233 Y142.313524 Z-0.125000
G01 X110.785963 Y141.080904 Z-0.125000
G01 X110.444413 Y140.469804 Z-0.125000
G01 X110.113863 Y140.060884 Z-0.125000
G01 X109.311253 Y139.482744 Z-0.125000
G01 X108.845263 Y139.325084 Z-0.125000
G01 X108.340603 Y139.261984 Z-0.125000
G01 X107.326933 Y139.406394 Z-0.125000
G01 X106.218003 Y139.903064 Z-0.125000
G01 X105.036823 Y140.758014 Z-0.125000
G01 X103.779103 Y141.982984 Z-0.125000
G01 X102.467433 Y143.558604 Z-0.125000
G01 X101.193353 Y145.360784 Z-0.125000
G01 X99.950398 Y147.395934 Z-0.125000
G01 X98.918867 Y149.360144 Z-0.125000
G01 X98.082969 Y151.267714 Z-0.125000
G01 X97.502844 Y152.980174 Z-0.125000
G01 X97.159018 Y154.588844 Z-0.125000
G01 X97.096978 Y155.995444 Z-0.125000
G01 X97.299543 Y157.136884 Z-0.125000
G01 X97.724570 Y158.012364 Z-0.125000
G01 X98.441299 Y158.713904 Z-0.125000
G01 X98.955861 Y158.980844 Z-0.125000
G01 X99.537468 Y159.147244 Z-0.125000
G01 X100.177310 Y159.212344 Z-0.125000
G01 X100.984793 Y159.160944 Z-0.125000
G01 X102.542583 Y158.739964 Z-0.125000
G01 X104.205883 Y157.909884 Z-0.125000
G01 X105.858633 Y156.728334 Z-0.125000
G01 X107.338703 Y155.327284 Z-0.125000
G01 X108.689963 Y153.685524 Z-0.125000
G01 X109.919793 Y151.760944 Z-0.125000
G01 X110.915633 Y149.703864 Z-0.125000
G01 X111.649353 Y147.598224 Z-0.125000
G01 X112.119993 Y145.438144 Z-0.125000
G01 X112.280173 Y143.385104 Z-0.125000
G01 X112.110893 Y141.560754 Z-0.125000
G01 X111.636653 Y140.069114 Z-0.125000
G01 X111.260733 Y139.401384 Z-0.125000
G01 X110.875233 Y138.916344 Z-0.125000
G01 X110.355903 Y138.462664 Z-0.125000
G01 X109.855153 Y138.178134 Z-0.125000
G01 X109.307073 Y137.997184 Z-0.125000
G01 X108.715703 Y137.926184 Z-0.125000
G01 X107.532963 Y138.100254 Z-0.125000
G01 X106.274393 Y138.671674 Z-0.125000
G01 X104.968803 Y139.622804 Z-0.125000
G01 X103.549393 Y141.006074 Z-0.125000
G01 X102.052833 Y142.794524 Z-0.125000
G01 X100.485417 Y144.991944 Z-0.125000
G01 X98.988908 Y147.409144 Z-0.125000
G01 X97.753171 Y149.712084 Z-0.125000
G01 X96.739605 Y151.964554 Z-0.125000
G01 X96.038116 Y153.993254 Z-0.125000
G01 X95.667223 Y155.704284 Z-0.125000
G01 X95.592023 Y157.207624 Z-0.125000
G01 X95.799218 Y158.470374 Z-0.125000
G01 X96.311901 Y159.548544 Z-0.125000
G01 X96.676418 Y159.980404 Z-0.125000
G01 X97.108218 Y160.336154 Z-0.125000
G01 X97.708610 Y160.659164 Z-0.125000
G01 X98.389595 Y160.866194 Z-0.125000
G01 X99.140297 Y160.956194 Z-0.125000
G01 X100.018476 Y160.922394 Z-0.125000
G01 X100.875884 Y160.772774 Z-0.125000
G01 X101.878363 Y160.473954 Z-0.125000
G01 X103.823553 Y159.562044 Z-0.125000
G01 X105.728823 Y158.271454 Z-0.125000
G01 X107.536213 Y156.631274 Z-0.125000
G01 X109.137923 Y154.734824 Z-0.125000
G01 X110.491613 Y152.663874 Z-0.125000
G01 X111.639113 Y150.353404 Z-0.125000
G01 X112.516993 Y147.883914 Z-0.125000
G01 X113.062253 Y145.421204 Z-0.125000
G01 X113.255873 Y143.024204 Z-0.125000
G01 X113.210173 Y141.948834 Z-0.125000
G01 X113.069333 Y140.938074 Z-0.125000
G01 X112.834783 Y140.003934 Z-0.125000
G01 X112.508973 Y139.158594 Z-0.125000
G01 X112.078233 Y138.388574 Z-0.125000
G01 X111.637383 Y137.825014 Z-0.125000
G01 X111.044433 Y137.291934 Z-0.125000
G01 X110.473533 Y136.951254 Z-0.125000
G01 X109.849543 Y136.726564 Z-0.125000
G01 X109.177133 Y136.625844 Z-0.125000
G01 X108.583323 Y136.641944 Z-0.125000
G01 X107.866573 Y136.778234 Z-0.125000
G01 X106.476603 Y137.367114 Z-0.125000
G01 X105.021613 Y138.390654 Z-0.125000
G01 X103.418233 Y139.922804 Z-0.125000
G01 X101.655213 Y142.002274 Z-0.125000
G01 X99.818818 Y144.541424 Z-0.125000
G01 X98.073255 Y147.300154 Z-0.125000
G01 X96.621037 Y149.919424 Z-0.125000
G01 X95.440995 Y152.421504 Z-0.125000
G01 X94.620231 Y154.628664 Z-0.125000
G01 X94.138716 Y156.598224 Z-0.125000
G01 X94.014653 Y158.392364 Z-0.125000
G01 X94.248280 Y159.866324 Z-0.125000
G01 X94.783426 Y161.012184 Z-0.125000
G01 X95.194404 Y161.517324 Z-0.125000
G01 X95.685417 Y161.936934 Z-0.125000
G01 X96.403126 Y162.336374 Z-0.125000
G01 X97.189309 Y162.585664 Z-0.125000
G01 X98.057248 Y162.702024 Z-0.125000
G01 X98.992471 Y162.686224 Z-0.125000
G01 X100.005190 Y162.536024 Z-0.125000
G01 X101.134613 Y162.230114 Z-0.125000
G01 X102.289413 Y161.783444 Z-0.125000
G01 X103.416593 Y161.226524 Z-0.125000
G01 X105.669863 Y159.766604 Z-0.125000
G01 X107.717743 Y157.973444 Z-0.125000
G01 X109.501983 Y155.929324 Z-0.125000
G01 X111.107483 Y153.532654 Z-0.125000
G01 X112.451003 Y150.847604 Z-0.125000
G01 X113.427713 Y148.083714 Z-0.125000
G01 X114.037713 Y145.266514 Z-0.125000
G01 X114.187153 Y143.932274 Z-0.125000
G01 X114.236053 Y142.572494 Z-0.125000
G01 X114.177653 Y141.398644 Z-0.125000
G01 X114.012623 Y140.268184 Z-0.125000
G01 X113.742753 Y139.221314 Z-0.125000
G01 X113.370753 Y138.271134 Z-0.125000
G01 X112.900403 Y137.430794 Z-0.125000
G01 X112.313953 Y136.689544 Z-0.125000
G01 X111.633623 Y136.095624 Z-0.125000
G01 X110.981533 Y135.715504 Z-0.125000
G01 X110.271423 Y135.464574 Z-0.125000
G01 X109.508783 Y135.352414 Z-0.125000
G01 X108.768263 Y135.379314 Z-0.125000
G01 X108.028333 Y135.526894 Z-0.125000
G01 X107.259403 Y135.798594 Z-0.125000
G01 X106.441333 Y136.211664 Z-0.125000
G01 X104.846163 Y137.355614 Z-0.125000
G01 X103.014103 Y139.132244 Z-0.125000
G01 X101.081063 Y141.427584 Z-0.125000
G01 X98.934921 Y144.388694 Z-0.125000
G01 X96.889348 Y147.594094 Z-0.125000
G01 X95.210276 Y150.582484 Z-0.125000
G01 X93.901276 Y153.315864 Z-0.125000
G01 X92.991559 Y155.737464 Z-0.125000
G01 X92.494672 Y157.779674 Z-0.125000
G01 X92.368677 Y159.594374 Z-0.125000
G01 X92.445777 Y160.441224 Z-0.125000
G01 X92.612491 Y161.197854 Z-0.125000
G01 X92.859453 Y161.864924 Z-0.125000
G01 X93.251803 Y162.556144 Z-0.125000
G01 X93.674317 Y163.069284 Z-0.125000
G01 X94.262432 Y163.570484 Z-0.125000
G01 X95.050520 Y164.009424 Z-0.125000
G01 X95.948913 Y164.301394 Z-0.125000
G01 X97.019338 Y164.449134 Z-0.125000
G01 X98.093811 Y164.433034 Z-0.125000
G01 X99.225645 Y164.272664 Z-0.125000
G01 X100.456143 Y163.955834 Z-0.125000
G01 X101.750223 Y163.479954 Z-0.125000
G01 X103.049563 Y162.865774 Z-0.125000
G01 X104.336783 Y162.127984 Z-0.125000
G01 X105.583633 Y161.289654 Z-0.125000
G01 X106.793813 Y160.339104 Z-0.125000
G01 X107.879923 Y159.353134 Z-0.125000
G01 X108.986363 Y158.197994 Z-0.125000
G01 X109.956543 Y157.035814 Z-0.125000
G01 X110.858503 Y155.801924 Z-0.125000
G01 X111.741763 Y154.412464 Z-0.125000
G01 X112.532523 Y152.967634 Z-0.125000
G01 X113.225673 Y151.483214 Z-0.125000
G01 X113.817603 Y149.975934 Z-0.125000
G01 X114.335023 Y148.362214 Z-0.125000
G01 X114.733673 Y146.762864 Z-0.125000
G01 X115.011403 Y145.214994 Z-0.125000
G01 X115.177453 Y143.676184 Z-0.125000
G01 X115.221853 Y142.117414 Z-0.125000
G01 X115.135953 Y140.750104 Z-0.125000
G01 X114.938973 Y139.537434 Z-0.125000
G01 X114.631153 Y138.412184 Z-0.125000
G01 X114.183163 Y137.321364 Z-0.125000
G01 X113.643313 Y136.399054 Z-0.125000
G01 X113.000583 Y135.610754 Z-0.125000
G01 X112.261863 Y134.971334 Z-0.125000
G01 X111.435203 Y134.496324 Z-0.125000
G01 X110.633623 Y134.225054 Z-0.125000
G01 X109.886013 Y134.113504 Z-0.125000
G01 X109.099693 Y134.127204 Z-0.125000
G01 X108.182813 Y134.298684 Z-0.125000
G01 X107.302543 Y134.610554 Z-0.125000
G01 X106.495403 Y135.016394 Z-0.125000
G01 X105.596903 Y135.596224 Z-0.125000
G01 X104.710603 Y136.291314 Z-0.125000
G01 X102.713003 Y138.227324 Z-0.125000
G01 X100.527276 Y140.813834 Z-0.125000
G01 X98.114382 Y144.112614 Z-0.125000
G01 X95.749642 Y147.754414 Z-0.125000
G01 X93.885308 Y150.985634 Z-0.125000
G01 X92.408589 Y153.958284 Z-0.125000
G01 X91.379731 Y156.574534 Z-0.125000
G01 X90.806458 Y158.802964 Z-0.125000
G01 X90.654852 Y160.760884 Z-0.125000
G01 X90.735342 Y161.698164 Z-0.125000
G01 X90.926265 Y162.563114 Z-0.125000
G01 X91.226964 Y163.348954 Z-0.125000
G01 X91.578463 Y163.966524 Z-0.125000
G01 X92.077811 Y164.587104 Z-0.125000
G01 X92.676299 Y165.111874 Z-0.125000
G01 X93.553340 Y165.626784 Z-0.125000
G01 X94.558465 Y165.979604 Z-0.125000
G01 X95.672864 Y166.167484 Z-0.125000
G01 X96.917305 Y166.188784 Z-0.125000
G01 X98.189369 Y166.045964 Z-0.125000
G01 X99.617669 Y165.718064 Z-0.125000
G01 X101.073113 Y165.222504 Z-0.125000
G01 X102.516683 Y164.582684 Z-0.125000
G01 X103.944983 Y163.811004 Z-0.125000
G01 X105.433953 Y162.860774 Z-0.125000
G01 X106.697493 Y161.917004 Z-0.125000
G01 X107.946143 Y160.837484 Z-0.125000
G01 X109.174523 Y159.609314 Z-0.125000
G01 X110.261373 Y158.358444 Z-0.125000
G01 X111.272323 Y157.025494 Z-0.125000
G01 X112.255043 Y155.532324 Z-0.125000
G01 X113.136523 Y153.975434 Z-0.125000
G01 X113.953483 Y152.276624 Z-0.125000
G01 X114.646473 Y150.547044 Z-0.125000
G01 X115.213163 Y148.808784 Z-0.125000
G01 X115.652763 Y147.083964 Z-0.125000
G01 X115.985453 Y145.262624 Z-0.125000
G01 X116.165903 Y143.610564 Z-0.125000
G01 X116.219403 Y141.931524 Z-0.125000
G01 X116.133203 Y140.429614 Z-0.125000
G01 X115.907883 Y139.015864 Z-0.125000
G01 X115.539373 Y137.688584 Z-0.125000
G01 X115.073493 Y136.565634 Z-0.125000
G01 X114.434953 Y135.478964 Z-0.125000
G01 X113.736503 Y134.625264 Z-0.125000
G01 X112.917993 Y133.909224 Z-0.125000
G01 X112.003193 Y133.369044 Z-0.125000
G01 X111.117423 Y133.051334 Z-0.125000
G01 X110.292453 Y132.909624 Z-0.125000
G01 X109.425943 Y132.904624 Z-0.125000
G01 X108.496273 Y133.051074 Z-0.125000
G01 X107.640693 Y133.317724 Z-0.125000
G01 X106.667023 Y133.768174 Z-0.125000
G01 X105.722623 Y134.348404 Z-0.125000
G01 X104.711963 Y135.115934 Z-0.125000
G01 X102.505713 Y137.217254 Z-0.125000
G01 X100.121763 Y139.998074 Z-0.125000
G01 X97.421029 Y143.624754 Z-0.125000
G01 X94.716564 Y147.687214 Z-0.125000
G01 X92.545816 Y151.328724 Z-0.125000
G01 X90.885609 Y154.539394 Z-0.125000
G01 X89.724485 Y157.347204 Z-0.125000
G01 X89.074165 Y159.701784 Z-0.125000
G01 X88.920972 Y160.763634 Z-0.125000
G01 X88.878082 Y161.905574 Z-0.125000
G01 X88.953862 Y162.870114 Z-0.125000
G01 X89.139362 Y163.767664 Z-0.125000
G01 X89.450036 Y164.626294 Z-0.125000
G01 X89.888635 Y165.413134 Z-0.125000
G01 X90.369886 Y166.021494 Z-0.125000
G01 X91.026132 Y166.619794 Z-0.125000
G01 X91.994507 Y167.214704 Z-0.125000
G01 X93.110043 Y167.632774 Z-0.125000
G01 X94.350965 Y167.869894 Z-0.125000
G01 X95.792151 Y167.922894 Z-0.125000
G01 X97.214789 Y167.788884 Z-0.125000
G01 X98.792870 Y167.457994 Z-0.125000
G01 X100.358145 Y166.962114 Z-0.125000
G01 X101.952203 Y166.299414 Z-0.125000
G01 X103.618763 Y165.445314 Z-0.125000
G01 X105.243573 Y164.457334 Z-0.125000
G01 X106.729073 Y163.394494 Z-0.125000
G01 X108.073103 Y162.273724 Z-0.125000
G01 X109.353443 Y161.041614 Z-0.125000
G01 X110.616113 Y159.638684 Z-0.125000
G01 X111.793693 Y158.123734 Z-0.125000
G01 X112.867933 Y156.520784 Z-0.125000
G01 X113.878643 Y154.757384 Z-0.125000
G01 X114.759863 Y152.937744 Z-0.125000
G01 X115.511723 Y151.073304 Z-0.125000
G01 X116.129743 Y149.187454 Z-0.125000
G01 X116.631183 Y147.212824 Z-0.125000
G01 X116.979083 Y145.282284 Z-0.125000
G01 X117.179793 Y143.368794 Z-0.125000
G01 X117.224593 Y141.574234 Z-0.125000
G01 X117.118813 Y139.950884 Z-0.125000
G01 X116.861533 Y138.422254 Z-0.125000
G01 X116.454733 Y137.004904 Z-0.125000
G01 X115.884183 Y135.680474 Z-0.125000
G01 X115.165363 Y134.509644 Z-0.125000
G01 X114.383463 Y133.588184 Z-0.125000
G01 X113.406363 Y132.768314 Z-0.125000
G01 X112.407533 Y132.205914 Z-0.125000
G01 X111.524883 Y131.894344 Z-0.125000
G01 X110.590033 Y131.728474 Z-0.125000
G01 X109.609143 Y131.719474 Z-0.125000
G01 X108.587853 Y131.879794 Z-0.125000
G01 X107.590503 Y132.196334 Z-0.125000
G01 X106.599143 Y132.662634 Z-0.125000
G01 X105.537393 Y133.323994 Z-0.125000
G01 X104.493713 Y134.125674 Z-0.125000
G01 X102.183823 Y136.323494 Z-0.125000
G01 X99.543814 Y139.383714 Z-0.125000
G01 X96.565082 Y143.339154 Z-0.125000
G01 X93.517849 Y147.828924 Z-0.125000
G01 X91.141653 Y151.702534 Z-0.125000
G01 X89.293882 Y155.144124 Z-0.125000
G01 X88.017029 Y158.090634 Z-0.125000
G01 X87.294293 Y160.532024 Z-0.125000
G01 X87.105751 Y161.696424 Z-0.125000
G01 X87.041961 Y162.870354 Z-0.125000
G01 X87.109241 Y163.959644 Z-0.125000
G01 X87.299185 Y164.944474 Z-0.125000
G01 X87.612081 Y165.852394 Z-0.125000
G01 X88.046448 Y166.676064 Z-0.125000
G01 X88.599136 Y167.409174 Z-0.125000
G01 X89.265013 Y168.045474 Z-0.125000
G01 X90.317208 Y168.734604 Z-0.125000
G01 X91.538101 Y169.232954 Z-0.125000
G01 X92.971164 Y169.543994 Z-0.125000
G01 X94.457090 Y169.638094 Z-0.125000
G01 X96.085786 Y169.530674 Z-0.125000
G01 X97.714799 Y169.237914 Z-0.125000
G01 X99.475363 Y168.737984 Z-0.125000
G01 X101.237803 Y168.063004 Z-0.125000
G01 X103.078753 Y167.182814 Z-0.125000
G01 X104.936993 Y166.119504 Z-0.125000
G01 X106.562173 Y165.023234 Z-0.125000
G01 X108.124013 Y163.783634 Z-0.125000
G01 X109.608373 Y162.406504 Z-0.125000
G01 X110.930843 Y160.983364 Z-0.125000
G01 X112.226503 Y159.368584 Z-0.125000
G01 X113.408773 Y157.654344 Z-0.125000
G01 X114.521393 Y155.763664 Z-0.125000
G01 X115.492023 Y153.808604 Z-0.125000
G01 X116.316463 Y151.814864 Z-0.125000
G01 X117.022893 Y149.708084 Z-0.125000
G01 X117.588443 Y147.517844 Z-0.125000
G01 X117.974283 Y145.400854 Z-0.125000
G01 X118.195903 Y143.294954 Z-0.125000
G01 X118.242503 Y141.335854 Z-0.125000
G01 X118.116163 Y139.519594 Z-0.125000
G01 X117.823633 Y137.861474 Z-0.125000
G01 X117.371043 Y136.338504 Z-0.125000
G01 X116.759933 Y134.950134 Z-0.125000
G01 X115.935993 Y133.631584 Z-0.125000
G01 X115.018203 Y132.578754 Z-0.125000
G01 X113.936383 Y131.697394 Z-0.125000
G01 X112.834253 Y131.090604 Z-0.125000
G01 X111.751713 Y130.724894 Z-0.125000
G01 X110.720213 Y130.562364 Z-0.125000
G01 X109.662113 Y130.570364 Z-0.125000
G01 X108.627703 Y130.741154 Z-0.125000
G01 X107.562333 Y131.081854 Z-0.125000
G01 X106.484333 Y131.593374 Z-0.125000
G01 X105.404013 Y132.270284 Z-0.125000
G01 X104.313773 Y133.105624 Z-0.125000
G01 X103.065413 Y134.216984 Z-0.125000
G01 X101.759173 Y135.531034 Z-0.125000
G01 X98.922758 Y138.804564 Z-0.125000
G01 X95.602343 Y143.169134 Z-0.125000
G01 X92.205569 Y148.086594 Z-0.125000
G01 X89.563758 Y152.288714 Z-0.125000
G01 X87.579330 Y155.878844 Z-0.125000
G01 X86.233050 Y158.876734 Z-0.125000
G01 X85.747672 Y160.278944 Z-0.125000
G01 X85.429458 Y161.486844 Z-0.125000
G01 X85.231073 Y162.660224 Z-0.125000
G01 X85.155903 Y163.964884 Z-0.125000
G01 X85.232503 Y165.155054 Z-0.125000
G01 X85.431787 Y166.167934 Z-0.125000
G01 X85.774502 Y167.152654 Z-0.125000
G01 X86.252551 Y168.048934 Z-0.125000
G01 X86.788438 Y168.765214 Z-0.125000
G01 X87.511359 Y169.474324 Z-0.125000
G01 X88.586123 Y170.209474 Z-0.125000
G01 X89.914411 Y170.792904 Z-0.125000
G01 X91.406581 Y171.164194 Z-0.125000
G01 X93.060942 Y171.321244 Z-0.125000
G01 X94.785152 Y171.261444 Z-0.125000
G01 X96.698989 Y170.972564 Z-0.125000
G01 X98.621504 Y170.476234 Z-0.125000
G01 X100.544231 Y169.792394 Z-0.125000
G01 X102.538473 Y168.898284 Z-0.125000
G01 X104.668763 Y167.746214 Z-0.125000
G01 X106.452563 Y166.603134 Z-0.125000
G01 X108.149413 Y165.317154 Z-0.125000
G01 X109.763533 Y163.880914 Z-0.125000
G01 X111.280303 Y162.303254 Z-0.125000
G01 X112.686173 Y160.597804 Z-0.125000
G01 X113.969473 Y158.782314 Z-0.125000
G01 X115.172463 Y156.785314 Z-0.125000
G01 X116.267673 Y154.622194 Z-0.125000
G01 X117.192393 Y152.413214 Z-0.125000
G01 X117.945183 Y150.189624 Z-0.125000
G01 X118.569683 Y147.791654 Z-0.125000
G01 X118.988253 Y145.500814 Z-0.125000
G01 X119.227643 Y143.199834 Z-0.125000
G01 X119.271243 Y141.078304 Z-0.125000
G01 X119.133823 Y139.194864 Z-0.125000
G01 X118.803433 Y137.368264 Z-0.125000
G01 X118.283243 Y135.675804 Z-0.125000
G01 X117.623903 Y134.222284 Z-0.125000
G01 X116.721403 Y132.807134 Z-0.125000
G01 X115.717943 Y131.671364 Z-0.125000
G01 X114.571663 Y130.736854 Z-0.125000
G01 X113.297593 Y130.028824 Z-0.125000
G01 X112.218143 Y129.650364 Z-0.125000
G01 X111.079163 Y129.445314 Z-0.125000
G01 X109.999213 Y129.423414 Z-0.125000
G01 X108.882863 Y129.571954 Z-0.125000
G01 X107.751213 Y129.897634 Z-0.125000
G01 X106.642313 Y130.386444 Z-0.125000
G01 X105.443143 Y131.101964 Z-0.125000
G01 X104.240823 Y131.998104 Z-0.125000
G01 X102.949763 Y133.122184 Z-0.125000
G01 X101.581053 Y134.469494 Z-0.125000
G01 X98.515509 Y137.942414 Z-0.125000
G01 X94.898813 Y142.609584 Z-0.125000
G01 X91.014836 Y148.103104 Z-0.125000
G01 X88.080845 Y152.629754 Z-0.125000
G01 X85.917506 Y156.396394 Z-0.125000
G01 X84.424488 Y159.575094 Z-0.125000
G01 X83.906619 Y160.994904 Z-0.125000
G01 X83.536758 Y162.318164 Z-0.125000
G01 X83.303634 Y163.645314 Z-0.125000
G01 X83.225024 Y164.932724 Z-0.125000
G01 X83.294294 Y166.169514 Z-0.125000
G01 X83.499373 Y167.264444 Z-0.125000
G01 X83.841214 Y168.284204 Z-0.125000
G01 X84.319052 Y169.221244 Z-0.125000
G01 X84.930213 Y170.068154 Z-0.125000
G01 X85.669882 Y170.817774 Z-0.125000
G01 X86.908370 Y171.691984 Z-0.125000
G01 X88.332993 Y172.338804 Z-0.125000
G01 X89.964810 Y172.771744 Z-0.125000
G01 X91.718204 Y172.971374 Z-0.125000
G01 X93.604313 Y172.945474 Z-0.125000
G01 X95.637503 Y172.684774 Z-0.125000
G01 X97.727500 Y172.197094 Z-0.125000
G01 X99.815645 Y171.508674 Z-0.125000
G01 X102.064863 Y170.559004 Z-0.125000
G01 X104.339013 Y169.393014 Z-0.125000
G01 X106.255943 Y168.233634 Z-0.125000
G01 X108.100673 Y166.907014 Z-0.125000
G01 X109.894573 Y165.380794 Z-0.125000
G01 X111.538273 Y163.735614 Z-0.125000
G01 X113.063703 Y161.948774 Z-0.125000
G01 X114.457873 Y160.039434 Z-0.125000
G01 X115.761813 Y157.941474 Z-0.125000
G01 X116.948023 Y155.672224 Z-0.125000
G01 X117.990663 Y153.257294 Z-0.125000
G01 X118.837383 Y150.823554 Z-0.125000
G01 X119.521753 Y148.268074 Z-0.125000
G01 X119.993083 Y145.770484 Z-0.125000
G01 X120.260153 Y143.316554 Z-0.125000
G01 X120.316153 Y140.990944 Z-0.125000
G01 X120.172243 Y138.968634 Z-0.125000
G01 X119.831703 Y137.061964 Z-0.125000
G01 X119.286043 Y135.262614 Z-0.125000
G01 X118.536323 Y133.606454 Z-0.125000
G01 X117.592983 Y132.127114 Z-0.125000
G01 X116.502633 Y130.881114 Z-0.125000
G01 X115.173783 Y129.790504 Z-0.125000
G01 X113.791343 Y129.015884 Z-0.125000
G01 X112.621673 Y128.593234 Z-0.125000
G01 X111.389403 Y128.353394 Z-0.125000
G01 X110.189113 Y128.311694 Z-0.125000
G01 X108.949703 Y128.463594 Z-0.125000
G01 X107.783823 Y128.787124 Z-0.125000
G01 X106.551043 Y129.320764 Z-0.125000
G01 X105.312663 Y130.054214 Z-0.125000
G01 X104.060653 Y130.977924 Z-0.125000
G01 X102.713713 Y132.135614 Z-0.125000
G01 X101.211413 Y133.597884 Z-0.125000
G01 X97.938833 Y137.268074 Z-0.125000
G01 X94.095548 Y142.158634 Z-0.125000
G01 X89.777733 Y148.139064 Z-0.125000
G01 X86.546219 Y152.982184 Z-0.125000
G01 X84.199655 Y156.923814 Z-0.125000
G01 X82.560641 Y160.277784 Z-0.125000
G01 X82.011895 Y161.719994 Z-0.125000
G01 X81.617984 Y163.056884 Z-0.125000
G01 X81.364433 Y164.382554 Z-0.125000
G01 X81.259764 Y165.722294 Z-0.125000
G01 X81.309714 Y167.035894 Z-0.125000
G01 X81.522544 Y168.275204 Z-0.125000
G01 X81.900343 Y169.430614 Z-0.125000
G01 X82.391277 Y170.407434 Z-0.125000
G01 X83.045512 Y171.330774 Z-0.125000
G01 X83.852783 Y172.162594 Z-0.125000
G01 X85.103733 Y173.073794 Z-0.125000
G01 X86.668928 Y173.822914 Z-0.125000
G01 X88.464391 Y174.334694 Z-0.125000
G01 X90.400003 Y174.588564 Z-0.125000
G01 X92.478464 Y174.593564 Z-0.125000
G01 X94.609365 Y174.358644 Z-0.125000
G01 X96.891581 Y173.872264 Z-0.125000
G01 X99.148477 Y173.175804 Z-0.125000
G01 X101.556453 Y172.215464 Z-0.125000
G01 X104.070013 Y170.991694 Z-0.125000
G01 X106.216053 Y169.752644 Z-0.125000
G01 X108.194263 Y168.382954 Z-0.125000
G01 X110.079553 Y166.833524 Z-0.125000
G01 X111.854513 Y165.112274 Z-0.125000
G01 X113.485273 Y163.255274 Z-0.125000
G01 X115.045203 Y161.167314 Z-0.125000
G01 X116.491153 Y158.875124 Z-0.125000
G01 X117.747043 Y156.500144 Z-0.125000
G01 X118.866183 Y153.939004 Z-0.125000
G01 X119.774973 Y151.358574 Z-0.125000
G01 X120.501283 Y148.689594 Z-0.125000
G01 X121.028383 Y145.938244 Z-0.125000
G01 X121.310873 Y143.374274 Z-0.125000
G01 X121.371473 Y140.820774 Z-0.125000
G01 X121.199283 Y138.584704 Z-0.125000
G01 X120.819733 Y136.573874 Z-0.125000
G01 X120.230563 Y134.702184 Z-0.125000
G01 X119.408053 Y132.937174 Z-0.125000
G01 X118.382633 Y131.368034 Z-0.125000
G01 X117.160993 Y130.003474 Z-0.125000
G01 X115.759893 Y128.870054 Z-0.125000
G01 X114.200623 Y128.000734 Z-0.125000
G01 X112.916683 Y127.538564 Z-0.125000
G01 X111.566273 Y127.274744 Z-0.125000
G01 X110.270663 Y127.227344 Z-0.125000
G01 X108.978333 Y127.380034 Z-0.125000
G01 X107.683543 Y127.735894 Z-0.125000
G01 X106.418593 Y128.283344 Z-0.125000
G01 X105.221403 Y128.984334 Z-0.125000
G01 X103.865893 Y129.967764 Z-0.125000
G01 X102.431663 Y131.184374 Z-0.125000
G01 X100.868351 Y132.686674 Z-0.125000
G01 X97.472477 Y136.440744 Z-0.125000
G01 X93.316587 Y141.647764 Z-0.125000
G01 X88.478972 Y148.216264 Z-0.125000
G01 X84.908367 Y153.426494 Z-0.125000
G01 X82.379850 Y157.545734 Z-0.125000
G01 X80.670959 Y160.925204 Z-0.125000
G01 X80.079721 Y162.419434 Z-0.125000
G01 X79.656282 Y163.800454 Z-0.125000
G01 X79.382174 Y165.168564 Z-0.125000
G01 X79.264620 Y166.574584 Z-0.125000
G01 X79.306000 Y167.921024 Z-0.125000
G01 X79.527457 Y169.270534 Z-0.125000
G01 X79.925787 Y170.509654 Z-0.125000
G01 X80.448709 Y171.561874 Z-0.125000
G01 X81.120566 Y172.525274 Z-0.125000
G01 X81.937202 Y173.391784 Z-0.125000
G01 X83.336795 Y174.443664 Z-0.125000
G01 X84.926756 Y175.238894 Z-0.125000
G01 X86.808975 Y175.825794 Z-0.125000
G01 X88.894791 Y176.154724 Z-0.125000
G01 X91.094220 Y176.217724 Z-0.125000
G01 X93.397788 Y176.025054 Z-0.125000
G01 X95.818249 Y175.574784 Z-0.125000
G01 X98.346555 Y174.861254 Z-0.125000
G01 X101.013873 Y173.863004 Z-0.125000
G01 X103.767573 Y172.591844 Z-0.125000
G01 X106.054633 Y171.339944 Z-0.125000
G01 X108.254833 Y169.882694 Z-0.125000
G01 X110.271433 Y168.282414 Z-0.125000
G01 X112.171883 Y166.494384 Z-0.125000
G01 X113.937793 Y164.534254 Z-0.125000
G01 X115.614293 Y162.337974 Z-0.125000
G01 X117.168083 Y159.921134 Z-0.125000
G01 X118.521673 Y157.405104 Z-0.125000
G01 X119.748013 Y154.638864 Z-0.125000
G01 X120.739353 Y151.853224 Z-0.125000
G01 X121.517893 Y149.013794 Z-0.125000
G01 X122.068223 Y146.174524 Z-0.125000
G01 X122.381253 Y143.351764 Z-0.125000
G01 X122.439053 Y140.665444 Z-0.125000
G01 X122.254063 Y138.350024 Z-0.125000
G01 X121.816153 Y136.110674 Z-0.125000
G01 X121.131773 Y134.044804 Z-0.125000
G01 X120.255163 Y132.247964 Z-0.125000
G01 X119.102473 Y130.550874 Z-0.125000
G01 X117.728153 Y129.077094 Z-0.125000
G01 X116.247543 Y127.919274 Z-0.125000
G01 X114.557993 Y126.996544 Z-0.125000
G01 X113.170493 Y126.502694 Z-0.125000
G01 X111.814583 Y126.230094 Z-0.125000
G01 X110.395143 Y126.161694 Z-0.125000
G01 X109.040713 Y126.305334 Z-0.125000
G01 X107.764413 Y126.632304 Z-0.125000
G01 X106.392663 Y127.197934 Z-0.125000
G01 X105.098843 Y127.937894 Z-0.125000
G01 X103.606753 Y129.004164 Z-0.125000
G01 X102.021633 Y130.338744 Z-0.125000
G01 X100.423633 Y131.863354 Z-0.125000
G01 X98.735883 Y133.635934 Z-0.125000
G01 X96.827760 Y135.802074 Z-0.125000
G01 X92.439408 Y141.236804 Z-0.125000
G01 X87.089215 Y148.373854 Z-0.125000
G01 X83.281015 Y153.788824 Z-0.125000
G01 X80.617878 Y157.984824 Z-0.125000
G01 X78.809874 Y161.412314 Z-0.125000
G01 X78.143547 Y163.018814 Z-0.125000
G01 X77.694232 Y164.412234 Z-0.125000
G01 X77.382076 Y165.887424 Z-0.125000
G01 X77.251134 Y167.327204 Z-0.125000
G01 X77.287114 Y168.798284 Z-0.125000
G01 X77.500369 Y170.156074 Z-0.125000
G01 X77.892878 Y171.435524 Z-0.125000
G01 X78.415483 Y172.537564 Z-0.125000
G01 X79.153882 Y173.636274 Z-0.125000
G01 X79.990653 Y174.553554 Z-0.125000
G01 X81.511108 Y175.737034 Z-0.125000
G01 X83.235900 Y176.632334 Z-0.125000
G01 X85.207311 Y177.284344 Z-0.125000
G01 X87.451850 Y177.683104 Z-0.125000
G01 X89.770076 Y177.797374 Z-0.125000
G01 X92.251736 Y177.642804 Z-0.125000
G01 X94.877831 Y177.208994 Z-0.125000
G01 X97.509747 Y176.525074 Z-0.125000
G01 X100.360448 Y175.529684 Z-0.125000
G01 X103.314523 Y174.246504 Z-0.125000
G01 X105.854683 Y172.936844 Z-0.125000
G01 X108.207993 Y171.454524 Z-0.125000
G01 X110.433193 Y169.758034 Z-0.125000
G01 X112.462383 Y167.908544 Z-0.125000
G01 X114.349953 Y165.870384 Z-0.125000
G01 X116.138663 Y163.584354 Z-0.125000
G01 X117.847483 Y160.980144 Z-0.125000
G01 X119.330523 Y158.263374 Z-0.125000
G01 X120.621683 Y155.389334 Z-0.125000
G01 X121.699123 Y152.404224 Z-0.125000
G01 X122.556903 Y149.303184 Z-0.125000
G01 X123.144943 Y146.264174 Z-0.125000
G01 X123.466913 Y143.308224 Z-0.125000
G01 X123.517213 Y140.480304 Z-0.125000
G01 X123.300843 Y138.001534 Z-0.125000
G01 X122.833823 Y135.722144 Z-0.125000
G01 X122.113733 Y133.601774 Z-0.125000
G01 X121.125413 Y131.625384 Z-0.125000
G01 X119.880233 Y129.840694 Z-0.125000
G01 X118.398613 Y128.283494 Z-0.125000
G01 X116.702713 Y126.984704 Z-0.125000
G01 X114.919393 Y126.027864 Z-0.125000
G01 X113.514933 Y125.521984 Z-0.125000
G01 X112.047613 Y125.209584 Z-0.125000
G01 X110.529613 Y125.116084 Z-0.125000
G01 X109.096413 Y125.247134 Z-0.125000
G01 X107.686163 Y125.592784 Z-0.125000
G01 X106.273153 Y126.164604 Z-0.125000
G01 X104.927693 Y126.922764 Z-0.125000
G01 X103.384113 Y128.006764 Z-0.125000
G01 X101.749363 Y129.357774 Z-0.125000
G01 X100.082592 Y130.919714 Z-0.125000
G01 X98.327558 Y132.733064 Z-0.125000
G01 X96.346940 Y134.947574 Z-0.125000
G01 X91.781978 Y140.516974 Z-0.125000
G01 X85.902011 Y148.214424 Z-0.125000
G01 X81.722599 Y153.996334 Z-0.125000
G01 X78.871344 Y158.335364 Z-0.125000
G01 X77.805734 Y160.168954 Z-0.125000
G01 X76.914274 Y161.900334 Z-0.125000
G01 X76.248397 Y163.427354 Z-0.125000
G01 X75.732644 Y164.928784 Z-0.125000
G01 X75.394242 Y166.404894 Z-0.125000
G01 X75.228269 Y167.983844 Z-0.125000
G01 X75.251179 Y169.550794 Z-0.125000
G01 X75.454697 Y170.948454 Z-0.125000
G01 X75.850196 Y172.303784 Z-0.125000
G01 X76.390052 Y173.486494 Z-0.125000
G01 X77.095166 Y174.584354 Z-0.125000
G01 X78.010148 Y175.635814 Z-0.125000
G01 X79.525417 Y176.878214 Z-0.125000
G01 X81.405149 Y177.919324 Z-0.125000
G01 X83.560710 Y178.685664 Z-0.125000
G01 X85.859939 Y179.149214 Z-0.125000
G01 X88.302784 Y179.333154 Z-0.125000
G01 X90.961952 Y179.235454 Z-0.125000
G01 X93.769446 Y178.841514 Z-0.125000
G01 X96.565536 Y178.185244 Z-0.125000
G01 X99.602714 Y177.203954 Z-0.125000
G01 X102.809803 Y175.898664 Z-0.125000
G01 X105.676593 Y174.506214 Z-0.125000
G01 X108.166903 Y173.012404 Z-0.125000
G01 X110.547143 Y171.270544 Z-0.125000
G01 X112.714533 Y169.361474 Z-0.125000
G01 X114.738333 Y167.238664 Z-0.125000
G01 X116.643173 Y164.865454 Z-0.125000
G01 X118.457533 Y162.166414 Z-0.125000
G01 X120.035583 Y159.346094 Z-0.125000
G01 X121.452133 Y156.269224 Z-0.125000
G01 X122.610853 Y153.138514 Z-0.125000
G01 X123.526653 Y149.935864 Z-0.125000
G01 X124.186923 Y146.666884 Z-0.125000
G01 X124.550933 Y143.490034 Z-0.125000
G01 X124.611733 Y140.457914 Z-0.125000
G01 X124.384533 Y137.862244 Z-0.125000
G01 X123.871373 Y135.401064 Z-0.125000
G01 X123.059153 Y133.085274 Z-0.125000
G01 X122.010483 Y131.053984 Z-0.125000
G01 X120.639963 Y129.141734 Z-0.125000
G01 X119.083163 Y127.537884 Z-0.125000
G01 X117.223273 Y126.128894 Z-0.125000
G01 X115.252763 Y125.079774 Z-0.125000
G01 X113.721963 Y124.531004 Z-0.125000
G01 X112.125173 Y124.191594 Z-0.125000
G01 X110.580903 Y124.090544 Z-0.125000
G01 X109.107473 Y124.210274 Z-0.125000
G01 X107.663213 Y124.544124 Z-0.125000
G01 X106.198353 Y125.113774 Z-0.125000
G01 X104.756393 Y125.906914 Z-0.125000
G01 X103.114973 Y127.038244 Z-0.125000
G01 X101.440933 Y128.396964 Z-0.125000
G01 X99.696426 Y130.003824 Z-0.125000
G01 X97.807090 Y131.929624 Z-0.125000
G01 X95.759188 Y134.193344 Z-0.125000
G01 X91.030978 Y139.893874 Z-0.125000
G01 X84.565885 Y148.223804 Z-0.125000
G01 X80.030926 Y154.349644 Z-0.125000
G01 X76.987557 Y158.855154 Z-0.125000
G01 X75.859135 Y160.747144 Z-0.125000
G01 X74.920102 Y162.530594 Z-0.125000
G01 X74.219221 Y164.114574 Z-0.125000
G01 X73.723154 Y165.541704 Z-0.125000
G01 X73.370147 Y167.055894 Z-0.125000
G01 X73.196660 Y168.708554 Z-0.125000
G01 X73.218750 Y170.325134 Z-0.125000
G01 X73.431316 Y171.799054 Z-0.125000
G01 X73.836711 Y173.200624 Z-0.125000
G01 X74.388500 Y174.427794 Z-0.125000
G01 X75.171878 Y175.658794 Z-0.125000
G01 X76.072176 Y176.707364 Z-0.125000
G01 X77.684308 Y178.062504 Z-0.125000
G01 X79.615264 Y179.172164 Z-0.125000
G01 X81.851998 Y180.020074 Z-0.125000
G01 X84.333843 Y180.575704 Z-0.125000
G01 X86.960441 Y180.825414 Z-0.125000
G01 X89.739863 Y180.778614 Z-0.125000
G01 X92.628451 Y180.437914 Z-0.125000
G01 X95.709074 Y179.783894 Z-0.125000
G01 X99.014461 Y178.784794 Z-0.125000
G01 X102.371623 Y177.494344 Z-0.125000
G01 X105.466563 Y176.077154 Z-0.125000
G01 X108.179913 Y174.525454 Z-0.125000
G01 X110.693193 Y172.752534 Z-0.125000
G01 X112.991573 Y170.789354 Z-0.125000
G01 X115.135183 Y168.599134 Z-0.125000
G01 X117.165513 Y166.126704 Z-0.125000
G01 X119.100043 Y163.306484 Z-0.125000
G01 X120.831503 Y160.261954 Z-0.125000
G01 X122.331793 Y157.047764 Z-0.125000
G01 X123.587633 Y153.701614 Z-0.125000
G01 X124.580273 Y150.267294 Z-0.125000
G01 X125.271283 Y146.878744 Z-0.125000
G01 X125.659773 Y143.489754 Z-0.125000
G01 X125.713973 Y140.355734 Z-0.125000
G01 X125.448483 Y137.547394 Z-0.125000
G01 X124.890433 Y135.012524 Z-0.125000
G01 X124.051433 Y132.694514 Z-0.125000
G01 X122.875913 Y130.478494 Z-0.125000
G01 X121.402903 Y128.481154 Z-0.125000
G01 X119.651913 Y126.726994 Z-0.125000
G01 X117.650983 Y125.250094 Z-0.125000
G01 X115.537353 Y124.142754 Z-0.125000
G01 X113.899453 Y123.558924 Z-0.125000
G01 X112.194763 Y123.194204 Z-0.125000
G01 X110.549963 Y123.081994 Z-0.125000
G01 X108.984153 Y123.205844 Z-0.125000
G01 X107.452593 Y123.560464 Z-0.125000
G01 X105.996483 Y124.125984 Z-0.125000
G01 X104.504813 Y124.939334 Z-0.125000
G01 X102.807353 Y126.089614 Z-0.125000
G01 X101.085263 Y127.462964 Z-0.125000
G01 X99.257729 Y129.119624 Z-0.125000
G01 X97.328519 Y131.058224 Z-0.125000
G01 X95.267865 Y133.304224 Z-0.125000
G01 X90.506926 Y138.966094 Z-0.125000
G01 X83.513777 Y147.835854 Z-0.125000
G01 X78.421977 Y154.547804 Z-0.125000
G01 X75.239489 Y159.114244 Z-0.125000
G01 X74.070613 Y161.000694 Z-0.125000
G01 X73.081574 Y162.797564 Z-0.125000
G01 X72.302244 Y164.474594 Z-0.125000
G01 X71.769558 Y165.928084 Z-0.125000
G01 X71.371148 Y167.545504 Z-0.125000
G01 X71.176177 Y169.266964 Z-0.125000
G01 X71.184077 Y170.944264 Z-0.125000
G01 X71.384842 Y172.458474 Z-0.125000
G01 X71.762958 Y173.859264 Z-0.125000
G01 X72.367161 Y175.268004 Z-0.125000
G01 X73.104634 Y176.476124 Z-0.125000
G01 X74.080761 Y177.664654 Z-0.125000
G01 X74.918988 Y178.465814 Z-0.125000
G01 X75.812195 Y179.170084 Z-0.125000
G01 X77.862715 Y180.389684 Z-0.125000
G01 X80.185043 Y181.315324 Z-0.125000
G01 X82.771900 Y181.948394 Z-0.125000
G01 X85.559392 Y182.271294 Z-0.125000
G01 X88.483858 Y182.281894 Z-0.125000
G01 X91.559321 Y181.981754 Z-0.125000
G01 X94.822348 Y181.355384 Z-0.125000
G01 X98.299132 Y180.378854 Z-0.125000
G01 X102.010733 Y179.034294 Z-0.125000
G01 X105.370333 Y177.575564 Z-0.125000
G01 X108.232273 Y176.006324 Z-0.125000
G01 X110.888143 Y174.193004 Z-0.125000
G01 X113.315163 Y172.173044 Z-0.125000
G01 X115.581353 Y169.906274 Z-0.125000
G01 X117.724713 Y167.342884 Z-0.125000
G01 X119.760473 Y164.423894 Z-0.125000
G01 X121.629403 Y161.184814 Z-0.125000
G01 X123.239953 Y157.775184 Z-0.125000
G01 X124.604563 Y154.170874 Z-0.125000
G01 X125.670363 Y150.496104 Z-0.125000
G01 X126.393203 Y146.932324 Z-0.125000
G01 X126.785293 Y143.411964 Z-0.125000
G01 X126.820693 Y140.148934 Z-0.125000
G01 X126.526453 Y137.298924 Z-0.125000
G01 X125.906583 Y134.623584 Z-0.125000
G01 X124.978583 Y132.179074 Z-0.125000
G01 X123.682283 Y129.844024 Z-0.125000
G01 X122.129233 Y127.814744 Z-0.125000
G01 X120.216933 Y125.952764 Z-0.125000
G01 X119.156693 Y125.127324 Z-0.125000
G01 X118.033533 Y124.380194 Z-0.125000
G01 X115.718193 Y123.193194 Z-0.125000
G01 X113.945383 Y122.575604 Z-0.125000
G01 X112.208253 Y122.208914 Z-0.125000
G01 X110.531563 Y122.087784 Z-0.125000
G01 X108.825373 Y122.215744 Z-0.125000
G01 X107.255203 Y122.577084 Z-0.125000
G01 X105.668683 Y123.198274 Z-0.125000
G01 X103.951803 Y124.150954 Z-0.125000
G01 X102.217293 Y125.336974 Z-0.125000
G01 X100.452155 Y126.747024 Z-0.125000
G01 X98.577662 Y128.442734 Z-0.125000
G01 X96.597176 Y130.425314 Z-0.125000
G01 X94.441298 Y132.765634 Z-0.125000
G01 X89.573362 Y138.522544 Z-0.125000
G01 X81.753390 Y148.335244 Z-0.125000
G01 X76.493976 Y155.143534 Z-0.125000
G01 X73.275214 Y159.671694 Z-0.125000
G01 X72.054135 Y161.609284 Z-0.125000
G01 X71.082427 Y163.351224 Z-0.125000
G01 X70.319474 Y164.969254 Z-0.125000
G01 X69.769220 Y166.451374 Z-0.125000
G01 X69.383061 Y167.998524 Z-0.125000
G01 X69.170071 Y169.758584 Z-0.125000
G01 X69.163771 Y171.515154 Z-0.125000
G01 X69.360462 Y173.106414 Z-0.125000
G01 X69.761782 Y174.632874 Z-0.125000
G01 X70.373181 Y176.083714 Z-0.125000
G01 X71.135657 Y177.358794 Z-0.125000
G01 X72.144487 Y178.614454 Z-0.125000
G01 X72.946016 Y179.405904 Z-0.125000
G01 X73.917169 Y180.201374 Z-0.125000
G01 X74.910864 Y180.877914 Z-0.125000
G01 X76.081117 Y181.538124 Z-0.125000
G01 X77.341909 Y182.118224 Z-0.125000
G01 X78.586588 Y182.581674 Z-0.125000
G01 X81.279729 Y183.285174 Z-0.125000
G01 X84.155697 Y183.671144 Z-0.125000
G01 X87.299450 Y183.739944 Z-0.125000
G01 X90.563323 Y183.477004 Z-0.125000
G01 X94.008727 Y182.874754 Z-0.125000
G01 X97.654527 Y181.918474 Z-0.125000
G01 X101.564673 Y180.583864 Z-0.125000
G01 X105.238833 Y179.078594 Z-0.125000
G01 X108.229713 Y177.512364 Z-0.125000
G01 X111.017993 Y175.677614 Z-0.125000
G01 X113.608033 Y173.583014 Z-0.125000
G01 X116.069743 Y171.168744 Z-0.125000
G01 X118.323563 Y168.510104 Z-0.125000
G01 X120.512673 Y165.401964 Z-0.125000
G01 X122.458873 Y162.055434 Z-0.125000
G01 X124.179853 Y158.441174 Z-0.125000
G01 X125.643633 Y154.597864 Z-0.125000
G01 X126.757373 Y150.778544 Z-0.125000
G01 X127.533763 Y146.937804 Z-0.125000
G01 X127.921983 Y143.314174 Z-0.125000
G01 X127.933383 Y139.935844 Z-0.125000
G01 X127.581353 Y136.907164 Z-0.125000
G01 X126.890233 Y134.149854 Z-0.125000
G01 X125.874183 Y131.629724 Z-0.125000
G01 X125.215073 Y130.396874 Z-0.125000
G01 X124.468343 Y129.219614 Z-0.125000
G01 X123.636013 Y128.100004 Z-0.125000
G01 X122.720923 Y127.040634 Z-0.125000
G01 X121.726573 Y126.044774 Z-0.125000
G01 X120.657023 Y125.116484 Z-0.125000
G01 X119.516953 Y124.260844 Z-0.125000
G01 X118.303423 Y123.479584 Z-0.125000
G01 X117.066513 Y122.805584 Z-0.125000
G01 X115.779553 Y122.225354 Z-0.125000
G01 X113.867993 Y121.583184 Z-0.125000
G01 X111.989113 Y121.210064 Z-0.125000
G01 X110.168563 Y121.107754 Z-0.125000
G01 X108.424323 Y121.271974 Z-0.125000
G01 X106.827353 Y121.669194 Z-0.125000
G01 X105.199103 Y122.339064 Z-0.125000
G01 X103.316063 Y123.404864 Z-0.125000
G01 X101.433423 Y124.711984 Z-0.125000
G01 X99.574886 Y126.216744 Z-0.125000
G01 X97.567784 Y128.053994 Z-0.125000
G01 X95.474638 Y130.171904 Z-0.125000
G01 X93.273437 Y132.579714 Z-0.125000
G01 X88.358273 Y138.396654 Z-0.125000
G01 X79.079362 Y149.943524 Z-0.125000
G01 X74.119774 Y156.289824 Z-0.125000
G01 X71.060503 Y160.572024 Z-0.125000
G01 X69.929250 Y162.369734 Z-0.125000
G01 X68.996065 Y164.051874 Z-0.125000
G01 X68.266423 Y165.620324 Z-0.125000
G01 X67.731171 Y167.105404 Z-0.125000
G01 X67.364300 Y168.670284 Z-0.125000
G01 X67.164513 Y170.543984 Z-0.125000
G01 X67.182503 Y172.322004 Z-0.125000
G01 X67.402954 Y173.943294 Z-0.125000
G01 X67.830123 Y175.503224 Z-0.125000
G01 X68.423928 Y176.900274 Z-0.125000
G01 X69.207650 Y178.224204 Z-0.125000
G01 X70.181052 Y179.464274 Z-0.125000
G01 X71.038249 Y180.336874 Z-0.125000
G01 X72.060573 Y181.198404 Z-0.125000
G01 X73.103110 Y181.929694 Z-0.125000
G01 X74.277596 Y182.617474 Z-0.125000
G01 X75.504363 Y183.213294 Z-0.125000
G01 X76.863924 Y183.753784 Z-0.125000
G01 X79.759471 Y184.568724 Z-0.125000
G01 X82.919073 Y185.040924 Z-0.125000
G01 X86.188423 Y185.156844 Z-0.125000
G01 X89.641791 Y184.927734 Z-0.125000
G01 X93.168925 Y184.366764 Z-0.125000
G01 X97.044833 Y183.417524 Z-0.125000
G01 X101.379343 Y182.014704 Z-0.125000
G01 X105.159413 Y180.544654 Z-0.125000
G01 X108.368893 Y178.927494 Z-0.125000
G01 X111.282803 Y177.058734 Z-0.125000
G01 X114.051983 Y174.857144 Z-0.125000
G01 X116.598653 Y172.388764 Z-0.125000
G01 X118.960513 Y169.630274 Z-0.125000
G01 X121.243993 Y166.416244 Z-0.125000
G01 X123.335873 Y162.842044 Z-0.125000
G01 X125.170173 Y159.000154 Z-0.125000
G01 X126.690793 Y155.021544 Z-0.125000
G01 X127.870723 Y150.992224 Z-0.125000
G01 X128.668263 Y147.049354 Z-0.125000
G01 X129.061743 Y143.323704 Z-0.125000
G01 X129.109543 Y141.508074 Z-0.125000
G01 X129.051543 Y139.742324 Z-0.125000
G01 X128.895353 Y138.121384 Z-0.125000
G01 X128.654723 Y136.629504 Z-0.125000
G01 X128.323193 Y135.184324 Z-0.125000
G01 X127.900263 Y133.787114 Z-0.125000
G01 X127.385883 Y132.439194 Z-0.125000
G01 X126.780573 Y131.141914 Z-0.125000
G01 X126.085323 Y129.896684 Z-0.125000
G01 X125.242543 Y128.622054 Z-0.125000
G01 X124.366903 Y127.489764 Z-0.125000
G01 X123.336643 Y126.340624 Z-0.125000
G01 X122.215523 Y125.261204 Z-0.125000
G01 X121.008573 Y124.256084 Z-0.125000
G01 X119.721933 Y123.331654 Z-0.125000
G01 X118.455423 Y122.549284 Z-0.125000
G01 X117.131793 Y121.853374 Z-0.125000
G01 X115.757943 Y121.254934 Z-0.125000
G01 X113.723193 Y120.596444 Z-0.125000
G01 X111.729853 Y120.223644 Z-0.125000
G01 X109.804183 Y120.140944 Z-0.125000
G01 X107.901013 Y120.359304 Z-0.125000
G01 X106.201403 Y120.835134 Z-0.125000
G01 X104.417713 Y121.636184 Z-0.125000
G01 X102.427233 Y122.808154 Z-0.125000
G01 X100.420949 Y124.242334 Z-0.125000
G01 X98.477161 Y125.853594 Z-0.125000
G01 X96.457570 Y127.734644 Z-0.125000
G01 X94.325928 Y129.916504 Z-0.125000
G01 X92.010321 Y132.471454 Z-0.125000
G01 X87.184056 Y138.193754 Z-0.125000
G01 X75.705135 Y152.359364 Z-0.125000
G01 X71.448042 Y157.785444 Z-0.125000
G01 X68.678516 Y161.704364 Z-0.125000
G01 X67.594730 Y163.475994 Z-0.125000
G01 X66.776083 Y165.019704 Z-0.125000
G01 X66.123700 Y166.514574 Z-0.125000
G01 X65.679702 Y167.862254 Z-0.125000
G01 X65.350587 Y169.469074 Z-0.125000
G01 X65.185090 Y171.415394 Z-0.125000
G01 X65.235410 Y173.141644 Z-0.125000
G01 X65.470863 Y174.722504 Z-0.125000
G01 X65.897636 Y176.250314 Z-0.125000
G01 X66.522105 Y177.715524 Z-0.125000
G01 X67.333556 Y179.087094 Z-0.125000
G01 X68.271901 Y180.299494 Z-0.125000
G01 X69.144788 Y181.211544 Z-0.125000
G01 X70.185235 Y182.115754 Z-0.125000
G01 X71.279102 Y182.909664 Z-0.125000
G01 X72.547514 Y183.677694 Z-0.125000
G01 X73.843549 Y184.328834 Z-0.125000
G01 X75.313125 Y184.934364 Z-0.125000
G01 X76.780901 Y185.421014 Z-0.125000
G01 X78.315061 Y185.821144 Z-0.125000
G01 X81.553322 Y186.356554 Z-0.125000
G01 X85.053707 Y186.535644 Z-0.125000
G01 X88.696517 Y186.346364 Z-0.125000
G01 X92.405710 Y185.810104 Z-0.125000
G01 X96.605442 Y184.841654 Z-0.125000
G01 X101.266793 Y183.404174 Z-0.125000
G01 X105.302563 Y181.903904 Z-0.125000
G01 X108.551723 Y180.313014 Z-0.125000
G01 X111.594243 Y178.403994 Z-0.125000
G01 X114.485373 Y176.140064 Z-0.125000
G01 X117.187003 Y173.545764 Z-0.125000
G01 X119.659673 Y170.671734 Z-0.125000
G01 X122.104103 Y167.232304 Z-0.125000
G01 X124.308553 Y163.450914 Z-0.125000
G01 X126.222873 Y159.421094 Z-0.125000
G01 X127.828943 Y155.191674 Z-0.125000
G01 X129.060633 Y150.928574 Z-0.125000
G01 X129.857083 Y146.863444 Z-0.125000
G01 X130.094463 Y144.908544 Z-0.125000
G01 X130.223713 Y143.026954 Z-0.125000
G01 X130.246713 Y141.159264 Z-0.125000
G01 X130.156513 Y139.349244 Z-0.125000
G01 X129.965533 Y137.697714 Z-0.125000
G01 X129.670313 Y136.097754 Z-0.125000
G01 X129.274973 Y134.567884 Z-0.125000
G01 X128.795253 Y133.140904 Z-0.125000
G01 X128.219473 Y131.764354 Z-0.125000
G01 X127.548323 Y130.439404 Z-0.125000
G01 X126.783233 Y129.167204 Z-0.125000
G01 X125.861453 Y127.864164 Z-0.125000
G01 X124.837193 Y126.624954 Z-0.125000
G01 X123.714643 Y125.452064 Z-0.125000
G01 X122.449543 Y124.307444 Z-0.125000
G01 X121.172533 Y123.303884 Z-0.125000
G01 X119.818393 Y122.378684 Z-0.125000
G01 X118.394063 Y121.540544 Z-0.125000
G01 X116.907443 Y120.801264 Z-0.125000
G01 X115.465093 Y120.211534 Z-0.125000
G01 X113.280513 Y119.558834 Z-0.125000
G01 X111.242163 Y119.228134 Z-0.125000
G01 X109.276043 Y119.192134 Z-0.125000
G01 X107.293023 Y119.474604 Z-0.125000
G01 X105.516683 Y120.034654 Z-0.125000
G01 X103.526363 Y120.989454 Z-0.125000
G01 X101.431443 Y122.268874 Z-0.125000
G01 X99.239527 Y123.886344 Z-0.125000
G01 X97.301269 Y125.535784 Z-0.125000
G01 X95.250854 Y127.481904 Z-0.125000
G01 X93.083097 Y129.732424 Z-0.125000
G01 X90.731453 Y132.352834 Z-0.125000
G01 X86.311748 Y137.599784 Z-0.125000
G01 X72.327513 Y154.712584 Z-0.125000
G01 X68.620330 Y159.466144 Z-0.125000
G01 X66.210982 Y162.976264 Z-0.125000
G01 X65.280151 Y164.575424 Z-0.125000
G01 X64.542493 Y166.068874 Z-0.125000
G01 X64.011448 Y167.412374 Z-0.125000
G01 X63.643809 Y168.696124 Z-0.125000
G01 X63.360387 Y170.398404 Z-0.125000
G01 X63.247304 Y172.153334 Z-0.125000
G01 X63.314164 Y173.813674 Z-0.125000
G01 X63.566179 Y175.432204 Z-0.125000
G01 X64.012796 Y177.000474 Z-0.125000
G01 X64.614776 Y178.416684 Z-0.125000
G01 X65.397943 Y179.771984 Z-0.125000
G01 X66.363407 Y181.056984 Z-0.125000
G01 X67.346361 Y182.106134 Z-0.125000
G01 X68.377998 Y183.020304 Z-0.125000
G01 X69.532428 Y183.878954 Z-0.125000
G01 X70.787479 Y184.662724 Z-0.125000
G01 X72.167016 Y185.382394 Z-0.125000
G01 X73.650402 Y186.021494 Z-0.125000
G01 X75.194643 Y186.562724 Z-0.125000
G01 X76.811274 Y187.012914 Z-0.125000
G01 X78.536251 Y187.378114 Z-0.125000
G01 X80.270198 Y187.638154 Z-0.125000
G01 X83.897900 Y187.875984 Z-0.125000
G01 X87.730046 Y187.732394 Z-0.125000
G01 X91.670644 Y187.217224 Z-0.125000
G01 X96.239495 Y186.222104 Z-0.125000
G01 X101.276343 Y184.739374 Z-0.125000
G01 X105.356643 Y183.294674 Z-0.125000
G01 X107.050843 Y182.547464 Z-0.125000
G01 X108.767593 Y181.675634 Z-0.125000
G01 X111.936503 Y179.724964 Z-0.125000
G01 X113.468553 Y178.603344 Z-0.125000
G01 X114.962043 Y177.383724 Z-0.125000
G01 X117.777763 Y174.699234 Z-0.125000
G01 X120.418543 Y171.636334 Z-0.125000
G01 X121.723653 Y169.885564 Z-0.125000
G01 X122.998393 Y167.994534 Z-0.125000
G01 X124.176873 Y166.061404 Z-0.125000
G01 X125.306173 Y164.012474 Z-0.125000
G01 X127.324253 Y159.731994 Z-0.125000
G01 X128.998293 Y155.281964 Z-0.125000
G01 X129.686083 Y153.047424 Z-0.125000
G01 X130.269773 Y150.812224 Z-0.125000
G01 X130.734173 Y148.625204 Z-0.125000
G01 X131.069503 Y146.550004 Z-0.125000
G01 X131.289773 Y144.517344 Z-0.125000
G01 X131.392353 Y142.515874 Z-0.125000
G01 X131.375853 Y140.654454 Z-0.125000
G01 X131.244403 Y138.848884 Z-0.125000
G01 X131.007213 Y137.163374 Z-0.125000
G01 X130.659993 Y135.530954 Z-0.125000
G01 X130.201953 Y133.952744 Z-0.125000
G01 X129.671723 Y132.523384 Z-0.125000
G01 X128.999153 Y131.053384 Z-0.125000
G01 X128.217363 Y129.640854 Z-0.125000
G01 X127.328413 Y128.286844 Z-0.125000
G01 X126.335013 Y126.992374 Z-0.125000
G01 X125.240743 Y125.758884 Z-0.125000
G01 X123.972543 Y124.517434 Z-0.125000
G01 X122.601553 Y123.350934 Z-0.125000
G01 X121.135313 Y122.265754 Z-0.125000
G01 X119.632243 Y121.300634 Z-0.125000
G01 X118.041063 Y120.424114 Z-0.125000
G01 X116.478753 Y119.700824 Z-0.125000
G01 X114.867463 Y119.095644 Z-0.125000
G01 X113.510653 Y118.700704 Z-0.125000
G01 X112.132733 Y118.413174 Z-0.125000
G01 X110.839053 Y118.255174 Z-0.125000
G01 X109.535773 Y118.215074 Z-0.125000
G01 X108.327123 Y118.294374 Z-0.125000
G01 X107.114963 Y118.496574 Z-0.125000
G01 X106.001363 Y118.800814 Z-0.125000
G01 X104.811683 Y119.249944 Z-0.125000
G01 X103.419633 Y119.909314 Z-0.125000
G01 X101.989883 Y120.707114 Z-0.125000
G01 X99.096185 Y122.686174 Z-0.125000
G01 X96.051360 Y125.259454 Z-0.125000
G01 X92.868423 Y128.415824 Z-0.125000
G01 X90.380678 Y131.145054 Z-0.125000
G01 X87.470738 Y134.538074 Z-0.125000
G01 X70.728275 Y154.838304 Z-0.125000
G01 X67.341344 Y159.072224 Z-0.125000
G01 X64.958215 Y162.363294 Z-0.125000
G01 X63.866703 Y164.090634 Z-0.125000
G01 X62.957568 Y165.766554 Z-0.125000
G01 X62.288093 Y167.300394 Z-0.125000
G01 X61.843514 Y168.692344 Z-0.125000
G01 X61.531014 Y170.341864 Z-0.125000
G01 X61.369751 Y172.081974 Z-0.125000
G01 X61.376051 Y173.731754 Z-0.125000
G01 X61.548718 Y175.325234 Z-0.125000
G01 X61.839654 Y176.674374 Z-0.125000
G01 X62.229517 Y177.889124 Z-0.125000
G01 X62.722304 Y179.035674 Z-0.125000
G01 X63.354605 Y180.186714 Z-0.125000
G01 X64.111737 Y181.294364 Z-0.125000
G01 X64.983962 Y182.342644 Z-0.125000
G01 X65.917200 Y183.282284 Z-0.125000
G01 X67.039616 Y184.235184 Z-0.125000
G01 X68.204285 Y185.071084 Z-0.125000
G01 X69.555062 Y185.890284 Z-0.125000
G01 X70.945792 Y186.598704 Z-0.125000
G01 X72.349724 Y187.199154 Z-0.125000
G01 X73.888990 Y187.744904 Z-0.125000
G01 X75.566475 Y188.223304 Z-0.125000
G01 X78.969916 Y188.876054 Z-0.125000
G01 X82.514936 Y189.170424 Z-0.125000
G01 X86.144331 Y189.123024 Z-0.125000
G01 X89.893054 Y188.749884 Z-0.125000
G01 X93.973696 Y188.019024 Z-0.125000
G01 X98.837082 Y186.790784 Z-0.125000
G01 X104.437673 Y185.042364 Z-0.125000
G01 X107.673023 Y183.693674 Z-0.125000
G01 X110.777803 Y182.010974 Z-0.125000
G01 X112.994983 Y180.541194 Z-0.125000
G01 X115.056853 Y178.946304 Z-0.125000
G01 X117.119363 Y177.102404 Z-0.125000
G01 X119.034203 Y175.136604 Z-0.125000
G01 X120.830753 Y173.035354 Z-0.125000
G01 X122.557583 Y170.742264 Z-0.125000
G01 X124.192973 Y168.276724 Z-0.125000
G01 X125.734383 Y165.637684 Z-0.125000
G01 X127.206363 Y162.762354 Z-0.125000
G01 X128.564153 Y159.711494 Z-0.125000
G01 X129.741313 Y156.636064 Z-0.125000
G01 X130.734583 Y153.555964 Z-0.125000
G01 X131.512193 Y150.576604 Z-0.125000
G01 X132.083083 Y147.653034 Z-0.125000
G01 X132.427073 Y144.873454 Z-0.125000
G01 X132.551473 Y142.206534 Z-0.125000
G01 X132.475673 Y139.890824 Z-0.125000
G01 X132.233703 Y137.760394 Z-0.125000
G01 X131.816933 Y135.685054 Z-0.125000
G01 X131.212173 Y133.654004 Z-0.125000
G01 X130.425783 Y131.710804 Z-0.125000
G01 X129.459553 Y129.857294 Z-0.125000
G01 X128.317133 Y128.094874 Z-0.125000
G01 X127.004243 Y126.424694 Z-0.125000
G01 X125.402403 Y124.725244 Z-0.125000
G01 X123.655593 Y123.167164 Z-0.125000
G01 X121.664743 Y121.668494 Z-0.125000
G01 X119.612973 Y120.371504 Z-0.125000
G01 X117.440063 Y119.238634 Z-0.125000
G01 X115.368853 Y118.381284 Z-0.125000
G01 X113.233313 Y117.733444 Z-0.125000
G01 X111.262643 Y117.370284 Z-0.125000
G01 X110.005643 Y117.269134 Z-0.125000
G01 X108.742943 Y117.281134 Z-0.125000
G01 X107.582593 Y117.401704 Z-0.125000
G01 X106.398073 Y117.643424 Z-0.125000
G01 X105.317813 Y117.978014 Z-0.125000
G01 X103.990073 Y118.511494 Z-0.125000
G01 X101.248913 Y119.946884 Z-0.125000
G01 X98.547306 Y121.776614 Z-0.125000
G01 X95.736188 Y124.096824 Z-0.125000
G01 X92.849108 Y126.877644 Z-0.125000
G01 X89.595447 Y130.401924 Z-0.125000
G01 X86.110752 Y134.484284 Z-0.125000
G01 X76.901824 Y145.696054 Z-0.125000
G01 X67.447150 Y157.002234 Z-0.125000
G01 X64.765254 Y160.395434 Z-0.125000
G01 X62.841680 Y163.100904 Z-0.125000
G01 X61.808959 Y164.770584 Z-0.125000
G01 X61.002509 Y166.301094 Z-0.125000
G01 X60.387590 Y167.759454 Z-0.125000
G01 X59.989154 Y169.071784 Z-0.125000
G01 X59.702928 Y170.575094 Z-0.125000
G01 X59.518778 Y172.551004 Z-0.125000
G01 X59.526878 Y174.218854 Z-0.125000
G01 X59.702615 Y175.855834 Z-0.125000
G01 X59.976353 Y177.158534 Z-0.125000
G01 X60.372910 Y178.432664 Z-0.125000
G01 X60.896388 Y179.674034 Z-0.125000
G01 X61.549803 Y180.878024 Z-0.125000
G01 X62.339267 Y182.045234 Z-0.125000
G01 X63.191728 Y183.085384 Z-0.125000
G01 X64.182725 Y184.101444 Z-0.125000
G01 X65.356496 Y185.114344 Z-0.125000
G01 X66.608160 Y186.026124 Z-0.125000
G01 X67.987777 Y186.876554 Z-0.125000
G01 X69.429889 Y187.627064 Z-0.125000
G01 X70.943305 Y188.289134 Z-0.125000
G01 X72.569911 Y188.879154 Z-0.125000
G01 X74.269488 Y189.378894 Z-0.125000
G01 X77.759183 Y190.085574 Z-0.125000
G01 X81.340292 Y190.429534 Z-0.125000
G01 X85.148546 Y190.432534 Z-0.125000
G01 X89.142008 Y190.084944 Z-0.125000
G01 X93.289140 Y189.397454 Z-0.125000
G01 X98.443065 Y188.175264 Z-0.125000
G01 X104.400263 Y186.430924 Z-0.125000
G01 X107.811433 Y185.066224 Z-0.125000
G01 X111.004053 Y183.380254 Z-0.125000
G01 X113.248093 Y181.924324 Z-0.125000
G01 X115.448493 Y180.250894 Z-0.125000
G01 X117.558733 Y178.388644 Z-0.125000
G01 X119.560413 Y176.357284 Z-0.125000
G01 X121.475153 Y174.135894 Z-0.125000
G01 X123.248973 Y171.794994 Z-0.125000
G01 X124.927993 Y169.283564 Z-0.125000
G01 X126.542053 Y166.543884 Z-0.125000
G01 X128.091533 Y163.545444 Z-0.125000
G01 X129.537933 Y160.329304 Z-0.125000
G01 X130.789303 Y157.097784 Z-0.125000
G01 X131.844513 Y153.866354 Z-0.125000
G01 X132.657873 Y150.785044 Z-0.125000
G01 X133.234793 Y147.859994 Z-0.125000
G01 X133.585473 Y145.041144 Z-0.125000
G01 X133.707553 Y142.339854 Z-0.125000
G01 X133.621553 Y139.955224 Z-0.125000
G01 X133.361283 Y137.768144 Z-0.125000
G01 X132.898603 Y135.563054 Z-0.125000
G01 X132.273923 Y133.541964 Z-0.125000
G01 X131.456623 Y131.574434 Z-0.125000
G01 X130.440173 Y129.665974 Z-0.125000
G01 X129.279733 Y127.903394 Z-0.125000
G01 X127.885273 Y126.148994 Z-0.125000
G01 X126.165223 Y124.343004 Z-0.125000
G01 X124.251333 Y122.652374 Z-0.125000
G01 X122.147363 Y121.076914 Z-0.125000
G01 X119.973863 Y119.698404 Z-0.125000
G01 X117.673503 Y118.483624 Z-0.125000
G01 X115.465073 Y117.548614 Z-0.125000
G01 X113.289383 Y116.861834 Z-0.125000
G01 X111.173263 Y116.443874 Z-0.125000
G01 X109.953143 Y116.328324 Z-0.125000
G01 X108.626573 Y116.319324 Z-0.125000
G01 X107.400013 Y116.430494 Z-0.125000
G01 X106.172933 Y116.668994 Z-0.125000
G01 X104.992443 Y117.022264 Z-0.125000
G01 X103.554593 Y117.586274 Z-0.125000
G01 X100.788636 Y118.992164 Z-0.125000
G01 X98.001541 Y120.833904 Z-0.125000
G01 X95.222861 Y123.083734 Z-0.125000
G01 X92.286145 Y125.874744 Z-0.125000
G01 X89.117415 Y129.279984 Z-0.125000
G01 X85.318184 Y133.727684 Z-0.125000
G01 X74.869100 Y146.446794 Z-0.125000
G01 X65.352594 Y157.713094 Z-0.125000
G01 X62.818494 Y160.904204 Z-0.125000
G01 X61.031233 Y163.406924 Z-0.125000
G01 X60.039363 Y164.998554 Z-0.125000
G01 X59.218123 Y166.547184 Z-0.125000
G01 X58.625351 Y167.945774 Z-0.125000
G01 X58.215591 Y169.283244 Z-0.125000
G01 X57.885629 Y171.077484 Z-0.125000
G01 X57.715740 Y173.015194 Z-0.125000
G01 X57.727960 Y174.724794 Z-0.125000
G01 X57.911872 Y176.411854 Z-0.125000
G01 X58.197543 Y177.761974 Z-0.125000
G01 X58.611484 Y179.084304 Z-0.125000
G01 X59.164780 Y180.387694 Z-0.125000
G01 X59.853623 Y181.647144 Z-0.125000
G01 X60.682562 Y182.863904 Z-0.125000
G01 X61.605852 Y183.980744 Z-0.125000
G01 X62.672361 Y185.061774 Z-0.125000
G01 X63.836396 Y186.059784 Z-0.125000
G01 X65.177939 Y187.035324 Z-0.125000
G01 X66.568351 Y187.893604 Z-0.125000
G01 X68.000593 Y188.647034 Z-0.125000
G01 X69.618229 Y189.365774 Z-0.125000
G01 X71.241977 Y189.967044 Z-0.125000
G01 X73.031434 Y190.508694 Z-0.125000
G01 X74.826103 Y190.939094 Z-0.125000
G01 X76.638869 Y191.270614 Z-0.125000
G01 X80.358778 Y191.661614 Z-0.125000
G01 X84.337503 Y191.699814 Z-0.125000
G01 X88.480269 Y191.377474 Z-0.125000
G01 X92.787871 Y190.708634 Z-0.125000
G01 X97.985267 Y189.549844 Z-0.125000
G01 X104.459463 Y187.775174 Z-0.125000
G01 X107.922673 Y186.442464 Z-0.125000
G01 X109.624393 Y185.623684 Z-0.125000
G01 X111.316463 Y184.691344 Z-0.125000
G01 X113.675093 Y183.178194 Z-0.125000
G01 X115.886743 Y181.510664 Z-0.125000
G01 X118.051453 Y179.617244 Z-0.125000
G01 X120.107583 Y177.547654 Z-0.125000
G01 X122.094953 Y175.259484 Z-0.125000
G01 X123.918383 Y172.870504 Z-0.125000
G01 X125.701963 Y170.219384 Z-0.125000
G01 X127.381303 Y167.383684 Z-0.125000
G01 X129.024543 Y164.221704 Z-0.125000
G01 X130.513783 Y160.936764 Z-0.125000
G01 X131.865433 Y157.482764 Z-0.125000
G01 X132.980043 Y154.102814 Z-0.125000
G01 X133.823373 Y150.931444 Z-0.125000
G01 X134.424133 Y147.866294 Z-0.125000
G01 X134.763543 Y145.018694 Z-0.125000
G01 X134.864663 Y142.246734 Z-0.125000
G01 X134.754993 Y139.888924 Z-0.125000
G01 X134.450953 Y137.584874 Z-0.125000
G01 X133.939593 Y135.331394 Z-0.125000
G01 X133.260043 Y133.265374 Z-0.125000
G01 X132.394323 Y131.284174 Z-0.125000
G01 X131.290583 Y129.300854 Z-0.125000
G01 X130.054003 Y127.495764 Z-0.125000
G01 X128.573873 Y125.695934 Z-0.125000
G01 X126.760443 Y123.842874 Z-0.125000
G01 X124.730613 Y122.084504 Z-0.125000
G01 X122.517823 Y120.445564 Z-0.125000
G01 X120.111333 Y118.927464 Z-0.125000
G01 X117.675023 Y117.643024 Z-0.125000
G01 X115.324573 Y116.645414 Z-0.125000
G01 X113.101353 Y115.938284 Z-0.125000
G01 X110.924733 Y115.500794 Z-0.125000
G01 X109.651133 Y115.377154 Z-0.125000
G01 X108.374313 Y115.364154 Z-0.125000
G01 X107.167653 Y115.464644 Z-0.125000
G01 X105.975683 Y115.684804 Z-0.125000
G01 X104.683693 Y116.052914 Z-0.125000
G01 X103.126203 Y116.639944 Z-0.125000
G01 X100.239437 Y118.062984 Z-0.125000
G01 X97.415275 Y119.888214 Z-0.125000
G01 X94.596245 Y122.135744 Z-0.125000
G01 X91.633097 Y124.928254 Z-0.125000
G01 X88.484794 Y128.301214 Z-0.125000
G01 X84.634947 Y132.815194 Z-0.125000
G01 X73.822511 Y146.017374 Z-0.125000
G01 X63.279289 Y158.409664 Z-0.125000
G01 X60.920979 Y161.374214 Z-0.125000
G01 X59.203939 Y163.781184 Z-0.125000
G01 X58.192966 Y165.418184 Z-0.125000
G01 X57.438718 Y166.863864 Z-0.125000
G01 X56.853142 Y168.279174 Z-0.125000
G01 X56.452351 Y169.634034 Z-0.125000
G01 X56.109610 Y171.671984 Z-0.125000
G01 X55.961549 Y173.563964 Z-0.125000
G01 X55.987589 Y175.327284 Z-0.125000
G01 X56.190578 Y177.061494 Z-0.125000
G01 X56.499981 Y178.463574 Z-0.125000
G01 X56.945037 Y179.837974 Z-0.125000
G01 X57.531168 Y181.180474 Z-0.125000
G01 X58.226626 Y182.428614 Z-0.125000
G01 X59.039902 Y183.615804 Z-0.125000
G01 X60.025898 Y184.807464 Z-0.125000
G01 X61.165167 Y185.957894 Z-0.125000
G01 X62.397120 Y187.008904 Z-0.125000
G01 X63.745966 Y187.988704 Z-0.125000
G01 X65.142807 Y188.856694 Z-0.125000
G01 X66.751527 Y189.707494 Z-0.125000
G01 X68.362945 Y190.427024 Z-0.125000
G01 X70.101602 Y191.076814 Z-0.125000
G01 X71.941064 Y191.639824 Z-0.125000
G01 X73.802831 Y192.094084 Z-0.125000
G01 X75.713785 Y192.451324 Z-0.125000
G01 X79.527012 Y192.869684 Z-0.125000
G01 X83.589531 Y192.935084 Z-0.125000
G01 X87.805931 Y192.643304 Z-0.125000
G01 X92.327660 Y191.986294 Z-0.125000
G01 X97.714603 Y190.852794 Z-0.125000
G01 X104.566383 Y189.094314 Z-0.125000
G01 X106.355973 Y188.484504 Z-0.125000
G01 X108.148023 Y187.760284 Z-0.125000
G01 X109.917313 Y186.925554 Z-0.125000
G01 X111.668703 Y185.973744 Z-0.125000
G01 X114.086093 Y184.437974 Z-0.125000
G01 X116.370183 Y182.727784 Z-0.125000
G01 X118.588823 Y180.797404 Z-0.125000
G01 X120.697663 Y178.684844 Z-0.125000
G01 X122.744843 Y176.337854 Z-0.125000
G01 X124.640903 Y173.863424 Z-0.125000
G01 X126.488253 Y171.125964 Z-0.125000
G01 X128.202143 Y168.246924 Z-0.125000
G01 X129.951193 Y164.901794 Z-0.125000
G01 X131.529273 Y161.443454 Z-0.125000
G01 X132.930113 Y157.899834 Z-0.125000
G01 X134.106983 Y154.379104 Z-0.125000
G01 X134.970973 Y151.175454 Z-0.125000
G01 X135.584603 Y148.081444 Z-0.125000
G01 X135.928773 Y145.182194 Z-0.125000
G01 X136.021273 Y142.349984 Z-0.125000
G01 X135.896023 Y139.959154 Z-0.125000
G01 X135.572383 Y137.631434 Z-0.125000
G01 X135.055943 Y135.417984 Z-0.125000
G01 X134.306983 Y133.197174 Z-0.125000
G01 X133.393463 Y131.165284 Z-0.125000
G01 X132.231993 Y129.129924 Z-0.125000
G01 X130.891053 Y127.220104 Z-0.125000
G01 X129.382563 Y125.423164 Z-0.125000
G01 X127.467873 Y123.493104 Z-0.125000
G01 X125.244373 Y121.587234 Z-0.125000
G01 X122.829153 Y119.812144 Z-0.125000
G01 X120.327853 Y118.233924 Z-0.125000
G01 X117.817333 Y116.893364 Z-0.125000
G01 X115.326943 Y115.810904 Z-0.125000
G01 X113.007713 Y115.048504 Z-0.125000
G01 X110.753673 Y114.571644 Z-0.125000
G01 X109.412633 Y114.429614 Z-0.125000
G01 X108.172613 Y114.405614 Z-0.125000
G01 X106.932693 Y114.496314 Z-0.125000
G01 X105.797043 Y114.689594 Z-0.125000
G01 X104.371583 Y115.076254 Z-0.125000
G01 X102.819483 Y115.625664 Z-0.125000
G01 X101.280403 Y116.289524 Z-0.125000
G01 X99.736264 Y117.078514 Z-0.125000
G01 X96.955758 Y118.818224 Z-0.125000
G01 X94.114080 Y121.026204 Z-0.125000
G01 X91.179348 Y123.744504 Z-0.125000
G01 X88.063879 Y127.050294 Z-0.125000
G01 X84.130954 Y131.659964 Z-0.125000
G01 X72.579854 Y145.830704 Z-0.125000
G01 X61.363559 Y158.937604 Z-0.125000
G01 X59.091052 Y161.791644 Z-0.125000
G01 X57.475295 Y164.059734 Z-0.125000
G01 X56.455988 Y165.718034 Z-0.125000
G01 X55.667423 Y167.261664 Z-0.125000
G01 X55.135346 Y168.598234 Z-0.125000
G01 X54.730587 Y170.072094 Z-0.125000
G01 X54.407187 Y172.121454 Z-0.125000
G01 X54.264814 Y174.050234 Z-0.125000
G01 X54.302724 Y175.920734 Z-0.125000
G01 X54.507115 Y177.604354 Z-0.125000
G01 X54.829139 Y179.052744 Z-0.125000
G01 X55.307003 Y180.511914 Z-0.125000
G01 X55.925149 Y181.907464 Z-0.125000
G01 X56.640662 Y183.176984 Z-0.125000
G01 X57.535059 Y184.465664 Z-0.125000
G01 X58.523278 Y185.646134 Z-0.125000
G01 X59.664823 Y186.795564 Z-0.125000
G01 X60.880371 Y187.838464 Z-0.125000
G01 X62.302930 Y188.881474 Z-0.125000
G01 X63.787428 Y189.810964 Z-0.125000
G01 X65.407921 Y190.676674 Z-0.125000
G01 X67.063393 Y191.427724 Z-0.125000
G01 X68.859887 Y192.112704 Z-0.125000
G01 X70.722104 Y192.698124 Z-0.125000
G01 X72.676105 Y193.191304 Z-0.125000
G01 X74.681990 Y193.581294 Z-0.125000
G01 X78.686750 Y194.046754 Z-0.125000
G01 X82.832480 Y194.141454 Z-0.125000
G01 X87.223187 Y193.870894 Z-0.125000
G01 X91.863238 Y193.238564 Z-0.125000
G01 X97.713308 Y192.072674 Z-0.125000
G01 X102.877023 Y190.885994 Z-0.125000
G01 X104.720193 Y190.389924 Z-0.125000
G01 X106.560633 Y189.784584 Z-0.125000
G01 X108.396363 Y189.061034 Z-0.125000
G01 X110.251123 Y188.200444 Z-0.125000
G01 X111.970943 Y187.278404 Z-0.125000
G01 X114.377163 Y185.773164 Z-0.125000
G01 X116.772833 Y184.002734 Z-0.125000
G01 X119.096143 Y181.997794 Z-0.125000
G01 X121.260303 Y179.842974 Z-0.125000
G01 X123.360403 Y177.449164 Z-0.125000
G01 X125.366693 Y174.841424 Z-0.125000
G01 X127.254223 Y172.053884 Z-0.125000
G01 X129.058313 Y169.034374 Z-0.125000
G01 X130.860073 Y165.605454 Z-0.125000
G01 X132.527343 Y161.981854 Z-0.125000
G01 X134.002423 Y158.293434 Z-0.125000
G01 X135.238953 Y154.646734 Z-0.125000
G01 X136.123963 Y151.412334 Z-0.125000
G01 X136.749543 Y148.288664 Z-0.125000
G01 X137.094323 Y145.354704 Z-0.125000
G01 X137.175923 Y142.464394 Z-0.125000
G01 X137.033213 Y140.043164 Z-0.125000
G01 X136.682343 Y137.663134 Z-0.125000
G01 X136.121193 Y135.368374 Z-0.125000
G01 X135.349563 Y133.161324 Z-0.125000
G01 X134.369283 Y131.044444 Z-0.125000
G01 X133.184603 Y129.018744 Z-0.125000
G01 X131.801713 Y127.083024 Z-0.125000
G01 X130.156373 Y125.155244 Z-0.125000
G01 X128.051533 Y123.072394 Z-0.125000
G01 X125.733833 Y121.112674 Z-0.125000
G01 X123.177403 Y119.241304 Z-0.125000
G01 X120.466053 Y117.524684 Z-0.125000
G01 X117.789403 Y116.082784 Z-0.125000
G01 X115.295513 Y114.977724 Z-0.125000
G01 X112.834803 Y114.144134 Z-0.125000
G01 X110.536313 Y113.637214 Z-0.125000
G01 X109.229543 Y113.484874 Z-0.125000
G01 X107.921393 Y113.445674 Z-0.125000
G01 X106.714683 Y113.522074 Z-0.125000
G01 X105.409143 Y113.733104 Z-0.125000
G01 X103.803333 Y114.161864 Z-0.125000
G01 X102.306773 Y114.671844 Z-0.125000
G01 X100.696257 Y115.341984 Z-0.125000
G01 X99.185195 Y116.089424 Z-0.125000
G01 X96.305708 Y117.846474 Z-0.125000
G01 X93.433047 Y120.048154 Z-0.125000
G01 X90.540120 Y122.707954 Z-0.125000
G01 X87.460132 Y125.968364 Z-0.125000
G01 X83.548082 Y130.569704 Z-0.125000
G01 X71.472869 Y145.492364 Z-0.125000
G01 X59.466369 Y159.475274 Z-0.125000
G01 X57.361450 Y162.122614 Z-0.125000
G01 X55.817976 Y164.292994 Z-0.125000
G01 X54.821159 Y165.918674 Z-0.125000
G01 X54.083262 Y167.361044 Z-0.125000
G01 X53.507370 Y168.811334 Z-0.125000
G01 X53.138171 Y170.212064 Z-0.125000
G01 X52.793657 Y172.298864 Z-0.125000
G01 X52.629668 Y174.390494 Z-0.125000
G01 X52.663878 Y176.352404 Z-0.125000
G01 X52.886922 Y178.182614 Z-0.125000
G01 X53.226885 Y179.682644 Z-0.125000
G01 X53.715782 Y181.156074 Z-0.125000
G01 X54.343559 Y182.565144 Z-0.125000
G01 X55.093970 Y183.891054 Z-0.125000
G01 X55.982706 Y185.170764 Z-0.125000
G01 X57.032467 Y186.426394 Z-0.125000
G01 X58.238729 Y187.638944 Z-0.125000
G01 X59.529287 Y188.742204 Z-0.125000
G01 X60.940415 Y189.776704 Z-0.125000
G01 X62.522518 Y190.770184 Z-0.125000
G01 X64.156558 Y191.647254 Z-0.125000
G01 X65.921593 Y192.453224 Z-0.125000
G01 X67.714595 Y193.143334 Z-0.125000
G01 X69.683042 Y193.770534 Z-0.125000
G01 X71.646568 Y194.275204 Z-0.125000
G01 X73.646395 Y194.677154 Z-0.125000
G01 X77.738070 Y195.185394 Z-0.125000
G01 X82.070331 Y195.317844 Z-0.125000
G01 X86.533217 Y195.079774 Z-0.125000
G01 X91.388109 Y194.464664 Z-0.125000
G01 X96.969521 Y193.430804 Z-0.125000
G01 X102.993103 Y192.153374 Z-0.125000
G01 X104.779733 Y191.704004 Z-0.125000
G01 X106.724713 Y191.090964 Z-0.125000
G01 X108.613493 Y190.367354 Z-0.125000
G01 X110.495713 Y189.512464 Z-0.125000
G01 X112.324723 Y188.546014 Z-0.125000
G01 X114.869063 Y186.963394 Z-0.125000
G01 X117.251183 Y185.208784 Z-0.125000
G01 X119.574463 Y183.216204 Z-0.125000
G01 X121.866553 Y180.944914 Z-0.125000
G01 X124.017243 Y178.499904 Z-0.125000
G01 X126.070463 Y175.838294 Z-0.125000
G01 X128.010653 Y172.983974 Z-0.125000
G01 X129.876203 Y169.875304 Z-0.125000
G01 X131.779163 Y166.274324 Z-0.125000
G01 X133.532293 Y162.492824 Z-0.125000
G01 X135.117893 Y158.566984 Z-0.125000
G01 X136.410263 Y154.792834 Z-0.125000
G01 X137.329743 Y151.440354 Z-0.125000
G01 X137.932833 Y148.392224 Z-0.125000
G01 X138.266083 Y145.428784 Z-0.125000
G01 X138.324083 Y142.484524 Z-0.125000
G01 X138.153503 Y140.038984 Z-0.125000
G01 X137.762503 Y137.604154 Z-0.125000
G01 X137.183943 Y135.362044 Z-0.125000
G01 X136.364763 Y133.104654 Z-0.125000
G01 X135.329153 Y130.938934 Z-0.125000
G01 X134.082043 Y128.865914 Z-0.125000
G01 X132.621433 Y126.872544 Z-0.125000
G01 X130.948553 Y124.949764 Z-0.125000
G01 X128.807313 Y122.851834 Z-0.125000
G01 X126.316183 Y120.752364 Z-0.125000
G01 X123.556173 Y118.727984 Z-0.125000
G01 X120.644593 Y116.867754 Z-0.125000
G01 X117.844303 Y115.332454 Z-0.125000
G01 X115.216933 Y114.138024 Z-0.125000
G01 X112.617773 Y113.231454 Z-0.125000
G01 X110.279623 Y112.695964 Z-0.125000
G01 X108.923663 Y112.528584 Z-0.125000
G01 X107.567093 Y112.482484 Z-0.125000
G01 X106.316593 Y112.561884 Z-0.125000
G01 X104.976643 Y112.779054 Z-0.125000
G01 X103.313043 Y113.200794 Z-0.125000
G01 X101.648313 Y113.744964 Z-0.125000
G01 X100.087933 Y114.373454 Z-0.125000
G01 X98.518795 Y115.126914 Z-0.125000
G01 X95.639176 Y116.846064 Z-0.125000
G01 X92.756223 Y119.024704 Z-0.125000
G01 X89.851336 Y121.679684 Z-0.125000
G01 X86.824847 Y124.884264 Z-0.125000
G01 X82.862341 Y129.574214 Z-0.125000
G01 X74.455524 Y140.154744 Z-0.125000
G01 X70.305031 Y145.239804 Z-0.125000
G01 X57.668267 Y159.934284 Z-0.125000
G01 X55.747101 Y162.355374 Z-0.125000
G01 X54.236224 Y164.482604 Z-0.125000
G01 X53.293620 Y166.018004 Z-0.125000
G01 X52.504923 Y167.565364 Z-0.125000
G01 X51.939297 Y169.031294 Z-0.125000
G01 X51.592561 Y170.345084 Z-0.125000
G01 X51.225504 Y172.593274 Z-0.125000
G01 X51.053631 Y174.720204 Z-0.125000
G01 X51.080121 Y176.739824 Z-0.125000
G01 X51.318589 Y178.729034 Z-0.125000
G01 X51.662945 Y180.244044 Z-0.125000
G01 X52.170098 Y181.769604 Z-0.125000
G01 X52.794568 Y183.172554 Z-0.125000
G01 X53.568394 Y184.544874 Z-0.125000
G01 X54.502427 Y185.890964 Z-0.125000
G01 X55.539249 Y187.134974 Z-0.125000
G01 X56.740193 Y188.353994 Z-0.125000
G01 X58.106660 Y189.534594 Z-0.125000
G01 X59.582374 Y190.625464 Z-0.125000
G01 X61.171911 Y191.634354 Z-0.125000
G01 X62.908530 Y192.577824 Z-0.125000
G01 X64.679201 Y193.397584 Z-0.125000
G01 X66.570390 Y194.137624 Z-0.125000
G01 X68.529444 Y194.775244 Z-0.125000
G01 X70.616133 Y195.326084 Z-0.125000
G01 X72.710628 Y195.758724 Z-0.125000
G01 X74.739744 Y196.072604 Z-0.125000
G01 X76.891547 Y196.300894 Z-0.125000
G01 X81.304347 Y196.465244 Z-0.125000
G01 X85.879999 Y196.257044 Z-0.125000
G01 X90.955315 Y195.657794 Z-0.125000
G01 X96.825837 Y194.635784 Z-0.125000
G01 X102.511893 Y193.540834 Z-0.125000
G01 X104.932483 Y192.981314 Z-0.125000
G01 X106.967763 Y192.361664 Z-0.125000
G01 X108.885363 Y191.643004 Z-0.125000
G01 X110.822823 Y190.776174 Z-0.125000
G01 X112.728833 Y189.777794 Z-0.125000
G01 X115.322913 Y188.171774 Z-0.125000
G01 X117.777313 Y186.368384 Z-0.125000
G01 X120.190553 Y184.298254 Z-0.125000
G01 X122.446503 Y182.064934 Z-0.125000
G01 X124.650773 Y179.567454 Z-0.125000
G01 X126.753203 Y176.852354 Z-0.125000
G01 X128.775203 Y173.886374 Z-0.125000
G01 X130.676363 Y170.732484 Z-0.125000
G01 X132.684813 Y166.954154 Z-0.125000
G01 X134.539813 Y162.984244 Z-0.125000
G01 X136.202663 Y158.917544 Z-0.125000
G01 X137.557143 Y155.023404 Z-0.125000
G01 X138.492583 Y151.658884 Z-0.125000
G01 X139.116283 Y148.497004 Z-0.125000
G01 X139.431423 Y145.553304 Z-0.125000
G01 X139.468823 Y142.614924 Z-0.125000
G01 X139.260993 Y140.019814 Z-0.125000
G01 X138.841493 Y137.608904 Z-0.125000
G01 X138.205223 Y135.279054 Z-0.125000
G01 X137.353083 Y133.034204 Z-0.125000
G01 X136.288403 Y130.877954 Z-0.125000
G01 X134.958953 Y128.727344 Z-0.125000
G01 X133.412963 Y126.671444 Z-0.125000
G01 X131.684783 Y124.727344 Z-0.125000
G01 X129.333773 Y122.466634 Z-0.125000
G01 X126.677623 Y120.260334 Z-0.125000
G01 X123.677143 Y118.074264 Z-0.125000
G01 X120.597843 Y116.103834 Z-0.125000
G01 X117.668483 Y114.483334 Z-0.125000
G01 X114.905063 Y113.212574 Z-0.125000
G01 X112.306623 Y112.293014 Z-0.125000
G01 X109.875783 Y111.727754 Z-0.125000
G01 X108.451883 Y111.554084 Z-0.125000
G01 X107.028523 Y111.516184 Z-0.125000
G01 X105.810943 Y111.604484 Z-0.125000
G01 X104.393463 Y111.841584 Z-0.125000
G01 X102.672483 Y112.256844 Z-0.125000
G01 X101.059823 Y112.760874 Z-0.125000
G01 X99.439485 Y113.387464 Z-0.125000
G01 X97.824097 Y114.139964 Z-0.125000
G01 X94.920322 Y115.838534 Z-0.125000
G01 X92.090153 Y117.948904 Z-0.125000
G01 X89.228182 Y120.544014 Z-0.125000
G01 X86.189601 Y123.760084 Z-0.125000
G01 X81.995294 Y128.773484 Z-0.125000
G01 X70.189453 Y143.723684 Z-0.125000
G01 X65.521595 Y149.292374 Z-0.125000
G01 X56.424320 Y159.773044 Z-0.125000
G01 X54.339854 Y162.374594 Z-0.125000
G01 X52.708988 Y164.666864 Z-0.125000
G01 X51.711509 Y166.312804 Z-0.125000
G01 X50.939587 Y167.876944 Z-0.125000
G01 X50.437117 Y169.245894 Z-0.125000
G01 X50.057890 Y170.746904 Z-0.125000
G01 X49.683240 Y173.195994 Z-0.125000
G01 X49.530417 Y175.275964 Z-0.125000
G01 X49.568387 Y177.330694 Z-0.125000
G01 X49.822202 Y179.355204 Z-0.125000
G01 X50.196561 Y180.949614 Z-0.125000
G01 X50.695936 Y182.421114 Z-0.125000
G01 X51.346387 Y183.866884 Z-0.125000
G01 X52.163447 Y185.298114 Z-0.125000
G01 X53.095362 Y186.629314 Z-0.125000
G01 X54.197987 Y187.943544 Z-0.125000
G01 X55.475422 Y189.227964 Z-0.125000
G01 X56.850461 Y190.407054 Z-0.125000
G01 X58.390892 Y191.540794 Z-0.125000
G01 X60.004559 Y192.562644 Z-0.125000
G01 X61.736733 Y193.506414 Z-0.125000
G01 X63.613873 Y194.379724 Z-0.125000
G01 X65.524297 Y195.131884 Z-0.125000
G01 X67.549867 Y195.797624 Z-0.125000
G01 X69.588244 Y196.345344 Z-0.125000
G01 X71.776983 Y196.809712 Z-0.125000
G01 X73.900846 Y197.148379 Z-0.125000
G01 X76.043707 Y197.387191 Z-0.125000
G01 X80.536887 Y197.584094 Z-0.125000
G01 X85.347462 Y197.395949 Z-0.125000
G01 X90.527448 Y196.823232 Z-0.125000
G01 X102.675713 Y194.773634 Z-0.125000
G01 X105.044023 Y194.259734 Z-0.125000
G01 X107.128093 Y193.651934 Z-0.125000
G01 X109.119693 Y192.925914 Z-0.125000
G01 X111.111893 Y192.050354 Z-0.125000
G01 X113.096563 Y191.022214 Z-0.125000
G01 X115.741573 Y189.395454 Z-0.125000
G01 X118.271683 Y187.544184 Z-0.125000
G01 X120.740933 Y185.431174 Z-0.125000
G01 X123.070323 Y183.128004 Z-0.125000
G01 X125.325843 Y180.572894 Z-0.125000
G01 X127.479683 Y177.792604 Z-0.125000
G01 X129.520493 Y174.804314 Z-0.125000
G01 X131.515103 Y171.504144 Z-0.125000
G01 X133.619653 Y167.556644 Z-0.125000
G01 X135.586643 Y163.370644 Z-0.125000
G01 X137.365253 Y159.057354 Z-0.125000
G01 X138.738623 Y155.147184 Z-0.125000
G01 X139.680963 Y151.776124 Z-0.125000
G01 X140.283053 Y148.705554 Z-0.125000
G01 X140.590023 Y145.722964 Z-0.125000
G01 X140.606823 Y142.759414 Z-0.125000
G01 X140.384073 Y140.213064 Z-0.125000
G01 X139.936903 Y137.750664 Z-0.125000
G01 X139.264203 Y135.368784 Z-0.125000
G01 X138.367663 Y133.072804 Z-0.125000
G01 X137.251063 Y130.867214 Z-0.125000
G01 X135.860443 Y128.667684 Z-0.125000
G01 X134.273023 Y126.595514 Z-0.125000
G01 X132.428343 Y124.554524 Z-0.125000
G01 X129.912873 Y122.172054 Z-0.125000
G01 X127.043523 Y119.813264 Z-0.125000
G01 X123.787393 Y117.447654 Z-0.125000
G01 X120.457303 Y115.306854 Z-0.125000
G01 X117.449833 Y113.624984 Z-0.125000
G01 X114.645483 Y112.312674 Z-0.125000
G01 X112.006163 Y111.356734 Z-0.125000
G01 X109.531123 Y110.764014 Z-0.125000
G01 X108.070123 Y110.579734 Z-0.125000
G01 X106.703913 Y110.538934 Z-0.125000
G01 X105.340673 Y110.630934 Z-0.125000
G01 X103.783133 Y110.884624 Z-0.125000
G01 X102.005873 Y111.289144 Z-0.125000
G01 X100.331507 Y111.790814 Z-0.125000
G01 X98.663600 Y112.416554 Z-0.125000
G01 X97.090891 Y113.130854 Z-0.125000
G01 X95.617770 Y113.917304 Z-0.125000
G01 X94.201429 Y114.786564 Z-0.125000
G01 X91.372028 Y116.871084 Z-0.125000
G01 X88.521936 Y119.445774 Z-0.125000
G01 X85.587601 Y122.555104 Z-0.125000
G01 X81.434966 Y127.557314 Z-0.125000
G01 X73.159434 Y138.279654 Z-0.125000
G01 X68.964095 Y143.564184 Z-0.125000
G01 X64.112616 Y149.380884 Z-0.125000
G01 X54.873922 Y160.034914 Z-0.125000
G01 X52.795276 Y162.642784 Z-0.125000
G01 X51.223995 Y164.871444 Z-0.125000
G01 X50.185637 Y166.619204 Z-0.125000
G01 X49.440174 Y168.191884 Z-0.125000
G01 X48.974666 Y169.529724 Z-0.125000
G01 X48.570224 Y171.305504 Z-0.125000
G01 X48.211211 Y173.748434 Z-0.125000
G01 X48.067859 Y175.864804 Z-0.125000
G01 X48.117709 Y177.949214 Z-0.125000
G01 X48.372238 Y179.923244 Z-0.125000
G01 X48.759773 Y181.561284 Z-0.125000
G01 X49.282537 Y183.085314 Z-0.125000
G01 X49.965956 Y184.583774 Z-0.125000
G01 X50.779285 Y185.994964 Z-0.125000
G01 X51.767927 Y187.396744 Z-0.125000
G01 X52.871107 Y188.703834 Z-0.125000
G01 X54.149336 Y189.989054 Z-0.125000
G01 X55.527630 Y191.176824 Z-0.125000
G01 X57.059673 Y192.315534 Z-0.125000
G01 X58.755837 Y193.401644 Z-0.125000
G01 X60.519735 Y194.373644 Z-0.125000
G01 X62.456882 Y195.287044 Z-0.125000
G01 X64.482532 Y196.094504 Z-0.125000
G01 X66.528343 Y196.775802 Z-0.125000
G01 X68.663134 Y197.358362 Z-0.125000
G01 X70.845232 Y197.831384 Z-0.125000
G01 X72.960999 Y198.181851 Z-0.125000
G01 X75.197231 Y198.445164 Z-0.125000
G01 X77.540222 Y198.611481 Z-0.125000
G01 X79.872259 Y198.674111 Z-0.125000
G01 X84.609306 Y198.521367 Z-0.125000
G01 X89.994768 Y197.974050 Z-0.125000
G01 X102.956913 Y195.973264 Z-0.125000
G01 X105.270483 Y195.498874 Z-0.125000
G01 X107.421863 Y194.889534 Z-0.125000
G01 X109.463663 Y194.156534 Z-0.125000
G01 X111.527573 Y193.255734 Z-0.125000
G01 X113.496783 Y192.239994 Z-0.125000
G01 X116.127723 Y190.631944 Z-0.125000
G01 X118.768443 Y188.708574 Z-0.125000
G01 X121.263603 Y186.579214 Z-0.125000
G01 X123.672713 Y184.202514 Z-0.125000
G01 X125.937883 Y181.642644 Z-0.125000
G01 X128.162323 Y178.778504 Z-0.125000
G01 X130.247373 Y175.735024 Z-0.125000
G01 X132.262193 Y172.416994 Z-0.125000
G01 X134.429793 Y168.386754 Z-0.125000
G01 X136.573843 Y163.874494 Z-0.125000
G01 X138.458713 Y159.370974 Z-0.125000
G01 X139.924583 Y155.260034 Z-0.125000
G01 X140.846943 Y151.988774 Z-0.125000
G01 X141.447683 Y148.916434 Z-0.125000
G01 X141.742983 Y145.897034 Z-0.125000
G01 X141.734983 Y142.882774 Z-0.125000
G01 X141.475063 Y140.257474 Z-0.125000
G01 X140.995963 Y137.799964 Z-0.125000
G01 X140.274923 Y135.369404 Z-0.125000
G01 X139.322183 Y133.025934 Z-0.125000
G01 X138.142193 Y130.775254 Z-0.125000
G01 X136.769433 Y128.657904 Z-0.125000
G01 X135.135313 Y126.560254 Z-0.125000
G01 X133.221313 Y124.471534 Z-0.125000
G01 X130.592413 Y122.006404 Z-0.125000
G01 X127.541393 Y119.508134 Z-0.125000
G01 X124.011483 Y116.932204 Z-0.125000
G01 X120.404873 Y114.583524 Z-0.125000
G01 X117.243733 Y112.783034 Z-0.125000
G01 X114.438173 Y111.437604 Z-0.125000
G01 X111.662483 Y110.404344 Z-0.125000
G01 X109.158693 Y109.789084 Z-0.125000
G01 X107.722273 Y109.600364 Z-0.125000
G01 X106.390203 Y109.552964 Z-0.125000
G01 X104.857053 Y109.649164 Z-0.125000
G01 X103.123183 Y109.907874 Z-0.125000
G01 X101.392413 Y110.274304 Z-0.125000
G01 X99.668306 Y110.760734 Z-0.125000
G01 X98.043553 Y111.340414 Z-0.125000
G01 X96.428827 Y112.043934 Z-0.125000
G01 X94.975365 Y112.794564 Z-0.125000
G01 X93.498355 Y113.678644 Z-0.125000
G01 X92.082067 Y114.646854 Z-0.125000
G01 X90.640458 Y115.757314 Z-0.125000
G01 X87.852014 Y118.265064 Z-0.125000
G01 X84.881617 Y121.422864 Z-0.125000
G01 X80.786078 Y126.412454 Z-0.125000
G01 X72.099040 Y137.862694 Z-0.125000
G01 X67.745957 Y143.413914 Z-0.125000
G01 X62.728753 Y149.470454 Z-0.125000
G01 X53.393036 Y160.271984 Z-0.125000
G01 X51.303383 Y162.915444 Z-0.125000
G01 X49.793777 Y165.085504 Z-0.125000
G01 X48.769972 Y166.842544 Z-0.125000
G01 X48.047686 Y168.416844 Z-0.125000
G01 X47.564080 Y169.868084 Z-0.125000
G01 X47.151145 Y171.860844 Z-0.125000
G01 X46.805414 Y174.285164 Z-0.125000
G01 X46.665105 Y176.557864 Z-0.125000
G01 X46.728575 Y178.597504 Z-0.125000
G01 X47.000963 Y180.608794 Z-0.125000
G01 X47.385033 Y182.195464 Z-0.125000
G01 X47.928566 Y183.760164 Z-0.125000
G01 X48.611482 Y185.244664 Z-0.125000
G01 X49.471960 Y186.726224 Z-0.125000
G01 X50.458803 Y188.116314 Z-0.125000
G01 X51.627256 Y189.493314 Z-0.125000
G01 X52.982319 Y190.843954 Z-0.125000
G01 X54.434750 Y192.081914 Z-0.125000
G01 X56.063657 Y193.276804 Z-0.125000
G01 X57.777072 Y194.360664 Z-0.125000
G01 X59.559782 Y195.335284 Z-0.125000
G01 X61.488912 Y196.242204 Z-0.125000
G01 X63.543057 Y197.062328 Z-0.125000
G01 X65.583524 Y197.746196 Z-0.125000
G01 X67.741598 Y198.342911 Z-0.125000
G01 X70.017120 Y198.844270 Z-0.125000
G01 X72.228084 Y199.216089 Z-0.125000
G01 X74.456908 Y199.484482 Z-0.125000
G01 X79.107939 Y199.736048 Z-0.125000
G01 X84.073850 Y199.604974 Z-0.125000
G01 X89.597345 Y199.079591 Z-0.125000
G01 X102.748723 Y197.243382 Z-0.125000
G01 X105.363073 Y196.759988 Z-0.125000
G01 X107.535463 Y196.174754 Z-0.125000
G01 X109.670963 Y195.432044 Z-0.125000
G01 X111.812023 Y194.514624 Z-0.125000
G01 X113.910963 Y193.441024 Z-0.125000
G01 X116.638743 Y191.775424 Z-0.125000
G01 X119.262213 Y189.865474 Z-0.125000
G01 X121.759693 Y187.740944 Z-0.125000
G01 X124.228363 Y185.314454 Z-0.125000
G01 X126.615483 Y182.620174 Z-0.125000
G01 X128.825283 Y179.777654 Z-0.125000
G01 X130.956453 Y176.674994 Z-0.125000
G01 X133.043993 Y173.250384 Z-0.125000
G01 X135.331633 Y169.013264 Z-0.125000
G01 X137.567913 Y164.343234 Z-0.125000
G01 X139.555443 Y159.666174 Z-0.125000
G01 X141.083193 Y155.459294 Z-0.125000
G01 X142.013333 Y152.198304 Z-0.125000
G01 X142.609233 Y149.128774 Z-0.125000
G01 X142.884453 Y146.177874 Z-0.125000
G01 X142.858753 Y143.113464 Z-0.125000
G01 X142.572423 Y140.439214 Z-0.125000
G01 X142.060453 Y137.938354 Z-0.125000
G01 X141.317053 Y135.513154 Z-0.125000
G01 X140.344953 Y133.171804 Z-0.125000
G01 X139.149003 Y130.921414 Z-0.125000
G01 X137.736183 Y128.764744 Z-0.125000
G01 X136.046843 Y126.617864 Z-0.125000
G01 X134.097373 Y124.507494 Z-0.125000
G01 X131.364433 Y121.958494 Z-0.125000
G01 X127.971103 Y119.188974 Z-0.125000
G01 X124.072543 Y116.335894 Z-0.125000
G01 X120.215743 Y113.794464 Z-0.125000
G01 X117.026343 Y111.942724 Z-0.125000
G01 X114.091933 Y110.503304 Z-0.125000
G01 X111.330823 Y109.450714 Z-0.125000
G01 X108.730633 Y108.796034 Z-0.125000
G01 X107.226923 Y108.599974 Z-0.125000
G01 X105.898053 Y108.556274 Z-0.125000
G01 X104.129503 Y108.674174 Z-0.125000
G01 X102.336553 Y108.919364 Z-0.125000
G01 X100.549474 Y109.278164 Z-0.125000
G01 X98.870534 Y109.732564 Z-0.125000
G01 X97.202866 Y110.308584 Z-0.125000
G01 X95.621001 Y110.981444 Z-0.125000
G01 X94.152934 Y111.725744 Z-0.125000
G01 X92.726063 Y112.567434 Z-0.125000
G01 X91.273342 Y113.550654 Z-0.125000
G01 X89.883459 Y114.615314 Z-0.125000
G01 X87.069509 Y117.146184 Z-0.125000
G01 X84.141392 Y120.283244 Z-0.125000
G01 X80.045986 Y125.344304 Z-0.125000
G01 X71.098969 Y137.369424 Z-0.125000
G01 X66.644523 Y143.136574 Z-0.125000
G01 X61.488350 Y149.423714 Z-0.125000
G01 X52.026241 Y160.433874 Z-0.125000
G01 X49.926799 Y163.112854 Z-0.125000
G01 X48.424257 Y165.304534 Z-0.125000
G01 X47.418708 Y167.071124 Z-0.125000
G01 X46.720155 Y168.646724 Z-0.125000
G01 X46.183844 Y170.421174 Z-0.125000
G01 X45.807183 Y172.363374 Z-0.125000
G01 X45.465580 Y174.799074 Z-0.125000
G01 X45.326356 Y177.061744 Z-0.125000
G01 X45.398196 Y179.255534 Z-0.125000
G01 X45.669499 Y181.212634 Z-0.125000
G01 X46.066956 Y182.838894 Z-0.125000
G01 X46.609776 Y184.391094 Z-0.125000
G01 X47.329866 Y185.945364 Z-0.125000
G01 X48.199816 Y187.431264 Z-0.125000
G01 X49.234760 Y188.878114 Z-0.125000
G01 X50.459278 Y190.307174 Z-0.125000
G01 X51.812780 Y191.646054 Z-0.125000
G01 X53.271031 Y192.885724 Z-0.125000
G01 X54.907400 Y194.087994 Z-0.125000
G01 X56.631610 Y195.184614 Z-0.125000
G01 X58.518539 Y196.221734 Z-0.125000
G01 X60.541517 Y197.174548 Z-0.125000
G01 X62.608838 Y198.001926 Z-0.125000
G01 X64.741486 Y198.719423 Z-0.125000
G01 X67.021374 Y199.349740 Z-0.125000
G01 X69.294489 Y199.850332 Z-0.125000
G01 X71.499632 Y200.224003 Z-0.125000
G01 X73.819896 Y200.508007 Z-0.125000
G01 X76.140530 Y200.688241 Z-0.125000
G01 X78.668121 Y200.775421 Z-0.125000
G01 X83.840407 Y200.642494 Z-0.125000
G01 X89.431026 Y200.130076 Z-0.125000
G01 X98.529544 Y198.934450 Z-0.125000
G01 X102.959123 Y198.439573 Z-0.125000
G01 X105.643393 Y197.967424 Z-0.125000
G01 X107.829093 Y197.394311 Z-0.125000
G01 X110.031223 Y196.639057 Z-0.125000
G01 X112.277593 Y195.679384 Z-0.125000
G01 X114.398013 Y194.592684 Z-0.125000
G01 X117.108243 Y192.936954 Z-0.125000
G01 X119.807203 Y190.971654 Z-0.125000
G01 X122.378723 Y188.779184 Z-0.125000
G01 X124.900563 Y186.291814 Z-0.125000
G01 X127.271233 Y183.610234 Z-0.125000
G01 X129.589253 Y180.622984 Z-0.125000
G01 X131.756823 Y177.456924 Z-0.125000
G01 X133.863033 Y173.997524 Z-0.125000
G01 X136.231293 Y169.619494 Z-0.125000
G01 X138.562563 Y164.788304 Z-0.125000
G01 X140.700613 Y159.829274 Z-0.125000
G01 X142.244163 Y155.648934 Z-0.125000
G01 X143.178963 Y152.404954 Z-0.125000
G01 X143.767843 Y149.329624 Z-0.125000
G01 X144.023563 Y146.316154 Z-0.125000
G01 X143.965163 Y143.243414 Z-0.125000
G01 X143.657163 Y140.626264 Z-0.125000
G01 X143.108363 Y138.075124 Z-0.125000
G01 X142.320083 Y135.598754 Z-0.125000
G01 X141.295593 Y133.207504 Z-0.125000
G01 X140.040413 Y130.910344 Z-0.125000
G01 X138.550753 Y128.695644 Z-0.125000
G01 X136.828633 Y126.556834 Z-0.125000
G01 X134.830213 Y124.432674 Z-0.125000
G01 X131.894123 Y121.736704 Z-0.125000
G01 X128.283753 Y118.817554 Z-0.125000
G01 X123.850213 Y115.570724 Z-0.125000
G01 X119.724303 Y112.829804 Z-0.125000
G01 X116.497523 Y110.937364 Z-0.125000
G01 X113.612923 Y109.507164 Z-0.125000
G01 X110.805673 Y108.427924 Z-0.125000
G01 X108.259453 Y107.785834 Z-0.125000
G01 X106.839723 Y107.600014 Z-0.125000
G01 X105.396423 Y107.545714 Z-0.125000
G01 X103.340903 Y107.672154 Z-0.125000
G01 X101.495323 Y107.900914 Z-0.125000
G01 X99.760188 Y108.226854 Z-0.125000
G01 X98.036295 Y108.670564 Z-0.125000
G01 X96.411754 Y109.210894 Z-0.125000
G01 X94.801949 Y109.876134 Z-0.125000
G01 X93.345656 Y110.599644 Z-0.125000
G01 X91.864730 Y111.462844 Z-0.125000
G01 X90.444077 Y112.419074 Z-0.125000
G01 X89.091659 Y113.451294 Z-0.125000
G01 X86.297262 Y115.967054 Z-0.125000
G01 X83.375865 Y119.124994 Z-0.125000
G01 X81.333732 Y121.604984 Z-0.125000
G01 X79.218467 Y124.351784 Z-0.125000
G01 X70.156779 Y136.799504 Z-0.125000
G01 X65.560517 Y142.855124 Z-0.125000
G01 X60.326662 Y149.316914 Z-0.125000
G01 X50.850240 Y160.427294 Z-0.125000
G01 X48.731059 Y163.146474 Z-0.125000
G01 X47.171182 Y165.442124 Z-0.125000
G01 X46.179550 Y167.212824 Z-0.125000
G01 X45.423133 Y168.984264 Z-0.125000
G01 X44.888331 Y170.991444 Z-0.125000
G01 X44.490477 Y173.093934 Z-0.125000
G01 X44.161547 Y175.587944 Z-0.125000
G01 X44.043198 Y177.845104 Z-0.125000
G01 X44.129718 Y179.970264 Z-0.125000
G01 X44.421924 Y181.966254 Z-0.125000
G01 X44.849438 Y183.640644 Z-0.125000
G01 X45.454619 Y185.293234 Z-0.125000
G01 X46.180027 Y186.797844 Z-0.125000
G01 X47.090935 Y188.307604 Z-0.125000
G01 X48.132361 Y189.729264 Z-0.125000
G01 X49.355927 Y191.134434 Z-0.125000
G01 X50.730146 Y192.479314 Z-0.125000
G01 X52.277218 Y193.780664 Z-0.125000
G01 X53.928509 Y194.981714 Z-0.125000
G01 X55.756647 Y196.132974 Z-0.125000
G01 X57.644873 Y197.160617 Z-0.125000
G01 X59.687245 Y198.116609 Z-0.125000
G01 X61.776130 Y198.949994 Z-0.125000
G01 X63.895919 Y199.663946 Z-0.125000
G01 X66.211049 Y200.307095 Z-0.125000
G01 X68.477761 Y200.811444 Z-0.125000
G01 X70.774582 Y201.206890 Z-0.125000
G01 X73.086062 Y201.496159 Z-0.125000
G01 X77.870549 Y201.781697 Z-0.125000
G01 X82.960100 Y201.690287 Z-0.125000
G01 X88.805037 Y201.204617 Z-0.125000
G01 X98.147977 Y200.086673 Z-0.125000
G01 X103.313063 Y199.603941 Z-0.125000
G01 X105.739273 Y199.205373 Z-0.125000
G01 X108.093293 Y198.613765 Z-0.125000
G01 X110.365933 Y197.847108 Z-0.125000
G01 X112.651273 Y196.878362 Z-0.125000
G01 X114.848903 Y195.755074 Z-0.125000
G01 X117.630283 Y194.053434 Z-0.125000
G01 X120.323263 Y192.090144 Z-0.125000
G01 X122.967223 Y189.833934 Z-0.125000
G01 X125.479593 Y187.355534 Z-0.125000
G01 X127.905853 Y184.612934 Z-0.125000
G01 X130.214363 Y181.642224 Z-0.125000
G01 X132.441553 Y178.400074 Z-0.125000
G01 X134.557313 Y174.938364 Z-0.125000
G01 X137.021043 Y170.414654 Z-0.125000
G01 X139.557673 Y165.208104 Z-0.125000
G01 X141.811953 Y160.066084 Z-0.125000
G01 X143.407313 Y155.828894 Z-0.125000
G01 X144.343253 Y152.608194 Z-0.125000
G01 X144.908083 Y149.623304 Z-0.125000
G01 X145.149753 Y146.577764 Z-0.125000
G01 X145.068253 Y143.499784 Z-0.125000
G01 X144.723743 Y140.791214 Z-0.125000
G01 X144.148513 Y138.244074 Z-0.125000
G01 X143.336083 Y135.767174 Z-0.125000
G01 X142.290263 Y133.373304 Z-0.125000
G01 X141.016243 Y131.072434 Z-0.125000
G01 X139.521713 Y128.869564 Z-0.125000
G01 X137.747373 Y126.682364 Z-0.125000
G01 X135.731853 Y124.555004 Z-0.125000
G01 X132.698643 Y121.784794 Z-0.125000
G01 X128.834563 Y118.665624 Z-0.125000
G01 X123.829223 Y114.971484 Z-0.125000
G01 X119.384093 Y111.966394 Z-0.125000
G01 X116.062703 Y109.980334 Z-0.125000
G01 X113.185883 Y108.526894 Z-0.125000
G01 X110.434033 Y107.445384 Z-0.125000
G01 X107.875883 Y106.780884 Z-0.125000
G01 X106.462873 Y106.589984 Z-0.125000
G01 X104.750013 Y106.525484 Z-0.125000
G01 X102.740053 Y106.617584 Z-0.125000
G01 X100.836378 Y106.814564 Z-0.125000
G01 X99.142198 Y107.096844 Z-0.125000
G01 X97.361790 Y107.517004 Z-0.125000
G01 X95.696053 Y108.039134 Z-0.125000
G01 X94.103050 Y108.668814 Z-0.125000
G01 X92.641280 Y109.369754 Z-0.125000
G01 X91.203137 Y110.183604 Z-0.125000
G01 X89.751580 Y111.138834 Z-0.125000
G01 X88.364925 Y112.183354 Z-0.125000
G01 X85.588441 Y114.672744 Z-0.125000
G01 X82.718135 Y117.788794 Z-0.125000
G01 X80.650681 Y120.329184 Z-0.125000
G01 X78.365131 Y123.355494 Z-0.125000
G01 X69.269206 Y136.152254 Z-0.125000
G01 X64.483105 Y142.583634 Z-0.125000
G01 X59.180881 Y149.224894 Z-0.125000
G01 X49.631460 Y160.538424 Z-0.125000
G01 X47.658701 Y163.090674 Z-0.125000
G01 X46.035905 Y165.492744 Z-0.125000
G01 X45.001411 Y167.365784 Z-0.125000
G01 X44.261133 Y169.164944 Z-0.125000
G01 X43.878413 Y170.523904 Z-0.125000
G01 X43.287546 Y173.539624 Z-0.125000
G01 X42.949303 Y176.069064 Z-0.125000
G01 X42.820874 Y178.400994 Z-0.125000
G01 X42.906364 Y180.575074 Z-0.125000
G01 X43.206401 Y182.616474 Z-0.125000
G01 X43.648864 Y184.329174 Z-0.125000
G01 X44.224624 Y185.896774 Z-0.125000
G01 X44.985010 Y187.474404 Z-0.125000
G01 X45.883826 Y188.962684 Z-0.125000
G01 X46.972348 Y190.446654 Z-0.125000
G01 X48.264335 Y191.921764 Z-0.125000
G01 X49.659351 Y193.277934 Z-0.125000
G01 X51.214307 Y194.581274 Z-0.125000
G01 X52.956456 Y195.843894 Z-0.125000
G01 X54.781366 Y196.988985 Z-0.125000
G01 X56.684779 Y198.024670 Z-0.125000
G01 X58.745354 Y198.991854 Z-0.125000
G01 X60.856702 Y199.838732 Z-0.125000
G01 X63.077694 Y200.589964 Z-0.125000
G01 X65.406477 Y201.239913 Z-0.125000
G01 X67.765343 Y201.767942 Z-0.125000
G01 X70.755982 Y202.265226 Z-0.125000
G01 X73.959848 Y202.604263 Z-0.125000
G01 X77.179509 Y202.763807 Z-0.125000
G01 X80.659124 Y202.756207 Z-0.125000
G01 X86.192884 Y202.433256 Z-0.125000
G01 X97.573619 Y201.223052 Z-0.125000
G01 X103.488223 Y200.778737 Z-0.125000
G01 X106.471183 Y200.299312 Z-0.125000
G01 X109.450843 Y199.486592 Z-0.125000
G01 X112.417143 Y198.343962 Z-0.125000
G01 X115.350443 Y196.879890 Z-0.125000
G01 X118.121263 Y195.180784 Z-0.125000
G01 X120.890393 Y193.157734 Z-0.125000
G01 X123.515723 Y190.914194 Z-0.125000
G01 X126.106653 Y188.355784 Z-0.125000
G01 X128.520663 Y185.626074 Z-0.125000
G01 X130.881063 Y182.589934 Z-0.125000
G01 X133.133963 Y179.310874 Z-0.125000
G01 X135.305053 Y175.765634 Z-0.125000
G01 X137.854313 Y171.098284 Z-0.125000
G01 X140.519993 Y165.672574 Z-0.125000
G01 X142.965373 Y160.189404 Z-0.125000
G01 X144.572053 Y155.999254 Z-0.125000
G01 X145.505083 Y152.807134 Z-0.125000
G01 X146.042343 Y149.916194 Z-0.125000
G01 X146.266393 Y146.839724 Z-0.125000
G01 X146.155743 Y143.712824 Z-0.125000
G01 X145.793903 Y141.056904 Z-0.125000
G01 X145.185123 Y138.456714 Z-0.125000
G01 X144.331683 Y135.925444 Z-0.125000
G01 X143.284063 Y133.570784 Z-0.125000
G01 X142.018903 Y131.305504 Z-0.125000
G01 X140.479803 Y129.050484 Z-0.125000
G01 X138.691853 Y126.860264 Z-0.125000
G01 X136.632253 Y124.699254 Z-0.125000
G01 X133.469213 Y121.831494 Z-0.125000
G01 X129.388653 Y118.551184 Z-0.125000
G01 X123.588693 Y114.239164 Z-0.125000
G01 X118.804713 Y110.952434 Z-0.125000
G01 X115.542633 Y108.970284 Z-0.125000
G01 X112.626533 Y107.477604 Z-0.125000
G01 X109.888283 Y106.394824 Z-0.125000
G01 X107.321533 Y105.734184 Z-0.125000
G01 X105.908523 Y105.548684 Z-0.125000
G01 X103.940893 Y105.481184 Z-0.125000
G01 X101.873993 Y105.543984 Z-0.125000
G01 X99.918674 Y105.721064 Z-0.125000
G01 X98.180600 Y105.991894 Z-0.125000
G01 X96.457289 Y106.380914 Z-0.125000
G01 X94.823619 Y106.875414 Z-0.125000
G01 X93.218524 Y107.494434 Z-0.125000
G01 X91.751754 Y108.187114 Z-0.125000
G01 X90.344567 Y108.975284 Z-0.125000
G01 X88.867716 Y109.942784 Z-0.125000
G01 X87.493232 Y110.979234 Z-0.125000
G01 X86.107636 Y112.160844 Z-0.125000
G01 X84.695052 Y113.508814 Z-0.125000
G01 X81.917324 Y116.565594 Z-0.125000
G01 X79.928795 Y119.047914 Z-0.125000
G01 X77.682906 Y122.079674 Z-0.125000
G01 X68.432305 Y135.427264 Z-0.125000
G01 X63.532804 Y142.163004 Z-0.125000
G01 X58.146258 Y149.032064 Z-0.125000
G01 X48.333285 Y160.821344 Z-0.125000
G01 X46.373226 Y163.414014 Z-0.125000
G01 X44.895925 Y165.656814 Z-0.125000
G01 X43.875427 Y167.556894 Z-0.125000
G01 X43.202115 Y169.264984 Z-0.125000
G01 X42.718721 Y171.034894 Z-0.125000
G01 X42.076895 Y174.430134 Z-0.125000
G01 X41.753998 Y177.015424 Z-0.125000
G01 X41.652821 Y179.256684 Z-0.125000
G01 X41.763761 Y181.464664 Z-0.125000
G01 X42.078800 Y183.443714 Z-0.125000
G01 X42.525126 Y185.105384 Z-0.125000
G01 X43.142002 Y186.734054 Z-0.125000
G01 X43.906753 Y188.279164 Z-0.125000
G01 X44.860867 Y189.822394 Z-0.125000
G01 X45.957433 Y191.286334 Z-0.125000
G01 X47.256458 Y192.747654 Z-0.125000
G01 X48.675048 Y194.111874 Z-0.125000
G01 X50.318057 Y195.473604 Z-0.125000
G01 X52.062296 Y196.723737 Z-0.125000
G01 X53.946288 Y197.894915 Z-0.125000
G01 X55.892034 Y198.943988 Z-0.125000
G01 X57.997086 Y199.923396 Z-0.125000
G01 X60.230381 Y200.808401 Z-0.125000
G01 X62.451055 Y201.549234 Z-0.125000
G01 X64.803280 Y202.198257 Z-0.125000
G01 X67.159421 Y202.720491 Z-0.125000
G01 X70.241129 Y203.227407 Z-0.125000
G01 X73.434147 Y203.561893 Z-0.125000
G01 X76.697333 Y203.724056 Z-0.125000
G01 X80.008567 Y203.725356 Z-0.125000
G01 X85.955659 Y203.398304 Z-0.125000
G01 X97.863549 Y202.251389 Z-0.125000
G01 X103.885073 Y201.923332 Z-0.125000
G01 X106.833903 Y201.464121 Z-0.125000
G01 X109.873963 Y200.642246 Z-0.125000
G01 X112.894793 Y199.476571 Z-0.125000
G01 X115.891963 Y197.972362 Z-0.125000
G01 X118.663263 Y196.263814 Z-0.125000
G01 X121.431043 Y194.235724 Z-0.125000
G01 X124.115003 Y191.936684 Z-0.125000
G01 X126.711733 Y189.367234 Z-0.125000
G01 X129.181003 Y186.569614 Z-0.125000
G01 X131.536483 Y183.537204 Z-0.125000
G01 X133.810023 Y180.229774 Z-0.125000
G01 X136.053403 Y176.566964 Z-0.125000
G01 X138.734313 Y171.661674 Z-0.125000
G01 X141.526833 Y166.014774 Z-0.125000
G01 X144.122983 Y160.293264 Z-0.125000
G01 X145.737893 Y156.159524 Z-0.125000
G01 X146.640143 Y153.100094 Z-0.125000
G01 X147.170163 Y150.207214 Z-0.125000
G01 X147.371403 Y147.200044 Z-0.125000
G01 X147.240033 Y144.028694 Z-0.125000
G01 X146.850803 Y141.323464 Z-0.125000
G01 X146.236203 Y138.769804 Z-0.125000
G01 X145.388533 Y136.277984 Z-0.125000
G01 X144.292813 Y133.827284 Z-0.125000
G01 X143.012893 Y131.547744 Z-0.125000
G01 X141.461533 Y129.283044 Z-0.125000
G01 X139.694383 Y127.121604 Z-0.125000
G01 X137.621113 Y124.949534 Z-0.125000
G01 X134.525883 Y122.144744 Z-0.125000
G01 X130.445263 Y118.856634 Z-0.125000
G01 X123.353243 Y113.528164 Z-0.125000
G01 X118.361903 Y110.023594 Z-0.125000
G01 X115.075223 Y107.981064 Z-0.125000
G01 X112.212383 Y106.482914 Z-0.125000
G01 X109.436843 Y105.363094 Z-0.125000
G01 X106.971093 Y104.714444 Z-0.125000
G01 X105.346623 Y104.489734 Z-0.125000
G01 X103.319843 Y104.400834 Z-0.125000
G01 X101.296413 Y104.414534 Z-0.125000
G01 X99.282298 Y104.549574 Z-0.125000
G01 X97.482655 Y104.790244 Z-0.125000
G01 X95.798767 Y105.134074 Z-0.125000
G01 X94.133903 Y105.602144 Z-0.125000
G01 X92.586858 Y106.164754 Z-0.125000
G01 X91.069393 Y106.848494 Z-0.125000
G01 X89.633182 Y107.627424 Z-0.125000
G01 X88.178715 Y108.557914 Z-0.125000
G01 X86.783090 Y109.592374 Z-0.125000
G01 X85.365665 Y110.791204 Z-0.125000
G01 X83.992345 Y112.098564 Z-0.125000
G01 X81.181359 Y115.208234 Z-0.125000
G01 X79.223601 Y117.686594 Z-0.125000
G01 X76.958926 Y120.805364 Z-0.125000
G01 X67.641227 Y134.624364 Z-0.125000
G01 X62.515349 Y141.846114 Z-0.125000
G01 X57.103535 Y148.881734 Z-0.125000
G01 X47.192534 Y160.981894 Z-0.125000
G01 X45.261552 Y163.587084 Z-0.125000
G01 X43.812615 Y165.841634 Z-0.125000
G01 X42.861385 Y167.662514 Z-0.125000
G01 X42.198154 Y169.366934 Z-0.125000
G01 X41.580590 Y171.834204 Z-0.125000
G01 X40.956490 Y175.150414 Z-0.125000
G01 X40.642007 Y177.684144 Z-0.125000
G01 X40.540142 Y179.974244 Z-0.125000
G01 X40.650182 Y182.126544 Z-0.125000
G01 X40.974270 Y184.147464 Z-0.125000
G01 X41.432317 Y185.830104 Z-0.125000
G01 X42.043637 Y187.428664 Z-0.125000
G01 X42.832519 Y189.008884 Z-0.125000
G01 X43.797110 Y190.555454 Z-0.125000
G01 X44.956302 Y192.087334 Z-0.125000
G01 X46.260328 Y193.539264 Z-0.125000
G01 X47.691168 Y194.905944 Z-0.125000
G01 X49.335871 Y196.263204 Z-0.125000
G01 X51.089344 Y197.518019 Z-0.125000
G01 X53.010960 Y198.712692 Z-0.125000
G01 X54.972819 Y199.771899 Z-0.125000
G01 X57.075330 Y200.753265 Z-0.125000
G01 X59.231155 Y201.615806 Z-0.125000
G01 X61.537025 Y202.395851 Z-0.125000
G01 X63.911555 Y203.059823 Z-0.125000
G01 X66.363581 Y203.610606 Z-0.125000
G01 X69.334190 Y204.111092 Z-0.125000
G01 X72.365522 Y204.450235 Z-0.125000
G01 X75.514301 Y204.637216 Z-0.125000
G01 X78.959282 Y204.671376 Z-0.125000
G01 X84.758525 Y204.407665 Z-0.125000
G01 X97.150444 Y203.327530 Z-0.125000
G01 X104.172143 Y203.070038 Z-0.125000
G01 X107.253113 Y202.607890 Z-0.125000
G01 X110.250543 Y201.804192 Z-0.125000
G01 X113.335583 Y200.616001 Z-0.125000
G01 X116.398643 Y199.074142 Z-0.125000
G01 X119.243733 Y197.310323 Z-0.125000
G01 X122.019323 Y195.265194 Z-0.125000
G01 X124.690793 Y192.969624 Z-0.125000
G01 X127.295873 Y190.389084 Z-0.125000
G01 X129.757563 Y187.601564 Z-0.125000
G01 X132.103413 Y184.588444 Z-0.125000
G01 X134.414813 Y181.238924 Z-0.125000
G01 X136.633583 Y177.635404 Z-0.125000
G01 X139.317543 Y172.766994 Z-0.125000
G01 X142.398503 Y166.609294 Z-0.125000
G01 X145.164853 Y160.652114 Z-0.125000
G01 X146.871153 Y156.404494 Z-0.125000
G01 X147.771983 Y153.387084 Z-0.125000
G01 X148.278583 Y150.597214 Z-0.125000
G01 X148.467753 Y147.521774 Z-0.125000
G01 X148.316253 Y144.379474 Z-0.125000
G01 X147.911553 Y141.675854 Z-0.125000
G01 X147.283293 Y139.113104 Z-0.125000
G01 X146.385883 Y136.511804 Z-0.125000
G01 X145.289533 Y134.084754 Z-0.125000
G01 X143.969843 Y131.750094 Z-0.125000
G01 X142.433453 Y129.517804 Z-0.125000
G01 X140.659613 Y127.354754 Z-0.125000
G01 X138.603803 Y125.206234 Z-0.125000
G01 X135.629403 Y122.513254 Z-0.125000
G01 X131.824993 Y119.441074 Z-0.125000
G01 X122.520653 Y112.387304 Z-0.125000
G01 X117.631073 Y108.895784 Z-0.125000
G01 X114.483373 Y106.908204 Z-0.125000
G01 X111.667473 Y105.414604 Z-0.125000
G01 X109.015283 Y104.328464 Z-0.125000
G01 X106.532063 Y103.665474 Z-0.125000
G01 X104.722393 Y103.412874 Z-0.125000
G01 X102.640153 Y103.282254 Z-0.125000
G01 X100.561506 Y103.252954 Z-0.125000
G01 X98.596366 Y103.343454 Z-0.125000
G01 X96.748939 Y103.551944 Z-0.125000
G01 X95.021977 Y103.872354 Z-0.125000
G01 X93.416247 Y104.293964 Z-0.125000
G01 X91.850285 Y104.833424 Z-0.125000
G01 X90.360813 Y105.476684 Z-0.125000
G01 X88.804084 Y106.299484 Z-0.125000
G01 X87.398088 Y107.185654 Z-0.125000
G01 X85.976297 Y108.229064 Z-0.125000
G01 X84.592049 Y109.395084 Z-0.125000
G01 X83.192298 Y110.728554 Z-0.125000
G01 X81.790826 Y112.218634 Z-0.125000
G01 X80.395255 Y113.852174 Z-0.125000
G01 X78.352487 Y116.487584 Z-0.125000
G01 X76.079451 Y119.699384 Z-0.125000
G01 X66.675842 Y134.064544 Z-0.125000
G01 X61.579279 Y141.432974 Z-0.125000
G01 X56.074888 Y148.747034 Z-0.125000
G01 X46.057287 Y161.212594 Z-0.125000
G01 X44.153557 Y163.850304 Z-0.125000
G01 X42.794392 Y166.033064 Z-0.125000
G01 X41.872531 Y167.864794 Z-0.125000
G01 X41.169004 Y169.774874 Z-0.125000
G01 X40.406475 Y173.111454 Z-0.125000
G01 X39.859581 Y176.107304 Z-0.125000
G01 X39.566687 Y178.576134 Z-0.125000
G01 X39.480037 Y180.821384 Z-0.125000
G01 X39.598729 Y182.911964 Z-0.125000
G01 X39.939301 Y184.953414 Z-0.125000
