%
(Header)
(Generated by gcodetools from Inkscape.)
(Using default header. To add your own header create file "header" in the output dir.)
M3
(Header end.)
G21 (All units in mm)

(Start cutting path id: path617069)
(Change tool to Default tool)

G00 Z3.000000
G00 X124.050849 Y256.049859

G00 Z4.875000 (Fast pre-penetrate)
G01 Z-0.125000 F400.0(Penetrate)
G02 X124.399949 Y256.193482 Z-0.125000 I26.233784 J-63.269544 F800.000000
G02 X124.745715 Y256.325743 Z-0.125000 I3.150412 J-7.717986
G02 X125.095442 Y256.444943 Z-0.125000 I4.243794 J-11.878443
G02 X125.440579 Y256.546365 Z-0.125000 I1.981516 J-6.105063
G02 X125.789952 Y256.629461 Z-0.125000 I1.885148 J-7.150021
G02 X126.135443 Y256.692153 Z-0.125000 I1.227377 J-5.780640
G02 X126.483796 Y256.734141 Z-0.125000 I0.877851 J-5.817035
G02 X126.830307 Y256.756100 Z-0.125000 I0.582216 J-6.442357
G02 X127.177614 Y256.758298 Z-0.125000 I0.210149 J-5.767114
G02 X127.525173 Y256.742818 Z-0.125000 I-0.199365 J-8.385890
G02 X127.871904 Y256.711196 Z-0.125000 I-0.433622 J-6.671381
G02 X128.220037 Y256.665782 Z-0.125000 I-1.609940 J-13.698430
G02 X128.566745 Y256.609200 Z-0.125000 I-1.290258 J-8.996558
G02 X128.914900 Y256.543510 Z-0.125000 I-5.924516 J-32.355602
G02 X129.261927 Y256.471805 Z-0.125000 I-2.841875 J-14.629156
G03 X129.609764 Y256.395807 Z-0.125000 I70.141146 J320.196890
G02 X129.957191 Y256.318276 Z-0.125000 I-7.582368 J-34.794989
G03 X130.304631 Y256.240661 Z-0.125000 I8.303849 J36.355112
G03 X130.652355 Y256.164962 Z-0.125000 I57.660501 J264.029479
G03 X130.999494 Y256.092304 Z-0.125000 I5.105255 J23.525718
G03 X131.347362 Y256.023894 Z-0.125000 I7.341170 J36.411369
G03 X131.694358 Y255.960462 Z-0.125000 I3.861216 J20.141603
G03 X132.042231 Y255.902583 Z-0.125000 I4.124637 J23.716189
G03 X132.389224 Y255.850599 Z-0.125000 I3.114435 J19.604823
G03 X132.737021 Y255.804654 Z-0.125000 I2.868005 J20.370864
G03 X133.084088 Y255.764803 Z-0.125000 I2.519008 J20.407086
G03 X133.431780 Y255.730938 Z-0.125000 I2.109828 J19.860061
G03 X133.778952 Y255.702975 Z-0.125000 I1.926993 J21.755095
G03 X134.126541 Y255.680694 Z-0.125000 I1.500559 J20.686925
G03 X134.473816 Y255.664013 Z-0.125000 I1.268549 J22.785186
G03 X134.821316 Y255.652714 Z-0.125000 I0.887828 J21.955443
G03 X135.168682 Y255.646815 Z-0.125000 I0.561088 J22.810720
G03 X135.516097 Y255.646249 Z-0.125000 I0.211353 J23.127828
G03 X135.863546 Y255.651022 Z-0.125000 I-0.130174 J22.127560
G03 X136.210866 Y255.661323 Z-0.125000 I-0.503297 J22.828811
G03 X136.558410 Y255.677427 Z-0.125000 I-0.716645 J19.224596
G03 X136.905608 Y255.699483 Z-0.125000 I-1.169972 J21.161513
G03 X137.253273 Y255.727939 Z-0.125000 I-1.246087 J17.362318
G03 X137.600321 Y255.763038 Z-0.125000 I-1.755560 J19.091328
G03 X137.948140 Y255.805197 Z-0.125000 I-1.790996 J16.232055
G03 X138.295024 Y255.854625 Z-0.125000 I-2.251644 J17.043964
G03 X138.643003 Y255.911535 Z-0.125000 I-2.566624 J16.785879
G03 X138.989792 Y255.975863 Z-0.125000 I-2.772759 J15.914821
G03 X139.337867 Y256.047325 Z-0.125000 I-4.202148 J21.351207
G03 X139.684751 Y256.125354 Z-0.125000 I-3.505783 J16.395282
G03 X140.032731 Y256.208702 Z-0.125000 I-12.739191 J53.954468
G03 X140.380022 Y256.296165 Z-0.125000 I-5.033615 J20.720259
G02 X140.727597 Y256.384943 Z-0.125000 I8.986560 J-34.458479
G03 X141.075579 Y256.473198 Z-0.125000 I-13.017130 J52.055437
G02 X141.422461 Y256.556224 Z-0.125000 I2.644106 J-10.281002
G02 X141.771063 Y256.631477 Z-0.125000 I6.992151 J-31.545399
G02 X142.117325 Y256.692981 Z-0.125000 I1.155371 J-5.499105
G02 X142.465655 Y256.737024 Z-0.125000 I1.350338 J-9.280209
G02 X142.812189 Y256.758442 Z-0.125000 I0.409374 J-3.809454
G02 X143.158575 Y256.752206 Z-0.125000 I0.082720 J-5.028859
G02 X143.507055 Y256.715788 Z-0.125000 I-0.177791 J-3.386785
G02 X143.850602 Y256.645428 Z-0.125000 I-0.588885 J-3.749248
G02 X144.201919 Y256.540169 Z-0.125000 I-1.051092 J-4.147061
G02 X144.544423 Y256.402964 Z-0.125000 I-1.286372 J-3.707254
G02 X144.896783 Y256.233575 Z-0.125000 I-4.045158 J-8.865879
G02 X145.241756 Y256.043018 Z-0.125000 I-2.436717 J-4.818829
G03 X145.591649 Y255.837431 Z-0.125000 I10.516557 J17.497804
G02 X145.941657 Y255.628454 Z-0.125000 I-5.985190 J-10.421997
G03 X146.286513 Y255.435476 Z-0.125000 I2.313255 J3.729216
G03 X146.640547 Y255.264344 Z-0.125000 I5.926024 J11.807807
G03 X146.981376 Y255.139972 Z-0.125000 I0.896095 J1.926468
G03 X147.331605 Y255.068744 Z-0.125000 I0.732823 J2.706640
G03 X147.676240 Y255.059205 Z-0.125000 I0.215819 J1.566977
G03 X148.015626 Y255.121446 Z-0.125000 I-0.140838 J1.724363
G03 X148.371107 Y255.253520 Z-0.125000 I-0.707407 J2.448440
G03 X148.708559 Y255.444570 Z-0.125000 I-0.952948 J2.076747
G03 X149.065970 Y255.696898 Z-0.125000 I-8.452518 J12.351901
G03 X149.411718 Y255.975880 Z-0.125000 I-2.637770 J3.622774
G02 X149.760834 Y256.265397 Z-0.125000 I4.174375 J-4.678451
G03 X150.117238 Y256.544371 Z-0.125000 I-17.339446 J22.519208
G02 X150.455698 Y256.766964 Z-0.125000 I1.397730 J-1.756675
G02 X150.813749 Y256.931701 Z-0.125000 I1.546031 J-2.888789
G02 X151.150564 Y257.009153 Z-0.125000 I0.433595 J-1.114492
G02 X151.490629 Y256.990217 Z-0.125000 I0.101188 J-1.245873
G02 X151.845428 Y256.879801 Z-0.125000 I-0.325139 J-1.670002
G02 X152.178499 Y256.686302 Z-0.125000 I-0.669817 J-1.536371
G02 X152.540292 Y256.403271 Z-0.125000 I-6.138122 J-8.218982
G02 X152.883874 Y256.084953 Z-0.125000 I-2.434189 J-2.971977
G03 X153.235155 Y255.741546 Z-0.125000 I5.197109 J4.964901
G02 X153.592247 Y255.407207 Z-0.125000 I-13.066533 J-14.313573
G03 X153.930022 Y255.134611 Z-0.125000 I1.747783 J1.820124
G03 X154.292052 Y254.920012 Z-0.125000 I2.034736 J3.019936
G03 X154.624886 Y254.805190 Z-0.125000 I0.559397 J1.081713
G03 X154.968465 Y254.790941 Z-0.125000 I0.220340 J1.163601
G03 X155.319749 Y254.871457 Z-0.125000 I-0.155275 J1.484022
G03 X155.652044 Y255.041367 Z-0.125000 I-0.502688 J1.393001
G03 X156.014613 Y255.306699 Z-0.125000 I-3.868324 J5.666358
G03 X156.355288 Y255.611715 Z-0.125000 I-2.146617 J2.740336
G02 X156.709480 Y255.960102 Z-0.125000 I9.432976 J-9.235875
G03 X157.061963 Y256.307723 Z-0.125000 I-8.453156 J8.923908
G02 X157.404343 Y256.623131 Z-0.125000 I3.079312 J-2.999108
G02 X157.764810 Y256.904717 Z-0.125000 I5.378214 J-6.513289
G02 X158.099207 Y257.107649 Z-0.125000 I1.283710 J-1.738359
G02 X158.455853 Y257.244648 Z-0.125000 I0.954207 J-1.951345
G02 X158.794073 Y257.302710 Z-0.125000 I0.435182 J-1.520865
G02 X159.137108 Y257.282618 Z-0.125000 I0.088120 J-1.433866
G02 X159.488937 Y257.193006 Z-0.125000 I-0.454023 J-2.518043
G02 X159.827486 Y257.046104 Z-0.125000 I-0.653906 J-1.970542
G02 X160.183801 Y256.841542 Z-0.125000 I-4.313215 J-7.925551
G02 X160.526479 Y256.611270 Z-0.125000 I-2.238518 J-3.701352
G03 X160.878665 Y256.352521 Z-0.125000 I22.565641 J30.345276
G02 X161.226716 Y256.090851 Z-0.125000 I-7.606048 J-10.479205
G03 X161.573531 Y255.832835 Z-0.125000 I6.075177 J7.803942
G03 X161.925248 Y255.586493 Z-0.125000 I18.369186 J25.852469
G03 X162.268395 Y255.365060 Z-0.125000 I3.723526 J5.393632
G03 X162.621239 Y255.164518 Z-0.125000 I4.174599 J6.934325
G03 X162.963259 Y254.996197 Z-0.125000 I2.615363 J4.882643
G03 X163.315053 Y254.852981 Z-0.125000 I2.147382 J4.771099
G03 X163.658122 Y254.739573 Z-0.125000 I1.997154 J5.465980
G03 X164.008011 Y254.650231 Z-0.125000 I1.343250 J4.530738
G03 X164.352989 Y254.584183 Z-0.125000 I1.632168 J7.591142
G03 X164.701376 Y254.537062 Z-0.125000 I0.907796 J5.400261
G03 X165.047852 Y254.505957 Z-0.125000 I1.388391 J13.519820
G03 X165.395517 Y254.486975 Z-0.125000 I0.601622 J7.825741
G03 X165.742716 Y254.477331 Z-0.125000 I1.223095 J37.781234
G03 X166.090171 Y254.473532 Z-0.125000 I0.328834 J14.180680
G02 X166.437580 Y254.473760 Z-0.125000 I0.347409 J-264.633068
G03 X166.785015 Y254.475248 Z-0.125000 I0.001378 J40.223845
G02 X167.132446 Y254.477279 Z-0.125000 I0.541589 J-62.949079
G02 X167.479879 Y254.478072 Z-0.125000 I0.521152 J-152.075001
G02 X167.827310 Y254.478072 Z-0.125000 I0.173714 J-152.074207
G02 X168.174742 Y254.476402 Z-0.125000 I-0.155975 J-68.865493
G03 X168.522174 Y254.474712 Z-0.125000 I0.515037 J70.459162
G02 X168.869597 Y254.473307 Z-0.125000 I-0.225618 J-98.755129
G03 X169.217038 Y254.474744 Z-0.125000 I0.101440 J17.481430
G03 X169.564329 Y254.480577 Z-0.125000 I-0.889168 J63.284940
G03 X169.911904 Y254.494270 Z-0.125000 I-0.171272 J8.765322
G03 X170.258612 Y254.518444 Z-0.125000 I-0.989338 J16.687605
G03 X170.606768 Y254.557199 Z-0.125000 I-0.453837 J5.660345
G03 X170.952073 Y254.613675 Z-0.125000 I-1.209742 J8.480401
G03 X171.301631 Y254.692519 Z-0.125000 I-0.827859 J4.484636
G03 X171.644828 Y254.795471 Z-0.125000 I-1.527019 J5.713969
G03 X171.996498 Y254.928599 Z-0.125000 I-1.480827 J4.442773
G03 X172.338095 Y255.088537 Z-0.125000 I-2.059516 J4.843491
G03 X172.691362 Y255.283447 Z-0.125000 I-3.023520 J5.897606
G03 X173.033568 Y255.502319 Z-0.125000 I-3.008607 J5.080916
G03 X173.386225 Y255.751505 Z-0.125000 I-10.460360 J15.178031
G03 X173.732081 Y256.016102 Z-0.125000 I-4.874503 J6.729810
G02 X174.081089 Y256.290037 Z-0.125000 I10.094690 J-12.501884
G03 X174.433077 Y256.564577 Z-0.125000 I-12.600588 J16.518129
G02 X174.775956 Y256.811628 Z-0.125000 I2.701447 J-3.387835
G02 X175.133420 Y257.033994 Z-0.125000 I5.998969 J-9.245154
G02 X175.470819 Y257.191797 Z-0.125000 I0.955830 J-1.604064
G02 X175.822879 Y257.285548 Z-0.125000 I0.781082 J-2.225249
G02 X176.165683 Y257.299435 Z-0.125000 I0.219815 J-1.188166
G02 X176.500049 Y257.222259 Z-0.125000 I-0.140298 J-1.370752
G02 X176.860547 Y257.049605 Z-0.125000 I-0.726042 J-1.978642
G02 X177.193076 Y256.802714 Z-0.125000 I-1.101921 J-1.831521
G02 X177.555413 Y256.463321 Z-0.125000 I-9.789646 J-10.814576
G02 X177.900745 Y256.090237 Z-0.125000 I-3.260455 J-3.364294
G03 X178.250277 Y255.702764 Z-0.125000 I4.845405 J4.019547
G02 X178.612047 Y255.326287 Z-0.125000 I-18.770319 J-18.399150
G03 X178.945141 Y255.045566 Z-0.125000 I1.382037 J1.301896
G03 X179.308410 Y254.848417 Z-0.125000 I1.297699 J1.957899
G03 X179.640004 Y254.781650 Z-0.125000 I0.322088 J0.742821
G03 X179.969299 Y254.853101 Z-0.125000 I-0.009884 J0.840078
G03 X180.334871 Y255.061885 Z-0.125000 I-0.823868 J1.866998
G03 X180.667573 Y255.368638 Z-0.125000 I-1.078365 J1.503388
G02 X181.029735 Y255.778495 Z-0.125000 I10.252914 J-8.694835
G03 X181.385360 Y256.205401 Z-0.125000 I-4.132556 J3.804124
G02 X181.724598 Y256.571593 Z-0.125000 I1.956201 J-1.471981
G02 X182.094966 Y256.865567 Z-0.125000 I3.090679 J-3.513548
G02 X182.419462 Y257.000966 Z-0.125000 I0.457952 J-0.640978
G02 X182.753107 Y256.978554 Z-0.125000 I0.120491 J-0.700918
G02 X183.114328 Y256.810488 Z-0.125000 I-0.456745 J-1.453892
G02 X183.446211 Y256.520057 Z-0.125000 I-0.780000 J-1.226167
G03 X183.809192 Y256.116915 Z-0.125000 I6.206882 J5.223576
G02 X184.167269 Y255.702172 Z-0.125000 I-3.638911 J-3.503674
G03 X184.504056 Y255.367119 Z-0.125000 I1.449443 J1.120151
G03 X184.871409 Y255.133539 Z-0.125000 I1.531690 J2.003245
G03 X185.198922 Y255.054324 Z-0.125000 I0.323789 J0.622035
G03 X185.527722 Y255.139969 Z-0.125000 I-0.003936 J0.689079
G03 X185.893786 Y255.374509 Z-0.125000 I-1.594036 J2.890872
G03 X186.234148 Y255.700713 Z-0.125000 I-1.092582 J1.480670
G02 X186.588650 Y256.079805 Z-0.125000 I2.744170 J-2.210868
G03 X186.953452 Y256.429447 Z-0.125000 I-9.024975 J9.781414
G02 X187.283514 Y256.656763 Z-0.125000 I0.789412 J-0.792943
G02 X187.635157 Y256.745099 Z-0.125000 I0.422837 J-0.939135
G02 X187.978380 Y256.705501 Z-0.125000 I0.065251 J-0.941710
G02 X188.309736 Y256.524909 Z-0.125000 I-0.279519 J-0.907156
G03 X188.673244 Y256.228538 Z-0.125000 I9.990605 J11.882640
G02 X189.025146 Y255.901677 Z-0.125000 I-1.872302 J-2.368604
G03 X189.368107 Y255.606971 Z-0.125000 I1.411497 J1.295706
G03 X189.731172 Y255.391653 Z-0.125000 I2.092115 J3.113913
G03 X190.062971 Y255.294832 Z-0.125000 I0.410887 J0.791150
G03 X190.401025 Y255.334806 Z-0.125000 I0.073648 J0.826581
G03 X190.757838 Y255.483197 Z-0.125000 I-0.882086 J2.624207
G00 Z3.000000

(End cutting path id: path617069)


(Start cutting path id: path617067)
(Change tool to Default tool)

G00 Z3.000000
G00 X124.050849 Y255.005526

G00 Z4.875000 (Fast pre-penetrate)
G01 Z-0.125000 F400.0(Penetrate)
G02 X124.400414 Y255.145310 Z-0.125000 I9.730112 J-23.825723 F800.000000
G02 X124.745715 Y255.270242 Z-0.125000 I2.580784 J-6.593411
G02 X125.095562 Y255.379173 Z-0.125000 I2.985520 J-8.972140
G02 X125.440579 Y255.467959 Z-0.125000 I1.622682 J-5.590863
G02 X125.789689 Y255.536187 Z-0.125000 I1.381402 J-6.141108
G02 X126.135443 Y255.582860 Z-0.125000 I0.936141 J-5.630974
G02 X126.483335 Y255.607778 Z-0.125000 I0.562258 J-5.408923
G02 X126.830307 Y255.612475 Z-0.125000 I0.264154 J-6.695888
G02 X127.177223 Y255.597623 Z-0.125000 I-0.070350 J-5.702453
G02 X127.525173 Y255.565680 Z-0.125000 I-0.698093 J-9.515448
G02 X127.871726 Y255.518781 Z-0.125000 I-0.774978 J-7.030378
G02 X128.220037 Y255.459247 Z-0.125000 I-2.787849 J-17.359199
G02 X128.566772 Y255.390255 Z-0.125000 I-1.845581 J-10.181227
G02 X128.914900 Y255.313758 Z-0.125000 I-13.456260 J-62.068072
G02 X129.262070 Y255.233037 Z-0.125000 I-4.150054 J-18.635755
G03 X129.609764 Y255.149774 Z-0.125000 I15.352721 J63.343583
G02 X129.957358 Y255.066618 Z-0.125000 I-16.303939 J-68.918188
G03 X130.304631 Y254.984984 Z-0.125000 I6.485152 J26.808684
G03 X130.652489 Y254.906614 Z-0.125000 I14.085663 J61.709896
G03 X130.999494 Y254.832561 Z-0.125000 I4.516137 J20.312142
G03 X131.347439 Y254.763742 Z-0.125000 I5.491467 J26.850650
G03 X131.694358 Y254.700764 Z-0.125000 I3.590319 J18.790524
G03 X132.042256 Y254.643946 Z-0.125000 I3.521793 J20.470407
G03 X132.389224 Y254.593470 Z-0.125000 I2.995793 J19.375345
G03 X132.737013 Y254.549280 Z-0.125000 I2.594439 J19.028353
G03 X133.084088 Y254.511270 Z-0.125000 I2.499102 J21.215681
G03 X133.431758 Y254.479171 Z-0.125000 I1.997077 J19.732292
G03 X133.778952 Y254.452760 Z-0.125000 I1.973969 J23.653530
G03 X134.126522 Y254.431697 Z-0.125000 I1.486918 J21.658530
G03 X134.473816 Y254.415792 Z-0.125000 I1.353407 J25.752733
G03 X134.821310 Y254.404741 Z-0.125000 I0.935264 J23.940023
G03 X135.168682 Y254.398515 Z-0.125000 I0.644398 J26.258590
G03 X135.516109 Y254.396927 Z-0.125000 I0.289519 J25.345073
G03 X135.863546 Y254.400102 Z-0.125000 I-0.057915 J25.349835
G03 X136.210899 Y254.408031 Z-0.125000 I-0.426716 J26.306724
G03 X136.558410 Y254.421084 Z-0.125000 I-0.630188 J21.410474
G03 X136.905660 Y254.439467 Z-0.125000 I-1.118090 J24.408933
G03 X137.253273 Y254.463698 Z-0.125000 I-1.089944 J18.142090
G03 X137.600377 Y254.494130 Z-0.125000 I-1.675981 J21.110607
G03 X137.948140 Y254.531357 Z-0.125000 I-1.523905 J15.878811
G03 X138.295053 Y254.575770 Z-0.125000 I-2.106371 J17.829810
G03 X138.643003 Y254.627890 Z-0.125000 I-2.070309 J15.008971
G03 X138.989738 Y254.687922 Z-0.125000 I-2.520521 J15.589336
G03 X139.337867 Y254.756046 Z-0.125000 I-3.019917 J16.356131
G03 X139.684553 Y254.832011 Z-0.125000 I-3.041831 J14.711229
G03 X140.032731 Y254.915248 Z-0.125000 I-5.655868 J24.428127
G03 X140.379669 Y255.004818 Z-0.125000 I-3.946191 J16.001731
G03 X140.727597 Y255.098773 Z-0.125000 I-209.854758 J777.811033
G03 X141.075176 Y255.195456 Z-0.125000 I-6.423734 J23.766812
G02 X141.422461 Y255.290869 Z-0.125000 I4.714870 J-16.481528
G03 X141.770910 Y255.382720 Z-0.125000 I-381.938450 J1449.627386
G02 X142.117325 Y255.464925 Z-0.125000 I1.825593 J-6.922189
G02 X142.466191 Y255.534327 Z-0.125000 I3.128143 J-14.812779
G02 X142.812189 Y255.584352 Z-0.125000 I0.782157 J-4.188213
G02 X143.159925 Y255.610310 Z-0.125000 I0.636433 J-6.183717
G02 X143.507055 Y255.607953 Z-0.125000 I0.151456 J-3.257714
G02 X143.851841 Y255.571894 Z-0.125000 I-0.235330 J-3.916581
G02 X144.201919 Y255.500797 Z-0.125000 I-0.508370 J-3.400603
G02 X144.544217 Y255.393628 Z-0.125000 I-0.876895 J-3.401052
G02 X144.896783 Y255.249636 Z-0.125000 I-1.989172 J-5.374128
G02 X145.239977 Y255.077187 Z-0.125000 I-1.758286 J-3.926930
G02 X145.591649 Y254.878556 Z-0.125000 I-25.482464 J-45.526682
G02 X145.939323 Y254.667320 Z-0.125000 I-3.605503 J-6.326070
G03 X146.286513 Y254.457570 Z-0.125000 I3.617121 J5.595017
G02 X146.639625 Y254.258237 Z-0.125000 I-109.565043 J-194.503337
G03 X146.981376 Y254.095705 Z-0.125000 I1.315265 J2.325014
G03 X147.334777 Y253.974876 Z-0.125000 I1.561501 J3.989869
G03 X147.676240 Y253.913680 Z-0.125000 I0.451618 J1.536682
G03 X148.019490 Y253.922448 Z-0.125000 I0.125277 J1.818742
G03 X148.371107 Y253.999902 Z-0.125000 I-0.222328 J1.846141
G03 X148.707369 Y254.146749 Z-0.125000 I-0.578956 J1.784171
G03 X149.065970 Y254.364630 Z-0.125000 I-2.822684 J5.049779
G03 X149.407939 Y254.622782 Z-0.125000 I-1.831494 J2.781717
G02 X149.760834 Y254.914896 Z-0.125000 I7.644530 J-8.875918
G03 X150.113945 Y255.210327 Z-0.125000 I-5.779138 J7.266213
G02 X150.455698 Y255.469933 Z-0.125000 I1.974289 J-2.244256
G02 X150.815682 Y255.688051 Z-0.125000 I3.480630 J-5.338332
G02 X151.150564 Y255.821011 Z-0.125000 I0.661409 J-1.177669
G02 X151.497327 Y255.863751 Z-0.125000 I0.348354 J-1.398239
G02 X151.845428 Y255.816169 Z-0.125000 I0.001420 J-1.286724
G02 X152.177635 Y255.673204 Z-0.125000 I-0.365827 J-1.307525
G02 X152.540292 Y255.432185 Z-0.125000 I-2.403466 J-4.009802
G02 X152.879774 Y255.139851 Z-0.125000 I-1.706214 J-2.324681
G03 X153.235155 Y254.796170 Z-0.125000 I8.764835 J8.707642
G02 X153.588679 Y254.448728 Z-0.125000 I-6.009645 J-6.468418
G03 X153.930022 Y254.141009 Z-0.125000 I2.329321 J2.240664
G03 X154.292993 Y253.877085 Z-0.125000 I4.085571 J5.237279
G03 X154.624886 Y253.712054 Z-0.125000 I0.780510 J1.153427
G03 X154.975009 Y253.641872 Z-0.125000 I0.443169 J1.302444
G03 X155.319749 Y253.668144 Z-0.125000 I0.081616 J1.204019
G03 X155.651959 Y253.794672 Z-0.125000 I-0.269874 J1.207960
G03 X156.014613 Y254.022537 Z-0.125000 I-1.967187 J3.533359
G03 X156.352257 Y254.303902 Z-0.125000 I-1.569165 J2.226300
G02 X156.709480 Y254.647675 Z-0.125000 I18.688044 J-19.061707
G03 X157.059346 Y254.999370 Z-0.125000 I-5.480684 J5.802063
G02 X157.404343 Y255.335295 Z-0.125000 I3.742644 J-3.498604
G02 X157.764024 Y255.644495 Z-0.125000 I10.490150 J-11.839015
G02 X158.099207 Y255.879060 Z-0.125000 I1.552674 J-1.861929
G02 X158.458325 Y256.052519 Z-0.125000 I1.315966 J-2.266021
G02 X158.794073 Y256.142355 Z-0.125000 I0.566001 J-1.443019
G02 X159.139392 Y256.151475 Z-0.125000 I0.209637 J-1.395595
G02 X159.488937 Y256.087816 Z-0.125000 I-0.203924 J-2.111234
G02 X159.826959 Y255.959075 Z-0.125000 I-0.473345 J-1.750932
G02 X160.183801 Y255.766658 Z-0.125000 I-2.949330 J-5.896687
G02 X160.525275 Y255.542433 Z-0.125000 I-1.838322 J-3.171730
G03 X160.878665 Y255.282338 Z-0.125000 I56.910039 J76.953376
G02 X161.225917 Y255.016062 Z-0.125000 I-5.881098 J-8.029117
G03 X161.573531 Y254.748720 Z-0.125000 I6.674324 J8.318690
G03 X161.925066 Y254.491547 Z-0.125000 I37.449297 J50.821392
G03 X162.268395 Y254.258281 Z-0.125000 I3.888576 J5.354039
G03 X162.621562 Y254.045721 Z-0.125000 I4.674539 J7.367067
G03 X162.963259 Y253.866909 Z-0.125000 I2.649915 J4.647915
G03 X163.315550 Y253.714212 Z-0.125000 I2.234692 J4.672974
G03 X163.658122 Y253.593690 Z-0.125000 I1.962181 J5.030194
G03 X164.008355 Y253.499058 Z-0.125000 I1.335364 J4.246757
G03 X164.352989 Y253.429921 Z-0.125000 I1.546204 J6.813983
G03 X164.701491 Y253.381647 Z-0.125000 I0.860053 J4.926759
G03 X165.047852 Y253.351086 Z-0.125000 I1.229924 J11.961511
G03 X165.395511 Y253.334111 Z-0.125000 I0.516609 J7.011627
G03 X165.742716 Y253.327538 Z-0.125000 I0.817195 J33.996615
G03 X166.090151 Y253.327578 Z-0.125000 I0.172293 J12.465175
G02 X166.437580 Y253.331904 Z-0.125000 I1.526349 J-108.632585
G03 X166.785015 Y253.337497 Z-0.125000 I-0.424726 J37.176602
G02 X167.132446 Y253.343149 Z-0.125000 I0.801556 J-38.585918
G02 X167.479884 Y253.346774 Z-0.125000 I1.426462 J-120.072437
G02 X167.827310 Y253.348335 Z-0.125000 I0.347426 J-38.662269
G02 X168.174735 Y253.346778 Z-0.125000 I-0.002698 J-39.364323
G02 X168.522174 Y253.343069 Z-0.125000 I-0.869084 J-97.707242
G02 X168.869607 Y253.337328 Z-0.125000 I-0.459958 J-38.348405
G03 X169.217038 Y253.331745 Z-0.125000 I0.733418 J34.829733
G02 X169.564468 Y253.327409 Z-0.125000 I-1.878224 J-164.425402
G03 X169.911904 Y253.327697 Z-0.125000 I0.163704 J12.093692
G03 X170.259080 Y253.334815 Z-0.125000 I-0.497036 J32.715439
G03 X170.606768 Y253.352912 Z-0.125000 I-0.171459 J6.643049
G03 X170.952995 Y253.385284 Z-0.125000 I-0.895908 J11.449579
G03 X171.301631 Y253.436486 Z-0.125000 I-0.508940 J4.677970
G03 X171.645902 Y253.509791 Z-0.125000 I-1.209944 J6.527448
G03 X171.996498 Y253.610507 Z-0.125000 I-0.983511 J4.084197
G03 X172.338472 Y253.738727 Z-0.125000 I-1.632374 J4.873851
G03 X172.691362 Y253.901932 Z-0.125000 I-1.918458 J4.611291
G03 X173.032513 Y254.092769 Z-0.125000 I-2.346104 J4.594382
G03 X173.386225 Y254.320156 Z-0.125000 I-4.677446 J7.664825
G03 X173.729569 Y254.569112 Z-0.125000 I-3.643692 J5.386381
G03 X174.081089 Y254.842030 Z-0.125000 I-687.354001 J885.677973
G03 X174.429769 Y255.124560 Z-0.125000 I-6.684037 J8.605417
G02 X174.775956 Y255.399586 Z-0.125000 I4.720305 J-5.586257
G02 X175.131528 Y255.664277 Z-0.125000 I110.693495 J-148.328945
G02 X175.470819 Y255.879156 Z-0.125000 I1.615806 J-2.176029
G02 X175.828275 Y256.049374 Z-0.125000 I2.028836 J-3.800085
G02 X176.165683 Y256.141553 Z-0.125000 I0.516470 J-1.226855
G02 X176.508144 Y256.148674 Z-0.125000 I0.202293 J-1.490292
G02 X176.860547 Y256.067801 Z-0.125000 I-0.127772 J-1.364987
G02 X177.190804 Y255.897128 Z-0.125000 I-0.547738 J-1.464752
G02 X177.555413 Y255.621865 Z-0.125000 I-2.538984 J-3.742213
G02 X177.893853 Y255.292778 Z-0.125000 I-2.044570 J-2.441258
G03 X178.250277 Y254.903895 Z-0.125000 I11.853260 J10.506092
G02 X178.605005 Y254.504411 Z-0.125000 I-5.985566 J-5.672221
G03 X178.945141 Y254.155363 Z-0.125000 I2.381990 J1.980919
G03 X179.312736 Y253.854244 Z-0.125000 I4.706624 J5.370743
G03 X179.640004 Y253.686014 Z-0.125000 I0.630599 J0.824303
G03 X179.983466 Y253.645329 Z-0.125000 I0.284352 J0.930395
G03 X180.334871 Y253.730639 Z-0.125000 I-0.062262 J1.022869
G03 X180.660988 Y253.944692 Z-0.125000 I-0.478408 J1.084320
G03 X181.029735 Y254.299169 Z-0.125000 I-8.901199 J9.628554
G03 X181.375463 Y254.703080 Z-0.125000 I-2.421886 J2.422937
G02 X181.724598 Y255.119752 Z-0.125000 I3.271443 J-2.386578
G03 X182.092739 Y255.505617 Z-0.125000 I-71.112904 J68.214964
G02 X182.419462 Y255.747930 Z-0.125000 I0.854762 J-0.811092
G02 X182.772200 Y255.852627 Z-0.125000 I0.470507 J-0.938644
G02 X183.114328 Y255.816381 Z-0.125000 I0.089232 J-0.790531
G02 X183.439508 Y255.626003 Z-0.125000 I-0.292562 J-0.872622
G02 X183.809192 Y255.281984 Z-0.125000 I-12.432236 J-13.730375
G02 X184.156702 Y254.884354 Z-0.125000 I-2.042356 J-2.135594
G03 X184.504056 Y254.487325 Z-0.125000 I2.373450 J1.726026
G03 X184.873884 Y254.143874 Z-0.125000 I12.811376 J13.424465
G03 X185.198922 Y253.955719 Z-0.125000 I0.603691 J0.668050
G03 X185.540978 Y253.925759 Z-0.125000 I0.235800 J0.724524
G03 X185.893786 Y254.035028 Z-0.125000 I-0.161217 J1.144748
G03 X186.224992 Y254.281679 Z-0.125000 I-0.514712 J1.036863
G02 X186.588650 Y254.645596 Z-0.125000 I5.582645 J-5.215009
G03 X186.945249 Y255.024174 Z-0.125000 I-2.812046 J3.006022
G02 X187.283514 Y255.335083 Z-0.125000 I1.311772 J-1.087722
G02 X187.648099 Y255.543652 Z-0.125000 I1.358456 J-1.951684
G02 X187.978380 Y255.612903 Z-0.125000 I0.316761 J-0.688504
G02 X188.310148 Y255.527038 Z-0.125000 I-0.013088 J-0.734445
G02 X188.673244 Y255.310294 Z-0.125000 I-2.007400 J-3.775374
G02 X189.016037 Y255.015559 Z-0.125000 I-1.025203 J-1.539079
G03 X189.368107 Y254.687180 Z-0.125000 I2.171360 J1.975092
G02 X189.730856 Y254.397026 Z-0.125000 I-23.344080 J-29.556383
G03 X190.062971 Y254.212672 Z-0.125000 I0.690176 J0.852026
G03 X190.411628 Y254.155325 Z-0.125000 I0.341735 J0.989127
G03 X190.757838 Y254.207036 Z-0.125000 I-0.008201 J1.239708
G00 Z3.000000

(End cutting path id: path617067)


(Start cutting path id: path617065)
(Change tool to Default tool)

G00 Z3.000000
G00 X124.050849 Y254.043159

G00 Z4.875000 (Fast pre-penetrate)
G01 Z-0.125000 F400.0(Penetrate)
G02 X124.400916 Y254.166961 Z-0.125000 I3.987132 J-10.717314 F800.000000
G02 X124.745715 Y254.270719 Z-0.125000 I1.824790 J-5.439210
G02 X125.095286 Y254.353870 Z-0.125000 I1.692979 J-6.340939
G02 X125.440579 Y254.414213 Z-0.125000 I1.082739 J-5.177585
G02 X125.788856 Y254.451374 Z-0.125000 I0.727420 J-5.166720
G02 X126.135443 Y254.466372 Z-0.125000 I0.427573 J-5.868604
G02 X126.482473 Y254.459521 Z-0.125000 I0.071135 J-5.189398
G02 X126.830307 Y254.433339 Z-0.125000 I-0.422522 J-7.936856
G02 X127.176745 Y254.389696 Z-0.125000 I-0.597715 J-6.141519
G02 X127.525173 Y254.331120 Z-0.125000 I-2.088218 J-13.486898
G02 X127.871700 Y254.260902 Z-0.125000 I-1.546425 J-8.521791
G02 X128.220037 Y254.181155 Z-0.125000 I-8.274125 J-36.941962
G02 X128.567036 Y254.095592 Z-0.125000 I-3.398430 J-14.528757
G03 X128.914900 Y254.006048 Z-0.125000 I25.159993 J97.022426
G02 X129.262421 Y253.915663 Z-0.125000 I-10.337328 J-40.459172
G03 X129.609764 Y253.826076 Z-0.125000 I7.251914 J27.398700
G03 X129.957652 Y253.739406 Z-0.125000 I22.552197 J89.781126
G03 X130.304631 Y253.656965 Z-0.125000 I4.775794 J19.329136
G03 X130.652661 Y253.579893 Z-0.125000 I6.215447 J27.242410
G03 X130.999494 Y253.509005 Z-0.125000 I3.736479 J17.397548
G03 X131.347492 Y253.444713 Z-0.125000 I3.756131 J19.357110
G03 X131.694358 Y253.387297 Z-0.125000 I3.141000 J17.899130
G03 X132.042229 Y253.336687 Z-0.125000 I2.728364 J17.532588
G03 X132.389224 Y253.292748 Z-0.125000 I2.724579 J20.124743
G03 X132.736951 Y253.255125 Z-0.125000 I2.138275 J18.136703
G03 X133.084088 Y253.223459 Z-0.125000 I2.361166 J23.966171
G03 X133.431695 Y253.197247 Z-0.125000 I1.716090 J20.439450
G03 X133.778952 Y253.176110 Z-0.125000 I1.942969 J29.057080
G03 X134.126474 Y253.159524 Z-0.125000 I1.344077 J24.513155
G03 X134.473816 Y253.147193 Z-0.125000 I1.377870 J33.915655
G03 X134.821285 Y253.138703 Z-0.125000 I0.901668 J29.786354
G03 X135.168682 Y253.133964 Z-0.125000 I0.651533 J35.027731
G03 X135.516112 Y253.132707 Z-0.125000 I0.287527 J31.463325
G03 X135.863546 Y253.135023 Z-0.125000 I-0.069491 J36.500774
G03 X136.210929 Y253.141051 Z-0.125000 I-0.441309 J35.443209
G03 X136.558410 Y253.151109 Z-0.125000 I-0.578419 J25.989236
G03 X136.905719 Y253.165430 Z-0.125000 I-1.134907 J31.741868
G03 X137.253273 Y253.184679 Z-0.125000 I-0.939497 J20.110378
G03 X137.600457 Y253.209280 Z-0.125000 I-1.620080 J25.325905
G03 X137.948140 Y253.240070 Z-0.125000 I-1.260967 J16.217506
G03 X138.295125 Y253.277625 Z-0.125000 I-1.970435 J19.827109
G03 X138.643003 Y253.322784 Z-0.125000 I-1.629875 J13.918278
G03 X138.989739 Y253.376095 Z-0.125000 I-2.263121 J15.873579
G03 X139.337867 Y253.438198 Z-0.125000 I-2.207672 J13.382330
G03 X139.684399 Y253.509273 Z-0.125000 I-2.618113 J13.644988
G03 X140.032731 Y253.589436 Z-0.125000 I-3.416069 J15.640800
G03 X140.379297 Y253.678138 Z-0.125000 I-3.183572 J13.159858
G03 X140.727597 Y253.774403 Z-0.125000 I-8.016729 J29.683797
G03 X141.074635 Y253.876779 Z-0.125000 I-4.343483 J15.363118
G02 X141.422461 Y253.982344 Z-0.125000 I15.130652 J-49.228005
G03 X141.770454 Y254.088885 Z-0.125000 I-8.746001 J29.188459
G02 X142.117325 Y254.190822 Z-0.125000 I3.129485 J-10.007861
G02 X142.466322 Y254.285351 Z-0.125000 I11.739878 J-42.651577
G02 X142.812189 Y254.364852 Z-0.125000 I1.324925 J-4.971994
G02 X143.161121 Y254.425359 Z-0.125000 I1.705858 J-8.801033
G02 X143.507055 Y254.460181 Z-0.125000 I0.509960 J-3.330346
G02 X143.853635 Y254.463536 Z-0.125000 I0.216210 J-4.432652
G02 X144.201919 Y254.432596 Z-0.125000 I-0.086772 J-2.952513
G02 X144.544896 Y254.362713 Z-0.125000 I-0.484828 J-3.256064
G02 X144.896783 Y254.253256 Z-0.125000 I-0.978322 J-3.765517
G02 X145.238628 Y254.108014 Z-0.125000 I-1.202471 J-3.305078
G02 X145.591649 Y253.926967 Z-0.125000 I-4.517699 J-9.243691
G02 X145.936765 Y253.723709 Z-0.125000 I-2.425487 J-4.512901
G03 X146.286513 Y253.506336 Z-0.125000 I7.292908 J11.344039
G02 X146.637607 Y253.287940 Z-0.125000 I-6.801498 J-11.325524
G03 X146.981376 Y253.092366 Z-0.125000 I1.952034 J3.031277
G03 X147.336277 Y252.925430 Z-0.125000 I3.854234 J7.733202
G03 X147.676240 Y252.813697 Z-0.125000 I0.729974 J1.647999
G03 X148.024502 Y252.765130 Z-0.125000 I0.478777 J2.160247
G03 X148.371107 Y252.784363 Z-0.125000 I0.089648 J1.517186
G03 X148.708029 Y252.880396 Z-0.125000 I-0.275318 J1.604974
G03 X149.065970 Y253.052097 Z-0.125000 I-1.207923 J2.977073
G03 X149.404483 Y253.278554 Z-0.125000 I-1.233951 J2.210767
G02 X149.760834 Y253.560049 Z-0.125000 I91.228543 J-115.122353
G03 X150.110028 Y253.858822 Z-0.125000 I-3.493185 J4.436133
G02 X150.455698 Y254.146412 Z-0.125000 I2.808152 J-3.023735
G02 X150.815193 Y254.408539 Z-0.125000 I14.107298 J-18.969941
G02 X151.150564 Y254.593528 Z-0.125000 I0.957709 J-1.339757
G02 X151.504194 Y254.699654 Z-0.125000 I0.728043 J-1.783726
G02 X151.845428 Y254.713644 Z-0.125000 I0.215497 J-1.087724
G02 X152.179080 Y254.624595 Z-0.125000 I-0.133489 J-1.169763
G02 X152.540292 Y254.434914 Z-0.125000 I-1.072373 J-2.480894
G02 X152.876026 Y254.176774 Z-0.125000 I-1.167032 J-1.865232
G03 X153.235155 Y253.844110 Z-0.125000 I35.542542 J38.009981
G02 X153.584797 Y253.494597 Z-0.125000 I-3.908648 J-4.259720
G03 X153.930022 Y253.159703 Z-0.125000 I3.067591 J2.816838
G03 X154.292165 Y252.855289 Z-0.125000 I11.514651 J13.330718
G03 X154.624886 Y252.643713 Z-0.125000 I1.049810 J1.283505
G03 X154.981107 Y252.517962 Z-0.125000 I0.758760 J1.581961
G03 X155.319749 Y252.493144 Z-0.125000 I0.247036 J1.048013
G03 X155.653500 Y252.575875 Z-0.125000 I-0.093172 J1.090438
G03 X156.014613 Y252.762381 Z-0.125000 I-1.043971 J2.464187
G03 X156.349528 Y253.016807 Z-0.125000 I-1.140985 J1.849589
G03 X156.709480 Y253.350457 Z-0.125000 I-182.550326 J197.301833
G03 X157.056715 Y253.701041 Z-0.125000 I-4.018141 J4.327016
G02 X157.404343 Y254.052911 Z-0.125000 I4.512606 J-4.110544
G02 X157.762869 Y254.384632 Z-0.125000 I38.283141 J-41.017082
G02 X158.099207 Y254.647554 Z-0.125000 I1.834360 J-1.999983
G02 X158.460123 Y254.854226 Z-0.125000 I1.775306 J-2.681769
G02 X158.794073 Y254.972895 Z-0.125000 I0.685565 J-1.400047
G02 X159.141835 Y255.009321 Z-0.125000 I0.321011 J-1.386448
G02 X159.488937 Y254.969324 Z-0.125000 I-0.034286 J-1.823609
G02 X159.826642 Y254.857077 Z-0.125000 I-0.338298 J-1.581930
G02 X160.183801 Y254.675711 Z-0.125000 I-2.159858 J-4.695702
G02 X160.524144 Y254.456534 Z-0.125000 I-1.553125 J-2.785569
G02 X160.878665 Y254.194471 Z-0.125000 I-143.411020 J-194.378249
G02 X161.225182 Y253.923189 Z-0.125000 I-4.898044 J-6.613371
G03 X161.573531 Y253.646443 Z-0.125000 I7.229844 J8.742833
G03 X161.924944 Y253.378662 Z-0.125000 I226.038791 J296.270218
G03 X162.268395 Y253.134173 Z-0.125000 I4.001501 J5.257703
G03 X162.621933 Y252.910506 Z-0.125000 I5.115342 J7.694282
G03 X162.963259 Y252.722511 Z-0.125000 I2.642878 J4.394591
G03 X163.316066 Y252.561938 Z-0.125000 I2.270249 J4.520257
G03 X163.658122 Y252.436198 Z-0.125000 I1.891829 J4.618306
G03 X164.008671 Y252.338436 Z-0.125000 I1.291440 J3.953394
G03 X164.352989 Y252.268524 Z-0.125000 I1.425449 J6.137497
G03 X164.701549 Y252.221593 Z-0.125000 I0.781895 J4.489322
G03 X165.047852 Y252.194155 Z-0.125000 I1.021344 J10.691661
G03 X165.395456 Y252.181837 Z-0.125000 I0.398241 J6.327186
G03 X165.742716 Y252.181005 Z-0.125000 I0.247966 J31.043728
G03 X166.090110 Y252.187486 Z-0.125000 I-0.039103 J11.410412
G02 X166.437580 Y252.198573 Z-0.125000 I2.974401 J-87.762493
G03 X166.785021 Y252.210801 Z-0.125000 I-0.988815 J33.039611
G02 X167.132446 Y252.222650 Z-0.125000 I1.107781 J-27.380323
G02 X167.479908 Y252.231554 Z-0.125000 I2.263060 J-81.527891
G02 X167.827310 Y252.237123 Z-0.125000 I0.546876 J-23.277594
G02 X168.174735 Y252.237781 Z-0.125000 I0.227641 J-28.468725
G02 X168.522174 Y252.234451 Z-0.125000 I-0.135919 J-32.304199
G02 X168.869575 Y252.226514 Z-0.125000 I-0.352895 J-23.054583
G02 X169.217038 Y252.215877 Z-0.125000 I-23.159162 J-762.165249
G02 X169.564486 Y252.203203 Z-0.125000 I-0.975221 J-31.503255
G03 X169.911904 Y252.191483 Z-0.125000 I0.883608 J21.037251
G02 X170.259356 Y252.182582 Z-0.125000 I-30.882383 J-1212.334475
G03 X170.606768 Y252.180529 Z-0.125000 I0.225428 J8.750999
G03 X170.953793 Y252.188418 Z-0.125000 I-0.274982 J19.731513
G03 X171.301631 Y252.210908 Z-0.125000 I-0.166293 J5.273078
G03 X171.647215 Y252.252000 Z-0.125000 I-0.816476 J8.340252
G03 X171.996498 Y252.316654 Z-0.125000 I-0.560998 J4.006516
G03 X172.339568 Y252.407857 Z-0.125000 I-1.214774 J5.260375
G03 X172.691362 Y252.531839 Z-0.125000 I-1.167191 J3.872924
G03 X173.032256 Y252.686106 Z-0.125000 I-1.757424 J4.337300
G03 X173.386225 Y252.879748 Z-0.125000 I-2.538937 J5.061416
G03 X173.727470 Y253.100807 Z-0.125000 I-2.690409 J4.527040
G03 X174.081089 Y253.357751 Z-0.125000 I-8.432665 J11.977255
G03 X174.426231 Y253.632831 Z-0.125000 I-4.467519 J5.959460
G02 X174.775956 Y253.921564 Z-0.125000 I11.831126 J-13.974104
G03 X175.127896 Y254.212724 Z-0.125000 I-10.699043 J13.290795
G02 X175.470819 Y254.476472 Z-0.125000 I2.864530 J-3.369640
G02 X175.829187 Y254.715938 Z-0.125000 I6.973743 J-10.048481
G02 X176.165683 Y254.886046 Z-0.125000 I0.987925 J-1.536378
G02 X176.518644 Y254.989053 Z-0.125000 I0.813206 J-2.130280
G02 X176.860547 Y255.006984 Z-0.125000 I0.229937 J-1.115742
G02 X177.194002 Y254.928402 Z-0.125000 I-0.127067 J-1.285978
G02 X177.555413 Y254.748791 Z-0.125000 I-0.743783 J-1.950050
G02 X177.887595 Y254.492082 Z-0.125000 I-1.114801 J-1.785828
G02 X178.250277 Y254.139448 Z-0.125000 I-12.835629 J-13.564225
G02 X178.596544 Y253.754010 Z-0.125000 I-3.393213 J-3.396627
G03 X178.945141 Y253.360460 Z-0.125000 I4.360522 J3.511279
G02 X179.308588 Y252.982387 Z-0.125000 I-30.304351 J-29.495714
G03 X179.640004 Y252.711605 Z-0.125000 I1.232205 J1.169921
G03 X180.001580 Y252.535274 Z-0.125000 I1.017154 J1.626845
G03 X180.334871 Y252.491559 Z-0.125000 I0.265177 J0.729372
G03 X180.661590 Y252.590379 Z-0.125000 I-0.073248 J0.831681
G03 X181.029735 Y252.834054 Z-0.125000 I-1.243960 J2.279315
G03 X181.364713 Y253.168273 Z-0.125000 I-1.286063 J1.623964
G02 X181.724598 Y253.592137 Z-0.125000 I6.825892 J-5.430867
G03 X182.083580 Y254.023158 Z-0.125000 I-5.027701 J4.552399
G02 X182.419462 Y254.368876 Z-0.125000 I1.627676 J-1.245343
G02 X182.788551 Y254.624165 Z-0.125000 I1.842606 J-2.269536
G02 X183.114328 Y254.720465 Z-0.125000 I0.358911 J-0.614983
G02 X183.442815 Y254.654029 Z-0.125000 I0.032018 J-0.686998
G02 X183.809192 Y254.433625 Z-0.125000 I-0.962462 J-2.014613
G02 X184.144782 Y254.106552 Z-0.125000 I-1.035512 J-1.398177
G03 X184.504056 Y253.691197 Z-0.125000 I4.333449 J3.385290
G02 X184.866324 Y253.281263 Z-0.125000 I-5.027334 J-4.807818
G03 X185.198922 Y252.980448 Z-0.125000 I1.154034 J0.941685
G03 X185.561432 Y252.802419 Z-0.125000 I0.874796 J1.323198
G03 X185.893786 Y252.772414 Z-0.125000 I0.227796 J0.667544
G03 X186.220710 Y252.905657 Z-0.125000 I-0.110885 J0.739756
G03 X186.588650 Y253.188759 Z-0.125000 I-4.443418 J6.155639
G03 X186.933642 Y253.540698 Z-0.125000 I-1.436093 J1.752809
G02 X187.283514 Y253.911021 Z-0.125000 I2.214472 J-1.741740
G02 X187.650492 Y254.231203 Z-0.125000 I27.561645 J-31.219532
G02 X187.978380 Y254.415660 Z-0.125000 I0.620991 J-0.720210
G02 X188.322931 Y254.451649 Z-0.125000 I0.257014 J-0.793271
G02 X188.673244 Y254.361291 Z-0.125000 I-0.129414 J-1.225975
G02 X189.006941 Y254.144090 Z-0.125000 I-0.439268 J-1.039813
G03 X189.368107 Y253.828585 Z-0.125000 I4.528103 J4.818942
G02 X189.723562 Y253.502600 Z-0.125000 I-2.516697 J-3.100999
G03 X190.062971 Y253.233424 Z-0.125000 I1.182647 J1.142649
G03 X190.423692 Y253.058198 Z-0.125000 I1.194097 J1.999267
G03 X190.757838 Y252.998540 Z-0.125000 I0.322753 J0.842144
G00 Z3.000000

(End cutting path id: path617065)


(Start cutting path id: path617063)
(Change tool to Default tool)

G00 Z3.000000
G00 X124.050849 Y253.121023

G00 Z4.875000 (Fast pre-penetrate)
G01 Z-0.125000 F400.0(Penetrate)
G02 X124.400652 Y253.207755 Z-0.125000 I1.676212 J-6.011674 F800.000000
G02 X124.745715 Y253.269920 Z-0.125000 I1.037453 J-4.769875
G02 X125.094029 Y253.307022 Z-0.125000 I0.686326 J-4.789727
G02 X125.440579 Y253.320162 Z-0.125000 I0.378417 J-5.403819
G02 X125.787449 Y253.309578 Z-0.125000 I0.027371 J-4.792175
G02 X126.135443 Y253.278093 Z-0.125000 I-0.495500 J-7.415597
G02 X126.481662 Y253.227808 Z-0.125000 I-0.651147 J-5.700269
G02 X126.830307 Y253.161428 Z-0.125000 I-2.299079 J-13.024061
G02 X127.176699 Y253.082805 Z-0.125000 I-1.642550 J-8.039010
G02 X127.525173 Y252.994132 Z-0.125000 I-10.065206 J-40.284191
G02 X127.872159 Y252.899667 Z-0.125000 I-3.665876 J-14.149829
G03 X128.220037 Y252.801383 Z-0.125000 I17.986123 J62.997800
G02 X128.567649 Y252.702751 Z-0.125000 I-12.546728 J-44.880713
G03 X128.914900 Y252.605634 Z-0.125000 I6.524376 J22.659178
G03 X129.262929 Y252.512259 Z-0.125000 I16.134612 J59.441808
G03 X129.609764 Y252.424154 Z-0.125000 I4.394877 J16.574186
G03 X129.957939 Y252.342428 Z-0.125000 I5.438664 J22.387594
G03 X130.304631 Y252.268011 Z-0.125000 I3.451464 J15.234694
G03 X130.652731 Y252.201216 Z-0.125000 I3.347672 J16.505881
G03 X130.999494 Y252.142302 Z-0.125000 I2.909068 J16.072641
G03 X131.347418 Y252.091080 Z-0.125000 I2.430248 J15.300165
G03 X131.694358 Y252.047266 Z-0.125000 I2.554517 J18.832508
G03 X132.042096 Y252.010358 Z-0.125000 I1.902130 J16.264534
G03 X132.389224 Y251.979776 Z-0.125000 I2.298786 J24.108155
G03 X132.736821 Y251.954836 Z-0.125000 I1.548475 J19.146409
G03 X133.084088 Y251.934898 Z-0.125000 I2.088397 J33.340107
G03 X133.431597 Y251.919216 Z-0.125000 I1.284349 J24.602732
G03 X133.778952 Y251.907254 Z-0.125000 I1.828957 J48.061584
G03 X134.126415 Y251.898321 Z-0.125000 I1.044886 J33.878305
G03 X134.473816 Y251.892067 Z-0.125000 I1.386121 J67.350487
G03 X134.821259 Y251.887979 Z-0.125000 I0.750992 J49.062204
G03 X135.168682 Y251.885955 Z-0.125000 I0.595598 J72.416863
G03 X135.516112 Y251.885625 Z-0.125000 I0.240528 J70.187532
G03 X135.863546 Y251.887278 Z-0.125000 I-0.081753 J53.675769
G03 X136.210960 Y251.890870 Z-0.125000 I-0.593215 J74.187484
G03 X136.558410 Y251.896883 Z-0.125000 I-0.476322 J37.565705
G03 X136.905786 Y251.905543 Z-0.125000 I-1.218203 J55.834522
G03 X137.253273 Y251.917679 Z-0.125000 I-0.709008 J25.281998
G03 X137.600565 Y251.933805 Z-0.125000 I-1.572862 J37.620624
G03 X137.948140 Y251.954985 Z-0.125000 I-0.901983 J17.664528
G03 X138.295258 Y251.982020 Z-0.125000 I-1.751523 J24.730933
G03 X138.643003 Y252.016067 Z-0.125000 I-1.151052 J13.549469
G03 X138.989840 Y252.058065 Z-0.125000 I-1.918967 J17.300743
G03 X139.337867 Y252.109105 Z-0.125000 I-1.518268 J11.564728
G03 X139.684356 Y252.169936 Z-0.125000 I-2.148779 J13.256409
G03 X140.032731 Y252.241335 Z-0.125000 I-2.165343 J11.450855
G03 X140.378983 Y252.323375 Z-0.125000 I-2.516135 J11.391114
G03 X140.727597 Y252.416084 Z-0.125000 I-3.681654 J14.545936
G03 X141.074006 Y252.518423 Z-0.125000 I-3.167755 J11.360109
G03 X141.422461 Y252.628857 Z-0.125000 I-12.545798 J40.190991
G03 X141.769676 Y252.745199 Z-0.125000 I-4.648229 J14.448576
G02 X142.117325 Y252.863174 Z-0.125000 I7.347759 J-21.081168
G03 X142.465885 Y252.979912 Z-0.125000 I-13.593419 J41.166331
G02 X142.812189 Y253.087760 Z-0.125000 I2.286697 J-6.732760
G02 X143.161782 Y253.183308 Z-0.125000 I5.146303 J-18.142102
G02 X143.507055 Y253.257390 Z-0.125000 I0.980258 J-3.727054
G02 X143.855667 Y253.304939 Z-0.125000 I0.967541 J-5.791880
G02 X144.201919 Y253.319916 Z-0.125000 I0.293034 J-2.764703
G02 X144.546734 Y253.295591 Z-0.125000 I-0.064750 J-3.374037
G02 X144.896783 Y253.230778 Z-0.125000 I-0.351959 J-2.878564
G02 X145.238183 Y253.123455 Z-0.125000 I-0.721259 J-2.891047
G02 X145.591649 Y252.973198 Z-0.125000 I-1.837298 J-4.812955
G02 X145.934238 Y252.790359 Z-0.125000 I-1.620051 J-3.447901
G02 X146.286513 Y252.577805 Z-0.125000 I-63.565447 J-105.747921
G02 X146.634720 Y252.352273 Z-0.125000 I-3.560185 J-5.878266
G03 X146.981376 Y252.131502 Z-0.125000 I3.087601 J4.465618
G03 X147.335821 Y251.925351 Z-0.125000 I42.742410 J73.081173
G03 X147.676240 Y251.764996 Z-0.125000 I1.120753 J1.937743
G03 X148.029305 Y251.656062 Z-0.125000 I1.134400 J3.050083
G03 X148.371107 Y251.614628 Z-0.125000 I0.340102 J1.375068
G03 X148.711246 Y251.652472 Z-0.125000 I-0.001786 J1.563556
G03 X149.065970 Y251.766668 Z-0.125000 I-0.448452 J2.001050
G03 X149.401786 Y251.950423 Z-0.125000 I-0.764173 J1.795271
G03 X149.760834 Y252.206183 Z-0.125000 I-6.209546 J9.097174
G03 X150.105689 Y252.494473 Z-0.125000 I-2.338740 J3.148023
G02 X150.455698 Y252.799142 Z-0.125000 I4.248430 J-4.527278
G03 X150.812811 Y253.094049 Z-0.125000 I-12.742023 J15.793484
G02 X151.150564 Y253.327411 Z-0.125000 I1.367007 J-1.617410
G02 X151.509511 Y253.497376 Z-0.125000 I1.479236 J-2.659970
G02 X151.845428 Y253.571997 Z-0.125000 I0.401606 J-1.014485
G02 X152.183411 Y253.541417 Z-0.125000 I0.068147 J-1.129872
G02 X152.540292 Y253.411223 Z-0.125000 I-0.415843 J-1.694113
G02 X152.872881 Y253.195042 Z-0.125000 I-0.749637 J-1.517229
G02 X153.235155 Y252.885346 Z-0.125000 I-11.311417 J-13.598535
G02 X153.580655 Y252.544333 Z-0.125000 I-2.759758 J-3.141588
G03 X153.930022 Y252.190398 Z-0.125000 I4.100253 J3.697942
G02 X154.290066 Y251.854137 Z-0.125000 I-37.924252 J-40.967496
G03 X154.624886 Y251.598854 Z-0.125000 I1.387408 J1.472461
G03 X154.985921 Y251.417878 Z-0.125000 I1.274663 J2.092261
G03 X155.319749 Y251.343740 Z-0.125000 I0.391454 J0.973994
G03 X155.656853 Y251.380950 Z-0.125000 I0.056700 J1.031934
G03 X156.014613 Y251.522453 Z-0.125000 I-0.513173 J1.820461
G03 X156.347145 Y251.746628 Z-0.125000 I-0.807214 J1.556107
G03 X156.709480 Y252.064649 Z-0.125000 I-12.479184 J14.583442
G03 X157.054014 Y252.409486 Z-0.125000 I-3.082843 J3.424677
G02 X157.404343 Y252.773467 Z-0.125000 I5.487104 J-4.930710
G03 X157.761424 Y253.123746 Z-0.125000 I-31.506300 J32.475268
G02 X158.099207 Y253.412911 Z-0.125000 I2.137751 J-2.155302
G02 X158.461373 Y253.650763 Z-0.125000 I2.397752 J-3.256294
G02 X158.794073 Y253.796779 Z-0.125000 I0.804354 J-1.380699
G02 X159.144410 Y253.859818 Z-0.125000 I0.433090 J-1.401870
G02 X159.488937 Y253.842250 Z-0.125000 I0.090774 J-1.606895
G02 X159.826512 Y253.745693 Z-0.125000 I-0.230697 J-1.444919
G02 X160.183801 Y253.574892 Z-0.125000 I-1.634352 J-3.877899
G02 X160.523038 Y253.360174 Z-0.125000 I-1.333617 J-2.482351
G02 X160.878665 Y253.095629 Z-0.125000 I-32.994144 J-44.725151
G02 X161.224477 Y252.818913 Z-0.125000 I-4.248045 J-5.663241
G03 X161.573531 Y252.532459 Z-0.125000 I7.740006 J9.075539
G02 X161.924875 Y252.253956 Z-0.125000 I-70.678301 J-89.524689
G03 X162.268395 Y251.998472 Z-0.125000 I4.070350 J5.114248
G03 X162.622365 Y251.764173 Z-0.125000 I5.496818 J7.919855
G03 X162.963259 Y251.567913 Z-0.125000 I2.603275 J4.127577
G03 X163.316618 Y251.400688 Z-0.125000 I2.262971 J4.324870
G03 X163.658122 Y251.271308 Z-0.125000 I1.794661 J4.221691
G03 X164.008961 Y251.172329 Z-0.125000 I1.219709 J3.652078
G03 X164.352989 Y251.103777 Z-0.125000 I1.279790 J5.525063
G03 X164.701534 Y251.060589 Z-0.125000 I0.682333 J4.078718
G03 X165.047852 Y251.038816 Z-0.125000 I0.777372 J9.599685
G03 X165.395337 Y251.033828 Z-0.125000 I0.255771 J5.711914
G03 X165.742716 Y251.041515 Z-0.125000 I-0.458106 J28.555787
G03 X166.090042 Y251.057248 Z-0.125000 I-0.287430 J10.187130
G02 X166.437580 Y251.077985 Z-0.125000 I3.976037 J-63.712430
G03 X166.785039 Y251.099736 Z-0.125000 I-1.736463 J30.525140
G02 X167.132446 Y251.120620 Z-0.125000 I1.451738 J-21.249807
G02 X167.479967 Y251.137678 Z-0.125000 I3.254300 J-62.750653
G02 X167.827310 Y251.150131 Z-0.125000 I0.770152 J-16.630322
G02 X168.174765 Y251.156114 Z-0.125000 I0.541380 J-21.348412
G02 X168.522174 Y251.155926 Z-0.125000 I0.163911 J-18.049358
G02 X168.869532 Y251.148738 Z-0.125000 I-0.171567 J-16.688105
G02 X169.217038 Y251.135950 Z-0.125000 I-0.951025 J-30.570852
G02 X169.564402 Y251.117811 Z-0.125000 I-0.760999 J-17.908645
G03 X169.911904 Y251.096847 Z-0.125000 I6.648991 J107.323836
G02 X170.259396 Y251.074448 Z-0.125000 I-1.782850 J-30.364647
G03 X170.606768 Y251.054374 Z-0.125000 I0.984959 J14.028672
G03 X170.954284 Y251.039222 Z-0.125000 I4.512282 J99.499791
G03 X171.301631 Y251.033763 Z-0.125000 I0.278192 J6.647262
G03 X171.648463 Y251.041921 Z-0.125000 I-0.134717 J13.103776
G03 X171.996498 Y251.068857 Z-0.125000 I-0.158463 J4.309372
G03 X172.341270 Y251.119161 Z-0.125000 I-0.755195 J6.382628
G03 X172.691362 Y251.198182 Z-0.125000 I-0.614403 J3.537011
G03 X173.033131 Y251.308138 Z-0.125000 I-1.228671 J4.405139
G03 X173.386225 Y251.456479 Z-0.125000 I-1.393759 J3.811959
G03 X173.726304 Y251.637167 Z-0.125000 I-1.907094 J3.999779
G03 X174.081089 Y251.860815 Z-0.125000 I-3.475255 J5.906229
G03 X174.422982 Y252.110732 Z-0.125000 I-3.102231 J4.602740
G03 X174.775956 Y252.393153 Z-0.125000 I-25.792999 J32.598236
G03 X175.123441 Y252.689348 Z-0.125000 I-5.603963 J6.926289
G02 X175.470819 Y252.985218 Z-0.125000 I5.858428 J-6.526466
G03 X175.826149 Y253.274697 Z-0.125000 I-34.641988 J42.885229
G02 X176.165683 Y253.515755 Z-0.125000 I1.879030 J-2.286995
G02 X176.524915 Y253.715255 Z-0.125000 I2.669456 J-4.383597
G02 X176.860547 Y253.831516 Z-0.125000 I0.600845 J-1.191975
G02 X177.205075 Y253.860404 Z-0.125000 I0.295833 J-1.459277
G02 X177.555413 Y253.797485 Z-0.125000 I-0.040285 J-1.231132
G02 X177.884789 Y253.637619 Z-0.125000 I-0.450640 J-1.347703
G02 X178.250277 Y253.366826 Z-0.125000 I-2.206606 J-3.360298
G02 X178.587731 Y253.037125 Z-0.125000 I-1.900259 J-2.282490
G03 X178.945141 Y252.640493 Z-0.125000 I12.635836 J11.026938
G02 X179.299758 Y252.231601 Z-0.125000 I-5.676566 J-5.281293
G03 X179.640004 Y251.873091 Z-0.125000 I2.413123 J1.949485
G03 X180.008377 Y251.563538 Z-0.125000 I4.882781 J5.436615
G03 X180.334871 Y251.392344 Z-0.125000 I0.625778 J0.796522
G03 X180.677836 Y251.353084 Z-0.125000 I0.275824 J0.891858
G03 X181.029735 Y251.443295 Z-0.125000 I-0.073386 J1.017722
G03 X181.355667 Y251.664878 Z-0.125000 I-0.493671 J1.076655
G03 X181.724598 Y252.029563 Z-0.125000 I-11.664609 J12.169391
G03 X182.071247 Y252.441805 Z-0.125000 I-2.511806 J2.464013
G02 X182.419462 Y252.859973 Z-0.125000 I3.080838 J-2.211396
G02 X182.788644 Y253.242130 Z-0.125000 I98.503617 J-94.789686
G02 X183.114328 Y253.473763 Z-0.125000 I0.790366 J-0.766505
G02 X183.464426 Y253.561228 Z-0.125000 I0.401362 J-0.862127
G02 X183.809192 Y253.506957 Z-0.125000 I0.045113 J-0.835645
G02 X184.134829 Y253.299759 Z-0.125000 I-0.347004 J-0.904844
G02 X184.504056 Y252.940803 Z-0.125000 I-43.143420 J-44.747282
G02 X184.853394 Y252.535392 Z-0.125000 I-2.229421 J-2.274288
G03 X185.198922 Y252.144649 Z-0.125000 I2.181853 J1.581231
G03 X185.569257 Y251.816382 Z-0.125000 I6.872060 J7.379709
G03 X185.893786 Y251.646664 Z-0.125000 I0.543789 J0.644677
G03 X186.232766 Y251.638264 Z-0.125000 I0.186785 J0.693775
G03 X186.588650 Y251.770491 Z-0.125000 I-0.283548 J1.308192
G03 X186.921314 Y252.032769 Z-0.125000 I-0.599812 J1.102893
G02 X187.283514 Y252.402464 Z-0.125000 I4.630514 J-4.174350
G03 X187.641685 Y252.778411 Z-0.125000 I-3.205059 J3.412103
G02 X187.978380 Y253.075891 Z-0.125000 I1.212813 J-1.033413
G02 X188.341409 Y253.264678 Z-0.125000 I1.097908 J-1.667790
G02 X188.673244 Y253.317320 Z-0.125000 I0.283859 J-0.717133
G02 X189.004606 Y253.217598 Z-0.125000 I-0.047236 J-0.757355
G02 X189.368107 Y252.989282 Z-0.125000 I-2.784436 J-4.836623
G02 X189.712065 Y252.691156 Z-0.125000 I-1.120346 J-1.640061
G03 X190.062971 Y252.367988 Z-0.125000 I2.078497 J1.904801
G03 X190.425768 Y252.087017 Z-0.125000 I239.232740 J308.528470
G03 X190.757838 Y251.911678 Z-0.125000 I0.668996 J0.864873
G00 Z3.000000

(End cutting path id: path617063)


(Start cutting path id: path617061)
(Change tool to Default tool)

G00 Z3.000000
G00 X124.050849 Y252.147668

G00 Z4.875000 (Fast pre-penetrate)
G01 Z-0.125000 F400.0(Penetrate)
G02 X124.398724 Y252.171220 Z-0.125000 I0.463780 J-4.269211 F800.000000
G02 X124.745715 Y252.169046 Z-0.125000 I0.140819 J-5.215545
G02 X125.092063 Y252.141803 Z-0.125000 I-0.175984 J-4.452587
G02 X125.440579 Y252.092698 Z-0.125000 I-0.917345 J-7.772011
G02 X125.786503 Y252.024933 Z-0.125000 I-0.920377 J-5.615140
G02 X126.135443 Y251.941256 Z-0.125000 I-3.651461 J-15.996213
G02 X126.481852 Y251.846621 Z-0.125000 I-2.146372 J-8.538089
G02 X126.830307 Y251.743327 Z-0.125000 I-46.500815 J-157.505764
G02 X127.177549 Y251.636229 Z-0.125000 I-5.252932 J-17.648135
G03 X127.525173 Y251.527609 Z-0.125000 I8.961038 J28.068037
G02 X127.873125 Y251.420966 Z-0.125000 I-73.173705 J-239.369697
G03 X128.220037 Y251.318491 Z-0.125000 I4.873531 J15.860033
G03 X128.568363 Y251.222112 Z-0.125000 I7.720449 J27.225118
G03 X128.914900 Y251.133510 Z-0.125000 I3.519713 J13.044252
G03 X129.263254 Y251.053426 Z-0.125000 I3.774859 J15.622310
G03 X129.609764 Y250.982690 Z-0.125000 I2.797502 J12.819907
G03 X129.957925 Y250.921317 Z-0.125000 I2.462773 J12.952749
G03 X130.304631 Y250.869274 Z-0.125000 I2.326791 J14.319957
G03 X130.652522 Y250.826121 Z-0.125000 I1.771830 J12.860421
G03 X130.999494 Y250.791219 Z-0.125000 I1.981041 J17.951974
G03 X131.347161 Y250.763831 Z-0.125000 I1.319603 J14.530908
G03 X131.694358 Y250.743033 Z-0.125000 I1.695714 J25.399491
G03 X132.041882 Y250.727903 Z-0.125000 I0.974828 J18.391897
G03 X132.389224 Y250.717501 Z-0.125000 I1.433550 J42.064752
G03 X132.736682 Y250.710847 Z-0.125000 I0.673249 J26.078564
G03 X133.084088 Y250.707130 Z-0.125000 I1.212278 J97.063736
G03 X133.431524 Y250.705410 Z-0.125000 I0.379024 J41.475621
G03 X133.778952 Y250.705277 Z-0.125000 I0.347429 J456.194976
G03 X134.126384 Y250.705699 Z-0.125000 I0.049241 J102.637605
G02 X134.473816 Y250.706600 Z-0.125000 I1.626381 J-559.784176
G01 X135.168682 Y250.707659 Z-0.125000
G02 X135.516114 Y250.707477 Z-0.125000 I0.047027 J-242.349660
G02 X135.863546 Y250.706865 Z-0.125000 I-0.411917 J-332.404610
G02 X136.210978 Y250.706104 Z-0.125000 I-0.189487 J-165.900036
G03 X136.558410 Y250.705542 Z-0.125000 I0.347423 J107.346405
G02 X136.905839 Y250.705500 Z-0.125000 I-0.994459 J-9613.296630
G03 X137.253273 Y250.706865 Z-0.125000 I0.005935 J42.709387
G03 X137.600677 Y250.710248 Z-0.125000 I-0.797343 J99.715730
G03 X137.948140 Y250.716946 Z-0.125000 I-0.255969 J22.295959
G03 X138.295447 Y250.727897 Z-0.125000 I-1.087203 J39.989875
G03 X138.643003 Y250.744584 Z-0.125000 I-0.515275 J14.360402
G03 X138.990076 Y250.768302 Z-0.125000 I-1.289653 J21.422930
G03 X139.337867 Y250.800604 Z-0.125000 I-0.818399 J10.700078
G03 X139.684526 Y250.842878 Z-0.125000 I-1.522739 J13.929324
G03 X140.032731 Y250.896505 Z-0.125000 I-1.237102 J9.189960
G03 X140.378885 Y250.962491 Z-0.125000 I-1.818629 J10.481124
G03 X140.727597 Y251.041745 Z-0.125000 I-1.961990 J9.439464
G03 X141.073449 Y251.134135 Z-0.125000 I-2.254733 J9.133913
G03 X141.422461 Y251.239566 Z-0.125000 I-3.788430 J13.171337
G03 X141.768671 Y251.356217 Z-0.125000 I-3.009803 J9.504857
G03 X142.117325 Y251.481813 Z-0.125000 I-25.529289 J71.416369
G03 X142.464815 Y251.613124 Z-0.125000 I-4.835788 J13.322461
G02 X142.812189 Y251.744020 Z-0.125000 I4.835048 J-12.304925
G03 X143.161501 Y251.870844 Z-0.125000 I-32.151267 J89.098398
G02 X143.507055 Y251.983314 Z-0.125000 I1.753055 J-4.799055
G02 X143.857198 Y252.077280 Z-0.125000 I2.952563 J-10.302666
G02 X144.201919 Y252.142283 Z-0.125000 I0.723574 J-2.890669
G02 X144.549608 Y252.171822 Z-0.125000 I0.519356 J-4.052184
G02 X144.896783 Y252.161439 Z-0.125000 I0.101541 J-2.414327
G02 X145.239375 Y252.104259 Z-0.125000 I-0.277560 J-2.717915
G02 X145.591649 Y252.000297 Z-0.125000 I-0.719342 J-3.086299
G02 X145.932284 Y251.852869 Z-0.125000 I-0.988887 J-2.752071
G02 X146.286513 Y251.662070 Z-0.125000 I-4.137763 J-8.106215
G02 X146.631242 Y251.445094 Z-0.125000 I-2.206360 J-3.887788
G03 X146.981376 Y251.211621 Z-0.125000 I6.243111 J8.983330
G02 X147.333485 Y250.977951 Z-0.125000 I-6.684586 J-10.454906
G03 X147.676240 Y250.773516 Z-0.125000 I1.738798 J2.525712
G03 X148.032231 Y250.604718 Z-0.125000 I2.999469 J5.865995
G03 X148.371107 Y250.500996 Z-0.125000 I0.615124 J1.404266
G03 X148.717139 Y250.472020 Z-0.125000 I0.320923 J1.751839
G03 X149.065970 Y250.518934 Z-0.125000 I-0.020797 J1.474956
G03 X149.400784 Y250.648411 Z-0.125000 I-0.389365 J1.504494
G03 X149.760834 Y250.860670 Z-0.125000 I-2.032664 J3.859469
G03 X150.101120 Y251.123104 Z-0.125000 I-1.545525 J2.355842
G02 X150.455698 Y251.430650 Z-0.125000 I8.360529 J-9.280887
G03 X150.808967 Y251.744627 Z-0.125000 I-4.904291 J5.873769
G02 X151.150564 Y252.021028 Z-0.125000 I1.957982 J-2.070537
G02 X151.512081 Y252.252167 Z-0.125000 I3.553109 J-5.158997
G02 X151.845428 Y252.387785 Z-0.125000 I0.620811 J-1.048460
G02 X152.190629 Y252.422528 Z-0.125000 I0.297813 J-1.226704
G02 X152.540292 Y252.358421 Z-0.125000 I-0.046570 J-1.239657
G02 X152.870926 Y252.192296 Z-0.125000 I-0.421987 J-1.251961
G02 X153.235155 Y251.919362 Z-0.125000 I-3.505900 J-5.058094
G02 X153.576237 Y251.598078 Z-0.125000 I-1.954452 J-2.416578
G03 X153.930022 Y251.234436 Z-0.125000 I5.886672 J5.373181
G02 X154.286959 Y250.875399 Z-0.125000 I-8.360707 J-8.668771
G03 X154.624886 Y250.579029 Z-0.125000 I1.822590 J1.737309
G03 X154.988944 Y250.343562 Z-0.125000 I2.263583 J3.100588
G03 X155.319749 Y250.219874 Z-0.125000 I0.549109 J0.964378
G03 X155.662135 Y250.207678 Z-0.125000 I0.208412 J1.038819
G03 X156.014613 Y250.300209 Z-0.125000 I-0.177820 J1.394984
G03 X156.345262 Y250.489952 Z-0.125000 I-0.536853 J1.318493
G03 X156.709480 Y250.785745 Z-0.125000 I-5.329472 J6.934451
G03 X157.051149 Y251.119809 Z-0.125000 I-2.386274 J2.782355
G02 X157.404343 Y251.492108 Z-0.125000 I6.907856 J-6.199705
G03 X157.759660 Y251.857506 Z-0.125000 I-11.761026 J11.792007
G02 X158.099207 Y252.171819 Z-0.125000 I2.482069 J-2.340775
G02 X158.462135 Y252.440076 Z-0.125000 I3.339595 J-4.138542
G02 X158.794073 Y252.613548 Z-0.125000 I0.933653 J-1.382224
G02 X159.147176 Y252.704189 Z-0.125000 I0.559502 J-1.446499
G02 X159.488937 Y252.709359 Z-0.125000 I0.192617 J-1.434501
G02 X159.826624 Y252.629055 Z-0.125000 I-0.137726 J-1.329305
G02 X160.183801 Y252.469588 Z-0.125000 I-1.238470 J-3.253701
G02 X160.521904 Y252.259658 Z-0.125000 I-1.147909 J-2.225993
G02 X160.878665 Y251.992704 Z-0.125000 I-18.336758 J-24.877344
G02 X161.223743 Y251.710481 Z-0.125000 I-3.753314 J-4.941313
G03 X161.573531 Y251.413987 Z-0.125000 I8.258045 J9.387824
G02 X161.924817 Y251.124490 Z-0.125000 I-32.093624 J-39.301412
G03 X162.268395 Y250.857844 Z-0.125000 I4.118732 J4.952383
G03 X162.622849 Y250.612902 Z-0.125000 I5.865226 J8.108613
G03 X162.963259 Y250.408749 Z-0.125000 I2.546061 J3.859471
G03 X163.317221 Y250.235516 Z-0.125000 I2.231010 J4.110343
G03 X163.658122 Y250.103526 Z-0.125000 I1.683576 J3.842059
G03 X164.009232 Y250.004733 Z-0.125000 I1.133158 J3.353921
G03 X164.352989 Y249.939220 Z-0.125000 I1.123102 J4.958451
G03 X164.701438 Y249.901795 Z-0.125000 I0.572777 J3.692070
G03 X165.047852 Y249.887936 Z-0.125000 I0.518087 J8.613332
G03 X165.395141 Y249.892741 Z-0.125000 I0.102399 J5.151851
G03 X165.742716 Y249.911589 Z-0.125000 I-1.246895 J26.207053
G03 X166.089942 Y249.939325 Z-0.125000 I-0.560111 J9.199490
G02 X166.437580 Y249.972533 Z-0.125000 I5.101899 J-51.572182
G03 X166.785070 Y250.006711 Z-0.125000 I-2.569608 J27.909573
G02 X167.132446 Y250.039613 Z-0.125000 I1.846724 J-17.647045
G02 X167.480074 Y250.067894 Z-0.125000 I4.355871 J-51.391055
G02 X167.827310 Y250.090379 Z-0.125000 I1.029623 J-13.208418
G02 X168.174856 Y250.104894 Z-0.125000 I0.910992 J-17.643824
G02 X168.522174 Y250.111307 Z-0.125000 I0.412294 J-12.921249
G02 X168.869525 Y250.108428 Z-0.125000 I0.061717 J-13.507078
G02 X169.217038 Y250.097231 Z-0.125000 I-0.332431 J-15.716620
G02 X169.564272 Y250.077518 Z-0.125000 I-0.553299 J-12.814134
G02 X169.911904 Y250.051265 Z-0.125000 I-2.396148 J-34.043529
G02 X170.259233 Y250.019401 Z-0.125000 I-1.272882 J-15.783382
G03 X170.606768 Y249.985135 Z-0.125000 I4.230399 J41.127481
G02 X170.954371 Y249.950524 Z-0.125000 I-3.174747 J-33.646937
G03 X171.301631 Y249.920162 Z-0.125000 I1.056152 J10.078419
G03 X171.649275 Y249.897360 Z-0.125000 I2.692647 J38.390834
G03 X171.996498 Y249.887676 Z-0.125000 I0.319879 J5.239949
G03 X172.343091 Y249.895895 Z-0.125000 I-0.055016 J9.632376
G03 X172.691362 Y249.927406 Z-0.125000 I-0.150279 J3.601284
G03 X173.035151 Y249.987474 Z-0.125000 I-0.706680 J5.058393
G03 X173.386225 Y250.081822 Z-0.125000 I-0.675296 J3.213182
G03 X173.726675 Y250.211251 Z-0.125000 I-1.255136 J3.813987
G03 X174.081089 Y250.384751 Z-0.125000 I-1.683879 J3.888444
G03 X174.420705 Y250.591894 Z-0.125000 I-2.087101 J3.803822
G03 X174.775956 Y250.844337 Z-0.125000 I-5.024841 J7.447404
G03 X175.119017 Y251.121065 Z-0.125000 I-3.595289 J4.808108
G02 X175.470819 Y251.423935 Z-0.125000 I32.387069 J-37.263857
G03 X175.821051 Y251.735300 Z-0.125000 I-7.368879 J8.641364
G02 X176.165683 Y252.029425 Z-0.125000 I3.769372 J-4.067678
G02 X176.524113 Y252.306366 Z-0.125000 I17.968600 J-22.885431
G02 X176.860547 Y252.515086 Z-0.125000 I1.266013 J-1.665166
G02 X177.217539 Y252.662424 Z-0.125000 I1.243278 J-2.506253
G02 X177.555413 Y252.718823 Z-0.125000 I0.347136 J-1.039346
G02 X177.891031 Y252.674219 Z-0.125000 I0.009692 J-1.212051
G02 X178.250277 Y252.526831 Z-0.125000 I-0.446916 J-1.600823
G02 X178.580448 Y252.291357 Z-0.125000 I-0.871384 J-1.571024
G02 X178.945141 Y251.948003 Z-0.125000 I-7.400359 J-8.225638
G02 X179.289270 Y251.564488 Z-0.125000 I-2.938875 J-2.983209
G03 X179.640004 Y251.157765 Z-0.125000 I5.031122 J3.983967
G02 X180.002432 Y250.760936 Z-0.125000 I-14.677655 J-13.769168
G03 X180.334871 Y250.466579 Z-0.125000 I1.393928 J1.239360
G03 X180.699319 Y250.261668 Z-0.125000 I1.278341 J1.847072
G03 X181.029735 Y250.195931 Z-0.125000 I0.310411 J0.696973
G03 X181.357311 Y250.276378 Z-0.125000 I-0.020805 J0.791887
G03 X181.724598 Y250.503038 Z-0.125000 I-0.974418 J1.989887
G03 X182.058120 Y250.828200 Z-0.125000 I-1.156521 J1.519886
G02 X182.419462 Y251.253425 Z-0.125000 I7.634174 J-6.121124
G03 X182.777438 Y251.689576 Z-0.125000 I-4.599145 J4.139784
G02 X183.114328 Y252.046991 Z-0.125000 I1.726764 J-1.290124
G02 X183.484424 Y252.317538 Z-0.125000 I2.127513 J-2.521926
G02 X183.809192 Y252.425805 Z-0.125000 I0.383655 J-0.609614
G02 X184.138656 Y252.370209 Z-0.125000 I0.055413 J-0.675620
G02 X184.504056 Y252.160995 Z-0.125000 I-0.821276 J-1.858087
G02 X184.838780 Y251.840570 Z-0.125000 I-0.971594 J-1.349998
G03 X185.198922 Y251.425631 Z-0.125000 I4.558946 J3.593129
G02 X185.560432 Y251.013392 Z-0.125000 I-4.697056 J-4.483683
G03 X185.893786 Y250.705129 Z-0.125000 I1.209172 J0.973216
G03 X186.257504 Y250.515928 Z-0.125000 I0.967272 J1.415268
G03 X186.588650 Y250.475818 Z-0.125000 I0.247789 J0.658716
G03 X186.915941 Y250.598802 Z-0.125000 I-0.086850 J0.728123
G03 X187.283514 Y250.870898 Z-0.125000 I-3.484405 J5.091377
G03 X187.627429 Y251.215579 Z-0.125000 I-1.357446 J1.698349
G02 X187.978380 Y251.586603 Z-0.125000 I2.339259 J-1.861205
G03 X188.344664 Y251.912920 Z-0.125000 I-1991.918320 J2236.255737
G02 X188.673244 Y252.108779 Z-0.125000 I0.672647 J-0.754908
G02 X189.020247 Y252.161295 Z-0.125000 I0.305055 J-0.842991
G02 X189.368107 Y252.089518 Z-0.125000 I-0.053258 J-1.136923
G02 X189.701095 Y251.888873 Z-0.125000 I-0.378265 J-1.004402
G03 X190.062971 Y251.585394 Z-0.125000 I5.892430 J6.658784
G02 X190.416519 Y251.263922 Z-0.125000 I-2.232512 J-2.810407
G03 X190.757838 Y250.985566 Z-0.125000 I1.321077 J1.271462
G00 Z3.000000

(End cutting path id: path617061)


(Start cutting path id: path617059)
(Change tool to Default tool)

G00 Z3.000000
G00 X124.050849 Y250.989702

G00 Z4.875000 (Fast pre-penetrate)
G01 Z-0.125000 F400.0(Penetrate)
G02 X124.396460 Y250.933423 Z-0.125000 I-0.530296 J-4.345925 F800.000000
G02 X124.745715 Y250.855582 Z-0.125000 I-2.003029 J-9.809581
G02 X125.091537 Y250.761461 Z-0.125000 I-1.474116 J-6.098634
G02 X125.440579 Y250.653784 Z-0.125000 I-10.732814 J-35.410728
G02 X125.787405 Y250.538841 Z-0.125000 I-3.450397 J-10.991799
G03 X126.135443 Y250.419332 Z-0.125000 I11.848380 J33.938778
G02 X126.483324 Y250.300252 Z-0.125000 I-14.124938 J-41.832446
G03 X126.830307 Y250.184531 Z-0.125000 I4.973168 J14.333598
G03 X127.178848 Y250.075052 Z-0.125000 I10.119075 J31.606043
G03 X127.525173 Y249.974393 Z-0.125000 I3.321001 J10.780095
G03 X127.873849 Y249.883738 Z-0.125000 I3.799997 J13.899607
G03 X128.220037 Y249.804595 Z-0.125000 I2.485279 J10.074318
G03 X128.568463 Y249.737149 Z-0.125000 I2.227622 J10.574257
G03 X128.914900 Y249.681622 Z-0.125000 I1.923970 J10.895255
G03 X129.262928 Y249.637620 Z-0.125000 I1.444932 J10.030312
G03 X129.609764 Y249.604390 Z-0.125000 I1.457832 J13.389182
G03 X129.957449 Y249.581132 Z-0.125000 I0.913530 J11.046014
G03 X130.304631 Y249.566602 Z-0.125000 I0.959152 J18.763310
G03 X130.652108 Y249.559703 Z-0.125000 I0.445496 J13.684062
G03 X130.999494 Y249.559115 Z-0.125000 I0.227564 J31.785648
G03 X131.346897 Y249.563529 Z-0.125000 I-0.064153 J18.720261
G03 X131.694358 Y249.571894 Z-0.125000 I-1.833782 J83.392801
G03 X132.041763 Y249.582820 Z-0.125000 I-0.859472 J32.855841
G02 X132.389224 Y249.595415 Z-0.125000 I12.901807 J-351.119950
G03 X132.736659 Y249.608568 Z-0.125000 I-2.956562 J82.692007
G02 X133.084088 Y249.621583 Z-0.125000 I2.776246 J-69.472388
G02 X133.431543 Y249.633546 Z-0.125000 I11.613922 J-332.256781
G02 X133.778952 Y249.644019 Z-0.125000 I1.567640 J-46.232590
G02 X134.126407 Y249.652328 Z-0.125000 I1.853158 J-70.229075
G02 X134.473816 Y249.658254 Z-0.125000 I0.850579 J-39.677443
G02 X134.821255 Y249.661343 Z-0.125000 I0.581417 J-45.854412
G02 X135.168682 Y249.661614 Z-0.125000 I0.205088 J-40.195384
G02 X135.516098 Y249.658843 Z-0.125000 I-0.130839 J-38.179748
G02 X135.863546 Y249.653253 Z-0.125000 I-0.611478 J-48.811562
G02 X136.210949 Y249.644880 Z-0.125000 I-0.766590 J-39.016764
G02 X136.558410 Y249.634283 Z-0.125000 I-2.557432 J-89.552893
G02 X136.905823 Y249.621699 Z-0.125000 I-1.545214 J-47.463544
G03 X137.253273 Y249.608062 Z-0.125000 I10.877982 J272.727001
G02 X137.600722 Y249.593946 Z-0.125000 I-3.139958 J-81.566235
G03 X137.948140 Y249.580702 Z-0.125000 I1.602649 J37.477543
G03 X138.295613 Y249.569277 Z-0.125000 I8.296935 J247.051126
G03 X138.643003 Y249.561467 Z-0.125000 I0.576864 J17.928444
G03 X138.990407 Y249.558679 Z-0.125000 I0.465927 J36.417991
G03 X139.337867 Y249.563054 Z-0.125000 I0.035685 J10.965583
G03 X139.684976 Y249.576254 Z-0.125000 I-0.484474 J17.310933
G03 X140.032731 Y249.600408 Z-0.125000 I-0.392800 J8.170641
G03 X140.379227 Y249.637570 Z-0.125000 I-0.976184 J10.735937
G03 X140.727597 Y249.689387 Z-0.125000 I-0.876432 J7.089208
G03 X141.073310 Y249.757289 Z-0.125000 I-1.396004 J8.021595
G03 X141.422461 Y249.842271 Z-0.125000 I-1.658582 J7.574055
G03 X141.767767 Y249.943912 Z-0.125000 I-1.914441 J7.141383
G03 X142.117325 Y250.061949 Z-0.125000 I-3.747280 J11.673821
G03 X142.463283 Y250.193390 Z-0.125000 I-2.763610 J7.794952
G03 X142.812189 Y250.334980 Z-0.125000 I-1656.753020 J4083.057935
G03 X143.160088 Y250.482062 Z-0.125000 I-4.920185 J12.122931
G02 X143.507055 Y250.625990 Z-0.125000 I3.567034 J-8.108880
G02 X143.857306 Y250.762206 Z-0.125000 I61.964559 J-158.810826
G02 X144.201919 Y250.877219 Z-0.125000 I1.377420 J-3.553343
G02 X144.552415 Y250.965922 Z-0.125000 I1.844803 J-6.552697
G02 X144.896783 Y251.017253 Z-0.125000 I0.521490 J-2.317743
G02 X145.242742 Y251.023012 Z-0.125000 I0.222545 J-2.974361
G02 X145.591649 Y250.981126 Z-0.125000 I-0.093198 J-2.250464
G02 X145.932023 Y250.886305 Z-0.125000 I-0.468537 J-2.340197
G02 X146.286513 Y250.739014 Z-0.125000 I-1.355384 J-3.762278
G02 X146.627699 Y250.550590 Z-0.125000 I-1.328633 J-2.808906
G02 X146.981376 Y250.323791 Z-0.125000 I-39.363219 J-61.773505
G02 X147.329583 Y250.080601 Z-0.125000 I-3.148942 J-4.879626
G03 X147.676240 Y249.842200 Z-0.125000 I2.893140 J3.835655
G03 X148.032127 Y249.621081 Z-0.125000 I41.197344 J65.909426
G03 X148.371107 Y249.455136 Z-0.125000 I1.013389 J1.640881
G03 X148.724086 Y249.350868 Z-0.125000 I0.919938 J2.464673
G03 X149.065970 Y249.323474 Z-0.125000 I0.270103 J1.223864
G03 X149.403120 Y249.386033 Z-0.125000 I-0.077995 J1.360132
G03 X149.760834 Y249.534871 Z-0.125000 I-0.698242 J2.182419
G03 X150.096772 Y249.754068 Z-0.125000 I-0.933452 J1.797620
G03 X150.455698 Y250.045116 Z-0.125000 I-35.839526 J44.564676
G03 X150.803943 Y250.360771 Z-0.125000 I-2.920515 J3.571975
G02 X151.150564 Y250.671136 Z-0.125000 I2.891092 J-2.880090
G02 X151.511485 Y250.955813 Z-0.125000 I26.578606 J-33.325852
G02 X151.845428 Y251.153470 Z-0.125000 I0.934734 J-1.198309
G02 X152.199347 Y251.262396 Z-0.125000 I0.679964 J-1.579886
G02 X152.540292 Y251.269244 Z-0.125000 I0.190343 J-0.985920
G02 X152.871387 Y251.162336 Z-0.125000 I-0.161992 J-1.067852
G02 X153.235155 Y250.942653 Z-0.125000 I-1.403008 J-2.734227
G02 X153.571582 Y250.653998 Z-0.125000 I-1.320649 J-1.879590
G03 X153.930022 Y250.292787 Z-0.125000 I11.117062 J10.673332
G02 X154.282918 Y249.921731 Z-0.125000 I-4.737244 J-4.858737
G03 X154.624886 Y249.587671 Z-0.125000 I2.408396 J2.123343
G03 X154.989889 Y249.299631 Z-0.125000 I4.811722 J5.722115
G03 X155.319749 Y249.124167 Z-0.125000 I0.752915 J1.017634
G03 X155.669159 Y249.055879 Z-0.125000 I0.404117 J1.139694
G03 X156.014613 Y249.094901 Z-0.125000 I0.050062 J1.105423
G03 X156.344283 Y249.244462 Z-0.125000 I-0.311625 J1.125018
G03 X156.709480 Y249.509116 Z-0.125000 I-2.722124 J4.140551
G03 X157.048010 Y249.825990 Z-0.125000 I-1.813671 J2.276894
G02 X157.404343 Y250.201887 Z-0.125000 I9.579644 J-8.724230
G03 X157.757466 Y250.578632 Z-0.125000 I-7.169693 J7.074017
G02 X158.099207 Y250.917650 Z-0.125000 I2.901885 J-2.583437
G02 X158.462359 Y251.216566 Z-0.125000 I5.044143 J-5.758064
G02 X158.794073 Y251.419316 Z-0.125000 I1.089449 J-1.409695
G02 X159.150213 Y251.540625 Z-0.125000 I0.722254 J-1.536962
G02 X159.488937 Y251.570726 Z-0.125000 I0.285694 J-1.294018
G02 X159.827145 Y251.509118 Z-0.125000 I-0.049310 J-1.229825
G02 X160.183801 Y251.363647 Z-0.125000 I-0.905976 J-2.731166
G02 X160.520696 Y251.160281 Z-0.125000 I-0.973078 J-1.992730
G02 X160.878665 Y250.892102 Z-0.125000 I-11.976981 J-16.360009
G02 X161.222892 Y250.605041 Z-0.125000 I-3.318977 J-4.329845
G03 X161.573531 Y250.298381 Z-0.125000 I8.890840 J9.812102
G02 X161.924706 Y249.997566 Z-0.125000 I-20.431106 J-24.206963
G03 X162.268395 Y249.719158 Z-0.125000 I4.174489 J4.801974
G03 X162.623361 Y249.462933 Z-0.125000 I6.322348 J8.384780
G03 X162.963259 Y249.250484 Z-0.125000 I2.489927 J3.605514
G03 X163.317892 Y249.070998 Z-0.125000 I2.199834 J3.906404
G03 X163.658122 Y248.936553 Z-0.125000 I1.573544 J3.484352
G03 X164.009503 Y248.838467 Z-0.125000 I1.046693 J3.071210
G03 X164.352989 Y248.776856 Z-0.125000 I0.971782 J4.429473
G03 X164.701260 Y248.746470 Z-0.125000 I0.466239 J3.332695
G03 X165.047852 Y248.742127 Z-0.125000 I0.269631 J7.686741
G03 X165.394858 Y248.758613 Z-0.125000 I-0.048022 J4.671061
G03 X165.742716 Y248.790755 Z-0.125000 I-1.976836 J23.292908
G03 X166.089799 Y248.832810 Z-0.125000 I-0.829659 J8.300573
G02 X166.437580 Y248.881009 Z-0.125000 I6.482363 J-45.494003
G03 X166.785113 Y248.930255 Z-0.125000 I-3.404079 J25.273790
G02 X167.132446 Y248.977942 Z-0.125000 I2.301373 J-15.473643
G02 X167.480233 Y249.020382 Z-0.125000 I5.733143 J-45.535365
G02 X167.827310 Y249.055978 Z-0.125000 I1.328366 J-11.242344
G02 X168.175029 Y249.082329 Z-0.125000 I1.351553 J-15.527254
G02 X168.522174 Y249.098864 Z-0.125000 I0.664045 J-10.288846
G02 X168.869604 Y249.104182 Z-0.125000 I0.346206 J-11.266763
G02 X169.217038 Y249.098714 Z-0.125000 I-0.001207 J-11.116021
G02 X169.564179 Y249.081942 Z-0.125000 I-0.323398 J-10.295002
G02 X169.911904 Y249.055277 Z-0.125000 I-0.996744 J-15.278379
G02 X170.258970 Y249.019184 Z-0.125000 I-0.978530 J-11.096174
G02 X170.606768 Y248.976130 Z-0.125000 I-5.374359 J-44.840861
G02 X170.954106 Y248.927685 Z-0.125000 I-1.928224 J-15.094393
G03 X171.301631 Y248.877758 Z-0.125000 I3.540717 J23.411118
G02 X171.649442 Y248.829017 Z-0.125000 I-5.970745 J-43.871995
G03 X171.996498 Y248.786982 Z-0.125000 I1.100691 J7.634002
G03 X172.344346 Y248.755631 Z-0.125000 I2.151714 J21.928449
G03 X172.691362 Y248.741323 Z-0.125000 I0.348964 J4.248191
G03 X173.037652 Y248.749621 Z-0.125000 I0.003321 J7.091004
G03 X173.386225 Y248.786342 Z-0.125000 I-0.149911 J3.095840
G03 X173.728871 Y248.856939 Z-0.125000 I-0.674319 J4.139637
G03 X174.081089 Y248.967695 Z-0.125000 I-0.749582 J2.999200
G03 X174.420294 Y249.117274 Z-0.125000 I-1.298625 J3.404331
G03 X174.775956 Y249.316463 Z-0.125000 I-2.068172 J4.109942
G03 X175.115513 Y249.549771 Z-0.125000 I-2.301656 J3.713583
G03 X175.470819 Y249.829037 Z-0.125000 I-8.055708 J10.614845
G03 X175.815510 Y250.129847 Z-0.125000 I-4.194415 J5.154160
G02 X176.165683 Y250.447407 Z-0.125000 I10.512510 J-11.240296
G03 X176.518911 Y250.767206 Z-0.125000 I-10.830023 J12.317070
G02 X176.860547 Y251.050976 Z-0.125000 I2.650370 J-2.843288
G02 X177.221230 Y251.304503 Z-0.125000 I5.617749 J-7.608828
G02 X177.555413 Y251.473460 Z-0.125000 I0.860322 J-1.286679
G02 X177.906699 Y251.561077 Z-0.125000 I0.601972 J-1.665492
G02 X178.250277 Y251.553282 Z-0.125000 I0.148342 J-1.037393
G02 X178.580016 Y251.439069 Z-0.125000 I-0.223373 J-1.177983
G02 X178.945141 Y251.209938 Z-0.125000 I-1.229754 J-2.365121
G02 X179.279056 Y250.907447 Z-0.125000 I-1.425610 J-1.909261
G03 X179.640004 Y250.515601 Z-0.125000 I45.484291 J41.535528
G02 X179.991209 Y250.101467 Z-0.125000 I-4.387522 J-4.076809
G03 X180.334871 Y249.714290 Z-0.125000 I3.017898 J2.332606
G03 X180.702941 Y249.363355 Z-0.125000 I11.585014 J11.782187
G03 X181.029735 Y249.149133 Z-0.125000 I0.802978 J0.868564
G03 X181.380132 Y249.060286 Z-0.125000 I0.440354 J1.001312
G03 X181.724598 Y249.103124 Z-0.125000 I0.069761 J0.845410
G03 X182.048951 Y249.287768 Z-0.125000 I-0.323774 J0.945959
G03 X182.419462 Y249.624805 Z-0.125000 I-4.941143 J5.804068
G03 X182.762572 Y250.022718 Z-0.125000 I-2.077297 J2.138086
G02 X183.114328 Y250.453352 Z-0.125000 I3.667798 J-2.636996
G03 X183.481484 Y250.859960 Z-0.125000 I-16.687951 J15.437823
G02 X183.809192 Y251.127068 Z-0.125000 I0.968279 J-0.853376
G02 X184.166072 Y251.260183 Z-0.125000 I0.584843 J-1.023005
G02 X184.504056 Y251.247842 Z-0.125000 I0.142778 J-0.724103
G02 X184.828645 Y251.076110 Z-0.125000 I-0.223551 J-0.815151
G02 X185.198922 Y250.745928 Z-0.125000 I-7.114269 J-8.350890
G02 X185.544652 Y250.355001 Z-0.125000 I-1.860428 J-1.993678
G03 X185.893786 Y249.951004 Z-0.125000 I2.562350 J1.861521
G03 X186.262970 Y249.594134 Z-0.125000 I33.975790 J34.778694
G03 X186.588650 Y249.388281 Z-0.125000 I0.671918 J0.702488
G03 X186.934273 Y249.336168 Z-0.125000 I0.292405 J0.767110
G03 X187.283514 Y249.421269 Z-0.125000 I-0.067244 J1.035121
G03 X187.613611 Y249.647503 Z-0.125000 I-0.430643 J0.982292
G02 X187.978380 Y249.997544 Z-0.125000 I7.569671 J-7.523073
G03 X188.332580 Y250.370189 Z-0.125000 I-2.493319 J2.724562
G02 X188.673244 Y250.693056 Z-0.125000 I1.488670 J-1.229572
G02 X189.039160 Y250.927585 Z-0.125000 I1.936803 J-2.619124
G02 X189.368107 Y251.025230 Z-0.125000 I0.388413 J-0.705586
G02 X189.702902 Y250.973063 Z-0.125000 I0.055221 J-0.746008
G02 X190.062971 Y250.795955 Z-0.125000 I-1.013017 J-2.514091
G02 X190.402671 Y250.529783 Z-0.125000 I-0.821729 J-1.398577
G03 X190.757838 Y250.208698 Z-0.125000 I2.722195 J2.654167
G00 Z3.000000

(End cutting path id: path617059)


(Start cutting path id: path617057)
(Change tool to Default tool)

G00 Z3.000000
G00 X124.050849 Y249.543086

G00 Z4.875000 (Fast pre-penetrate)
G01 Z-0.125000 F400.0(Penetrate)
G02 X124.397229 Y249.419610 Z-0.125000 I-2.633430 J-7.935007 F800.000000
G03 X124.745715 Y249.288528 Z-0.125000 I14.273682 J37.418262
G02 X125.093576 Y249.156608 Z-0.125000 I-8.788825 J-23.699830
G03 X125.440579 Y249.027715 Z-0.125000 I4.715915 J12.164615
G03 X125.789445 Y248.905812 Z-0.125000 I11.679808 J32.865345
G03 X126.135443 Y248.794647 Z-0.125000 I2.952190 J8.594576
G03 X126.484547 Y248.695828 Z-0.125000 I3.462626 J11.566575
G03 X126.830307 Y248.611682 Z-0.125000 I2.076374 J7.779526
G03 X127.179023 Y248.542553 Z-0.125000 I1.827388 J8.303919
G03 X127.525173 Y248.488813 Z-0.125000 I1.466194 J8.302397
G03 X127.873250 Y248.450133 Z-0.125000 I1.030636 J7.689103
G03 X128.220037 Y248.425403 Z-0.125000 I0.904755 J10.243448
G03 X128.567592 Y248.413699 Z-0.125000 I0.457029 J8.405310
G03 X128.914900 Y248.413285 Z-0.125000 I0.191163 J14.697731
G03 X129.262196 Y248.422663 Z-0.125000 I-0.106838 J10.392047
G03 X129.609764 Y248.440177 Z-0.125000 I-1.145701 J26.193687
G03 X129.957030 Y248.463970 Z-0.125000 I-0.874102 J15.304304
G03 X130.304631 Y248.492580 Z-0.125000 I-5.876388 J73.519355
G03 X130.651978 Y248.524275 Z-0.125000 I-2.287536 J26.988609
G02 X130.999494 Y248.557882 Z-0.125000 I16.514473 J-168.955971
G03 X131.346946 Y248.591915 Z-0.125000 I-7.168966 J74.980336
G02 X131.694358 Y248.625525 Z-0.125000 I4.958801 J-49.444279
G02 X132.041883 Y248.657557 Z-0.125000 I15.673202 J-168.145027
G02 X132.389224 Y248.687406 Z-0.125000 I3.070744 J-33.696954
G02 X132.736776 Y248.714266 Z-0.125000 I4.060148 J-50.273482
G02 X133.084088 Y248.737735 Z-0.125000 I2.064789 J-27.974917
G02 X133.431622 Y248.757276 Z-0.125000 I2.091201 J-34.090852
G02 X133.778952 Y248.772660 Z-0.125000 I1.302827 J-25.486498
G02 X134.126440 Y248.783532 Z-0.125000 I1.054532 J-28.145077
G02 X134.473816 Y248.789779 Z-0.125000 I0.611854 J-24.365283
G02 X134.821242 Y248.791201 Z-0.125000 I0.270719 J-23.699269
G02 X135.168682 Y248.787662 Z-0.125000 I-0.080924 J-25.003424
G02 X135.516040 Y248.779310 Z-0.125000 I-0.411581 J-24.345016
G02 X135.863546 Y248.766151 Z-0.125000 I-0.812213 J-26.044965
G02 X136.210850 Y248.748179 Z-0.125000 I-1.077556 J-24.187550
G02 X136.558410 Y248.725736 Z-0.125000 I-1.830815 J-31.055675
G02 X136.905696 Y248.698977 Z-0.125000 I-1.804585 J-25.687315
G02 X137.253273 Y248.668568 Z-0.125000 I-4.045226 J-48.238351
G02 X137.600606 Y248.634891 Z-0.125000 I-2.754169 J-30.213719
G02 X137.948140 Y248.599102 Z-0.125000 I-84.031636 J-817.693644
G02 X138.295591 Y248.561930 Z-0.125000 I-4.728766 J-45.843356
G03 X138.643003 Y248.525156 Z-0.125000 I3.918257 J35.357114
G02 X138.990614 Y248.489988 Z-0.125000 I-58.417363 J-579.158840
G03 X139.337867 Y248.458894 Z-0.125000 I1.488976 J14.673731
G03 X139.685528 Y248.433678 Z-0.125000 I2.637292 J33.952029
G03 X140.032731 Y248.417256 Z-0.125000 I0.583591 J8.660271
G03 X140.380074 Y248.412137 Z-0.125000 I0.379406 J13.955597
G03 X140.727597 Y248.421040 Z-0.125000 I0.014305 J6.228651
G03 X141.074032 Y248.446948 Z-0.125000 I-0.443262 J8.256175
G03 X141.422461 Y248.491792 Z-0.125000 I-0.518834 J5.407322
G03 X141.767659 Y248.557752 Z-0.125000 I-0.985801 J6.095421
G03 X142.117325 Y248.645798 Z-0.125000 I-1.321719 J5.987424
G03 X142.461912 Y248.755222 Z-0.125000 I-1.570107 J5.541682
G03 X142.812189 Y248.885534 Z-0.125000 I-3.593305 J10.194710
G03 X143.157843 Y249.032069 Z-0.125000 I-2.487285 J6.348047
G02 X143.507055 Y249.190333 Z-0.125000 I26.623233 J-58.280220
G03 X143.855523 Y249.353746 Z-0.125000 I-4.936704 J10.980460
G02 X144.201919 Y249.510344 Z-0.125000 I2.790783 J-5.711836
G02 X144.553290 Y249.654544 Z-0.125000 I13.926060 J-33.433389
G02 X144.896783 Y249.769191 Z-0.125000 I1.094435 J-2.707134
G02 X145.247185 Y249.847881 Z-0.125000 I1.178683 J-4.429080
G02 X145.591649 Y249.880186 Z-0.125000 I0.354872 J-1.931326
G02 X145.935049 Y249.856283 Z-0.125000 I0.013083 J-2.290678
G02 X146.286513 Y249.776549 Z-0.125000 I-0.331838 J-2.277214
G02 X146.625354 Y249.640295 Z-0.125000 I-0.671373 J-2.159039
G02 X146.981376 Y249.448051 Z-0.125000 I-2.830985 J-5.668573
G02 X147.324676 Y249.220641 Z-0.125000 I-1.786244 J-3.069355
G03 X147.676240 Y248.967779 Z-0.125000 I6.644229 J8.866939
G02 X148.028866 Y248.712114 Z-0.125000 I-5.297990 J-7.678244
G03 X148.371107 Y248.489138 Z-0.125000 I1.690698 J2.220880
G03 X148.728667 Y248.307021 Z-0.125000 I2.926852 J5.304374
G03 X149.065970 Y248.200957 Z-0.125000 I0.564114 J1.204614
G03 X149.410255 Y248.181945 Z-0.125000 I0.253582 J1.465287
G03 X149.760834 Y248.248643 Z-0.125000 I-0.085946 J1.406470
G03 X150.093934 Y248.405548 Z-0.125000 I-0.456572 J1.401298
G03 X150.455698 Y248.653756 Z-0.125000 I-3.276705 J5.163547
G03 X150.797984 Y248.948781 Z-0.125000 I-1.814346 J2.451065
G02 X151.150564 Y249.277357 Z-0.125000 I4.820136 J-4.818814
G03 X151.507923 Y249.601035 Z-0.125000 I-7.463760 J8.599533
G02 X151.845428 Y249.859937 Z-0.125000 I1.423615 J-1.506387
G02 X152.206557 Y250.050331 Z-0.125000 I1.612562 J-2.620949
G02 X152.540292 Y250.132400 Z-0.125000 I0.395383 J-0.888226
G02 X152.876207 Y250.096222 Z-0.125000 I0.063028 J-0.992378
G02 X153.235155 Y249.948245 Z-0.125000 I-0.472344 J-1.655103
G02 X153.567009 Y249.707446 Z-0.125000 I-0.802687 J-1.455280
G02 X153.930022 Y249.365866 Z-0.125000 I-47.145347 J-50.467249
G02 X154.277909 Y248.996902 Z-0.125000 I-3.105584 J-3.276675
G03 X154.624886 Y248.631084 Z-0.125000 I3.261727 J2.746269
G03 X154.988597 Y248.295038 Z-0.125000 I24.970457 J26.661346
G03 X155.319749 Y248.064263 Z-0.125000 I1.044944 J1.146464
G03 X155.677041 Y247.930569 Z-0.125000 I0.732540 J1.413415
G03 X156.014613 Y247.910821 Z-0.125000 I0.223198 J0.920221
G03 X156.345096 Y248.012187 Z-0.125000 I-0.118896 J0.977054
G03 X156.709480 Y248.233368 Z-0.125000 I-1.363588 J2.657172
G03 X157.044528 Y248.524217 Z-0.125000 I-1.312935 J1.850867
G02 X157.404343 Y248.896630 Z-0.125000 I18.416329 J-17.433313
G03 X157.754670 Y249.279456 Z-0.125000 I-4.953434 J4.884635
G02 X158.099207 Y249.642667 Z-0.125000 I3.457435 J-2.934656
G02 X158.461884 Y249.972898 Z-0.125000 I9.377626 J-9.934725
G02 X158.794073 Y250.208420 Z-0.125000 I1.295251 J-1.474850
G02 X159.153515 Y250.365819 Z-0.125000 I0.963436 J-1.711016
G02 X159.488937 Y250.425195 Z-0.125000 I0.382329 J-1.182709
G02 X159.828415 Y250.387173 Z-0.125000 I0.043377 J-1.147232
G02 X160.183801 Y250.260910 Z-0.125000 I-0.604751 J-2.265435
G02 X160.519392 Y250.067899 Z-0.125000 I-0.793524 J-1.767960
G02 X160.878665 Y249.801435 Z-0.125000 I-8.065132 J-11.249668
G02 X161.221805 Y249.511430 Z-0.125000 I-2.888130 J-3.765305
G03 X161.573531 Y249.194940 Z-0.125000 I9.876337 J10.622206
G02 X161.924433 Y248.882635 Z-0.125000 I-14.208206 J-16.317461
G03 X162.268395 Y248.591347 Z-0.125000 I4.278491 J4.703442
G03 X162.623846 Y248.322415 Z-0.125000 I7.068340 J8.972979
G03 X162.963259 Y248.100201 Z-0.125000 I2.457793 J3.383744
G03 X163.318652 Y247.912942 Z-0.125000 I2.202362 J3.748915
G03 X163.658122 Y247.774928 Z-0.125000 I1.480827 J3.155871
G03 X164.009826 Y247.676736 Z-0.125000 I0.975571 J2.815343
G03 X164.352989 Y247.618644 Z-0.125000 I0.842794 J3.935953
G03 X164.701020 Y247.595380 Z-0.125000 I0.375382 J3.000796
G03 X165.047852 Y247.601076 Z-0.125000 I0.061604 J6.811222
G03 X165.394482 Y247.630097 Z-0.125000 I-0.175039 J4.175278
G03 X165.742716 Y247.676908 Z-0.125000 I-2.591074 J20.594043
G03 X166.089601 Y247.734831 Z-0.125000 I-1.066397 J7.454047
G02 X166.437580 Y247.799886 Z-0.125000 I8.327629 J-43.580967
G03 X166.785150 Y247.866247 Z-0.125000 I-4.063775 J22.227745
G02 X167.132446 Y247.930987 Z-0.125000 I2.828788 J-14.211053
G02 X167.480435 Y247.990064 Z-0.125000 I7.667346 J-44.109536
G02 X167.827310 Y248.041451 Z-0.125000 I1.671424 J-10.086195
G02 X168.175284 Y248.082621 Z-0.125000 I1.867704 J-14.294679
G02 X168.522174 Y248.112565 Z-0.125000 I0.940868 J-8.875352
G02 X168.869797 Y248.129744 Z-0.125000 I0.672167 J-10.075826
G02 X169.217038 Y248.134155 Z-0.125000 I0.287047 J-8.926895
G02 X169.564199 Y248.125001 Z-0.125000 I-0.061006 J-8.901131
G02 X169.911904 Y248.103143 Z-0.125000 I-0.472401 J-10.291308
G02 X170.258745 Y248.068662 Z-0.125000 I-0.714605 J-8.949637
G02 X170.606768 Y248.023242 Z-0.125000 I-1.840698 J-15.460142
G02 X170.953668 Y247.968013 Z-0.125000 I-1.465623 J-10.322919
G02 X171.301631 Y247.905823 Z-0.125000 I-14.400413 J-81.576327
G02 X171.649053 Y247.838865 Z-0.125000 I-2.765728 J-15.285174
G03 X171.996498 Y247.771793 Z-0.125000 I3.198672 J15.636280
G02 X172.344638 Y247.707796 Z-0.125000 I-14.423403 J-79.442148
G03 X172.691362 Y247.653500 Z-0.125000 I1.120663 J6.022129
G03 X173.039491 Y247.613419 Z-0.125000 I1.837611 J14.428929
G03 X173.386225 Y247.594789 Z-0.125000 I0.363693 J3.532958
G03 X173.732127 Y247.603981 Z-0.125000 I0.025394 J5.557697
G03 X174.081089 Y247.646875 Z-0.125000 I-0.157025 J2.718372
G03 X174.422448 Y247.729101 Z-0.125000 I-0.659458 J3.487393
G03 X174.775956 Y247.857587 Z-0.125000 I-0.845664 J2.877277
G03 X175.114088 Y248.028033 Z-0.125000 I-1.363784 J3.126087
G03 X175.470819 Y248.253157 Z-0.125000 I-2.599188 J4.513892
G03 X175.810747 Y248.512029 Z-0.125000 I-2.558429 J3.712108
G03 X176.165683 Y248.815414 Z-0.125000 I-16.693426 J19.889313
G03 X176.512392 Y249.136868 Z-0.125000 I-4.947174 J5.683537
G02 X176.860547 Y249.462830 Z-0.125000 I6.320484 J-6.401910
G03 X177.216843 Y249.783631 Z-0.125000 I-22.583471 J25.440442
G02 X177.555413 Y250.049077 Z-0.125000 I1.932042 J-2.115636
G02 X177.916803 Y250.268911 Z-0.125000 I2.719406 J-4.063535
G02 X178.250277 Y250.392868 Z-0.125000 I0.584336 J-1.061454
G02 X178.593627 Y250.418645 Z-0.125000 I0.267565 J-1.264408
G02 X178.945141 Y250.343164 Z-0.125000 I-0.069235 J-1.178666
G02 X179.273007 Y250.163419 Z-0.125000 I-0.487404 J-1.277953
G02 X179.640004 Y249.862840 Z-0.125000 I-2.969034 J-3.999431
G02 X179.979053 Y249.505447 Z-0.125000 I-2.121061 J-2.351714
G03 X180.334871 Y249.089747 Z-0.125000 I7.952770 J6.447019
G02 X180.692935 Y248.669473 Z-0.125000 I-7.059306 J-6.377036
G03 X181.029735 Y248.324425 Z-0.125000 I1.947250 J1.563803
G03 X181.398764 Y248.046980 Z-0.125000 I2.652748 J3.144277
G03 X181.724598 Y247.917266 Z-0.125000 I0.467722 J0.700792
G03 X182.059152 Y247.932593 Z-0.125000 I0.132180 J0.773739
G03 X182.419462 Y248.087009 Z-0.125000 I-0.351842 J1.318557
G03 X182.748210 Y248.362241 Z-0.125000 I-0.758536 J1.239978
G02 X183.114328 Y248.767419 Z-0.125000 I22.576627 J-20.032216
G03 X183.466755 Y249.201372 Z-0.125000 I-3.332990 J3.066910
G02 X183.809192 Y249.597302 Z-0.125000 I2.299842 J-1.643066
G02 X184.180689 Y249.931405 Z-0.125000 I5.317805 J-5.539401
G02 X184.504056 Y250.101541 Z-0.125000 I0.550168 J-0.653298
G02 X184.842378 Y250.113077 Z-0.125000 I0.193285 J-0.701750
G02 X185.198922 Y249.980079 Z-0.125000 I-0.243353 J-1.196801
G02 X185.528583 Y249.712741 Z-0.125000 I-0.623948 J-1.106328
G03 X185.893786 Y249.317767 Z-0.125000 I8.172946 J7.190598
G02 X186.249358 Y248.902986 Z-0.125000 I-3.147742 J-3.058206
G03 X186.588650 Y248.549654 Z-0.125000 I1.650707 J1.245541
G03 X186.957723 Y248.285982 Z-0.125000 I2.160842 J2.634492
G03 X187.283514 Y248.177899 Z-0.125000 I0.390223 J0.631181
G03 X187.615412 Y248.231711 Z-0.125000 I0.059545 J0.683180
G03 X187.978380 Y248.428533 Z-0.125000 I-0.927986 J2.144432
G03 X188.315832 Y248.727316 Z-0.125000 I-0.896454 J1.352429
G02 X188.673244 Y249.099076 Z-0.125000 I3.327510 J-2.841394
G03 X189.034819 Y249.455866 Z-0.125000 I-5.285021 J5.717515
G02 X189.368107 Y249.713134 Z-0.125000 I0.995376 J-0.944983
G02 X189.726177 Y249.851595 Z-0.125000 I0.691010 J-1.254768
G02 X190.062971 Y249.864409 Z-0.125000 I0.200575 J-0.839331
G02 X190.394609 Y249.736732 Z-0.125000 I-0.135205 J-0.845739
G02 X190.757838 Y249.490974 Z-0.125000 I-6.507752 J-10.009725
G00 Z3.000000

(End cutting path id: path617057)


(Start cutting path id: path617055)
(Change tool to Default tool)

G00 Z3.000000
G00 X124.050849 Y247.860645

G00 Z4.875000 (Fast pre-penetrate)
G01 Z-0.125000 F400.0(Penetrate)
G03 X124.400189 Y247.726505 Z-0.125000 I12.180754 J31.200152 F800.000000
G03 X124.745715 Y247.605979 Z-0.125000 I2.543383 J6.735889
G03 X125.095365 Y247.501098 Z-0.125000 I2.965868 J9.252298
G03 X125.440579 Y247.415167 Z-0.125000 I1.670863 J5.976016
G03 X125.789541 Y247.348730 Z-0.125000 I1.397171 J6.389005
G03 X126.135443 Y247.302071 Z-0.125000 I1.040367 J6.407147
G03 X126.483374 Y247.274985 Z-0.125000 I0.632876 J5.881449
G03 X126.830307 Y247.265627 Z-0.125000 I0.393920 J8.168188
G03 X127.177499 Y247.272826 Z-0.125000 I0.037509 J6.567220
G03 X127.525173 Y247.294088 Z-0.125000 I-0.590515 J12.508863
G03 X127.872123 Y247.327233 Z-0.125000 I-0.646054 J8.595265
G03 X128.220037 Y247.370005 Z-0.125000 I-2.941100 J25.359472
G03 X128.567110 Y247.419731 Z-0.125000 I-1.724219 J13.270760
G03 X128.914900 Y247.474645 Z-0.125000 I-22.732026 J145.098221
G03 X129.262229 Y247.532220 Z-0.125000 I-4.267830 J26.822774
G02 X129.609764 Y247.591133 Z-0.125000 I10.577179 J-61.341394
G03 X129.957319 Y247.649432 Z-0.125000 I-25.895586 J155.442758
G02 X130.304631 Y247.706176 Z-0.125000 I5.463562 J-32.349508
G02 X130.652307 Y247.760081 Z-0.125000 I9.872746 J-62.529299
G02 X130.999494 Y247.810541 Z-0.125000 I3.933245 J-25.842859
G02 X131.347199 Y247.856836 Z-0.125000 I4.572759 J-33.015129
G02 X131.694358 Y247.898652 Z-0.125000 I3.065141 J-23.985001
G02 X132.042028 Y247.935658 Z-0.125000 I2.990064 J-26.440023
G02 X132.389224 Y247.967751 Z-0.125000 I2.372241 J-23.770069
G02 X132.736832 Y247.994832 Z-0.125000 I2.067992 J-24.300154
G02 X133.084088 Y248.016881 Z-0.125000 I1.707097 J-24.139346
G02 X133.431625 Y248.033935 Z-0.125000 I1.354001 J-24.042993
G02 X133.778952 Y248.045964 Z-0.125000 I1.010413 J-24.154438
G02 X134.126417 Y248.053036 Z-0.125000 I0.666536 J-24.211585
G02 X134.473816 Y248.055066 Z-0.125000 I0.312205 J-23.697476
G02 X134.821207 Y248.052106 Z-0.125000 I-0.026899 J-23.547596
G02 X135.168682 Y248.043927 Z-0.125000 I-0.361583 J-22.745309
G02 X135.515989 Y248.030549 Z-0.125000 I-0.739542 J-23.714654
G02 X135.863546 Y248.011791 Z-0.125000 I-0.984684 J-21.473320
G02 X136.210759 Y247.987513 Z-0.125000 I-1.393322 J-22.421727
G02 X136.558410 Y247.957586 Z-0.125000 I-1.625295 J-20.914521
G02 X136.905533 Y247.921908 Z-0.125000 I-1.993472 J-21.101878
G02 X137.253273 Y247.880513 Z-0.125000 I-2.469203 J-22.223723
G02 X137.600348 Y247.833435 Z-0.125000 I-2.597593 J-20.453182
G02 X137.948140 Y247.781093 Z-0.125000 I-4.143277 J-28.712290
G02 X138.295270 Y247.723828 Z-0.125000 I-3.375220 J-21.540679
G02 X138.643003 Y247.662748 Z-0.125000 I-13.015143 J-75.116447
G02 X138.990362 Y247.598638 Z-0.125000 I-4.902700 J-27.537033
G03 X139.337867 Y247.533663 Z-0.125000 I8.336191 J43.622279
G02 X139.685615 Y247.469183 Z-0.125000 I-12.851587 J-70.280712
G03 X140.032731 Y247.408618 Z-0.125000 I2.490289 J13.247537
G03 X140.380822 Y247.354064 Z-0.125000 I6.634943 J41.197446
G03 X140.727597 Y247.309855 Z-0.125000 I1.077866 J7.072557
G03 X141.075485 Y247.279105 Z-0.125000 I1.258581 J12.255691
G03 X141.422461 Y247.265855 Z-0.125000 I0.358385 J4.835087
G03 X141.769099 Y247.274210 Z-0.125000 I0.015014 J6.571978
G03 X142.117325 Y247.306584 Z-0.125000 I-0.209040 J4.137406
G03 X142.461997 Y247.366427 Z-0.125000 I-0.636170 J4.686663
G03 X142.812189 Y247.454505 Z-0.125000 I-0.998556 J4.710380
G03 X143.155877 Y247.570002 Z-0.125000 I-1.260382 J4.319680
G03 X143.507055 Y247.712084 Z-0.125000 I-3.382626 J8.865686
G03 X143.852352 Y247.873888 Z-0.125000 I-2.221438 J5.189995
G02 X144.201919 Y248.049335 Z-0.125000 I13.032559 J-25.530574
G03 X144.551155 Y248.229371 Z-0.125000 I-4.926121 J9.984545
G02 X144.896783 Y248.397754 Z-0.125000 I2.261602 J-4.203298
G02 X145.249389 Y248.547758 Z-0.125000 I7.092759 J-16.183130
G02 X145.591649 Y248.658410 Z-0.125000 I0.872806 J-2.115035
G02 X145.941211 Y248.721554 Z-0.125000 I0.745003 J-3.125164
G02 X146.286513 Y248.729041 Z-0.125000 I0.209325 J-1.687715
G02 X146.626846 Y248.670073 Z-0.125000 I-0.151012 J-1.883180
G02 X146.981376 Y248.546926 Z-0.125000 I-0.685917 J-2.546595
G02 X147.320007 Y248.367050 Z-0.125000 I-0.914992 J-2.131233
G02 X147.676240 Y248.132396 Z-0.125000 I-10.082625 J-15.694358
G02 X148.023136 Y247.872156 Z-0.125000 I-2.441146 J-3.615341
G03 X148.371107 Y247.608553 Z-0.125000 I3.098396 J3.728579
G02 X148.728182 Y247.360497 Z-0.125000 I-31.781013 J-46.129683
G03 X149.065970 Y247.174936 Z-0.125000 I1.019123 J1.454941
G03 X149.420113 Y247.059270 Z-0.125000 I0.917513 J2.209228
G03 X149.760834 Y247.031381 Z-0.125000 I0.258982 J1.068756
G03 X150.095639 Y247.105921 Z-0.125000 I-0.088323 J1.185886
G03 X150.455698 Y247.278510 Z-0.125000 I-0.854900 J2.245397
G03 X150.791666 Y247.525469 Z-0.125000 I-1.018469 J1.737548
G02 X151.150564 Y247.845963 Z-0.125000 I18.708434 J-20.589053
G03 X151.501882 Y248.185023 Z-0.125000 I-3.400586 J3.875065
G02 X151.845428 Y248.498078 Z-0.125000 I2.226851 J-2.098709
G02 X152.209137 Y248.768666 Z-0.125000 I5.973917 J-7.650102
G02 X152.540292 Y248.931182 Z-0.125000 I0.668953 J-0.944451
G02 X152.886638 Y248.981850 Z-0.125000 I0.339763 J-1.113405
G02 X153.235155 Y248.922160 Z-0.125000 I-0.006126 J-1.083066
G02 X153.563703 Y248.746633 Z-0.125000 I-0.389789 J-1.124844
G02 X153.930022 Y248.449602 Z-0.125000 I-4.240986 J-5.604668
G02 X154.271877 Y248.102039 Z-0.125000 I-2.030185 J-2.338752
G03 X154.624886 Y247.715802 Z-0.125000 I4.755925 J3.992321
G02 X154.985025 Y247.341327 Z-0.125000 I-11.001474 J-10.940736
G03 X155.319749 Y247.052156 Z-0.125000 I1.486853 J1.382768
G03 X155.683849 Y246.843227 Z-0.125000 I1.446623 J2.099300
G03 X156.014613 Y246.758144 Z-0.125000 I0.390522 J0.832697
G03 X156.349284 Y246.800029 Z-0.125000 I0.058161 J0.893260
G03 X156.709480 Y246.961677 Z-0.125000 I-0.566730 J1.744963
G03 X157.040805 Y247.214331 Z-0.125000 I-0.865957 J1.479173
G03 X157.404343 Y247.571742 Z-0.125000 I-49.978783 J51.199194
G03 X157.751054 Y247.952264 Z-0.125000 I-3.525307 J3.560283
G02 X158.099207 Y248.337754 Z-0.125000 I4.271664 J-3.507956
G02 X158.460434 Y248.699073 Z-0.125000 I48.763181 J-48.389517
G02 X158.794073 Y248.972203 Z-0.125000 I1.587909 J-1.599355
G02 X159.156819 Y249.173329 Z-0.125000 I1.376472 J-2.054896
G02 X159.488937 Y249.268666 Z-0.125000 I0.497684 J-1.107583
G02 X159.831000 Y249.262193 Z-0.125000 I0.150415 J-1.092753
G02 X160.183801 Y249.163489 Z-0.125000 I-0.324703 J-1.840454
G02 X160.518051 Y248.987286 Z-0.125000 I-0.600864 J-1.544947
G02 X160.878665 Y248.728157 Z-0.125000 I-5.278590 J-7.726376
G02 X161.220333 Y248.439005 Z-0.125000 I-2.430065 J-3.217861
G03 X161.573531 Y248.113986 Z-0.125000 I11.789111 J12.456777
G02 X161.923844 Y247.790518 Z-0.125000 I-10.132634 J-11.325006
G03 X162.268395 Y247.484749 Z-0.125000 I4.485506 J4.707404
G03 X162.624206 Y247.200844 Z-0.125000 I8.554639 J10.356375
G03 X162.963259 Y246.966045 Z-0.125000 I2.476852 J3.214411
G03 X163.319521 Y246.767818 Z-0.125000 I2.281364 J3.680911
G03 X163.658122 Y246.623418 Z-0.125000 I1.422420 J2.866220
G03 X164.010296 Y246.522453 Z-0.125000 I0.935787 J2.599419
G03 X164.352989 Y246.465745 Z-0.125000 I0.751240 J3.475995
G03 X164.700776 Y246.448000 Z-0.125000 I0.312019 J2.698285
G03 X165.047852 Y246.462702 Z-0.125000 I-0.078433 J5.955685
G03 X165.394019 Y246.503765 Z-0.125000 I-0.267487 J3.734662
G03 X165.742716 Y246.565297 Z-0.125000 I-2.893034 J17.413268
G03 X166.089329 Y246.639523 Z-0.125000 I-1.239371 J6.633877
G02 X166.437580 Y246.722338 Z-0.125000 I11.182729 J-46.251911
G03 X166.785156 Y246.806991 Z-0.125000 I-4.431707 J18.951929
G02 X167.132446 Y246.890271 Z-0.125000 I3.442827 J-13.591318
G02 X167.480653 Y246.967750 Z-0.125000 I10.710238 J-47.312693
G02 X167.827310 Y247.036932 Z-0.125000 I2.064856 J-9.443504
G02 X168.175603 Y247.095280 Z-0.125000 I2.471221 J-13.682603
G02 X168.522174 Y247.141281 Z-0.125000 I1.251724 J-8.101959
G02 X168.870102 Y247.173448 Z-0.125000 I1.043160 J-9.385439
G02 X169.217038 Y247.191314 Z-0.125000 I0.575087 J-7.790125
G02 X169.564374 Y247.193991 Z-0.125000 I0.235832 J-8.064638
G02 X169.911904 Y247.181868 Z-0.125000 I-0.114180 J-8.260895
G02 X170.258676 Y247.154714 Z-0.125000 I-0.437226 J-7.811353
G02 X170.606768 Y247.113534 Z-0.125000 I-1.010825 J-10.036330
G02 X170.953280 Y247.059018 Z-0.125000 I-1.130293 J-8.312872
G02 X171.301631 Y246.992913 Z-0.125000 I-2.949640 J-16.494507
G02 X171.648407 Y246.917040 Z-0.125000 I-2.019520 J-10.060481
G03 X171.996498 Y246.834553 Z-0.125000 I1815.826118 J7661.894513
G02 X172.344107 Y246.748234 Z-0.125000 I-3.844565 J-16.225277
G03 X172.691362 Y246.663621 Z-0.125000 I2.968682 J11.428779
G03 X173.039955 Y246.584264 Z-0.125000 I886.980427 J3895.451780
G03 X173.386225 Y246.518125 Z-0.125000 I1.116064 J4.903570
G03 X173.734685 Y246.470111 Z-0.125000 I1.607203 J10.375942
G03 X174.081089 Y246.448357 Z-0.125000 I0.362319 J3.000451
G03 X174.426460 Y246.459912 Z-0.125000 I0.025209 J4.413620
G03 X174.775956 Y246.510793 Z-0.125000 I-0.178148 J2.449442
G03 X175.115920 Y246.606222 Z-0.125000 I-0.664548 J3.020709
G03 X175.470819 Y246.754095 Z-0.125000 I-0.975985 J2.842204
G03 X175.808146 Y246.946251 Z-0.125000 I-1.457708 J2.951151
G03 X176.165683 Y247.197251 Z-0.125000 I-3.377228 J5.190847
G03 X176.506418 Y247.480741 Z-0.125000 I-2.869975 J3.796020
G03 X176.860547 Y247.804797 Z-0.125000 I-295.660051 J323.453307
G03 X177.209599 Y248.142699 Z-0.125000 I-5.958049 J6.503891
G02 X177.555413 Y248.470350 Z-0.125000 I4.450961 J-4.351377
G02 X177.914628 Y248.784091 Z-0.125000 I70.446311 J-80.294394
G02 X178.250277 Y249.024069 Z-0.125000 I1.427164 J-1.641401
G02 X178.610153 Y249.201311 Z-0.125000 I1.479745 J-2.550549
G02 X178.945141 Y249.276625 Z-0.125000 I0.388976 J-0.947473
G02 X179.280688 Y249.242270 Z-0.125000 I0.057664 J-1.092636
G02 X179.640004 Y249.097420 Z-0.125000 I-0.390200 J-1.486022
G02 X179.969113 Y248.856860 Z-0.125000 I-0.819813 J-1.466990
G02 X180.334871 Y248.499986 Z-0.125000 I-8.594550 J-9.174356
G02 X180.679559 Y248.102429 Z-0.125000 I-2.975261 J-2.927803
G03 X181.029735 Y247.685171 Z-0.125000 I4.612021 J3.514977
G02 X181.393825 Y247.282191 Z-0.125000 I-19.095490 J-17.618648
G03 X181.724598 Y246.993763 Z-0.125000 I1.273756 J1.126877
G03 X182.087812 Y246.805627 Z-0.125000 I1.034756 J1.553021
G03 X182.419462 Y246.759226 Z-0.125000 I0.265317 J0.687907
G03 X182.745075 Y246.862924 Z-0.125000 I-0.071028 J0.786094
G03 X183.114328 Y247.119297 Z-0.125000 I-1.406815 J2.420333
G03 X183.449994 Y247.466341 Z-0.125000 I-1.337055 J1.629067
G02 X183.809192 Y247.899840 Z-0.125000 I5.879868 J-4.506505
G03 X184.169774 Y248.334712 Z-0.125000 I-5.588967 J5.001118
G02 X184.504056 Y248.672380 Z-0.125000 I1.502622 J-1.153254
G02 X184.872247 Y248.909784 Z-0.125000 I1.470916 J-1.877041
G02 X185.198922 Y248.988880 Z-0.125000 I0.322760 J-0.618884
G02 X185.526167 Y248.904560 Z-0.125000 I-0.003955 J-0.692527
G02 X185.893786 Y248.664586 Z-0.125000 I-1.318942 J-2.422070
G02 X186.231062 Y248.327595 Z-0.125000 I-1.151244 J-1.489495
G03 X186.588650 Y247.914750 Z-0.125000 I3.931626 J3.044108
G02 X186.951776 Y247.514673 Z-0.125000 I-6.121496 J-5.920956
G03 X187.283514 Y247.227786 Z-0.125000 I1.099315 J0.935935
G03 X187.644560 Y247.064200 Z-0.125000 I0.782141 J1.246023
G03 X187.978380 Y247.042406 Z-0.125000 I0.214500 J0.718035
G03 X188.306301 Y247.176265 Z-0.125000 I-0.124925 J0.774628
G03 X188.673244 Y247.451915 Z-0.125000 I-4.559784 J6.452014
G03 X189.017856 Y247.791093 Z-0.125000 I-1.450431 J1.818325
G02 X189.368107 Y248.150961 Z-0.125000 I2.347473 J-1.934358
G02 X189.733425 Y248.467200 Z-0.125000 I56.886106 J-65.345608
G02 X190.062971 Y248.661728 Z-0.125000 I0.707064 J-0.821417
G02 X190.411684 Y248.723359 Z-0.125000 I0.342889 J-0.922753
G02 X190.757838 Y248.667390 Z-0.125000 I-0.006746 J-1.140142
G00 Z3.000000

(End cutting path id: path617055)


(Start cutting path id: path617053)
(Change tool to Default tool)

G00 Z3.000000
G00 X124.050849 Y246.226686

G00 Z4.875000 (Fast pre-penetrate)
G01 Z-0.125000 F400.0(Penetrate)
G03 X124.399959 Y246.165936 Z-0.125000 I1.039086 J4.937774 F800.000000
G03 X124.745715 Y246.130161 Z-0.125000 I0.697734 J5.054723
G03 X125.093208 Y246.119394 Z-0.125000 I0.315254 J4.561653
G03 X125.440579 Y246.130690 Z-0.125000 I-0.048134 J6.826905
G03 X125.787143 Y246.162137 Z-0.125000 I-0.304929 J5.285956
G03 X126.135443 Y246.210467 Z-0.125000 I-1.489662 J12.014632
G03 X126.481978 Y246.272037 Z-0.125000 I-1.140887 J7.427348
G03 X126.830307 Y246.344148 Z-0.125000 I-7.214154 J35.724805
G03 X127.177315 Y246.422583 Z-0.125000 I-2.776852 J13.092091
G02 X127.525173 Y246.505239 Z-0.125000 I18.160765 J-75.655725
G03 X127.872704 Y246.588593 Z-0.125000 I-9.286041 J39.483153
G02 X128.220037 Y246.670995 Z-0.125000 I6.174717 J-25.253624
G02 X128.567905 Y246.750139 Z-0.125000 I16.878851 J-73.385068
G02 X128.914900 Y246.824885 Z-0.125000 I4.249639 J-18.885533
G02 X129.262873 Y246.894044 Z-0.125000 I5.246862 J-25.489499
G02 X129.609764 Y246.957057 Z-0.125000 I3.427075 J-17.879857
G02 X129.957680 Y247.013537 Z-0.125000 I3.290082 J-19.167076
G02 X130.304631 Y247.063449 Z-0.125000 I2.948174 J-19.262806
G02 X130.652413 Y247.106914 Z-0.125000 I2.449621 J-18.187156
G02 X130.999494 Y247.144242 Z-0.125000 I2.613287 J-22.666741
G02 X131.347147 Y247.175845 Z-0.125000 I1.958965 J-19.621481
G02 X131.694358 Y247.202167 Z-0.125000 I2.316700 J-28.256654
G02 X132.041912 Y247.223753 Z-0.125000 I1.605505 J-23.040832
G02 X132.389224 Y247.241013 Z-0.125000 I1.957590 J-35.889140
G02 X132.736717 Y247.254495 Z-0.125000 I1.281932 J-28.555436
G02 X133.084088 Y247.264481 Z-0.125000 I1.435580 J-43.890477
G02 X133.431544 Y247.271424 Z-0.125000 I0.896091 J-36.150062
G02 X133.778952 Y247.275409 Z-0.125000 I0.711846 J-46.913157
G02 X134.126383 Y247.276777 Z-0.125000 I0.342297 J-42.807608
G02 X134.473816 Y247.275242 Z-0.125000 I-0.004848 J-40.420084
G02 X134.821222 Y247.271065 Z-0.125000 I-0.345013 J-43.147335
G02 X135.168682 Y247.263733 Z-0.125000 I-0.551913 J-34.388539
G02 X135.516043 Y247.253191 Z-0.125000 I-1.085826 J-41.508888
G02 X135.863546 Y247.238835 Z-0.125000 I-0.887127 J-25.687033
G02 X136.210826 Y247.220299 Z-0.125000 I-1.584887 J-32.955871
G02 X136.558410 Y247.196841 Z-0.125000 I-1.160061 J-19.775364
G02 X136.905554 Y247.167929 Z-0.125000 I-1.911525 J-25.050710
G02 X137.253273 Y247.132806 Z-0.125000 I-1.475918 J-16.350383
G02 X137.600230 Y247.090871 Z-0.125000 I-2.149650 J-19.241790
G02 X137.948140 Y247.041504 Z-0.125000 I-1.944934 J-14.957282
G02 X138.294906 Y246.984295 Z-0.125000 I-2.450688 J-15.934207
G02 X138.643003 Y246.919060 Z-0.125000 I-2.831999 J-16.073058
G02 X138.989712 Y246.845871 Z-0.125000 I-2.894573 J-14.569726
G02 X139.337867 Y246.765417 Z-0.125000 I-5.470124 J-24.464969
G02 X139.684834 Y246.678540 Z-0.125000 I-3.736589 J-15.659364
G03 X140.032731 Y246.587451 Z-0.125000 I121.836391 J464.618584
G02 X140.380377 Y246.493843 Z-0.125000 I-6.209934 J-23.755135
G03 X140.727597 Y246.402113 Z-0.125000 I3.972342 J14.333289
G03 X141.076108 Y246.314747 Z-0.125000 I73.051634 J290.672523
G03 X141.422461 Y246.238193 Z-0.125000 I1.565284 J6.260002
G03 X141.771227 Y246.176042 Z-0.125000 I2.443770 J12.703829
G03 X142.117325 Y246.134773 Z-0.125000 I0.641965 J3.911834
G03 X142.464596 Y246.119655 Z-0.125000 I0.416033 J5.560356
G03 X142.812189 Y246.134244 Z-0.125000 I0.039539 J3.206020
G03 X143.156439 Y246.183739 Z-0.125000 I-0.355017 J3.691121
G03 X143.507055 Y246.268567 Z-0.125000 I-0.713815 J3.717389
G03 X143.849661 Y246.388262 Z-0.125000 I-0.999678 J3.411577
G03 X144.201919 Y246.541466 Z-0.125000 I-3.143903 J7.710264
G03 X144.546825 Y246.718556 Z-0.125000 I-1.984190 J4.288888
G02 X144.896783 Y246.911504 Z-0.125000 I8.561242 J-15.114057
G03 X145.247003 Y247.108164 Z-0.125000 I-4.923872 J9.178800
G02 X145.591649 Y247.286966 Z-0.125000 I1.878053 J-3.198453
G02 X145.945490 Y247.439882 Z-0.125000 I4.358596 J-9.599723
G02 X146.286513 Y247.542495 Z-0.125000 I0.695819 J-1.694503
G02 X146.634229 Y247.584399 Z-0.125000 I0.452797 J-2.293642
G02 X146.981376 Y247.561333 Z-0.125000 I0.070389 J-1.564483
G02 X147.318815 Y247.463235 Z-0.125000 I-0.295631 J-1.646319
G02 X147.676240 Y247.292945 Z-0.125000 I-1.327717 J-3.247034
G02 X148.016291 Y247.069611 Z-0.125000 I-1.221966 J-2.231122
G03 X148.371107 Y246.800181 Z-0.125000 I11.681991 J15.015814
G02 X148.722697 Y246.518305 Z-0.125000 I-3.528338 J-4.761195
G03 X149.065970 Y246.263069 Z-0.125000 I1.882249 J2.173028
G03 X149.425718 Y246.047784 Z-0.125000 I4.379452 J6.909971
G03 X149.760834 Y245.919400 Z-0.125000 I0.598756 J1.061345
G03 X150.105478 Y245.889094 Z-0.125000 I0.287894 J1.299183
G03 X150.455698 Y245.955110 Z-0.125000 I-0.053083 J1.243587
G03 X150.787002 Y246.123588 Z-0.125000 I-0.430090 J1.255744
G03 X151.150564 Y246.395374 Z-0.125000 I-4.197008 J5.993299
G03 X151.493930 Y246.715389 Z-0.125000 I-1.895341 J2.377854
G02 X151.845428 Y247.062845 Z-0.125000 I3.803357 J-3.496080
G03 X152.205988 Y247.396705 Z-0.125000 I-10.791727 J12.016400
