%
(Header)
(Generated by gcodetools from Inkscape.)
(Using default header. To add your own header create file "header" in the output dir.)
M3
(Header end.)
G21 (All units in mm)

(Start cutting path id: rect23548)
(Change tool to Default tool)

G00 Z3.000000
G00 X0.167835 Y296.464109

G00 Z4.875000 (Fast pre-penetrate)
G01 Z-0.125000 F400.0(Penetrate)
G01 X209.962073 Y296.464109 Z-0.125000 F800.000000
G01 X209.962073 Y-0.178496 Z-0.125000
G01 X0.167835 Y-0.178496 Z-0.125000
G01 X0.167835 Y296.464109 Z-0.125000
G00 Z3.000000

(End cutting path id: rect23548)


(Start cutting path id: rect23546)
(Change tool to Default tool)

G00 Z3.000000
G00 X0.882635 Y99.721994

G00 Z4.875000 (Fast pre-penetrate)
G01 Z-0.125000 F400.0(Penetrate)
G01 X100.954832 Y99.721994 Z-0.125000 F800.000000
G01 X100.954832 Y-0.350206 Z-0.125000
G01 X0.882635 Y-0.350206 Z-0.125000
G01 X0.882635 Y99.721994 Z-0.125000
G00 Z3.000000

(End cutting path id: rect23546)


(Start cutting path id: polygon23537)
(Change tool to Default tool)

G00 Z3.000000
G00 X35.305842 Y69.993144

G00 Z4.875000 (Fast pre-penetrate)
G01 Z-0.125000 F400.0(Penetrate)
G01 X36.641246 Y71.742725 Z-0.125000 F800.000000
G01 X38.210302 Y73.425685 Z-0.125000
G01 X39.862173 Y74.880203 Z-0.125000
G01 X41.730156 Y76.223676 Z-0.125000
G01 X43.723683 Y77.372681 Z-0.125000
G01 X45.729381 Y78.279037 Z-0.125000
G01 X47.909148 Y79.015874 Z-0.125000
G01 X50.053408 Y79.512337 Z-0.125000
G01 X52.235450 Y79.800415 Z-0.125000
G01 X54.535153 Y79.875927 Z-0.125000
G01 X56.731377 Y79.731571 Z-0.125000
G01 X58.903577 Y79.376791 Z-0.125000
G01 X61.031618 Y78.814897 Z-0.125000
G01 X63.187811 Y78.011649 Z-0.125000
G01 X65.164801 Y77.044307 Z-0.125000
G01 X67.122186 Y75.834792 Z-0.125000
G01 X68.871768 Y74.499389 Z-0.125000
G01 X70.554754 Y72.930306 Z-0.125000
G01 X72.009272 Y71.278435 Z-0.125000
G01 X73.352746 Y69.410426 Z-0.125000
G01 X74.501750 Y67.416925 Z-0.125000
G01 X75.408106 Y65.411228 Z-0.125000
G01 X76.144943 Y63.231434 Z-0.125000
G01 X76.641406 Y61.087201 Z-0.125000
G01 X76.937581 Y58.805384 Z-0.125000
G01 X77.004970 Y56.605456 Z-0.125000
G01 X76.860640 Y54.409205 Z-0.125000
G01 X76.505861 Y52.237005 Z-0.125000
G01 X75.913592 Y50.013608 Z-0.125000
G01 X75.140718 Y47.952798 Z-0.125000
G01 X74.124931 Y45.888204 Z-0.125000
G01 X72.963861 Y44.018396 Z-0.125000
G01 X71.628458 Y42.268841 Z-0.125000
G01 X70.059375 Y40.585881 Z-0.125000
G01 X68.407478 Y39.131362 Z-0.125000
G01 X66.539495 Y37.787863 Z-0.125000
G01 X64.545995 Y36.638858 Z-0.125000
G01 X62.540297 Y35.732503 Z-0.125000
G01 X60.360503 Y34.995666 Z-0.125000
G01 X58.216270 Y34.499202 Z-0.125000
G01 X55.934453 Y34.203028 Z-0.125000
G01 X53.734525 Y34.135638 Z-0.125000
G01 X51.538274 Y34.279995 Z-0.125000
G01 X49.366074 Y34.634748 Z-0.125000
G01 X47.142677 Y35.227043 Z-0.125000
G01 X45.081867 Y35.999890 Z-0.125000
G01 X43.017273 Y37.015677 Z-0.125000
G01 X41.147465 Y38.176773 Z-0.125000
G01 X39.397910 Y39.512177 Z-0.125000
G01 X37.714950 Y41.081233 Z-0.125000
G01 X36.260431 Y42.733104 Z-0.125000
G01 X34.916932 Y44.601087 Z-0.125000
G01 X33.767927 Y46.594614 Z-0.125000
G01 X32.861572 Y48.600312 Z-0.125000
G01 X32.152198 Y50.683823 Z-0.125000
G01 X31.646342 Y52.825887 Z-0.125000
G01 X31.348739 Y55.006660 Z-0.125000
G01 X31.263173 Y57.305992 Z-0.125000
G01 X31.409064 Y59.602308 Z-0.125000
G01 X31.763817 Y61.774508 Z-0.125000
G01 X32.325712 Y63.902549 Z-0.125000
G01 X33.128959 Y66.058742 Z-0.125000
G01 X34.144746 Y68.123309 Z-0.125000
G01 X35.305842 Y69.993144 Z-0.125000
G00 Z3.000000

(End cutting path id: polygon23537)


(Start cutting path id: polygon23535)
(Change tool to Default tool)

G00 Z3.000000
G00 X18.596720 Y0.053665

G00 Z4.875000 (Fast pre-penetrate)
G01 Z-0.125000 F400.0(Penetrate)
G01 X16.478839 Y0.652734 Z-0.125000 F800.000000
G01 X14.337040 Y1.493579 Z-0.125000
G01 X12.377274 Y2.495369 Z-0.125000
G01 X10.522838 Y3.680886 Z-0.125000
G01 X8.715418 Y5.104793 Z-0.125000
G01 X7.128741 Y6.630166 Z-0.125000
G01 X5.634799 Y8.380145 Z-0.125000
G01 X4.377183 Y10.186453 Z-0.125000
G01 X3.299008 Y12.105262 Z-0.125000
G01 X2.374502 Y14.212295 Z-0.125000
G01 X1.666345 Y16.401561 Z-0.125000
G01 X1.198060 Y18.552144 Z-0.125000
G01 X0.931863 Y20.837612 Z-0.125000
G01 X0.893340 Y23.038281 Z-0.125000
G01 X1.066509 Y25.232442 Z-0.125000
G01 X1.472115 Y27.497351 Z-0.125000
G01 X2.103225 Y29.710059 Z-0.125000
G01 X2.912028 Y31.757032 Z-0.125000
G01 X3.913819 Y33.716798 Z-0.125000
G01 X5.157412 Y35.652725 Z-0.125000
G01 X6.523242 Y37.378653 Z-0.125000
G01 X8.048616 Y38.965305 Z-0.125000
G01 X9.719458 Y40.398022 Z-0.125000
G01 X11.604903 Y41.716888 Z-0.125000
G01 X13.523712 Y42.795038 Z-0.125000
G01 X15.630745 Y43.719570 Z-0.125000
G01 X17.820011 Y44.427727 Z-0.125000
G01 X19.970594 Y44.896012 Z-0.125000
G01 X22.156235 Y45.155409 Z-0.125000
G01 X24.456731 Y45.200732 Z-0.125000
G01 X26.750137 Y45.014677 Z-0.125000
G01 X28.915775 Y44.621930 Z-0.125000
G01 X31.033656 Y44.022888 Z-0.125000
G01 X33.175455 Y43.182043 Z-0.125000
G01 X35.135222 Y42.180226 Z-0.125000
G01 X36.989657 Y40.994736 Z-0.125000
G01 X38.721538 Y39.636472 Z-0.125000
G01 X40.383755 Y38.045429 Z-0.125000
G01 X41.816445 Y36.374614 Z-0.125000
G01 X43.135338 Y34.489169 Z-0.125000
G01 X44.213514 Y32.570334 Z-0.125000
G01 X45.138020 Y30.463327 Z-0.125000
G01 X45.846176 Y28.274061 Z-0.125000
G01 X46.314462 Y26.123478 Z-0.125000
G01 X46.573886 Y23.937837 Z-0.125000
G01 X46.619182 Y21.637341 Z-0.125000
G01 X46.433127 Y19.343909 Z-0.125000
G01 X46.040407 Y17.178270 Z-0.125000
G01 X45.441338 Y15.060363 Z-0.125000
G01 X44.641504 Y13.009871 Z-0.125000
G01 X43.648286 Y11.045739 Z-0.125000
G01 X42.413159 Y9.104388 Z-0.125000
G01 X41.054896 Y7.372507 Z-0.125000
G01 X39.463879 Y5.710291 Z-0.125000
G01 X37.713900 Y4.216349 Z-0.125000
G01 X35.907592 Y2.958733 Z-0.125000
G01 X33.988784 Y1.880558 Z-0.125000
G01 X31.881750 Y0.956052 Z-0.125000
G01 X29.789084 Y0.274063 Z-0.125000
G01 X27.541901 Y-0.220390 Z-0.125000
G01 X25.356260 Y-0.479814 Z-0.125000
G01 X23.055764 Y-0.525110 Z-0.125000
G01 X20.762359 Y-0.339056 Z-0.125000
G01 X18.596720 Y0.053665 Z-0.125000
G00 Z3.000000

(End cutting path id: polygon23535)



(Footer)
M5
G00 X0.0000 Y0.0000
M2
(Using default footer. To add your own footer create file "footer" in the output dir.)
(end)
%