%
(Header)
(Generated by gcodetools from Inkscape.)
(Using default header. To add your own header create file "header" in the output dir.)
M3
(Header end.)
G21 (All units in mm)

(Start cutting path id: polyline34358)
(Change tool to Default tool)

G00 Z3.000000
G00 X9.490017 Y217.802242

G00 Z4.875000 (Fast pre-penetrate)
G01 Z-0.125000 F400.0(Penetrate)
G01 X13.527819 Y219.929542 Z-0.125000 F800.000000
G01 X14.590410 Y220.248682 Z-0.125000
G01 X15.652976 Y220.323982 Z-0.125000
G01 X16.609311 Y220.176054 Z-0.125000
G01 X17.671903 Y219.798653 Z-0.125000
G01 X21.239143 Y217.809465 Z-0.125000
G01 X22.559783 Y217.225239 Z-0.125000
G01 X23.941144 Y216.903586 Z-0.125000
G01 X25.216222 Y216.910994 Z-0.125000
G01 X26.278814 Y217.131815 Z-0.125000
G01 X27.523545 Y217.596476 Z-0.125000
G01 X31.439929 Y219.667076 Z-0.125000
G01 X33.079338 Y220.384731 Z-0.125000
G01 X34.779469 Y220.832961 Z-0.125000
G01 X36.373343 Y220.931280 Z-0.125000
G01 X37.967218 Y220.726387 Z-0.125000
G01 X39.667349 Y220.230399 Z-0.125000
G01 X41.261223 Y219.584393 Z-0.125000
G01 X45.511564 Y217.653890 Z-0.125000
G01 X47.955491 Y216.796853 Z-0.125000
G01 X50.399444 Y216.311396 Z-0.125000
G01 X51.674522 Y216.220062 Z-0.125000
G01 X52.949627 Y216.235857 Z-0.125000
G01 X54.862271 Y216.440116 Z-0.125000
G01 X56.987428 Y216.873238 Z-0.125000
G01 X66.444419 Y219.695756 Z-0.125000
G01 X68.994628 Y220.318664 Z-0.125000
G01 X71.544811 Y220.801766 Z-0.125000
G01 X74.413791 Y221.180887 Z-0.125000
G01 X77.601540 Y221.430548 Z-0.125000
G01 X81.214315 Y221.561702 Z-0.125000
G01 X86.102195 Y221.605437 Z-0.125000
G01 X90.565048 Y221.564824 Z-0.125000
G01 X93.859054 Y221.433802 Z-0.125000
G01 X96.515494 Y221.189777 Z-0.125000
G01 X98.853190 Y220.809095 Z-0.125000
G01 X100.872091 Y220.316653 Z-0.125000
G01 X102.890991 Y219.656704 Z-0.125000
G01 X108.310180 Y217.357425 Z-0.125000
G01 X109.797772 Y216.796191 Z-0.125000
G01 X111.285390 Y216.392253 Z-0.125000
G01 X112.666751 Y216.220459 Z-0.125000
G01 X114.260626 Y216.321979 Z-0.125000
G01 X115.960757 Y216.807013 Z-0.125000
G01 X117.600166 Y217.598857 Z-0.125000
G01 X120.787915 Y219.544838 Z-0.125000
G01 X122.063019 Y220.222647 Z-0.125000
G01 X123.505103 Y220.750411 Z-0.125000
G01 X124.780181 Y220.934349 Z-0.125000
G01 X125.949029 Y220.845026 Z-0.125000
G01 X127.224134 Y220.480086 Z-0.125000
G01 X128.620683 Y219.824767 Z-0.125000
G01 X132.537040 Y217.620050 Z-0.125000
G01 X133.918402 Y217.110331 Z-0.125000
G01 X135.193506 Y216.887790 Z-0.125000
G01 X136.468611 Y216.919302 Z-0.125000
G01 X137.743690 Y217.182430 Z-0.125000
G01 X139.125051 Y217.667992 Z-0.125000
G01 X142.419057 Y219.134814 Z-0.125000
G01 X143.906674 Y219.697820 Z-0.125000
G01 X145.713062 Y220.154411 Z-0.125000
G01 X147.413193 Y220.324591 Z-0.125000
G01 X148.900811 Y220.282813 Z-0.125000
G01 X150.600942 Y220.066596 Z-0.125000
G01 X156.657670 Y218.787178 Z-0.125000
G01 X159.739162 Y218.278147 Z-0.125000
G01 X162.820628 Y217.965357 Z-0.125000
G01 X166.327173 Y217.803168 Z-0.125000
G00 Z3.000000

(End cutting path id: polyline34358)


(Start cutting path id: polyline34356)
(Change tool to Default tool)

G00 Z3.000000
G00 X9.490017 Y216.296950

G00 Z4.875000 (Fast pre-penetrate)
G01 Z-0.125000 F400.0(Penetrate)
G01 X10.765122 Y216.832095 Z-0.125000 F800.000000
G01 X13.042071 Y218.138183 Z-0.125000
G01 X13.952845 Y218.579375 Z-0.125000
G01 X15.015436 Y218.914178 Z-0.125000
G01 X16.078028 Y219.003290 Z-0.125000
G01 X17.034337 Y218.862849 Z-0.125000
G01 X18.096929 Y218.488411 Z-0.125000
G01 X21.603447 Y216.509330 Z-0.125000
G01 X22.878552 Y215.927063 Z-0.125000
G01 X24.259914 Y215.586068 Z-0.125000
G01 X25.534992 Y215.585010 Z-0.125000
G01 X26.597584 Y215.807921 Z-0.125000
G01 X27.766432 Y216.249007 Z-0.125000
G01 X31.713164 Y218.377419 Z-0.125000
G01 X33.291851 Y219.078590 Z-0.125000
G01 X34.885726 Y219.507797 Z-0.125000
G01 X36.373343 Y219.610719 Z-0.125000
G01 X37.860961 Y219.431147 Z-0.125000
G01 X39.561092 Y218.934075 Z-0.125000
G01 X41.154967 Y218.268649 Z-0.125000
G01 X45.192768 Y216.358015 Z-0.125000
G01 X47.530465 Y215.492564 Z-0.125000
G01 X49.868135 Y214.995307 Z-0.125000
G01 X51.036983 Y214.900454 Z-0.125000
G01 X52.312088 Y214.911090 Z-0.125000
G01 X54.224732 Y215.128922 Z-0.125000
G01 X56.349889 Y215.601229 Z-0.125000
G01 X64.956801 Y218.388399 Z-0.125000
G01 X67.188241 Y218.996173 Z-0.125000
G01 X69.313398 Y219.460780 Z-0.125000
G01 X71.757325 Y219.852522 Z-0.125000
G01 X74.413791 Y220.121285 Z-0.125000
G01 X77.282770 Y220.267282 Z-0.125000
G01 X80.789289 Y220.318479 Z-0.125000
G01 X94.177823 Y220.287999 Z-0.125000
G01 X97.046803 Y220.139938 Z-0.125000
G01 X99.384473 Y219.855538 Z-0.125000
G01 X101.722169 Y219.355026 Z-0.125000
G01 X103.953583 Y218.638192 Z-0.125000
G01 X105.942136 Y217.813487 Z-0.125000
G01 X109.691515 Y216.061630 Z-0.125000
G01 X111.285390 Y215.433192 Z-0.125000
G01 X112.666751 Y215.054865 Z-0.125000
G01 X113.941856 Y214.897068 Z-0.125000
G01 X115.535730 Y215.009065 Z-0.125000
G01 X117.129605 Y215.479468 Z-0.125000
G01 X118.693105 Y216.242922 Z-0.125000
G01 X121.789785 Y218.156174 Z-0.125000
G01 X123.080050 Y218.859039 Z-0.125000
G01 X124.461411 Y219.390031 Z-0.125000
G01 X125.842773 Y219.610376 Z-0.125000
G01 X127.011621 Y219.527376 Z-0.125000
G01 X128.286726 Y219.169210 Z-0.125000
G01 X129.622526 Y218.553869 Z-0.125000
G01 X132.445971 Y216.920228 Z-0.125000
G01 X133.721076 Y216.272899 Z-0.125000
G01 X135.087250 Y215.781542 Z-0.125000
G01 X136.362328 Y215.564610 Z-0.125000
G01 X137.637433 Y215.594164 Z-0.125000
G01 X138.912538 Y215.847423 Z-0.125000
G01 X140.293899 Y216.315418 Z-0.125000
G01 X143.694161 Y217.786605 Z-0.125000
G01 X145.288036 Y218.372286 Z-0.125000
G01 X147.094423 Y218.817262 Z-0.125000
G01 X148.794554 Y218.996067 Z-0.125000
G01 X150.388429 Y218.970534 Z-0.125000
G01 X152.088560 Y218.784506 Z-0.125000
G01 X158.251545 Y217.626003 Z-0.125000
G01 X161.120497 Y217.189441 Z-0.125000
G01 X163.670707 Y216.929726 Z-0.125000
G01 X166.327173 Y216.778808 Z-0.125000
G00 Z3.000000

(End cutting path id: polyline34356)


(Start cutting path id: polyline34354)
(Change tool to Default tool)

G00 Z3.000000
G00 X9.490017 Y214.858888

G00 Z4.875000 (Fast pre-penetrate)
G01 Z-0.125000 F400.0(Penetrate)
G01 X10.233813 Y215.066189 Z-0.125000 F800.000000
G01 X10.947261 Y215.369877 Z-0.125000
G01 X13.497471 Y216.821618 Z-0.125000
G01 X14.484154 Y217.295909 Z-0.125000
G01 X15.546719 Y217.611477 Z-0.125000
G01 X16.503054 Y217.680137 Z-0.125000
G01 X17.459390 Y217.535489 Z-0.125000
G01 X18.506794 Y217.159411 Z-0.125000
G01 X21.967752 Y215.178743 Z-0.125000
G01 X23.303578 Y214.569831 Z-0.125000
G01 X24.578683 Y214.261883 Z-0.125000
G01 X25.853788 Y214.266355 Z-0.125000
G01 X26.916353 Y214.500987 Z-0.125000
G01 X28.070015 Y214.953821 Z-0.125000
G01 X31.804233 Y217.020981 Z-0.125000
G01 X33.398108 Y217.752580 Z-0.125000
G01 X34.885726 Y218.172182 Z-0.125000
G01 X36.373343 Y218.288651 Z-0.125000
G01 X37.860961 Y218.104925 Z-0.125000
G01 X39.561092 Y217.584543 Z-0.125000
G01 X41.003176 Y216.959227 Z-0.125000
G01 X44.980255 Y215.007928 Z-0.125000
G01 X47.211695 Y214.154436 Z-0.125000
G01 X49.443109 Y213.666545 Z-0.125000
G01 X50.611957 Y213.574100 Z-0.125000
G01 X51.780779 Y213.591350 Z-0.125000
G01 X53.693449 Y213.833867 Z-0.125000
G01 X55.712350 Y214.323901 Z-0.125000
G01 X63.575439 Y217.063791 Z-0.125000
G01 X67.400754 Y218.112068 Z-0.125000
G01 X69.525911 Y218.509102 Z-0.125000
G01 X71.651068 Y218.775484 Z-0.125000
G01 X73.882508 Y218.933017 Z-0.125000
G01 X76.432691 Y218.995379 Z-0.125000
G01 X86.739734 Y218.852636 Z-0.125000
G01 X96.515494 Y218.992230 Z-0.125000
G01 X98.640677 Y218.912300 Z-0.125000
G01 X100.553321 Y218.716667 Z-0.125000
G01 X102.572222 Y218.333630 Z-0.125000
G01 X104.591122 Y217.734085 Z-0.125000
G01 X106.761841 Y216.848076 Z-0.125000
G01 X110.678198 Y214.916726 Z-0.125000
G01 X112.135468 Y214.278340 Z-0.125000
G01 X113.729343 Y213.774521 Z-0.125000
G01 X115.216961 Y213.572036 Z-0.125000
G01 X116.704579 Y213.684007 Z-0.125000
G01 X118.192197 Y214.121548 Z-0.125000
G01 X119.877141 Y214.953477 Z-0.125000
G01 X122.882724 Y216.832757 Z-0.125000
G01 X124.157829 Y217.532023 Z-0.125000
G01 X125.524003 Y218.061718 Z-0.125000
G01 X126.905365 Y218.286878 Z-0.125000
G01 X128.074186 Y218.207848 Z-0.125000
G01 X129.349291 Y217.854894 Z-0.125000
G01 X130.715466 Y217.230610 Z-0.125000
G01 X133.629980 Y215.559134 Z-0.125000
G01 X134.874737 Y214.939216 Z-0.125000
G01 X136.256072 Y214.453018 Z-0.125000
G01 X137.637433 Y214.234896 Z-0.125000
G01 X138.912538 Y214.281462 Z-0.125000
G01 X140.187643 Y214.540595 Z-0.125000
G01 X141.569004 Y215.002848 Z-0.125000
G01 X144.969266 Y216.434639 Z-0.125000
G01 X146.563141 Y217.008704 Z-0.125000
G01 X148.369528 Y217.457755 Z-0.125000
G01 X150.069659 Y217.659102 Z-0.125000
G01 X151.557277 Y217.672596 Z-0.125000
G01 X153.257408 Y217.541151 Z-0.125000
G01 X161.333037 Y216.254272 Z-0.125000
G01 X163.776964 Y215.976407 Z-0.125000
G01 X166.327173 Y215.795565 Z-0.125000
G00 Z3.000000

(End cutting path id: polyline34354)


(Start cutting path id: polyline34352)
(Change tool to Default tool)

G00 Z3.000000
G00 X9.490017 Y213.476442

G00 Z4.875000 (Fast pre-penetrate)
G01 Z-0.125000 F400.0(Penetrate)
G01 X10.340070 Y213.643367 Z-0.125000 F800.000000
G01 X11.190148 Y213.969863 Z-0.125000
G01 X13.861775 Y215.485421 Z-0.125000
G01 X14.909180 Y215.989928 Z-0.125000
G01 X15.865515 Y216.278376 Z-0.125000
G01 X16.821824 Y216.358703 Z-0.125000
G01 X17.778159 Y216.221729 Z-0.125000
G01 X18.840725 Y215.839856 Z-0.125000
G01 X22.240986 Y213.869215 Z-0.125000
G01 X23.516091 Y213.270835 Z-0.125000
G01 X24.791196 Y212.944551 Z-0.125000
G01 X26.066301 Y212.940529 Z-0.125000
G01 X27.128866 Y213.177516 Z-0.125000
G01 X28.252180 Y213.626117 Z-0.125000
G01 X31.986399 Y215.736219 Z-0.125000
G01 X33.398108 Y216.401486 Z-0.125000
G01 X34.885726 Y216.842890 Z-0.125000
G01 X36.373343 Y216.965551 Z-0.125000
G01 X37.860961 Y216.770606 Z-0.125000
G01 X39.454836 Y216.263057 Z-0.125000
G01 X40.912080 Y215.608055 Z-0.125000
G01 X44.737394 Y213.663926 Z-0.125000
G01 X46.892899 Y212.813741 Z-0.125000
G01 X49.018083 Y212.338179 Z-0.125000
G01 X50.080648 Y212.251661 Z-0.125000
G01 X51.249496 Y212.270922 Z-0.125000
G01 X53.055884 Y212.515344 Z-0.125000
G01 X55.074784 Y213.038928 Z-0.125000
G01 X62.406617 Y215.765244 Z-0.125000
G01 X65.806879 Y216.778411 Z-0.125000
G01 X67.613267 Y217.159226 Z-0.125000
G01 X69.525911 Y217.439551 Z-0.125000
G01 X71.438555 Y217.603752 Z-0.125000
G01 X73.563739 Y217.672014 Z-0.125000
G01 X76.326435 Y217.630818 Z-0.125000
G01 X83.020702 Y217.321838 Z-0.125000
G01 X86.420964 Y217.241167 Z-0.125000
G01 X90.352535 Y217.301862 Z-0.125000
G01 X98.109368 Y217.668283 Z-0.125000
G01 X100.128295 Y217.645027 Z-0.125000
G01 X101.934683 Y217.495484 Z-0.125000
G01 X103.953583 Y217.130069 Z-0.125000
G01 X105.866227 Y216.555553 Z-0.125000
G01 X108.036945 Y215.637265 Z-0.125000
G01 X111.862234 Y213.656808 Z-0.125000
G01 X113.304317 Y212.991461 Z-0.125000
G01 X114.898191 Y212.461502 Z-0.125000
G01 X116.385783 Y212.249280 Z-0.125000
G01 X117.873401 Y212.366093 Z-0.125000
G01 X119.361019 Y212.818953 Z-0.125000
G01 X120.879011 Y213.575714 Z-0.125000
G01 X123.975664 Y215.521510 Z-0.125000
G01 X125.250768 Y216.220882 Z-0.125000
G01 X126.586595 Y216.737957 Z-0.125000
G01 X127.861673 Y216.958592 Z-0.125000
G01 X129.136778 Y216.885832 Z-0.125000
G01 X130.411883 Y216.535895 Z-0.125000
G01 X131.808405 Y215.901372 Z-0.125000
G01 X134.722919 Y214.244500 Z-0.125000
G01 X136.043559 Y213.596642 Z-0.125000
G01 X137.424920 Y213.123435 Z-0.125000
G01 X138.806282 Y212.911822 Z-0.125000
G01 X140.081386 Y212.956166 Z-0.125000
G01 X141.462748 Y213.233608 Z-0.125000
G01 X142.844083 Y213.689484 Z-0.125000
G01 X146.244345 Y215.081667 Z-0.125000
G01 X147.838219 Y215.643747 Z-0.125000
G01 X149.644633 Y216.095205 Z-0.125000
G01 X151.451021 Y216.323805 Z-0.125000
G01 X153.151152 Y216.352512 Z-0.125000
G01 X154.957539 Y216.230195 Z-0.125000
G01 X162.395602 Y215.191099 Z-0.125000
G01 X166.327173 Y214.824281 Z-0.125000
G00 Z3.000000

(End cutting path id: polyline34352)


(Start cutting path id: polyline34350)
(Change tool to Default tool)

G00 Z3.000000
G00 X9.490017 Y212.136700

G00 Z4.875000 (Fast pre-penetrate)
G01 Z-0.125000 F400.0(Penetrate)
G01 X10.446326 Y212.252084 Z-0.125000 F800.000000
G01 X11.402661 Y212.581014 Z-0.125000
G01 X14.408245 Y214.274583 Z-0.125000
G01 X15.334206 Y214.703313 Z-0.125000
G01 X16.290541 Y214.974326 Z-0.125000
G01 X17.140594 Y215.035815 Z-0.125000
G01 X18.096929 Y214.895295 Z-0.125000
G01 X19.144334 Y214.513025 Z-0.125000
G01 X22.514248 Y212.533865 Z-0.125000
G01 X23.834861 Y211.915746 Z-0.125000
G01 X25.109966 Y211.608565 Z-0.125000
G01 X26.278814 Y211.620498 Z-0.125000
G01 X27.235149 Y211.834096 Z-0.125000
G01 X28.343249 Y212.275209 Z-0.125000
G01 X32.077468 Y214.424416 Z-0.125000
G01 X33.504364 Y215.106088 Z-0.125000
G01 X34.991982 Y215.539925 Z-0.125000
G01 X36.373343 Y215.641445 Z-0.125000
G01 X37.754705 Y215.454068 Z-0.125000
G01 X39.348579 Y214.931966 Z-0.125000
G01 X40.821010 Y214.244685 Z-0.125000
G01 X44.373063 Y212.372972 Z-0.125000
G01 X46.467873 Y211.506992 Z-0.125000
G01 X47.530465 Y211.205420 Z-0.125000
G01 X48.593030 Y211.010872 Z-0.125000
G01 X49.655622 Y210.926312 Z-0.125000
G01 X50.718214 Y210.949330 Z-0.125000
G01 X52.418345 Y211.190657 Z-0.125000
G01 X54.330989 Y211.709186 Z-0.125000
G01 X56.137376 Y212.363897 Z-0.125000
G01 X61.344026 Y214.466750 Z-0.125000
G01 X64.425518 Y215.452216 Z-0.125000
G01 X66.125649 Y215.842290 Z-0.125000
G01 X67.825780 Y216.116398 Z-0.125000
G01 X69.525911 Y216.280546 Z-0.125000
G01 X71.332298 Y216.348676 Z-0.125000
G01 X74.945073 Y216.240011 Z-0.125000
G01 X83.339472 Y215.603716 Z-0.125000
G01 X87.058530 Y215.491665 Z-0.125000
G01 X91.521357 Y215.632661 Z-0.125000
G01 X99.809499 Y216.321053 Z-0.125000
G01 X101.722169 Y216.342749 Z-0.125000
G01 X103.422300 Y216.224507 Z-0.125000
G01 X105.334945 Y215.885259 Z-0.125000
G01 X107.247589 Y215.293730 Z-0.125000
G01 X109.312024 Y214.381766 Z-0.125000
G01 X113.046243 Y212.366067 Z-0.125000
G01 X114.473139 Y211.682278 Z-0.125000
G01 X116.067013 Y211.136496 Z-0.125000
G01 X117.554631 Y210.925095 Z-0.125000
G01 X118.935992 Y211.035188 Z-0.125000
G01 X120.423610 Y211.487175 Z-0.125000
G01 X121.971950 Y212.266769 Z-0.125000
G01 X124.977534 Y214.169306 Z-0.125000
G01 X126.252638 Y214.876192 Z-0.125000
G01 X127.649160 Y215.419672 Z-0.125000
G01 X128.924265 Y215.636551 Z-0.125000
G01 X130.199370 Y215.561144 Z-0.125000
G01 X131.474475 Y215.211445 Z-0.125000
G01 X132.810275 Y214.612482 Z-0.125000
G01 X135.724789 Y212.972015 Z-0.125000
G01 X137.106151 Y212.294841 Z-0.125000
G01 X138.593768 Y211.791657 Z-0.125000
G01 X139.975130 Y211.588272 Z-0.125000
G01 X141.250208 Y211.631875 Z-0.125000
G01 X142.631570 Y211.899660 Z-0.125000
G01 X144.119188 Y212.377735 Z-0.125000
G01 X149.007067 Y214.247543 Z-0.125000
G01 X150.813455 Y214.710854 Z-0.125000
G01 X152.619842 Y214.969140 Z-0.125000
G01 X154.426230 Y215.037191 Z-0.125000
G01 X156.445157 Y214.939639 Z-0.125000
G01 X163.351937 Y214.114484 Z-0.125000
G01 X166.327173 Y213.840164 Z-0.125000
G00 Z3.000000

(End cutting path id: polyline34350)


(Start cutting path id: polyline34348)
(Change tool to Default tool)

G00 Z3.000000
G00 X9.490017 Y210.827120

G00 Z4.875000 (Fast pre-penetrate)
G01 Z-0.125000 F400.0(Penetrate)
G01 X10.340070 Y210.849715 Z-0.125000 F800.000000
G01 X11.296405 Y211.090406 Z-0.125000
G01 X12.313435 Y211.552580 Z-0.125000
G01 X14.499341 Y212.841337 Z-0.125000
G01 X15.440463 Y213.307823 Z-0.125000
G01 X16.503054 Y213.639399 Z-0.125000
G01 X17.459390 Y213.710889 Z-0.125000
G01 X18.415698 Y213.556981 Z-0.125000
G01 X19.417568 Y213.178574 Z-0.125000
G01 X22.696387 Y211.225158 Z-0.125000
G01 X23.941144 Y210.623867 Z-0.125000
G01 X25.216222 Y210.293217 Z-0.125000
G01 X26.385071 Y210.291895 Z-0.125000
G01 X27.447662 Y210.536211 Z-0.125000
G01 X28.525415 Y210.985763 Z-0.125000
G01 X32.077468 Y213.079964 Z-0.125000
G01 X33.504364 Y213.780580 Z-0.125000
G01 X34.885726 Y214.202140 Z-0.125000
G01 X36.267087 Y214.319747 Z-0.125000
G01 X37.648448 Y214.132581 Z-0.125000
G01 X39.136066 Y213.637838 Z-0.125000
G01 X40.547775 Y212.966829 Z-0.125000
G01 X44.190924 Y210.992563 Z-0.125000
G01 X46.149103 Y210.166773 Z-0.125000
G01 X47.211695 Y209.861365 Z-0.125000
G01 X48.168004 Y209.685021 Z-0.125000
G01 X49.124339 Y209.604693 Z-0.125000
G01 X50.186904 Y209.626071 Z-0.125000
G01 X51.887035 Y209.882135 Z-0.125000
G01 X53.693449 Y210.400347 Z-0.125000
G01 X55.499837 Y211.092046 Z-0.125000
G01 X60.387717 Y213.173468 Z-0.125000
G01 X63.256670 Y214.144885 Z-0.125000
G01 X64.850544 Y214.534007 Z-0.125000
G01 X66.338162 Y214.792346 Z-0.125000
G01 X67.932036 Y214.960303 Z-0.125000
G01 X69.525911 Y215.025814 Z-0.125000
G01 X73.457456 Y214.850236 Z-0.125000
G01 X82.914446 Y213.826274 Z-0.125000
G01 X87.377299 Y213.639372 Z-0.125000
G01 X89.927483 Y213.697580 Z-0.125000
G01 X92.477692 Y213.879878 Z-0.125000
G01 X101.297117 Y214.957101 Z-0.125000
G01 X103.209761 Y215.027189 Z-0.125000
G01 X104.909892 Y214.927495 Z-0.125000
G01 X106.716306 Y214.604015 Z-0.125000
G01 X108.522693 Y214.028494 Z-0.125000
G01 X110.496059 Y213.127854 Z-0.125000
G01 X114.139182 Y211.091226 Z-0.125000
G01 X115.641987 Y210.348939 Z-0.125000
G01 X117.235861 Y209.798924 Z-0.125000
G01 X118.723479 Y209.600089 Z-0.125000
G01 X120.104841 Y209.732937 Z-0.125000
G01 X121.486176 Y210.169922 Z-0.125000
G01 X123.064889 Y210.976926 Z-0.125000
G01 X125.979404 Y212.833664 Z-0.125000
G01 X127.254482 Y213.543858 Z-0.125000
G01 X128.605496 Y214.077919 Z-0.125000
G01 X129.880600 Y214.309270 Z-0.125000
G01 X131.155679 Y214.250294 Z-0.125000
G01 X132.430784 Y213.917714 Z-0.125000
G01 X133.903215 Y213.266469 Z-0.125000
G01 X136.817729 Y211.640474 Z-0.125000
G01 X138.168742 Y210.985367 Z-0.125000
G01 X139.656334 Y210.481971 Z-0.125000
G01 X141.143952 Y210.263902 Z-0.125000
G01 X142.419057 Y210.309119 Z-0.125000
G01 X143.906674 Y210.597356 Z-0.125000
G01 X145.394292 Y211.070007 Z-0.125000
G01 X150.282172 Y212.888935 Z-0.125000
G01 X152.088560 Y213.348754 Z-0.125000
G01 X153.788691 Y213.608601 Z-0.125000
G01 X155.701335 Y213.713773 Z-0.125000
G01 X157.826492 Y213.650061 Z-0.125000
G01 X166.327173 Y212.824377 Z-0.125000
G00 Z3.000000

(End cutting path id: polyline34348)


(Start cutting path id: polyline34346)
(Change tool to Default tool)

G00 Z3.000000
G00 X9.490017 Y209.536616

G00 Z4.875000 (Fast pre-penetrate)
G01 Z-0.125000 F400.0(Penetrate)
G01 X10.446326 Y209.507829 Z-0.125000 F800.000000
G01 X11.508918 Y209.746907 Z-0.125000
G01 X12.586670 Y210.235089 Z-0.125000
G01 X15.652976 Y211.971653 Z-0.125000
G01 X16.715567 Y212.311562 Z-0.125000
G01 X17.671903 Y212.388715 Z-0.125000
G01 X18.628211 Y212.235971 Z-0.125000
G01 X19.690803 Y211.825021 Z-0.125000
G01 X22.878552 Y209.895840 Z-0.125000
G01 X24.047400 Y209.319552 Z-0.125000
G01 X25.322479 Y208.974060 Z-0.125000
G01 X26.491327 Y208.967815 Z-0.125000
G01 X27.553919 Y209.215783 Z-0.125000
G01 X28.616484 Y209.667981 Z-0.125000
G01 X32.168564 Y211.802267 Z-0.125000
G01 X33.504364 Y212.465259 Z-0.125000
G01 X34.885726 Y212.889068 Z-0.125000
G01 X36.160830 Y212.997520 Z-0.125000
G01 X37.542192 Y212.807312 Z-0.125000
G01 X39.029810 Y212.294365 Z-0.125000
G01 X40.365610 Y211.638410 Z-0.125000
G01 X43.826594 Y209.702483 Z-0.125000
G01 X45.830334 Y208.828724 Z-0.125000
G01 X47.742978 Y208.361418 Z-0.125000
G01 X48.699286 Y208.280640 Z-0.125000
G01 X49.655622 Y208.301093 Z-0.125000
G01 X51.355753 Y208.567687 Z-0.125000
G01 X53.162140 Y209.116299 Z-0.125000
G01 X59.431382 Y211.846505 Z-0.125000
G01 X62.194104 Y212.835066 Z-0.125000
G01 X63.681722 Y213.219373 Z-0.125000
G01 X65.063057 Y213.474378 Z-0.125000
G01 X67.932036 Y213.702528 Z-0.125000
G01 X69.950937 Y213.652945 Z-0.125000
G01 X72.182377 Y213.449216 Z-0.125000
G01 X79.620440 Y212.345747 Z-0.125000
G01 X82.489420 Y211.994169 Z-0.125000
G01 X85.145886 Y211.787185 Z-0.125000
G01 X87.589812 Y211.719743 Z-0.125000
G01 X90.458792 Y211.805944 Z-0.125000
G01 X93.327745 Y212.073517 Z-0.125000
G01 X102.784735 Y213.597356 Z-0.125000
G01 X104.591122 Y213.704301 Z-0.125000
G01 X106.184997 Y213.633763 Z-0.125000
G01 X107.991384 Y213.316819 Z-0.125000
G01 X109.691515 Y212.765164 Z-0.125000
G01 X111.588999 Y211.879551 Z-0.125000
G01 X115.232121 Y209.784027 Z-0.125000
G01 X116.704579 Y209.037798 Z-0.125000
G01 X118.298453 Y208.475479 Z-0.125000
G01 X119.786045 Y208.276857 Z-0.125000
G01 X121.167406 Y208.418435 Z-0.125000
G01 X122.548767 Y208.868623 Z-0.125000
G01 X123.975664 Y209.600804 Z-0.125000
G01 X126.890178 Y211.459790 Z-0.125000
G01 X128.165282 Y212.180065 Z-0.125000
G01 X129.561804 Y212.743441 Z-0.125000
G01 X130.836909 Y212.983339 Z-0.125000
G01 X132.112014 Y212.935105 Z-0.125000
G01 X133.387119 Y212.615066 Z-0.125000
G01 X134.814015 Y212.001048 Z-0.125000
G01 X137.910668 Y210.297927 Z-0.125000
G01 X139.337564 Y209.622896 Z-0.125000
G01 X140.825182 Y209.141541 Z-0.125000
G01 X142.312800 Y208.938976 Z-0.125000
G01 X143.587905 Y208.988982 Z-0.125000
G01 X145.075523 Y209.272509 Z-0.125000
G01 X146.563141 Y209.731931 Z-0.125000
G01 X151.451021 Y211.506463 Z-0.125000
G01 X153.257408 Y211.969906 Z-0.125000
G01 X154.957539 Y212.246210 Z-0.125000
G01 X156.870183 Y212.381968 Z-0.125000
G01 X158.995340 Y212.360881 Z-0.125000
G01 X166.327173 Y211.764934 Z-0.125000
G00 Z3.000000

(End cutting path id: polyline34346)


(Start cutting path id: polyline34344)
(Change tool to Default tool)

G00 Z3.000000
G00 X9.490017 Y208.255955

G00 Z4.875000 (Fast pre-penetrate)
G01 Z-0.125000 F400.0(Penetrate)
G01 X10.552583 Y208.175257 Z-0.125000 F800.000000
G01 X11.615174 Y208.383246 Z-0.125000
G01 X12.768836 Y208.889525 Z-0.125000
G01 X14.954715 Y210.191115 Z-0.125000
G01 X15.865515 Y210.651569 Z-0.125000
G01 X16.928080 Y210.991717 Z-0.125000
G01 X17.884416 Y211.064900 Z-0.125000
G01 X18.840725 Y210.904298 Z-0.125000
G01 X19.872969 Y210.497502 Z-0.125000
G01 X23.060718 Y208.547181 Z-0.125000
G01 X24.259914 Y207.961289 Z-0.125000
G01 X25.428735 Y207.650933 Z-0.125000
G01 X26.597584 Y207.647282 Z-0.125000
G01 X27.553919 Y207.869029 Z-0.125000
G01 X28.616484 Y208.317814 Z-0.125000
G01 X32.168564 Y210.485675 Z-0.125000
G01 X33.504364 Y211.158139 Z-0.125000
G01 X34.885726 Y211.579064 Z-0.125000
G01 X36.160830 Y211.671430 Z-0.125000
G01 X37.435935 Y211.478973 Z-0.125000
G01 X38.908366 Y210.952717 Z-0.125000
G01 X40.274540 Y210.256467 Z-0.125000
G01 X43.553359 Y208.369620 Z-0.125000
G01 X45.405281 Y207.532320 Z-0.125000
G01 X46.361616 Y207.233394 Z-0.125000
G01 X47.317952 Y207.040434 Z-0.125000
G01 X49.124339 Y206.974103 Z-0.125000
G01 X50.718214 Y207.220112 Z-0.125000
G01 X52.524601 Y207.779520 Z-0.125000
G01 X54.209545 Y208.486116 Z-0.125000
G01 X58.581303 Y210.529569 Z-0.125000
G01 X61.237769 Y211.526254 Z-0.125000
G01 X63.894235 Y212.150987 Z-0.125000
G01 X66.550675 Y212.379296 Z-0.125000
G01 X68.569576 Y212.320320 Z-0.125000
G01 X70.907272 Y212.062563 Z-0.125000
G01 X78.876645 Y210.612940 Z-0.125000
G01 X82.064393 Y210.137907 Z-0.125000
G01 X85.039603 Y209.859381 Z-0.125000
G01 X87.802326 Y209.770322 Z-0.125000
G01 X90.565048 Y209.859222 Z-0.125000
G01 X93.221488 Y210.118857 Z-0.125000
G01 X96.409237 Y210.645060 Z-0.125000
G01 X103.528557 Y212.150008 Z-0.125000
G01 X105.653714 Y212.369982 Z-0.125000
G01 X107.460102 Y212.323495 Z-0.125000
G01 X109.160233 Y212.027189 Z-0.125000
G01 X110.860364 Y211.463997 Z-0.125000
G01 X112.773008 Y210.540073 Z-0.125000
G01 X116.233991 Y208.494741 Z-0.125000
G01 X117.691262 Y207.736049 Z-0.125000
G01 X119.254762 Y207.166508 Z-0.125000
G01 X120.742380 Y206.954603 Z-0.125000
G01 X122.123741 Y207.090308 Z-0.125000
G01 X123.505103 Y207.539358 Z-0.125000
G01 X124.977534 Y208.299399 Z-0.125000
G01 X127.892048 Y210.163069 Z-0.125000
G01 X129.167152 Y210.877655 Z-0.125000
G01 X130.518140 Y211.418330 Z-0.125000
G01 X131.793245 Y211.659471 Z-0.125000
G01 X133.068349 Y211.614968 Z-0.125000
G01 X134.449684 Y211.264793 Z-0.125000
G01 X135.815859 Y210.675302 Z-0.125000
G01 X138.912538 Y208.988453 Z-0.125000
G01 X140.400156 Y208.293579 Z-0.125000
G01 X141.994030 Y207.796163 Z-0.125000
G01 X143.481648 Y207.613441 Z-0.125000
G01 X144.863010 Y207.685249 Z-0.125000
G01 X146.350628 Y207.982614 Z-0.125000
G01 X152.619842 Y210.136135 Z-0.125000
G01 X154.319973 Y210.576136 Z-0.125000
G01 X156.020104 Y210.872019 Z-0.125000
G01 X157.932775 Y211.039553 Z-0.125000
G01 X159.951676 Y211.061990 Z-0.125000
G01 X166.327173 Y210.655564 Z-0.125000
G00 Z3.000000

(End cutting path id: polyline34344)


(Start cutting path id: polyline34342)
(Change tool to Default tool)

G00 Z3.000000
G00 X9.490017 Y206.977807

G00 Z4.875000 (Fast pre-penetrate)
G01 Z-0.125000 F400.0(Penetrate)
G01 X10.658839 Y206.848003 Z-0.125000 F800.000000
G01 X11.827688 Y207.068665 Z-0.125000
G01 X12.951001 Y207.565631 Z-0.125000
G01 X15.136880 Y208.872724 Z-0.125000
G01 X16.078028 Y209.346778 Z-0.125000
G01 X17.034337 Y209.657266 Z-0.125000
G01 X17.990672 Y209.743890 Z-0.125000
G01 X18.946981 Y209.593316 Z-0.125000
G01 X19.964038 Y209.198373 Z-0.125000
G01 X23.151787 Y207.233500 Z-0.125000
G01 X24.366170 Y206.633188 Z-0.125000
G01 X25.534992 Y206.324261 Z-0.125000
G01 X26.597584 Y206.316641 Z-0.125000
G01 X27.553919 Y206.530239 Z-0.125000
G01 X28.707580 Y207.025221 Z-0.125000
G01 X32.077468 Y209.125348 Z-0.125000
G01 X33.398108 Y209.812364 Z-0.125000
G01 X34.779469 Y210.251122 Z-0.125000
G01 X36.054574 Y210.348462 Z-0.125000
G01 X37.329679 Y210.148623 Z-0.125000
G01 X38.711014 Y209.642978 Z-0.125000
G01 X40.092375 Y208.922995 Z-0.125000
G01 X43.280124 Y207.040831 Z-0.125000
G01 X45.086511 Y206.203267 Z-0.125000
G01 X46.892899 Y205.722758 Z-0.125000
G01 X47.742978 Y205.638462 Z-0.125000
G01 X48.699286 Y205.652723 Z-0.125000
G01 X50.293161 Y205.914713 Z-0.125000
G01 X51.993292 Y206.466792 Z-0.125000
G01 X53.572006 Y207.153517 Z-0.125000
G01 X57.852694 Y209.233668 Z-0.125000
G01 X60.387717 Y210.221992 Z-0.125000
G01 X62.831643 Y210.824580 Z-0.125000
G01 X65.381853 Y211.056830 Z-0.125000
G01 X67.507010 Y210.974889 Z-0.125000
G01 X69.844680 Y210.664216 Z-0.125000
G01 X78.026566 Y208.911459 Z-0.125000
G01 X81.533084 Y208.300643 Z-0.125000
G01 X84.720833 Y207.951182 Z-0.125000
G01 X87.908582 Y207.827357 Z-0.125000
G01 X90.990074 Y207.938640 Z-0.125000
G01 X94.071567 Y208.290456 Z-0.125000
G01 X97.471829 Y208.954824 Z-0.125000
G01 X102.784735 Y210.335815 Z-0.125000
G01 X104.697379 Y210.762826 Z-0.125000
G01 X106.822562 Y211.036537 Z-0.125000
G01 X108.628950 Y211.010581 Z-0.125000
G01 X110.222824 Y210.737849 Z-0.125000
G01 X111.922955 Y210.169525 Z-0.125000
G01 X113.774878 Y209.257587 Z-0.125000
G01 X117.144792 Y207.224081 Z-0.125000
G01 X118.617223 Y206.438058 Z-0.125000
G01 X120.211097 Y205.844413 Z-0.125000
G01 X121.698715 Y205.631450 Z-0.125000
G01 X123.080050 Y205.771600 Z-0.125000
G01 X124.461411 Y206.227820 Z-0.125000
G01 X125.888308 Y206.968388 Z-0.125000
G01 X128.711752 Y208.775966 Z-0.125000
G01 X129.986857 Y209.501876 Z-0.125000
G01 X131.368192 Y210.071153 Z-0.125000
G01 X132.643297 Y210.329333 Z-0.125000
G01 X133.918402 Y210.304753 Z-0.125000
G01 X135.299763 Y209.976909 Z-0.125000
G01 X136.726659 Y209.377575 Z-0.125000
G01 X139.914408 Y207.661516 Z-0.125000
G01 X141.356491 Y206.992915 Z-0.125000
G01 X142.950339 Y206.490472 Z-0.125000
G01 X144.544214 Y206.290474 Z-0.125000
G01 X145.925575 Y206.359847 Z-0.125000
G01 X147.413193 Y206.646999 Z-0.125000
G01 X148.900811 Y207.090943 Z-0.125000
G01 X153.682434 Y208.750355 Z-0.125000
G01 X155.382565 Y209.193743 Z-0.125000
G01 X156.976440 Y209.487192 Z-0.125000
G01 X158.782827 Y209.679597 Z-0.125000
G01 X160.801728 Y209.746219 Z-0.125000
G01 X166.327173 Y209.495658 Z-0.125000
G00 Z3.000000

(End cutting path id: polyline34342)


(Start cutting path id: polyline34340)
(Change tool to Default tool)

G00 Z3.000000
G00 X9.490017 Y205.696776

G00 Z4.875000 (Fast pre-penetrate)
G01 Z-0.125000 F400.0(Penetrate)
G01 X10.127557 Y205.559431 Z-0.125000 F800.000000
G01 X10.765122 Y205.523474 Z-0.125000
G01 X11.933944 Y205.731039 Z-0.125000
G01 X13.042071 Y206.212342 Z-0.125000
G01 X16.184285 Y208.011163 Z-0.125000
G01 X17.140594 Y208.328874 Z-0.125000
G01 X18.096929 Y208.421531 Z-0.125000
G01 X19.053264 Y208.274079 Z-0.125000
G01 X20.055108 Y207.884983 Z-0.125000
G01 X23.242856 Y205.904791 Z-0.125000
G01 X24.472427 Y205.295456 Z-0.125000
G01 X25.641275 Y204.994837 Z-0.125000
G01 X26.703840 Y205.001796 Z-0.125000
G01 X27.660176 Y205.233570 Z-0.125000
G01 X28.707580 Y205.695585 Z-0.125000
G01 X32.077468 Y207.826457 Z-0.125000
G01 X33.398108 Y208.516701 Z-0.125000
G01 X34.673212 Y208.924450 Z-0.125000
G01 X35.948317 Y209.025283 Z-0.125000
G01 X37.223422 Y208.817162 Z-0.125000
G01 X38.544035 Y208.320249 Z-0.125000
G01 X39.819140 Y207.644530 Z-0.125000
G01 X43.006889 Y205.718577 Z-0.125000
G01 X44.767742 Y204.880881 Z-0.125000
G01 X45.724077 Y204.569705 Z-0.125000
G01 X46.574129 Y204.392567 Z-0.125000
G01 X48.274260 Y204.329199 Z-0.125000
G01 X49.761878 Y204.574521 Z-0.125000
G01 X51.462009 Y205.137659 Z-0.125000
G01 X53.025536 Y205.840577 Z-0.125000
G01 X57.215128 Y207.948774 Z-0.125000
G01 X59.643895 Y208.924953 Z-0.125000
G01 X62.087848 Y209.533758 Z-0.125000
G01 X64.531774 Y209.736191 Z-0.125000
G01 X66.550675 Y209.629008 Z-0.125000
G01 X68.888372 Y209.267191 Z-0.125000
G01 X77.389027 Y207.194660 Z-0.125000
G01 X81.426828 Y206.428163 Z-0.125000
G01 X85.677168 Y205.988981 Z-0.125000
G01 X87.802326 Y205.922095 Z-0.125000
G01 X89.821226 Y205.956729 Z-0.125000
G01 X92.796462 Y206.192234 Z-0.125000
G01 X95.771698 Y206.662583 Z-0.125000
G01 X98.853190 Y207.396113 Z-0.125000
G01 X105.441201 Y209.304577 Z-0.125000
G01 X107.353845 Y209.648958 Z-0.125000
G01 X108.947720 Y209.734947 Z-0.125000
G01 X110.754107 Y209.544421 Z-0.125000
G01 X112.560495 Y209.012874 Z-0.125000
G01 X114.503513 Y208.087336 Z-0.125000
G01 X118.237731 Y205.811711 Z-0.125000
G01 X119.694975 Y205.042621 Z-0.125000
G01 X121.273663 Y204.482419 Z-0.125000
G01 X122.761280 Y204.307927 Z-0.125000
G01 X124.036385 Y204.463978 Z-0.125000
G01 X125.417747 Y204.936602 Z-0.125000
G01 X126.799108 Y205.662486 Z-0.125000
G01 X129.713622 Y207.526473 Z-0.125000
G01 X130.897631 Y208.191450 Z-0.125000
G01 X132.218271 Y208.735670 Z-0.125000
G01 X133.493376 Y209.001973 Z-0.125000
G01 X134.768480 Y208.988347 Z-0.125000
G01 X136.149815 Y208.674578 Z-0.125000
G01 X137.637433 Y208.061116 Z-0.125000
G01 X140.916278 Y206.314868 Z-0.125000
G01 X142.419057 Y205.634466 Z-0.125000
G01 X144.012931 Y205.152343 Z-0.125000
G01 X145.606805 Y204.966341 Z-0.125000
G01 X146.988167 Y205.040107 Z-0.125000
G01 X148.582041 Y205.350648 Z-0.125000
G01 X154.745026 Y207.384815 Z-0.125000
G01 X156.338900 Y207.803147 Z-0.125000
G01 X157.826492 Y208.093342 Z-0.125000
G01 X159.526649 Y208.306067 Z-0.125000
G01 X161.439293 Y208.412562 Z-0.125000
G01 X166.327173 Y208.288657 Z-0.125000
G00 Z3.000000

(End cutting path id: polyline34340)


(Start cutting path id: polyline34338)
(Change tool to Default tool)

G00 Z3.000000
G00 X9.490017 Y204.408944

G00 Z4.875000 (Fast pre-penetrate)
G01 Z-0.125000 F400.0(Penetrate)
G01 X10.765122 Y204.199236 Z-0.125000 F800.000000
G01 X11.402661 Y204.250036 Z-0.125000
G01 X12.040201 Y204.404632 Z-0.125000
G01 X13.224236 Y204.925728 Z-0.125000
G01 X15.410115 Y206.239462 Z-0.125000
G01 X16.320889 Y206.701900 Z-0.125000
G01 X17.246850 Y207.006726 Z-0.125000
G01 X18.203185 Y207.098351 Z-0.125000
G01 X19.159521 Y206.947169 Z-0.125000
G01 X20.146204 Y206.558919 Z-0.125000
G01 X23.333952 Y204.562905 Z-0.125000
G01 X24.472427 Y203.991300 Z-0.125000
G01 X25.641275 Y203.676420 Z-0.125000
G01 X26.703840 Y203.675891 Z-0.125000
G01 X27.660176 Y203.906660 Z-0.125000
G01 X28.707580 Y204.373596 Z-0.125000
G01 X31.986399 Y206.478063 Z-0.125000
G01 X33.291851 Y207.177991 Z-0.125000
G01 X34.566956 Y207.598545 Z-0.125000
G01 X35.735804 Y207.706072 Z-0.125000
G01 X37.010883 Y207.515122 Z-0.125000
G01 X38.361896 Y207.006832 Z-0.125000
G01 X39.637001 Y206.318281 Z-0.125000
G01 X42.824750 Y204.353726 Z-0.125000
G01 X44.555229 Y203.524920 Z-0.125000
G01 X46.255360 Y203.066212 Z-0.125000
G01 X47.849234 Y203.003321 Z-0.125000
G01 X49.336852 Y203.251764 Z-0.125000
G01 X51.036983 Y203.834482 Z-0.125000
G01 X52.570136 Y204.549703 Z-0.125000
G01 X56.577589 Y206.633585 Z-0.125000
G01 X58.900099 Y207.601191 Z-0.125000
G01 X61.237769 Y208.209018 Z-0.125000
G01 X62.406617 Y208.360492 Z-0.125000
G01 X63.681722 Y208.413435 Z-0.125000
G01 X65.700623 Y208.282545 Z-0.125000
G01 X67.932036 Y207.894402 Z-0.125000
G01 X76.538948 Y205.566389 Z-0.125000
G01 X80.789289 Y204.680036 Z-0.125000
G01 X83.020702 Y204.369998 Z-0.125000
G01 X85.358399 Y204.163623 Z-0.125000
G01 X87.696069 Y204.077422 Z-0.125000
G01 X89.927483 Y204.108802 Z-0.125000
G01 X93.327745 Y204.385846 Z-0.125000
G01 X96.515494 Y204.927342 Z-0.125000
G01 X99.703242 Y205.756280 Z-0.125000
G01 X106.397510 Y207.909245 Z-0.125000
G01 X108.310180 Y208.301490 Z-0.125000
G01 X110.010311 Y208.412376 Z-0.125000
G01 X111.816699 Y208.212457 Z-0.125000
G01 X113.516830 Y207.695938 Z-0.125000
G01 X115.414287 Y206.775878 Z-0.125000
G01 X119.057436 Y204.522980 Z-0.125000
G01 X120.529867 Y203.733332 Z-0.125000
G01 X122.123741 Y203.159954 Z-0.125000
G01 X123.611359 Y202.985118 Z-0.125000
G01 X124.886464 Y203.143418 Z-0.125000
G01 X126.252638 Y203.612603 Z-0.125000
G01 X127.618813 Y204.329914 Z-0.125000
G01 X130.442231 Y206.135772 Z-0.125000
G01 X131.717336 Y206.857396 Z-0.125000
G01 X133.068349 Y207.413761 Z-0.125000
G01 X134.343428 Y207.678820 Z-0.125000
G01 X135.724789 Y207.653473 Z-0.125000
G01 X137.106151 Y207.323326 Z-0.125000
G01 X138.548234 Y206.723887 Z-0.125000
G01 X141.827052 Y204.991662 Z-0.125000
G01 X143.269135 Y204.341052 Z-0.125000
G01 X144.969266 Y203.827206 Z-0.125000
G01 X146.563141 Y203.643691 Z-0.125000
G01 X148.050759 Y203.727035 Z-0.125000
G01 X149.644633 Y204.041492 Z-0.125000
G01 X155.701335 Y206.011762 Z-0.125000
G01 X158.676571 Y206.711319 Z-0.125000
G01 X160.376702 Y206.943994 Z-0.125000
G01 X162.076833 Y207.066469 Z-0.125000
G01 X166.327173 Y207.040778 Z-0.125000
G00 Z3.000000

(End cutting path id: polyline34338)


(Start cutting path id: polyline34336)
(Change tool to Default tool)

G00 Z3.000000
G00 X9.490017 Y203.111826

G00 Z4.875000 (Fast pre-penetrate)
G01 Z-0.125000 F400.0(Penetrate)
G01 X10.765122 Y202.877512 Z-0.125000 F800.000000
G01 X11.402661 Y202.914527 Z-0.125000
G01 X12.040201 Y203.055973 Z-0.125000
G01 X13.315305 Y203.606808 Z-0.125000
G01 X15.501184 Y204.923109 Z-0.125000
G01 X16.411985 Y205.384779 Z-0.125000
G01 X17.353133 Y205.690585 Z-0.125000
G01 X18.309442 Y205.774219 Z-0.125000
G01 X19.265777 Y205.612824 Z-0.125000
G01 X20.237273 Y205.221347 Z-0.125000
G01 X23.333952 Y203.263935 Z-0.125000
G01 X24.472427 Y202.680794 Z-0.125000
G01 X25.641275 Y202.356204 Z-0.125000
G01 X26.703840 Y202.351679 Z-0.125000
G01 X27.660176 Y202.583983 Z-0.125000
G01 X28.707580 Y203.057481 Z-0.125000
G01 X31.986399 Y205.188882 Z-0.125000
G01 X33.185595 Y205.839968 Z-0.125000
G01 X34.460699 Y206.272588 Z-0.125000
G01 X35.629548 Y206.382945 Z-0.125000
G01 X36.904626 Y206.184984 Z-0.125000
G01 X38.270800 Y205.652696 Z-0.125000
G01 X39.545905 Y204.942159 Z-0.125000
G01 X42.551489 Y203.049173 Z-0.125000
G01 X44.236459 Y202.218409 Z-0.125000
G01 X45.936590 Y201.743879 Z-0.125000
G01 X47.530465 Y201.682893 Z-0.125000
G01 X49.018083 Y201.947132 Z-0.125000
G01 X50.611957 Y202.513948 Z-0.125000
G01 X52.114736 Y203.235016 Z-0.125000
G01 X56.031120 Y205.330566 Z-0.125000
G01 X58.368790 Y206.324129 Z-0.125000
G01 X60.600230 Y206.904756 Z-0.125000
G01 X61.769052 Y207.050250 Z-0.125000
G01 X62.937900 Y207.089858 Z-0.125000
G01 X64.956801 Y206.934601 Z-0.125000
G01 X67.081984 Y206.526296 Z-0.125000
G01 X75.688896 Y203.991962 Z-0.125000
G01 X77.920309 Y203.437343 Z-0.125000
G01 X80.151749 Y202.991944 Z-0.125000
G01 X82.595676 Y202.634704 Z-0.125000
G01 X85.039603 Y202.409226 Z-0.125000
G01 X87.589812 Y202.306912 Z-0.125000
G01 X90.140022 Y202.338583 Z-0.125000
G01 X93.859054 Y202.647351 Z-0.125000
G01 X97.259316 Y203.254119 Z-0.125000
G01 X100.553321 Y204.173016 Z-0.125000
G01 X105.653714 Y206.000993 Z-0.125000
G01 X107.460102 Y206.573816 Z-0.125000
G01 X109.266489 Y206.967885 Z-0.125000
G01 X110.966620 Y207.089541 Z-0.125000
G01 X112.666751 Y206.905047 Z-0.125000
G01 X114.366882 Y206.388131 Z-0.125000
G01 X116.233991 Y205.473732 Z-0.125000
G01 X119.786045 Y203.252320 Z-0.125000
G01 X121.334384 Y202.410284 Z-0.125000
G01 X122.973794 Y201.824048 Z-0.125000
G01 X124.461411 Y201.663181 Z-0.125000
G01 X125.736516 Y201.835399 Z-0.125000
G01 X126.981247 Y202.264182 Z-0.125000
G01 X128.347448 Y202.972814 Z-0.125000
G01 X131.261935 Y204.830028 Z-0.125000
G01 X132.537040 Y205.546387 Z-0.125000
G01 X133.918402 Y206.105795 Z-0.125000
G01 X135.193506 Y206.359980 Z-0.125000
G01 X136.468611 Y206.339527 Z-0.125000
G01 X137.849946 Y206.026287 Z-0.125000
G01 X139.367938 Y205.406978 Z-0.125000
G01 X142.646757 Y203.688459 Z-0.125000
G01 X144.225444 Y202.986282 Z-0.125000
G01 X145.925575 Y202.490824 Z-0.125000
G01 X147.519449 Y202.319718 Z-0.125000
G01 X149.007067 Y202.408221 Z-0.125000
G01 X150.600942 Y202.721170 Z-0.125000
G01 X156.551414 Y204.634581 Z-0.125000
G01 X159.420366 Y205.327233 Z-0.125000
G01 X162.608115 Y205.710402 Z-0.125000
G01 X166.327173 Y205.759455 Z-0.125000
G00 Z3.000000

(End cutting path id: polyline34336)


(Start cutting path id: polyline34334)
(Change tool to Default tool)

G00 Z3.000000
G00 X9.490017 Y201.803993

G00 Z4.875000 (Fast pre-penetrate)
G01 Z-0.125000 F400.0(Penetrate)
G01 X10.765122 Y201.556158 Z-0.125000 F800.000000
G01 X11.402661 Y201.584838 Z-0.125000
G01 X12.040201 Y201.717924 Z-0.125000
G01 X13.315305 Y202.255318 Z-0.125000
G01 X16.411985 Y204.039348 Z-0.125000
G01 X17.459390 Y204.379364 Z-0.125000
G01 X18.415698 Y204.448473 Z-0.125000
G01 X19.372034 Y204.271203 Z-0.125000
G01 X20.328342 Y203.873217 Z-0.125000
G01 X23.333952 Y201.955678 Z-0.125000
G01 X24.472427 Y201.364652 Z-0.125000
G01 X25.641275 Y201.034321 Z-0.125000
G01 X26.703840 Y201.028976 Z-0.125000
G01 X27.660176 Y201.264799 Z-0.125000
G01 X28.707580 Y201.745970 Z-0.125000
G01 X31.804233 Y203.787545 Z-0.125000
G01 X33.079338 Y204.501654 Z-0.125000
G01 X34.354443 Y204.946101 Z-0.125000
G01 X35.523291 Y205.059977 Z-0.125000
G01 X36.798370 Y204.856645 Z-0.125000
G01 X38.088662 Y204.347297 Z-0.125000
G01 X39.272670 Y203.684569 Z-0.125000
G01 X42.369350 Y201.704536 Z-0.125000
G01 X44.023946 Y200.880016 Z-0.125000
G01 X45.617821 Y200.426441 Z-0.125000
G01 X47.211695 Y200.359819 Z-0.125000
G01 X48.593030 Y200.603738 Z-0.125000
G01 X50.186904 Y201.174179 Z-0.125000
G01 X51.659362 Y201.894057 Z-0.125000
G01 X55.575719 Y204.041545 Z-0.125000
G01 X57.731251 Y204.983910 Z-0.125000
G01 X58.900099 Y205.351151 Z-0.125000
G01 X59.962664 Y205.585598 Z-0.125000
G01 X61.131513 Y205.732071 Z-0.125000
G01 X62.300361 Y205.765541 Z-0.125000
G01 X64.213005 Y205.600891 Z-0.125000
G01 X66.338162 Y205.161657 Z-0.125000
G01 X68.357063 Y204.577722 Z-0.125000
G01 X74.945073 Y202.446241 Z-0.125000
G01 X77.282770 Y201.832991 Z-0.125000
G01 X79.514184 Y201.367854 Z-0.125000
G01 X82.170650 Y200.968492 Z-0.125000
G01 X84.827090 Y200.723488 Z-0.125000
G01 X87.589813 Y200.614798 Z-0.125000
G01 X90.352535 Y200.647924 Z-0.125000
G01 X94.284080 Y200.968069 Z-0.125000
G01 X97.896855 Y201.623203 Z-0.125000
G01 X101.297117 Y202.617083 Z-0.125000
G01 X108.203897 Y205.182691 Z-0.125000
G01 X110.116568 Y205.634625 Z-0.125000
G01 X111.816699 Y205.766943 Z-0.125000
G01 X113.516830 Y205.579010 Z-0.125000
G01 X115.216961 Y205.047542 Z-0.125000
G01 X117.053696 Y204.129121 Z-0.125000
G01 X120.605776 Y201.888236 Z-0.125000
G01 X122.063019 Y201.094169 Z-0.125000
G01 X123.717616 Y200.499704 Z-0.125000
G01 X125.205234 Y200.340505 Z-0.125000
G01 X126.480339 Y200.515235 Z-0.125000
G01 X127.755417 Y200.959576 Z-0.125000
G01 X129.076056 Y201.646883 Z-0.125000
G01 X131.990571 Y203.499705 Z-0.125000
G01 X133.265675 Y204.215376 Z-0.125000
G01 X134.662197 Y204.780948 Z-0.125000
G01 X135.937302 Y205.035900 Z-0.125000
G01 X137.212407 Y205.018835 Z-0.125000
G01 X138.593768 Y204.711813 Z-0.125000
G01 X140.187643 Y204.065304 Z-0.125000
G01 X143.375392 Y202.402797 Z-0.125000
G01 X144.969266 Y201.690566 Z-0.125000
G01 X146.669397 Y201.185212 Z-0.125000
G01 X148.369528 Y200.996697 Z-0.125000
G01 X149.857146 Y201.084247 Z-0.125000
G01 X151.451021 Y201.392831 Z-0.125000
G01 X157.401466 Y203.287483 Z-0.125000
G01 X160.164189 Y203.963678 Z-0.125000
G01 X163.033168 Y204.347191 Z-0.125000
G01 X166.327173 Y204.453130 Z-0.125000
G00 Z3.000000

(End cutting path id: polyline34334)


(Start cutting path id: polyline34332)
(Change tool to Default tool)

G00 Z3.000000
G00 X9.490017 Y200.484914

G00 Z4.875000 (Fast pre-penetrate)
G01 Z-0.125000 F400.0(Penetrate)
G01 X10.233813 Y200.292245 Z-0.125000 F800.000000
G01 X10.871379 Y200.230994 Z-0.125000
G01 X11.508918 Y200.273962 Z-0.125000
G01 X12.146457 Y200.420012 Z-0.125000
G01 X13.406375 Y200.967752 Z-0.125000
G01 X15.592280 Y202.283496 Z-0.125000
G01 X16.503054 Y202.743447 Z-0.125000
G01 X17.459390 Y203.050813 Z-0.125000
G01 X18.415698 Y203.127013 Z-0.125000
G01 X19.372034 Y202.955908 Z-0.125000
G01 X20.328342 Y202.561838 Z-0.125000
G01 X23.333952 Y200.639351 Z-0.125000
G01 X24.472427 Y200.043695 Z-0.125000
G01 X25.641275 Y199.711062 Z-0.125000
G01 X26.703840 Y199.707384 Z-0.125000
G01 X27.660176 Y199.948102 Z-0.125000
G01 X28.616484 Y200.387389 Z-0.125000
G01 X31.804233 Y202.500190 Z-0.125000
G01 X33.079338 Y203.211018 Z-0.125000
G01 X34.354443 Y203.641283 Z-0.125000
G01 X35.523291 Y203.733226 Z-0.125000
G01 X36.692113 Y203.531243 Z-0.125000
G01 X37.997566 Y203.003559 Z-0.125000
G01 X39.181601 Y202.325327 Z-0.125000
G01 X42.096115 Y200.427235 Z-0.125000
G01 X43.705150 Y199.595809 Z-0.125000
G01 X45.299025 Y199.115009 Z-0.125000
G01 X46.042847 Y199.026771 Z-0.125000
G01 X46.892899 Y199.034126 Z-0.125000
G01 X48.274260 Y199.278072 Z-0.125000
G01 X49.837787 Y199.846951 Z-0.125000
G01 X51.295031 Y200.574766 Z-0.125000
G01 X55.120345 Y202.720746 Z-0.125000
G01 X57.306224 Y203.693327 Z-0.125000
G01 X59.431382 Y204.270171 Z-0.125000
G01 X60.493973 Y204.406748 Z-0.125000
G01 X61.662795 Y204.442547 Z-0.125000
G01 X63.575439 Y204.267207 Z-0.125000
G01 X65.594366 Y203.827867 Z-0.125000
G01 X67.613267 Y203.213188 Z-0.125000
G01 X74.201278 Y200.959497 Z-0.125000
G01 X76.538948 Y200.314602 Z-0.125000
G01 X78.876645 Y199.807582 Z-0.125000
G01 X81.639341 Y199.383323 Z-0.125000
G01 X84.508320 Y199.118819 Z-0.125000
G01 X87.589812 Y199.001185 Z-0.125000
G01 X90.671305 Y199.039471 Z-0.125000
G01 X94.921619 Y199.388509 Z-0.125000
G01 X96.834290 Y199.692964 Z-0.125000
G01 X98.640677 Y200.085605 Z-0.125000
G01 X102.040939 Y201.125681 Z-0.125000
G01 X107.353845 Y203.255601 Z-0.125000
G01 X109.053976 Y203.856892 Z-0.125000
G01 X110.860364 Y204.300730 Z-0.125000
G01 X112.560495 Y204.444372 Z-0.125000
G01 X114.154369 Y204.278770 Z-0.125000
G01 X115.854500 Y203.760346 Z-0.125000
G01 X117.691262 Y202.846397 Z-0.125000
G01 X121.243315 Y200.594134 Z-0.125000
G01 X122.700559 Y199.791363 Z-0.125000
G01 X124.355155 Y199.186050 Z-0.125000
G01 X125.842773 Y199.016796 Z-0.125000
G01 X127.117878 Y199.183139 Z-0.125000
G01 X128.392983 Y199.619675 Z-0.125000
G01 X129.804692 Y200.353681 Z-0.125000
G01 X132.628136 Y202.147236 Z-0.125000
G01 X133.903215 Y202.866240 Z-0.125000
G01 X135.299763 Y203.440200 Z-0.125000
G01 X136.574868 Y203.706715 Z-0.125000
G01 X137.956203 Y203.691475 Z-0.125000
G01 X139.337564 Y203.379426 Z-0.125000
G01 X140.916278 Y202.739876 Z-0.125000
G01 X144.195096 Y201.041438 Z-0.125000
G01 X145.713062 Y200.370561 Z-0.125000
G01 X147.413193 Y199.866134 Z-0.125000
G01 X149.113324 Y199.674285 Z-0.125000
G01 X150.600942 Y199.756411 Z-0.125000
G01 X152.301073 Y200.084256 Z-0.125000
G01 X158.039031 Y201.909641 Z-0.125000
G01 X160.695471 Y202.582211 Z-0.125000
G01 X163.351937 Y202.978900 Z-0.125000
G01 X166.327173 Y203.129659 Z-0.125000
G00 Z3.000000

(End cutting path id: polyline34332)


(Start cutting path id: polyline34330)
(Change tool to Default tool)

G00 Z3.000000
G00 X9.490017 Y199.154802

G00 Z4.875000 (Fast pre-penetrate)
G01 Z-0.125000 F400.0(Penetrate)
G01 X10.233813 Y198.966393 Z-0.125000 F800.000000
G01 X10.871379 Y198.907893 Z-0.125000
G01 X11.508918 Y198.952555 Z-0.125000
G01 X12.146457 Y199.099240 Z-0.125000
G01 X13.406375 Y199.645868 Z-0.125000
G01 X15.592280 Y200.958068 Z-0.125000
G01 X16.503054 Y201.417939 Z-0.125000
G01 X17.459390 Y201.726417 Z-0.125000
G01 X18.415698 Y201.804469 Z-0.125000
G01 X19.372034 Y201.635215 Z-0.125000
G01 X20.328342 Y201.242256 Z-0.125000
G01 X23.333952 Y199.316172 Z-0.125000
G01 X24.472427 Y198.718796 Z-0.125000
G01 X25.641275 Y198.386718 Z-0.125000
G01 X26.703840 Y198.386612 Z-0.125000
G01 X27.660176 Y198.633045 Z-0.125000
G01 X28.616484 Y199.079740 Z-0.125000
G01 X31.804233 Y201.211009 Z-0.125000
G01 X32.988269 Y201.875695 Z-0.125000
G01 X34.248186 Y202.312151 Z-0.125000
G01 X35.417008 Y202.411131 Z-0.125000
G01 X36.585857 Y202.209704 Z-0.125000
G01 X37.815427 Y201.713902 Z-0.125000
G01 X38.999436 Y201.034717 Z-0.125000
G01 X42.005019 Y199.056139 Z-0.125000
G01 X43.598894 Y198.236382 Z-0.125000
G01 X45.192768 Y197.772912 Z-0.125000
G01 X46.680386 Y197.713513 Z-0.125000
G01 X48.061747 Y197.970079 Z-0.125000
G01 X49.655622 Y198.574916 Z-0.125000
G01 X51.021796 Y199.277278 Z-0.125000
G01 X54.756015 Y201.413547 Z-0.125000
G01 X56.881172 Y202.376391 Z-0.125000
G01 X57.943764 Y202.719979 Z-0.125000
G01 X59.006355 Y202.958897 Z-0.125000
G01 X60.068921 Y203.091083 Z-0.125000
G01 X61.131512 Y203.119340 Z-0.125000
G01 X62.937900 Y202.950378 Z-0.125000
G01 X64.956801 Y202.497994 Z-0.125000
G01 X66.975728 Y201.857147 Z-0.125000
G01 X73.669995 Y199.467090 Z-0.125000
G01 X76.007665 Y198.804256 Z-0.125000
G01 X78.345335 Y198.288611 Z-0.125000
G01 X81.108058 Y197.861706 Z-0.125000
G01 X84.189551 Y197.582015 Z-0.125000
G01 X87.589813 Y197.459487 Z-0.125000
G01 X90.990074 Y197.502323 Z-0.125000
G01 X95.346672 Y197.848503 Z-0.125000
G01 X97.259316 Y198.146847 Z-0.125000
G01 X99.171960 Y198.562216 Z-0.125000
G01 X100.872091 Y199.040767 Z-0.125000
G01 X102.678478 Y199.661929 Z-0.125000
G01 X107.991384 Y201.874107 Z-0.125000
G01 X109.691515 Y202.500931 Z-0.125000
G01 X111.604186 Y202.984456 Z-0.125000
G01 X113.304317 Y203.120663 Z-0.125000
G01 X114.898191 Y202.938180 Z-0.125000
G01 X116.492039 Y202.439838 Z-0.125000
G01 X118.328801 Y201.519539 Z-0.125000
G01 X121.880854 Y199.258466 Z-0.125000
G01 X123.338124 Y198.457229 Z-0.125000
G01 X124.992721 Y197.857208 Z-0.125000
G01 X126.480339 Y197.694384 Z-0.125000
G01 X127.755417 Y197.865833 Z-0.125000
G01 X129.030522 Y198.305994 Z-0.125000
G01 X130.442231 Y199.041402 Z-0.125000
G01 X133.265675 Y200.830406 Z-0.125000
G01 X134.540780 Y201.546077 Z-0.125000
G01 X135.937302 Y202.117338 Z-0.125000
G01 X137.212407 Y202.383271 Z-0.125000
G01 X138.593768 Y202.369883 Z-0.125000
G01 X139.975130 Y202.061935 Z-0.125000
G01 X141.553817 Y201.428391 Z-0.125000
G01 X144.923732 Y199.693149 Z-0.125000
G01 X146.456884 Y199.024971 Z-0.125000
G01 X148.157015 Y198.532477 Z-0.125000
G01 X149.857146 Y198.350549 Z-0.125000
G01 X151.344764 Y198.438788 Z-0.125000
G01 X153.044895 Y198.770390 Z-0.125000
G01 X158.782827 Y200.597203 Z-0.125000
G01 X161.226780 Y201.225164 Z-0.125000
G01 X163.670707 Y201.618811 Z-0.125000
G01 X166.327173 Y201.796134 Z-0.125000
G00 Z3.000000

(End cutting path id: polyline34330)


(Start cutting path id: polyline34328)
(Change tool to Default tool)

G00 Z3.000000
G00 X9.490017 Y197.814557

G00 Z4.875000 (Fast pre-penetrate)
G01 Z-0.125000 F400.0(Penetrate)
G01 X10.765122 Y197.586090 Z-0.125000 F800.000000
G01 X11.402661 Y197.620036 Z-0.125000
G01 X12.040201 Y197.755238 Z-0.125000
G01 X13.315305 Y198.289272 Z-0.125000
G01 X15.592280 Y199.645075 Z-0.125000
G01 X16.503054 Y200.101163 Z-0.125000
G01 X17.459390 Y200.405936 Z-0.125000
G01 X18.415698 Y200.481078 Z-0.125000
G01 X19.372034 Y200.309760 Z-0.125000
G01 X20.328342 Y199.915452 Z-0.125000
G01 X23.333952 Y197.987436 Z-0.125000
G01 X24.472427 Y197.390933 Z-0.125000
G01 X25.534992 Y197.077588 Z-0.125000
G01 X26.597584 Y197.052611 Z-0.125000
G01 X27.553919 Y197.279729 Z-0.125000
G01 X28.616484 Y197.772224 Z-0.125000
G01 X31.713164 Y199.859784 Z-0.125000
G01 X32.988269 Y200.578709 Z-0.125000
G01 X34.141930 Y200.980134 Z-0.125000
G01 X35.310752 Y201.089539 Z-0.125000
G01 X36.479600 Y200.892875 Z-0.125000
G01 X37.724331 Y200.387627 Z-0.125000
G01 X38.908366 Y199.699711 Z-0.125000
G01 X41.822880 Y197.756613 Z-0.125000
G01 X43.386380 Y196.934422 Z-0.125000
G01 X44.980255 Y196.454892 Z-0.125000
G01 X46.467873 Y196.389884 Z-0.125000
G01 X47.849234 Y196.650048 Z-0.125000
G01 X49.382387 Y197.239433 Z-0.125000
G01 X50.748561 Y197.951241 Z-0.125000
G01 X54.391710 Y200.071688 Z-0.125000
G01 X56.456146 Y201.031648 Z-0.125000
G01 X57.518737 Y201.386507 Z-0.125000
G01 X58.581303 Y201.633098 Z-0.125000
G01 X59.643895 Y201.768565 Z-0.125000
G01 X60.706486 Y201.795817 Z-0.125000
G01 X62.512874 Y201.615768 Z-0.125000
G01 X64.531774 Y201.140101 Z-0.125000
G01 X66.444419 Y200.508303 Z-0.125000
G01 X73.138686 Y198.032891 Z-0.125000
G01 X75.582639 Y197.324973 Z-0.125000
G01 X77.920309 Y196.807052 Z-0.125000
G01 X80.789289 Y196.371786 Z-0.125000
G01 X83.977037 Y196.097996 Z-0.125000
G01 X87.696069 Y195.978801 Z-0.125000
G01 X91.415101 Y196.030527 Z-0.125000
G01 X93.859054 Y196.173322 Z-0.125000
G01 X95.984211 Y196.396604 Z-0.125000
G01 X97.896855 Y196.702250 Z-0.125000
G01 X99.809499 Y197.129525 Z-0.125000
G01 X101.509630 Y197.623211 Z-0.125000
G01 X103.316044 Y198.264798 Z-0.125000
G01 X108.522693 Y200.498143 Z-0.125000
G01 X110.222824 Y201.146028 Z-0.125000
G01 X112.135468 Y201.649450 Z-0.125000
G01 X113.835599 Y201.798410 Z-0.125000
G01 X115.429474 Y201.623468 Z-0.125000
G01 X117.023348 Y201.128671 Z-0.125000
G01 X118.875271 Y200.200196 Z-0.125000
G01 X122.336254 Y197.990822 Z-0.125000
G01 X123.884594 Y197.133970 Z-0.125000
G01 X125.524003 Y196.537838 Z-0.125000
G01 X127.011621 Y196.371098 Z-0.125000
G01 X128.286726 Y196.538103 Z-0.125000
G01 X129.561804 Y196.973130 Z-0.125000
G01 X130.988701 Y197.711846 Z-0.125000
G01 X133.812145 Y199.495427 Z-0.125000
G01 X135.087250 Y200.211097 Z-0.125000
G01 X136.468611 Y200.780480 Z-0.125000
G01 X137.743690 Y201.055037 Z-0.125000
G01 X139.125051 Y201.053450 Z-0.125000
G01 X140.612669 Y200.724256 Z-0.125000
G01 X142.191356 Y200.086373 Z-0.125000
G01 X145.470201 Y198.400423 Z-0.125000
G01 X146.988167 Y197.732669 Z-0.125000
G01 X148.688298 Y197.226945 Z-0.125000
G01 X150.388429 Y197.029407 Z-0.125000
G01 X151.982303 Y197.118281 Z-0.125000
G01 X153.682434 Y197.452369 Z-0.125000
G01 X159.314110 Y199.255767 Z-0.125000
G01 X161.758063 Y199.895132 Z-0.125000
G01 X163.989477 Y200.271872 Z-0.125000
G01 X166.327173 Y200.458588 Z-0.125000
G00 Z3.000000

(End cutting path id: polyline34328)


(Start cutting path id: polyline34326)
(Change tool to Default tool)

G00 Z3.000000
G00 X9.490017 Y196.465607

G00 Z4.875000 (Fast pre-penetrate)
G01 Z-0.125000 F400.0(Penetrate)
G01 X10.765122 Y196.261878 Z-0.125000 F800.000000
G01 X12.040201 Y196.450447 Z-0.125000
G01 X13.315305 Y196.994059 Z-0.125000
G01 X16.411985 Y198.753853 Z-0.125000
G01 X17.459390 Y199.088842 Z-0.125000
G01 X18.415698 Y199.156787 Z-0.125000
G01 X19.372034 Y198.980045 Z-0.125000
G01 X20.328342 Y198.582298 Z-0.125000
G01 X23.333952 Y196.654440 Z-0.125000
G01 X24.472427 Y196.061033 Z-0.125000
G01 X25.534992 Y195.751815 Z-0.125000
G01 X26.597584 Y195.732051 Z-0.125000
G01 X27.553919 Y195.964619 Z-0.125000
G01 X28.525415 Y196.412744 Z-0.125000
G01 X31.713164 Y198.561475 Z-0.125000
G01 X32.897173 Y199.233992 Z-0.125000
G01 X34.035673 Y199.644360 Z-0.125000
G01 X35.204495 Y199.768291 Z-0.125000
G01 X36.373343 Y199.581257 Z-0.125000
G01 X37.633261 Y199.071961 Z-0.125000
G01 X38.908366 Y198.320599 Z-0.125000
G01 X41.731784 Y196.420469 Z-0.125000
G01 X43.280124 Y195.602035 Z-0.125000
G01 X44.767742 Y195.144042 Z-0.125000
G01 X46.255360 Y195.063053 Z-0.125000
G01 X47.636721 Y195.316973 Z-0.125000
G01 X49.109152 Y195.879768 Z-0.125000
G01 X50.475326 Y196.593427 Z-0.125000
G01 X54.118476 Y198.742476 Z-0.125000
G01 X56.243633 Y199.739187 Z-0.125000
G01 X58.262533 Y200.311321 Z-0.125000
G01 X59.218868 Y200.439009 Z-0.125000
G01 X60.281434 Y200.474172 Z-0.125000
G01 X62.087848 Y200.298118 Z-0.125000
G01 X64.000492 Y199.845708 Z-0.125000
G01 X65.913136 Y199.205179 Z-0.125000
G01 X72.713660 Y196.623537 Z-0.125000
G01 X75.157586 Y195.902548 Z-0.125000
G01 X77.601540 Y195.359650 Z-0.125000
G01 X80.576776 Y194.921210 Z-0.125000
G01 X83.870781 Y194.658399 Z-0.125000
G01 X87.802326 Y194.549047 Z-0.125000
G01 X91.840153 Y194.609002 Z-0.125000
G01 X94.284080 Y194.750183 Z-0.125000
G01 X96.409237 Y194.970740 Z-0.125000
G01 X98.428164 Y195.295436 Z-0.125000
G01 X100.234552 Y195.703873 Z-0.125000
G01 X101.934683 Y196.202083 Z-0.125000
G01 X103.741070 Y196.852269 Z-0.125000
G01 X108.947720 Y199.128106 Z-0.125000
G01 X110.754107 Y199.828695 Z-0.125000
G01 X112.666751 Y200.332594 Z-0.125000
G01 X114.366882 Y200.474860 Z-0.125000
G01 X115.960757 Y200.289440 Z-0.125000
G01 X117.554631 Y199.782631 Z-0.125000
G01 X119.330671 Y198.887124 Z-0.125000
G01 X122.882724 Y196.622293 Z-0.125000
G01 X124.355155 Y195.812881 Z-0.125000
G01 X125.949029 Y195.227650 Z-0.125000
G01 X127.436647 Y195.047363 Z-0.125000
G01 X128.711752 Y195.201244 Z-0.125000
G01 X130.077926 Y195.662333 Z-0.125000
G01 X131.444101 Y196.366918 Z-0.125000
G01 X134.358615 Y198.199552 Z-0.125000
G01 X135.633720 Y198.908052 Z-0.125000
G01 X136.999894 Y199.463862 Z-0.125000
G01 X138.274999 Y199.733869 Z-0.125000
G01 X139.656334 Y199.729265 Z-0.125000
G01 X141.143952 Y199.399330 Z-0.125000
G01 X142.737826 Y198.755150 Z-0.125000
G01 X145.925575 Y197.116905 Z-0.125000
G01 X147.519449 Y196.412188 Z-0.125000
G01 X149.219580 Y195.905432 Z-0.125000
G01 X150.919711 Y195.706624 Z-0.125000
G01 X152.513586 Y195.794942 Z-0.125000
G01 X154.213717 Y196.130460 Z-0.125000
G01 X159.845419 Y197.949018 Z-0.125000
G01 X162.183089 Y198.569518 Z-0.125000
G01 X164.201990 Y198.926732 Z-0.125000
G01 X166.327173 Y199.121597 Z-0.125000
G00 Z3.000000

(End cutting path id: polyline34326)


(Start cutting path id: polyline34324)
(Change tool to Default tool)

G00 Z3.000000
G00 X9.490017 Y195.109937

G00 Z4.875000 (Fast pre-penetrate)
G01 Z-0.125000 F400.0(Penetrate)
G01 X10.765122 Y194.939281 Z-0.125000 F800.000000
G01 X12.040201 Y195.154387 Z-0.125000
G01 X13.224236 Y195.663392 Z-0.125000
G01 X15.501184 Y197.001414 Z-0.125000
G01 X16.411985 Y197.452819 Z-0.125000
G01 X17.353133 Y197.753359 Z-0.125000
G01 X18.309442 Y197.837047 Z-0.125000
G01 X19.265777 Y197.678588 Z-0.125000
G01 X20.237273 Y197.289757 Z-0.125000
G01 X23.333952 Y195.318428 Z-0.125000
G01 X24.472427 Y194.729996 Z-0.125000
G01 X25.534992 Y194.425963 Z-0.125000
G01 X26.597584 Y194.411464 Z-0.125000
G01 X27.553919 Y194.648557 Z-0.125000
G01 X28.525415 Y195.100915 Z-0.125000
G01 X31.713164 Y197.256049 Z-0.125000
G01 X32.897173 Y197.925708 Z-0.125000
G01 X34.035673 Y198.329833 Z-0.125000
G01 X35.204495 Y198.444000 Z-0.125000
G01 X36.373343 Y198.244769 Z-0.125000
G01 X37.633261 Y197.721477 Z-0.125000
G01 X38.817297 Y197.017210 Z-0.125000
G01 X41.640715 Y195.104619 Z-0.125000
G01 X43.189054 Y194.278855 Z-0.125000
G01 X44.661485 Y193.821656 Z-0.125000
G01 X46.149103 Y193.740826 Z-0.125000
G01 X47.530465 Y194.000461 Z-0.125000
G01 X49.018083 Y194.580930 Z-0.125000
G01 X50.384257 Y195.307289 Z-0.125000
G01 X54.027380 Y197.475335 Z-0.125000
G01 X56.031120 Y198.417965 Z-0.125000
G01 X58.050020 Y198.993645 Z-0.125000
G01 X59.006355 Y199.119481 Z-0.125000
G01 X60.068921 Y199.150199 Z-0.125000
G01 X61.769052 Y198.979887 Z-0.125000
G01 X63.681722 Y198.522370 Z-0.125000
G01 X65.700623 Y197.829982 Z-0.125000
G01 X70.163450 Y196.048386 Z-0.125000
G01 X72.394890 Y195.238577 Z-0.125000
G01 X74.945073 Y194.481288 Z-0.125000
G01 X77.389027 Y193.943893 Z-0.125000
G01 X80.364262 Y193.516592 Z-0.125000
G01 X83.658268 Y193.265661 Z-0.125000
G01 X87.908582 Y193.159087 Z-0.125000
G01 X92.158923 Y193.223592 Z-0.125000
G01 X94.602849 Y193.362049 Z-0.125000
G01 X96.834290 Y193.593135 Z-0.125000
G01 X98.746934 Y193.901771 Z-0.125000
G01 X100.659578 Y194.337751 Z-0.125000
G01 X102.359709 Y194.844825 Z-0.125000
G01 X104.166096 Y195.506150 Z-0.125000
G01 X109.372746 Y197.810641 Z-0.125000
G01 X111.072877 Y198.477549 Z-0.125000
G01 X112.985521 Y198.996158 Z-0.125000
G01 X114.685652 Y199.152792 Z-0.125000
G01 X116.279526 Y198.981104 Z-0.125000
G01 X117.979657 Y198.444053 Z-0.125000
G01 X119.786045 Y197.525209 Z-0.125000
G01 X123.247028 Y195.319010 Z-0.125000
G01 X124.704299 Y194.514096 Z-0.125000
G01 X126.374056 Y193.899999 Z-0.125000
G01 X127.861673 Y193.724660 Z-0.125000
G01 X129.136778 Y193.880764 Z-0.125000
G01 X130.518140 Y194.348599 Z-0.125000
G01 X131.899501 Y195.061889 Z-0.125000
G01 X134.814015 Y196.888543 Z-0.125000
G01 X136.089093 Y197.592625 Z-0.125000
G01 X137.424920 Y198.134888 Z-0.125000
G01 X138.700025 Y198.408334 Z-0.125000
G01 X140.081386 Y198.409393 Z-0.125000
G01 X141.569004 Y198.086496 Z-0.125000
G01 X143.102157 Y197.476632 Z-0.125000
G01 X146.472045 Y195.752477 Z-0.125000
G01 X148.050759 Y195.063000 Z-0.125000
G01 X149.750890 Y194.567621 Z-0.125000
G01 X151.344764 Y194.384556 Z-0.125000
G01 X152.726099 Y194.443876 Z-0.125000
G01 X154.213717 Y194.701341 Z-0.125000
G01 X155.807591 Y195.140364 Z-0.125000
G01 X159.739162 Y196.475476 Z-0.125000
G01 X161.758063 Y197.067930 Z-0.125000
G01 X163.989477 Y197.533940 Z-0.125000
G01 X166.327173 Y197.788734 Z-0.125000
G00 Z3.000000

(End cutting path id: polyline34324)


(Start cutting path id: polyline34322)
(Change tool to Default tool)

G00 Z3.000000
G00 X9.490017 Y193.750007

G00 Z4.875000 (Fast pre-penetrate)
G01 Z-0.125000 F400.0(Penetrate)
G01 X10.765122 Y193.620255 Z-0.125000 F800.000000
G01 X11.933944 Y193.833615 Z-0.125000
G01 X13.133140 Y194.344604 Z-0.125000
G01 X16.290541 Y196.107203 Z-0.125000
G01 X17.353133 Y196.442562 Z-0.125000
G01 X18.309442 Y196.511671 Z-0.125000
G01 X19.265777 Y196.342206 Z-0.125000
G01 X20.237273 Y195.946786 Z-0.125000
G01 X23.333952 Y193.980617 Z-0.125000
G01 X24.472427 Y193.398693 Z-0.125000
G01 X25.534992 Y193.100376 Z-0.125000
G01 X26.597584 Y193.090507 Z-0.125000
G01 X27.553919 Y193.330696 Z-0.125000
G01 X28.525415 Y193.785196 Z-0.125000
G01 X31.713164 Y195.941892 Z-0.125000
G01 X32.897173 Y196.609858 Z-0.125000
G01 X34.035673 Y197.010860 Z-0.125000
G01 X35.204495 Y197.120291 Z-0.125000
G01 X36.373343 Y196.914896 Z-0.125000
G01 X37.633261 Y196.384221 Z-0.125000
G01 X38.817297 Y195.673419 Z-0.125000
G01 X41.640715 Y193.754214 Z-0.125000
G01 X43.189054 Y192.933689 Z-0.125000
G01 X44.661485 Y192.487866 Z-0.125000
G01 X46.149103 Y192.423546 Z-0.125000
G01 X47.424208 Y192.668947 Z-0.125000
G01 X48.926987 Y193.256162 Z-0.125000
G01 X50.293161 Y193.987470 Z-0.125000
G01 X53.845241 Y196.119612 Z-0.125000
G01 X55.818606 Y197.065999 Z-0.125000
G01 X56.881172 Y197.430885 Z-0.125000
G01 X57.837507 Y197.660014 Z-0.125000
G01 X58.793842 Y197.792385 Z-0.125000
G01 X59.856408 Y197.828104 Z-0.125000
G01 X61.556539 Y197.661125 Z-0.125000
G01 X63.469183 Y197.201069 Z-0.125000
G01 X65.381853 Y196.541410 Z-0.125000
G01 X69.950937 Y194.696764 Z-0.125000
G01 X72.182377 Y193.878515 Z-0.125000
G01 X74.626304 Y193.143530 Z-0.125000
G01 X77.176514 Y192.577534 Z-0.125000
G01 X80.151749 Y192.153037 Z-0.125000
G01 X83.552011 Y191.901630 Z-0.125000
G01 X88.014839 Y191.799712 Z-0.125000
G01 X92.477692 Y191.871044 Z-0.125000
G01 X94.921619 Y192.011829 Z-0.125000
G01 X97.046803 Y192.232385 Z-0.125000
G01 X99.065703 Y192.560045 Z-0.125000
G01 X100.872091 Y192.974435 Z-0.125000
G01 X102.572222 Y193.481243 Z-0.125000
G01 X104.378609 Y194.143124 Z-0.125000
G01 X109.585259 Y196.455897 Z-0.125000
G01 X111.391646 Y197.166593 Z-0.125000
G01 X113.304317 Y197.679488 Z-0.125000
G01 X115.004448 Y197.829559 Z-0.125000
G01 X116.598322 Y197.652500 Z-0.125000
G01 X118.192197 Y197.155666 Z-0.125000
G01 X119.968210 Y196.272435 Z-0.125000
G01 X123.520263 Y194.022368 Z-0.125000
G01 X125.068603 Y193.171787 Z-0.125000
G01 X126.692852 Y192.579756 Z-0.125000
G01 X128.180469 Y192.401533 Z-0.125000
G01 X129.455548 Y192.552266 Z-0.125000
G01 X130.836909 Y193.012482 Z-0.125000
G01 X132.263805 Y193.744741 Z-0.125000
G01 X135.087250 Y195.509537 Z-0.125000
G01 X136.453424 Y196.266456 Z-0.125000
G01 X137.849946 Y196.827319 Z-0.125000
G01 X139.125051 Y197.090446 Z-0.125000
G01 X140.506412 Y197.081556 Z-0.125000
G01 X141.994030 Y196.750431 Z-0.125000
G01 X143.557531 Y196.121729 Z-0.125000
G01 X146.836376 Y194.440462 Z-0.125000
G01 X148.369528 Y193.764400 Z-0.125000
G01 X150.069659 Y193.256956 Z-0.125000
G01 X151.769790 Y193.060133 Z-0.125000
G01 X153.151152 Y193.127946 Z-0.125000
G01 X154.532486 Y193.371150 Z-0.125000
G01 X156.232644 Y193.846527 Z-0.125000
G01 X160.057932 Y195.168198 Z-0.125000
G01 X161.970576 Y195.741787 Z-0.125000
G01 X164.095733 Y196.202532 Z-0.125000
G01 X166.327173 Y196.461665 Z-0.125000
G00 Z3.000000

(End cutting path id: polyline34322)


(Start cutting path id: polyline34320)
(Change tool to Default tool)

G00 Z3.000000
G00 X9.490017 Y192.388780

G00 Z4.875000 (Fast pre-penetrate)
G01 Z-0.125000 F400.0(Penetrate)
G01 X10.658839 Y192.299827 Z-0.125000 F800.000000
G01 X11.827688 Y192.520542 Z-0.125000
G01 X13.042071 Y193.037247 Z-0.125000
G01 X16.184285 Y194.774684 Z-0.125000
G01 X17.246850 Y195.113218 Z-0.125000
G01 X18.203185 Y195.190688 Z-0.125000
G01 X19.159521 Y195.034081 Z-0.125000
G01 X20.146204 Y194.645541 Z-0.125000
G01 X23.333952 Y192.642224 Z-0.125000
G01 X24.472427 Y192.067894 Z-0.125000
G01 X25.534992 Y191.775318 Z-0.125000
G01 X26.597584 Y191.768915 Z-0.125000
G01 X27.553919 Y192.010188 Z-0.125000
G01 X28.525415 Y192.464292 Z-0.125000
G01 X31.713164 Y194.617416 Z-0.125000
G01 X32.897173 Y195.285355 Z-0.125000
G01 X34.035673 Y195.687072 Z-0.125000
G01 X35.204495 Y195.797509 Z-0.125000
G01 X36.373343 Y195.592880 Z-0.125000
G01 X37.633261 Y195.062180 Z-0.125000
G01 X38.817297 Y194.350478 Z-0.125000
G01 X41.640715 Y192.427753 Z-0.125000
G01 X43.097985 Y191.645884 Z-0.125000
G01 X44.555229 Y191.181938 Z-0.125000
G01 X46.042847 Y191.093540 Z-0.125000
G01 X47.424208 Y191.352832 Z-0.125000
G01 X48.835917 Y191.903429 Z-0.125000
G01 X50.293161 Y192.684293 Z-0.125000
G01 X53.845241 Y194.823341 Z-0.125000
G01 X55.818606 Y195.765415 Z-0.125000
G01 X56.881172 Y196.125592 Z-0.125000
G01 X57.837507 Y196.349297 Z-0.125000
G01 X58.793842 Y196.475370 Z-0.125000
G01 X59.856408 Y196.503469 Z-0.125000
G01 X61.556539 Y196.323738 Z-0.125000
G01 X63.469183 Y195.850319 Z-0.125000
G01 X65.381853 Y195.179945 Z-0.125000
G01 X69.844680 Y193.366599 Z-0.125000
G01 X72.076121 Y192.544619 Z-0.125000
G01 X74.520047 Y191.807280 Z-0.125000
G01 X77.070257 Y191.240675 Z-0.125000
G01 X80.045466 Y190.817051 Z-0.125000
G01 X83.552011 Y190.562390 Z-0.125000
G01 X88.014839 Y190.465209 Z-0.125000
G01 X92.583949 Y190.538869 Z-0.125000
G01 X95.027876 Y190.680129 Z-0.125000
G01 X97.153059 Y190.900898 Z-0.125000
G01 X99.171960 Y191.228398 Z-0.125000
G01 X100.978347 Y191.642047 Z-0.125000
G01 X102.678478 Y192.147322 Z-0.125000
G01 X104.484866 Y192.806636 Z-0.125000
G01 X109.797772 Y195.157165 Z-0.125000
G01 X111.497903 Y195.823597 Z-0.125000
G01 X113.410573 Y196.344031 Z-0.125000
G01 X115.216961 Y196.506327 Z-0.125000
G01 X116.810835 Y196.325325 Z-0.125000
G01 X118.404710 Y195.828412 Z-0.125000
G01 X120.241445 Y194.914410 Z-0.125000
G01 X123.793498 Y192.675853 Z-0.125000
G01 X125.341838 Y191.834426 Z-0.125000
G01 X127.011621 Y191.241178 Z-0.125000
G01 X128.499239 Y191.079412 Z-0.125000
G01 X129.774344 Y191.241257 Z-0.125000
G01 X131.049422 Y191.663320 Z-0.125000
G01 X132.537040 Y192.416958 Z-0.125000
G01 X135.451554 Y194.229087 Z-0.125000
G01 X136.726659 Y194.931105 Z-0.125000
G01 X138.168742 Y195.509193 Z-0.125000
G01 X139.443821 Y195.768775 Z-0.125000
G01 X140.825182 Y195.757689 Z-0.125000
G01 X142.312800 Y195.425637 Z-0.125000
G01 X143.830766 Y194.817282 Z-0.125000
G01 X147.200680 Y193.090957 Z-0.125000
G01 X148.794554 Y192.396612 Z-0.125000
G01 X150.494685 Y191.908244 Z-0.125000
G01 X152.088560 Y191.736636 Z-0.125000
G01 X153.469921 Y191.810163 Z-0.125000
G01 X154.851283 Y192.061279 Z-0.125000
G01 X156.445157 Y192.514245 Z-0.125000
G01 X160.376702 Y193.894628 Z-0.125000
G01 X162.183089 Y194.442923 Z-0.125000
G01 X164.308246 Y194.906446 Z-0.125000
G01 X166.327173 Y195.141343 Z-0.125000
G00 Z3.000000

(End cutting path id: polyline34320)


(Start cutting path id: polyline34318)
(Change tool to Default tool)

G00 Z3.000000
G00 X9.490017 Y191.029564

G00 Z4.875000 (Fast pre-penetrate)
G01 Z-0.125000 F400.0(Penetrate)
G01 X10.552583 Y190.981807 Z-0.125000 F800.000000
G01 X11.721431 Y191.215328 Z-0.125000
G01 X12.859905 Y191.694303 Z-0.125000
G01 X16.078028 Y193.448779 Z-0.125000
G01 X17.140594 Y193.786519 Z-0.125000
G01 X18.096929 Y193.868910 Z-0.125000
G01 X19.053264 Y193.722543 Z-0.125000
G01 X20.055108 Y193.340670 Z-0.125000
G01 X21.056978 Y192.780442 Z-0.125000
G01 X23.333952 Y191.304360 Z-0.125000
G01 X24.472427 Y190.738417 Z-0.125000
G01 X25.534992 Y190.451080 Z-0.125000
G01 X26.597584 Y190.446344 Z-0.125000
G01 X27.553919 Y190.686241 Z-0.125000
G01 X28.525415 Y191.137011 Z-0.125000
G01 X31.713164 Y193.281060 Z-0.125000
G01 X32.897173 Y193.950984 Z-0.125000
G01 X34.035673 Y194.357807 Z-0.125000
G01 X35.204495 Y194.475758 Z-0.125000
G01 X36.373343 Y194.279490 Z-0.125000
G01 X37.633261 Y193.756859 Z-0.125000
G01 X38.817297 Y193.050396 Z-0.125000
G01 X41.640715 Y191.127275 Z-0.125000
G01 X43.189054 Y190.299104 Z-0.125000
G01 X44.661485 Y189.845899 Z-0.125000
G01 X46.149103 Y189.776287 Z-0.125000
G01 X47.424208 Y190.019836 Z-0.125000
G01 X48.926987 Y190.608031 Z-0.125000
G01 X50.293161 Y191.342460 Z-0.125000
G01 X53.845241 Y193.483968 Z-0.125000
G01 X55.818606 Y194.431255 Z-0.125000
G01 X56.881172 Y194.794633 Z-0.125000
G01 X57.837507 Y195.021275 Z-0.125000
G01 X58.793842 Y195.150180 Z-0.125000
G01 X59.856408 Y195.181242 Z-0.125000
G01 X61.556539 Y195.005770 Z-0.125000
G01 X63.469183 Y194.536321 Z-0.125000
G01 X65.381853 Y193.869069 Z-0.125000
G01 X69.844680 Y192.060274 Z-0.125000
G01 X72.076121 Y191.239273 Z-0.125000
G01 X74.520047 Y190.502039 Z-0.125000
G01 X77.070257 Y189.934588 Z-0.125000
G01 X80.045466 Y189.509059 Z-0.125000
G01 X83.552011 Y189.251937 Z-0.125000
G01 X88.014839 Y189.153512 Z-0.125000
G01 X92.477692 Y189.226325 Z-0.125000
G01 X94.921619 Y189.366872 Z-0.125000
G01 X97.153059 Y189.599334 Z-0.125000
G01 X99.065703 Y189.908156 Z-0.125000
G01 X100.978347 Y190.342336 Z-0.125000
G01 X102.678478 Y190.845256 Z-0.125000
G01 X104.484866 Y191.499305 Z-0.125000
G01 X109.797772 Y193.825386 Z-0.125000
G01 X111.604186 Y194.523700 Z-0.125000
G01 X113.516830 Y195.030033 Z-0.125000
G01 X115.216961 Y195.184152 Z-0.125000
G01 X116.810835 Y195.020799 Z-0.125000
G01 X118.510966 Y194.504359 Z-0.125000
G01 X120.423610 Y193.555406 Z-0.125000
G01 X123.975664 Y191.332115 Z-0.125000
G01 X125.432934 Y190.543446 Z-0.125000
G01 X127.117878 Y189.933609 Z-0.125000
G01 X127.967930 Y189.786791 Z-0.125000
G01 X128.711752 Y189.757079 Z-0.125000
G01 X129.986857 Y189.923554 Z-0.125000
G01 X131.353031 Y190.385410 Z-0.125000
G01 X132.719206 Y191.080285 Z-0.125000
G01 X135.633720 Y192.883630 Z-0.125000
G01 X136.908825 Y193.587182 Z-0.125000
G01 X138.274999 Y194.147807 Z-0.125000
G01 X139.656334 Y194.443637 Z-0.125000
G01 X141.037695 Y194.437526 Z-0.125000
G01 X142.525313 Y194.110818 Z-0.125000
G01 X144.104000 Y193.478571 Z-0.125000
G01 X147.473915 Y191.748727 Z-0.125000
G01 X149.007067 Y191.079253 Z-0.125000
G01 X150.707198 Y190.586494 Z-0.125000
G01 X152.301073 Y190.413562 Z-0.125000
G01 X153.682434 Y190.489471 Z-0.125000
G01 X155.063796 Y190.746646 Z-0.125000
G01 X156.657670 Y191.210195 Z-0.125000
G01 X160.482958 Y192.581423 Z-0.125000
G01 X162.289346 Y193.141307 Z-0.125000
G01 X164.308246 Y193.590886 Z-0.125000
G01 X166.327173 Y193.827133 Z-0.125000
G00 Z3.000000

(End cutting path id: polyline34318)


(Start cutting path id: polyline34316)
(Change tool to Default tool)

G00 Z3.000000
G00 X9.490017 Y189.676037

G00 Z4.875000 (Fast pre-penetrate)
G01 Z-0.125000 F400.0(Penetrate)
G01 X10.552583 Y189.678418 Z-0.125000 F800.000000
G01 X11.615174 Y189.918474 Z-0.125000
G01 X12.768836 Y190.409355 Z-0.125000
G01 X15.971772 Y192.129145 Z-0.125000
G01 X17.034337 Y192.462149 Z-0.125000
G01 X17.990672 Y192.546604 Z-0.125000
G01 X19.053264 Y192.379625 Z-0.125000
G01 X20.055108 Y191.988916 Z-0.125000
G01 X23.333952 Y189.968084 Z-0.125000
G01 X24.472427 Y189.410845 Z-0.125000
G01 X25.534992 Y189.127795 Z-0.125000
G01 X26.597584 Y189.122476 Z-0.125000
G01 X27.553919 Y189.358088 Z-0.125000
G01 X28.616484 Y189.852302 Z-0.125000
G01 X31.713164 Y191.931210 Z-0.125000
G01 X32.988269 Y192.648071 Z-0.125000
G01 X34.141930 Y193.047010 Z-0.125000
G01 X35.204495 Y193.154457 Z-0.125000
G01 X36.373343 Y192.974778 Z-0.125000
G01 X37.724331 Y192.421985 Z-0.125000
G01 X38.908366 Y191.715469 Z-0.125000
G01 X41.731784 Y189.797930 Z-0.125000
G01 X43.280124 Y188.973728 Z-0.125000
G01 X44.767742 Y188.519862 Z-0.125000
G01 X46.255360 Y188.454537 Z-0.125000
G01 X47.530465 Y188.700017 Z-0.125000
G01 X49.018083 Y189.280988 Z-0.125000
G01 X50.384257 Y190.012613 Z-0.125000
G01 X53.936310 Y192.149253 Z-0.125000
G01 X55.924863 Y193.103366 Z-0.125000
G01 X56.987428 Y193.466956 Z-0.125000
G01 X57.943764 Y193.694550 Z-0.125000
G01 X58.900099 Y193.825122 Z-0.125000
G01 X59.962664 Y193.858988 Z-0.125000
G01 X61.662795 Y193.689470 Z-0.125000
G01 X63.575439 Y193.228514 Z-0.125000
G01 X65.488110 Y192.570654 Z-0.125000
G01 X70.057194 Y190.739793 Z-0.125000
G01 X72.288634 Y189.930116 Z-0.125000
G01 X74.732560 Y189.203333 Z-0.125000
G01 X77.176514 Y188.662340 Z-0.125000
G01 X80.151749 Y188.232049 Z-0.125000
G01 X83.552011 Y187.973445 Z-0.125000
G01 X87.908582 Y187.868406 Z-0.125000
G01 X92.265179 Y187.940505 Z-0.125000
G01 X94.709106 Y188.083300 Z-0.125000
G01 X96.834290 Y188.302666 Z-0.125000
G01 X98.853190 Y188.623102 Z-0.125000
G01 X100.765834 Y189.050827 Z-0.125000
G01 X102.465965 Y189.543904 Z-0.125000
G01 X104.272353 Y190.183560 Z-0.125000
G01 X109.691515 Y192.509483 Z-0.125000
G01 X111.497903 Y193.196658 Z-0.125000
G01 X113.410573 Y193.699736 Z-0.125000
G01 X115.216961 Y193.860867 Z-0.125000
G01 X116.810835 Y193.693571 Z-0.125000
G01 X118.510966 Y193.181180 Z-0.125000
G01 X120.423610 Y192.244503 Z-0.125000
G01 X123.975664 Y190.043543 Z-0.125000
G01 X125.524003 Y189.211482 Z-0.125000
G01 X127.224134 Y188.605825 Z-0.125000
G01 X128.074186 Y188.462527 Z-0.125000
G01 X128.818009 Y188.434296 Z-0.125000
G01 X130.093114 Y188.599899 Z-0.125000
G01 X131.474475 Y189.063660 Z-0.125000
G01 X132.901371 Y189.788723 Z-0.125000
G01 X135.815859 Y191.583257 Z-0.125000
G01 X137.090963 Y192.279984 Z-0.125000
G01 X138.487512 Y192.842910 Z-0.125000
G01 X139.762617 Y193.114875 Z-0.125000
G01 X141.250208 Y193.108578 Z-0.125000
G01 X142.737826 Y192.772267 Z-0.125000
G01 X144.286166 Y192.146872 Z-0.125000
G01 X147.656080 Y190.413430 Z-0.125000
G01 X149.113324 Y189.773218 Z-0.125000
G01 X150.813455 Y189.270405 Z-0.125000
G01 X152.407329 Y189.091018 Z-0.125000
G01 X153.788691 Y189.165630 Z-0.125000
G01 X155.170052 Y189.426191 Z-0.125000
G01 X156.763927 Y189.898551 Z-0.125000
G01 X160.482958 Y191.260704 Z-0.125000
G01 X162.289346 Y191.834188 Z-0.125000
G01 X164.308246 Y192.289641 Z-0.125000
G01 X166.327173 Y192.517209 Z-0.125000
G00 Z3.000000

(End cutting path id: polyline34316)


(Start cutting path id: polyline34314)
(Change tool to Default tool)

G00 Z3.000000
G00 X9.490017 Y188.331982

G00 Z4.875000 (Fast pre-penetrate)
G01 Z-0.125000 F400.0(Penetrate)
G01 X10.446326 Y188.371802 Z-0.125000 F800.000000
G01 X11.508918 Y188.630802 Z-0.125000
G01 X12.677766 Y189.135600 Z-0.125000
G01 X15.865515 Y190.815517 Z-0.125000
G01 X16.928080 Y191.139948 Z-0.125000
G01 X17.884416 Y191.224112 Z-0.125000
G01 X18.946981 Y191.064436 Z-0.125000
G01 X19.964038 Y190.679733 Z-0.125000
G01 X20.965908 Y190.130617 Z-0.125000
G01 X23.242856 Y188.687079 Z-0.125000
G01 X24.366170 Y188.127777 Z-0.125000
G01 X25.534992 Y187.805938 Z-0.125000
G01 X26.597584 Y187.797260 Z-0.125000
G01 X27.553919 Y188.025277 Z-0.125000
G01 X28.616484 Y188.508168 Z-0.125000
G01 X31.804233 Y190.624673 Z-0.125000
G01 X32.988269 Y191.290443 Z-0.125000
G01 X34.141930 Y191.704965 Z-0.125000
G01 X35.310752 Y191.831198 Z-0.125000
G01 X36.479600 Y191.649562 Z-0.125000
G01 X37.815427 Y191.107034 Z-0.125000
G01 X38.999436 Y190.407371 Z-0.125000
G01 X41.913950 Y188.442736 Z-0.125000
G01 X43.386380 Y187.664730 Z-0.125000
G01 X44.873998 Y187.204223 Z-0.125000
G01 X46.361616 Y187.127653 Z-0.125000
G01 X47.742978 Y187.392051 Z-0.125000
G01 X49.200221 Y187.963815 Z-0.125000
G01 X50.566396 Y188.692264 Z-0.125000
G01 X54.118476 Y190.816125 Z-0.125000
G01 X56.137376 Y191.779340 Z-0.125000
G01 X58.156277 Y192.368063 Z-0.125000
G01 X59.112612 Y192.499826 Z-0.125000
G01 X60.175177 Y192.536814 Z-0.125000
G01 X61.981591 Y192.358088 Z-0.125000
G01 X63.894235 Y191.897979 Z-0.125000
G01 X65.806879 Y191.248480 Z-0.125000
G01 X72.501147 Y188.693455 Z-0.125000
G01 X74.945073 Y187.971593 Z-0.125000
G01 X77.389027 Y187.429357 Z-0.125000
G01 X80.364262 Y186.992134 Z-0.125000
G01 X83.658268 Y186.729879 Z-0.125000
G01 X87.696069 Y186.619283 Z-0.125000
G01 X91.840153 Y186.684741 Z-0.125000
G01 X94.284080 Y186.827378 Z-0.125000
G01 X96.515494 Y187.058412 Z-0.125000
G01 X98.534421 Y187.378504 Z-0.125000
G01 X100.447065 Y187.800752 Z-0.125000
G01 X102.253452 Y188.317245 Z-0.125000
G01 X104.059840 Y188.946714 Z-0.125000
G01 X109.479002 Y191.213449 Z-0.125000
G01 X111.285390 Y191.881760 Z-0.125000
G01 X113.198034 Y192.374254 Z-0.125000
G01 X115.004448 Y192.538296 Z-0.125000
G01 X116.704579 Y192.364544 Z-0.125000
G01 X118.404710 Y191.856545 Z-0.125000
G01 X120.332541 Y190.926059 Z-0.125000
G01 X123.975664 Y188.698588 Z-0.125000
G01 X125.524003 Y187.879492 Z-0.125000
G01 X127.224134 Y187.282513 Z-0.125000
G01 X128.074186 Y187.140326 Z-0.125000
G01 X128.818009 Y187.111116 Z-0.125000
G01 X130.093114 Y187.271321 Z-0.125000
G01 X131.474475 Y187.725372 Z-0.125000
G01 X132.901371 Y188.439164 Z-0.125000
G01 X135.906955 Y190.275450 Z-0.125000
G01 X137.182059 Y190.966302 Z-0.125000
G01 X138.593768 Y191.528727 Z-0.125000
G01 X139.868873 Y191.794685 Z-0.125000
G01 X141.356491 Y191.783282 Z-0.125000
G01 X142.844083 Y191.443637 Z-0.125000
G01 X144.377235 Y190.822634 Z-0.125000
G01 X147.747150 Y189.085858 Z-0.125000
G01 X149.219580 Y188.438476 Z-0.125000
G01 X150.813455 Y187.960957 Z-0.125000
G01 X152.407329 Y187.769399 Z-0.125000
G01 X153.788691 Y187.838243 Z-0.125000
G01 X155.170052 Y188.098725 Z-0.125000
G01 X156.763927 Y188.577700 Z-0.125000
G01 X160.482958 Y189.967687 Z-0.125000
G01 X162.289346 Y190.549161 Z-0.125000
G01 X164.308246 Y191.000936 Z-0.125000
G01 X166.327173 Y191.208846 Z-0.125000
G00 Z3.000000

(End cutting path id: polyline34314)


(Start cutting path id: polyline34312)
(Change tool to Default tool)

G00 Z3.000000
G00 X9.490017 Y187.001288

G00 Z4.875000 (Fast pre-penetrate)
G01 Z-0.125000 F400.0(Penetrate)
G01 X10.446326 Y187.091273 Z-0.125000 F800.000000
G01 X11.402661 Y187.353131 Z-0.125000
G01 X12.495601 Y187.826628 Z-0.125000
G01 X15.652976 Y189.464344 Z-0.125000
G01 X16.715567 Y189.798142 Z-0.125000
G01 X17.778159 Y189.901329 Z-0.125000
G01 X18.840725 Y189.747554 Z-0.125000
G01 X19.872969 Y189.368724 Z-0.125000
G01 X20.965908 Y188.778175 Z-0.125000
G01 X23.333952 Y187.304685 Z-0.125000
G01 X24.472427 Y186.764645 Z-0.125000
G01 X25.641275 Y186.471857 Z-0.125000
G01 X26.703840 Y186.483949 Z-0.125000
G01 X27.660176 Y186.724243 Z-0.125000
G01 X28.707580 Y187.203535 Z-0.125000
G01 X31.986399 Y189.357982 Z-0.125000
G01 X33.185595 Y190.009941 Z-0.125000
G01 X34.354443 Y190.404169 Z-0.125000
G01 X35.523291 Y190.505319 Z-0.125000
G01 X36.692113 Y190.304713 Z-0.125000
G01 X37.997566 Y189.766392 Z-0.125000
G01 X39.181601 Y189.068898 Z-0.125000
G01 X42.005019 Y187.176574 Z-0.125000
G01 X43.598894 Y186.334671 Z-0.125000
G01 X45.086511 Y185.880488 Z-0.125000
G01 X46.574129 Y185.803971 Z-0.125000
G01 X47.955491 Y186.062971 Z-0.125000
G01 X49.473456 Y186.653838 Z-0.125000
G01 X50.839631 Y187.377552 Z-0.125000
G01 X54.391710 Y189.480828 Z-0.125000
G01 X56.456146 Y190.456266 Z-0.125000
G01 X58.475046 Y191.040148 Z-0.125000
G01 X59.537638 Y191.182440 Z-0.125000
G01 X60.600230 Y191.212973 Z-0.125000
G01 X62.406617 Y191.031787 Z-0.125000
G01 X64.319261 Y190.580064 Z-0.125000
G01 X66.231905 Y189.947393 Z-0.125000
G01 X72.926173 Y187.464414 Z-0.125000
G01 X75.370126 Y186.758242 Z-0.125000
G01 X77.707796 Y186.243073 Z-0.125000
G01 X80.683032 Y185.798573 Z-0.125000
G01 X83.870781 Y185.532905 Z-0.125000
G01 X87.589812 Y185.419690 Z-0.125000
G01 X91.415101 Y185.479698 Z-0.125000
G01 X93.859054 Y185.626197 Z-0.125000
G01 X95.984211 Y185.847468 Z-0.125000
G01 X98.003111 Y186.162031 Z-0.125000
G01 X99.915756 Y186.572399 Z-0.125000
G01 X101.722169 Y187.070529 Z-0.125000
G01 X103.528557 Y187.674837 Z-0.125000
G01 X109.160233 Y189.940435 Z-0.125000
G01 X110.966620 Y190.581652 Z-0.125000
G01 X112.985521 Y191.073035 Z-0.125000
G01 X114.791908 Y191.214587 Z-0.125000
G01 X116.492039 Y191.031866 Z-0.125000
G01 X118.192197 Y190.527677 Z-0.125000
G01 X120.150375 Y189.596847 Z-0.125000
G01 X123.884594 Y187.349215 Z-0.125000
G01 X125.432934 Y186.545253 Z-0.125000
G01 X127.117878 Y185.962324 Z-0.125000
G01 X128.711752 Y185.787619 Z-0.125000
G01 X130.093114 Y185.962906 Z-0.125000
G01 X131.474475 Y186.423359 Z-0.125000
G01 X132.901371 Y187.137019 Z-0.125000
G01 X135.906955 Y188.961213 Z-0.125000
G01 X137.182059 Y189.646853 Z-0.125000
G01 X138.593768 Y190.205838 Z-0.125000
G01 X139.868873 Y190.471215 Z-0.125000
G01 X141.356491 Y190.461505 Z-0.125000
G01 X142.844083 Y190.124637 Z-0.125000
G01 X144.377235 Y189.505751 Z-0.125000
G01 X147.747150 Y187.766171 Z-0.125000
G01 X149.219580 Y187.115588 Z-0.125000
G01 X150.813455 Y186.635925 Z-0.125000
G01 X152.407329 Y186.445875 Z-0.125000
G01 X153.894947 Y186.534458 Z-0.125000
G01 X155.595078 Y186.905218 Z-0.125000
G01 X157.082696 Y187.397422 Z-0.125000
G01 X160.801728 Y188.814608 Z-0.125000
G01 X162.820628 Y189.423651 Z-0.125000
G01 X164.520786 Y189.752634 Z-0.125000
G01 X166.327173 Y189.897890 Z-0.125000
G00 Z3.000000

(End cutting path id: polyline34312)


(Start cutting path id: polyline34310)
(Change tool to Default tool)

G00 Z3.000000
G00 X9.490017 Y185.687633

G00 Z4.875000 (Fast pre-penetrate)
G01 Z-0.125000 F400.0(Penetrate)
G01 X10.446326 Y185.827915 Z-0.125000 F800.000000
G01 X11.508918 Y186.167508 Z-0.125000
G01 X14.772576 Y187.819908 Z-0.125000
G01 X15.759259 Y188.240754 Z-0.125000
G01 X16.715567 Y188.501183 Z-0.125000
G01 X17.671903 Y188.578309 Z-0.125000
G01 X18.734468 Y188.429348 Z-0.125000
G01 X19.872969 Y188.014720 Z-0.125000
G01 X23.242856 Y186.030110 Z-0.125000
G01 X24.472427 Y185.447233 Z-0.125000
G01 X25.641275 Y185.152938 Z-0.125000
G01 X26.703840 Y185.154261 Z-0.125000
G01 X27.660176 Y185.378944 Z-0.125000
G01 X28.707580 Y185.838049 Z-0.125000
G01 X32.077468 Y188.015223 Z-0.125000
G01 X33.291851 Y188.672553 Z-0.125000
G01 X34.460699 Y189.070909 Z-0.125000
G01 X35.629548 Y189.184574 Z-0.125000
G01 X36.904626 Y188.972220 Z-0.125000
G01 X38.179731 Y188.450012 Z-0.125000
G01 X39.454836 Y187.704232 Z-0.125000
G01 X42.278254 Y185.833657 Z-0.125000
G01 X43.826594 Y185.024536 Z-0.125000
G01 X45.405281 Y184.550032 Z-0.125000
G01 X46.892899 Y184.482987 Z-0.125000
G01 X48.274260 Y184.742490 Z-0.125000
G01 X49.746691 Y185.304226 Z-0.125000
G01 X51.112892 Y186.012118 Z-0.125000
G01 X54.756015 Y188.139048 Z-0.125000
G01 X56.881172 Y189.130070 Z-0.125000
G01 X58.900099 Y189.708713 Z-0.125000
G01 X59.962664 Y189.853996 Z-0.125000
G01 X61.025256 Y189.891408 Z-0.125000
G01 X62.831643 Y189.730277 Z-0.125000
G01 X64.850544 Y189.278580 Z-0.125000
G01 X66.763188 Y188.672183 Z-0.125000
G01 X73.457456 Y186.285697 Z-0.125000
G01 X75.901409 Y185.599342 Z-0.125000
G01 X78.239079 Y185.093592 Z-0.125000
G01 X81.001802 Y184.676556 Z-0.125000
G01 X84.083294 Y184.404909 Z-0.125000
G01 X87.483556 Y184.289418 Z-0.125000
G01 X90.883818 Y184.338869 Z-0.125000
G01 X95.346672 Y184.696109 Z-0.125000
G01 X97.365572 Y185.004401 Z-0.125000
G01 X99.278216 Y185.402228 Z-0.125000
G01 X102.997248 Y186.494188 Z-0.125000
G01 X108.522693 Y188.615403 Z-0.125000
G01 X110.435337 Y189.267759 Z-0.125000
G01 X112.454238 Y189.743955 Z-0.125000
G01 X114.366882 Y189.891355 Z-0.125000
G01 X116.067013 Y189.714693 Z-0.125000
G01 X117.873401 Y189.191162 Z-0.125000
G01 X119.877141 Y188.253004 Z-0.125000
G01 X123.611359 Y186.043603 Z-0.125000
G01 X125.205234 Y185.226889 Z-0.125000
G01 X127.011621 Y184.620120 Z-0.125000
G01 X128.605496 Y184.465974 Z-0.125000
G01 X129.986857 Y184.651103 Z-0.125000
G01 X131.368192 Y185.113753 Z-0.125000
G01 X132.810275 Y185.831990 Z-0.125000
G01 X136.999894 Y188.278880 Z-0.125000
G01 X138.381255 Y188.841648 Z-0.125000
G01 X139.762617 Y189.144543 Z-0.125000
G01 X141.250208 Y189.142955 Z-0.125000
G01 X142.737826 Y188.814846 Z-0.125000
G01 X144.286166 Y188.196013 Z-0.125000
G01 X147.656080 Y186.454765 Z-0.125000
G01 X149.113324 Y185.805108 Z-0.125000
G01 X150.707198 Y185.317985 Z-0.125000
G01 X152.301073 Y185.123119 Z-0.125000
G01 X153.788691 Y185.211993 Z-0.125000
G01 X155.488822 Y185.589844 Z-0.125000
G01 X156.976440 Y186.092578 Z-0.125000
G01 X160.589215 Y187.498572 Z-0.125000
G01 X162.608115 Y188.119389 Z-0.125000
G01 X164.414503 Y188.461575 Z-0.125000
G01 X166.327173 Y188.579420 Z-0.125000
G00 Z3.000000

(End cutting path id: polyline34310)


(Start cutting path id: polyline34308)
(Change tool to Default tool)

G00 Z3.000000
G00 X9.490017 Y184.394272

G00 Z4.875000 (Fast pre-penetrate)
G01 Z-0.125000 F400.0(Penetrate)
G01 X10.446326 Y184.583343 Z-0.125000 F800.000000
G01 X11.402661 Y184.914152 Z-0.125000
G01 X14.499341 Y186.457649 Z-0.125000
G01 X15.546719 Y186.900429 Z-0.125000
G01 X16.609311 Y187.184168 Z-0.125000
G01 X17.565646 Y187.255103 Z-0.125000
G01 X18.628211 Y187.110111 Z-0.125000
G01 X19.781873 Y186.703103 Z-0.125000
G01 X20.874812 Y186.132556 Z-0.125000
G01 X23.242856 Y184.709550 Z-0.125000
G01 X24.472427 Y184.134637 Z-0.125000
G01 X25.641275 Y183.836320 Z-0.125000
G01 X26.810097 Y183.836267 Z-0.125000
G01 X27.766432 Y184.063200 Z-0.125000
G01 X28.889719 Y184.556938 Z-0.125000
G01 X32.259633 Y186.708157 Z-0.125000
G01 X33.443642 Y187.339557 Z-0.125000
G01 X34.673212 Y187.752545 Z-0.125000
G01 X35.842061 Y187.861633 Z-0.125000
G01 X37.010883 Y187.683621 Z-0.125000
G01 X38.361896 Y187.159032 Z-0.125000
G01 X39.637001 Y186.433149 Z-0.125000
G01 X42.642585 Y184.474944 Z-0.125000
G01 X44.236459 Y183.667780 Z-0.125000
G01 X45.830334 Y183.215079 Z-0.125000
G01 X47.317952 Y183.164385 Z-0.125000
G01 X48.699286 Y183.428095 Z-0.125000
G01 X50.186904 Y183.990995 Z-0.125000
G01 X51.659362 Y184.746618 Z-0.125000
G01 X55.302484 Y186.834204 Z-0.125000
G01 X57.412481 Y187.797127 Z-0.125000
G01 X59.537638 Y188.391460 Z-0.125000
G01 X60.600230 Y188.531398 Z-0.125000
G01 X61.662795 Y188.568969 Z-0.125000
G01 X63.575439 Y188.404054 Z-0.125000
G01 X65.594366 Y187.969397 Z-0.125000
G01 X67.613267 Y187.357920 Z-0.125000
G01 X74.095021 Y185.165717 Z-0.125000
G01 X76.432691 Y184.531035 Z-0.125000
G01 X78.770388 Y184.033249 Z-0.125000
G01 X81.426828 Y183.630368 Z-0.125000
G01 X84.295807 Y183.366923 Z-0.125000
G01 X87.377299 Y183.251406 Z-0.125000
G01 X90.458792 Y183.292813 Z-0.125000
G01 X94.709106 Y183.633967 Z-0.125000
G01 X98.534421 Y184.301589 Z-0.125000
G01 X102.253452 Y185.337431 Z-0.125000
G01 X107.885128 Y187.367709 Z-0.125000
G01 X109.797772 Y187.978314 Z-0.125000
G01 X111.922955 Y188.442101 Z-0.125000
G01 X113.729343 Y188.569048 Z-0.125000
G01 X115.535730 Y188.389529 Z-0.125000
G01 X117.448374 Y187.843615 Z-0.125000
G01 X119.421740 Y186.938794 Z-0.125000
G01 X123.338124 Y184.674677 Z-0.125000
G01 X124.886464 Y183.901037 Z-0.125000
G01 X126.692852 Y183.302471 Z-0.125000
G01 X128.286726 Y183.142107 Z-0.125000
G01 X129.668061 Y183.312313 Z-0.125000
G01 X131.049422 Y183.754855 Z-0.125000
G01 X132.628136 Y184.526564 Z-0.125000
G01 X135.633720 Y186.319934 Z-0.125000
G01 X136.908825 Y186.995441 Z-0.125000
G01 X138.274999 Y187.536751 Z-0.125000
G01 X139.656334 Y187.827105 Z-0.125000
G01 X141.143952 Y187.815357 Z-0.125000
G01 X142.631570 Y187.480474 Z-0.125000
G01 X144.195096 Y186.850767 Z-0.125000
G01 X147.564984 Y185.107350 Z-0.125000
G01 X149.007067 Y184.466953 Z-0.125000
G01 X150.600942 Y183.984910 Z-0.125000
G01 X152.194816 Y183.798987 Z-0.125000
G01 X153.682434 Y183.899952 Z-0.125000
G01 X155.276309 Y184.263330 Z-0.125000
G01 X156.763927 Y184.773208 Z-0.125000
G01 X160.482958 Y186.242887 Z-0.125000
G01 X162.501859 Y186.855582 Z-0.125000
G01 X164.414503 Y187.185306 Z-0.125000
G01 X166.327173 Y187.248197 Z-0.125000
G00 Z3.000000

(End cutting path id: polyline34308)


(Start cutting path id: polyline34306)
(Change tool to Default tool)

G00 Z3.000000
G00 X9.490017 Y183.123851

G00 Z4.875000 (Fast pre-penetrate)
G01 Z-0.125000 F400.0(Penetrate)
G01 X10.340070 Y183.325595 Z-0.125000 F800.000000
G01 X11.296405 Y183.672331 Z-0.125000
G01 X14.317175 Y185.146799 Z-0.125000
G01 X15.334206 Y185.565396 Z-0.125000
G01 X16.396798 Y185.850458 Z-0.125000
G01 X17.459390 Y185.931738 Z-0.125000
G01 X18.628211 Y185.763728 Z-0.125000
G01 X19.781873 Y185.351190 Z-0.125000
G01 X23.333952 Y183.346735 Z-0.125000
G01 X24.578683 Y182.789153 Z-0.125000
G01 X25.747531 Y182.508616 Z-0.125000
G01 X26.916353 Y182.515230 Z-0.125000
G01 X27.872689 Y182.738538 Z-0.125000
G01 X28.980815 Y183.212274 Z-0.125000
G01 X32.441799 Y185.377013 Z-0.125000
G01 X33.716877 Y186.041328 Z-0.125000
G01 X34.991982 Y186.446246 Z-0.125000
G01 X36.160830 Y186.536469 Z-0.125000
G01 X37.435935 Y186.319484 Z-0.125000
G01 X38.726201 Y185.804659 Z-0.125000
G01 X39.910236 Y185.140317 Z-0.125000
G01 X43.006889 Y183.158352 Z-0.125000
G01 X44.555229 Y182.379235 Z-0.125000
G01 X46.149103 Y181.910923 Z-0.125000
G01 X47.742978 Y181.838427 Z-0.125000
G01 X49.124339 Y182.087003 Z-0.125000
G01 X50.718214 Y182.672869 Z-0.125000
G01 X52.205831 Y183.420501 Z-0.125000
G01 X55.940050 Y185.509887 Z-0.125000
G01 X58.050020 Y186.451908 Z-0.125000
G01 X59.218868 Y186.826928 Z-0.125000
G01 X60.281434 Y187.065000 Z-0.125000
G01 X61.344026 Y187.203853 Z-0.125000
G01 X62.512874 Y187.245974 Z-0.125000
G01 X64.425518 Y187.090982 Z-0.125000
G01 X66.444419 Y186.687069 Z-0.125000
G01 X74.945073 Y184.082382 Z-0.125000
G01 X77.282770 Y183.487070 Z-0.125000
G01 X79.514184 Y183.036459 Z-0.125000
G01 X82.064393 Y182.663767 Z-0.125000
G01 X84.720833 Y182.425590 Z-0.125000
G01 X87.377299 Y182.326318 Z-0.125000
G01 X90.140022 Y182.363254 Z-0.125000
G01 X94.071567 Y182.677817 Z-0.125000
G01 X97.684342 Y183.282442 Z-0.125000
G01 X101.297117 Y184.218483 Z-0.125000
G01 X107.035076 Y186.124513 Z-0.125000
G01 X108.947720 Y186.688075 Z-0.125000
G01 X111.072877 Y187.120747 Z-0.125000
G01 X112.985521 Y187.245683 Z-0.125000
G01 X114.898191 Y187.053437 Z-0.125000
G01 X116.810835 Y186.519482 Z-0.125000
G01 X118.875271 Y185.598866 Z-0.125000
G01 X122.791655 Y183.389598 Z-0.125000
G01 X124.461411 Y182.571137 Z-0.125000
G01 X126.161542 Y182.007522 Z-0.125000
G01 X127.011621 Y181.861843 Z-0.125000
G01 X127.861673 Y181.818451 Z-0.125000
G01 X129.243035 Y181.973497 Z-0.125000
G01 X130.730653 Y182.436332 Z-0.125000
G01 X132.263805 Y183.172957 Z-0.125000
G01 X135.360485 Y184.995961 Z-0.125000
G01 X136.726659 Y185.708271 Z-0.125000
G01 X138.168742 Y186.255825 Z-0.125000
G01 X139.443821 Y186.506730 Z-0.125000
G01 X140.931439 Y186.490669 Z-0.125000
G01 X142.419057 Y186.155019 Z-0.125000
G01 X144.012931 Y185.511871 Z-0.125000
G01 X147.291749 Y183.813857 Z-0.125000
G01 X148.794554 Y183.142239 Z-0.125000
G01 X150.388429 Y182.659481 Z-0.125000
G01 X151.982303 Y182.475702 Z-0.125000
G01 X153.469921 Y182.582434 Z-0.125000
G01 X155.063796 Y182.955735 Z-0.125000
G01 X156.445157 Y183.436667 Z-0.125000
G01 X160.164189 Y184.931376 Z-0.125000
G01 X162.183089 Y185.552193 Z-0.125000
G01 X164.201990 Y185.885489 Z-0.125000
G01 X166.327173 Y185.897818 Z-0.125000
G00 Z3.000000

(End cutting path id: polyline34306)


(Start cutting path id: polyline34304)
(Change tool to Default tool)

G00 Z3.000000
G00 X9.490017 Y181.878115

G00 Z4.875000 (Fast pre-penetrate)
G01 Z-0.125000 F400.0(Penetrate)
G01 X11.083892 Y182.397200 Z-0.125000 F800.000000
G01 X13.952845 Y183.760861 Z-0.125000
G01 X15.121693 Y184.236105 Z-0.125000
G01 X16.290541 Y184.536406 Z-0.125000
G01 X17.353133 Y184.608241 Z-0.125000
G01 X18.521955 Y184.444199 Z-0.125000
G01 X19.690803 Y184.041504 Z-0.125000
G01 X23.333952 Y182.041203 Z-0.125000
G01 X24.578683 Y181.488648 Z-0.125000
G01 X25.853788 Y181.183981 Z-0.125000
G01 X27.022610 Y181.190701 Z-0.125000
G01 X28.085202 Y181.438880 Z-0.125000
G01 X29.162954 Y181.897932 Z-0.125000
G01 X32.715034 Y184.074180 Z-0.125000
G01 X33.929417 Y184.696029 Z-0.125000
G01 X35.204495 Y185.107668 Z-0.125000
G01 X36.479600 Y185.213368 Z-0.125000
G01 X37.754705 Y185.002522 Z-0.125000
G01 X39.090532 Y184.482193 Z-0.125000
G01 X40.274540 Y183.832457 Z-0.125000
G01 X43.462289 Y181.834141 Z-0.125000
G01 X45.086511 Y181.038328 Z-0.125000
G01 X46.680386 Y180.586420 Z-0.125000
G01 X48.274260 Y180.513475 Z-0.125000
G01 X49.761878 Y180.776364 Z-0.125000
G01 X51.355753 Y181.352097 Z-0.125000
G01 X52.843371 Y182.079145 Z-0.125000
G01 X56.668659 Y184.159640 Z-0.125000
G01 X58.900099 Y185.127088 Z-0.125000
G01 X61.131512 Y185.726157 Z-0.125000
G01 X62.300361 Y185.878345 Z-0.125000
G01 X63.469183 Y185.923668 Z-0.125000
G01 X65.381853 Y185.792514 Z-0.125000
G01 X67.507010 Y185.410430 Z-0.125000
G01 X75.901409 Y183.077363 Z-0.125000
G01 X80.258006 Y182.154366 Z-0.125000
G01 X82.595676 Y181.829934 Z-0.125000
G01 X85.039603 Y181.618029 Z-0.125000
G01 X87.483556 Y181.531273 Z-0.125000
G01 X89.927483 Y181.567521 Z-0.125000
G01 X93.434028 Y181.842025 Z-0.125000
G01 X96.834290 Y182.377647 Z-0.125000
G01 X100.340808 Y183.211295 Z-0.125000
G01 X105.972484 Y184.897324 Z-0.125000
G01 X107.991384 Y185.430962 Z-0.125000
G01 X110.116568 Y185.815057 Z-0.125000
G01 X112.029212 Y185.922451 Z-0.125000
G01 X114.048112 Y185.722902 Z-0.125000
G01 X115.960757 Y185.210405 Z-0.125000
G01 X118.146635 Y184.273623 Z-0.125000
G01 X122.245185 Y182.032525 Z-0.125000
G01 X123.930129 Y181.233458 Z-0.125000
G01 X125.736516 Y180.662700 Z-0.125000
G01 X127.436647 Y180.496489 Z-0.125000
G01 X128.818009 Y180.658122 Z-0.125000
G01 X130.305627 Y181.117094 Z-0.125000
G01 X131.899501 Y181.873722 Z-0.125000
G01 X134.996154 Y183.673337 Z-0.125000
G01 X136.362328 Y184.377921 Z-0.125000
G01 X137.743690 Y184.905897 Z-0.125000
G01 X139.125051 Y185.184026 Z-0.125000
G01 X140.612669 Y185.168733 Z-0.125000
G01 X142.100287 Y184.837899 Z-0.125000
G01 X143.739696 Y184.179405 Z-0.125000
G01 X147.018515 Y182.483745 Z-0.125000
G01 X148.475785 Y181.830966 Z-0.125000
G01 X150.069659 Y181.342096 Z-0.125000
G01 X151.663534 Y181.153078 Z-0.125000
G01 X153.151152 Y181.258276 Z-0.125000
G01 X154.745026 Y181.635307 Z-0.125000
G01 X156.232644 Y182.164631 Z-0.125000
G01 X159.845419 Y183.639496 Z-0.125000
G01 X161.970576 Y184.285000 Z-0.125000
G01 X164.095733 Y184.591122 Z-0.125000
G01 X166.327173 Y184.522304 Z-0.125000
G00 Z3.000000

(End cutting path id: polyline34304)


(Start cutting path id: polyline34302)
(Change tool to Default tool)

G00 Z3.000000
G00 X9.490017 Y180.657858

G00 Z4.875000 (Fast pre-penetrate)
G01 Z-0.125000 F400.0(Penetrate)
G01 X10.977635 Y181.177816 Z-0.125000 F800.000000
G01 X13.740332 Y182.454456 Z-0.125000
G01 X14.909180 Y182.911311 Z-0.125000
G01 X16.184285 Y183.222646 Z-0.125000
G01 X17.353133 Y183.279902 Z-0.125000
G01 X18.521955 Y183.098265 Z-0.125000
G01 X19.690803 Y182.694803 Z-0.125000
G01 X23.333952 Y180.744218 Z-0.125000
G01 X24.684940 Y180.158510 Z-0.125000
G01 X25.960045 Y179.862495 Z-0.125000
G01 X27.128866 Y179.862574 Z-0.125000
G01 X28.191458 Y180.093423 Z-0.125000
G01 X29.345119 Y180.564116 Z-0.125000
G01 X32.988269 Y182.743036 Z-0.125000
G01 X34.248186 Y183.374411 Z-0.125000
G01 X35.523291 Y183.779355 Z-0.125000
G01 X36.798370 Y183.892517 Z-0.125000
G01 X38.179731 Y183.673760 Z-0.125000
G01 X39.545905 Y183.149727 Z-0.125000
G01 X40.821010 Y182.460091 Z-0.125000
G01 X43.917690 Y180.558375 Z-0.125000
G01 X45.617821 Y179.734807 Z-0.125000
G01 X47.211695 Y179.279010 Z-0.125000
G01 X48.699286 Y179.177278 Z-0.125000
G01 X50.293161 Y179.407730 Z-0.125000
G01 X51.993292 Y179.978303 Z-0.125000
G01 X53.572006 Y180.716278 Z-0.125000
G01 X57.488363 Y182.776136 Z-0.125000
G01 X59.643895 Y183.700430 Z-0.125000
G01 X61.556539 Y184.261954 Z-0.125000
G01 X63.362926 Y184.543100 Z-0.125000
G01 X65.700623 Y184.568738 Z-0.125000
G01 X68.250806 Y184.248725 Z-0.125000
G01 X70.588503 Y183.748637 Z-0.125000
G01 X77.070257 Y182.131215 Z-0.125000
G01 X81.001802 Y181.390515 Z-0.125000
G01 X84.508320 Y180.998111 Z-0.125000
G01 X88.014839 Y180.871323 Z-0.125000
G01 X91.733897 Y181.029676 Z-0.125000
G01 X95.346672 Y181.478462 Z-0.125000
G01 X98.959447 Y182.207732 Z-0.125000
G01 X106.716306 Y184.163080 Z-0.125000
G01 X108.841463 Y184.501614 Z-0.125000
G01 X110.754107 Y184.600144 Z-0.125000
G01 X112.879264 Y184.411047 Z-0.125000
G01 X115.004448 Y183.870901 Z-0.125000
G01 X117.326931 Y182.908480 Z-0.125000
G01 X121.516550 Y180.695746 Z-0.125000
G01 X123.186333 Y179.926762 Z-0.125000
G01 X125.098977 Y179.336715 Z-0.125000
G01 X126.799108 Y179.173071 Z-0.125000
G01 X128.286726 Y179.344838 Z-0.125000
G01 X129.774344 Y179.799577 Z-0.125000
G01 X131.353031 Y180.533424 Z-0.125000
G01 X134.540780 Y182.353729 Z-0.125000
G01 X135.937302 Y183.062732 Z-0.125000
G01 X137.318664 Y183.582982 Z-0.125000
G01 X138.700025 Y183.859550 Z-0.125000
G01 X140.187643 Y183.849443 Z-0.125000
G01 X141.781517 Y183.494505 Z-0.125000
G01 X143.375392 Y182.852706 Z-0.125000
G01 X146.654210 Y181.162735 Z-0.125000
G01 X148.157015 Y180.492176 Z-0.125000
G01 X149.750890 Y180.009920 Z-0.125000
G01 X151.238481 Y179.831486 Z-0.125000
G01 X152.726099 Y179.927688 Z-0.125000
G01 X154.319973 Y180.300433 Z-0.125000
G01 X155.701335 Y180.790308 Z-0.125000
G01 X159.526649 Y182.366085 Z-0.125000
G01 X161.651806 Y183.002010 Z-0.125000
G01 X162.820628 Y183.202591 Z-0.125000
G01 X163.989477 Y183.285432 Z-0.125000
G01 X165.158325 Y183.252967 Z-0.125000
G01 X166.327173 Y183.115966 Z-0.125000
G00 Z3.000000

(End cutting path id: polyline34302)


(Start cutting path id: polyline34300)
(Change tool to Default tool)

G00 Z3.000000
G00 X9.490017 Y179.462657

G00 Z4.875000 (Fast pre-penetrate)
G01 Z-0.125000 F400.0(Penetrate)
G01 X10.765122 Y179.925889 Z-0.125000 F800.000000
G01 X13.421562 Y181.110242 Z-0.125000
G01 X14.696667 Y181.591492 Z-0.125000
G01 X15.971772 Y181.894016 Z-0.125000
G01 X17.246850 Y181.955770 Z-0.125000
G01 X18.415698 Y181.779769 Z-0.125000
G01 X19.690803 Y181.352229 Z-0.125000
G01 X23.425022 Y179.411592 Z-0.125000
G01 X24.791196 Y178.837871 Z-0.125000
G01 X26.066301 Y178.544739 Z-0.125000
G01 X27.341406 Y178.542887 Z-0.125000
G01 X28.403971 Y178.770270 Z-0.125000
G01 X29.618354 Y179.254642 Z-0.125000
G01 X33.352573 Y181.431472 Z-0.125000
G01 X34.673212 Y182.071181 Z-0.125000
G01 X36.054574 Y182.479856 Z-0.125000
G01 X37.329679 Y182.566216 Z-0.125000
G01 X38.711014 Y182.336214 Z-0.125000
G01 X40.092375 Y181.811916 Z-0.125000
G01 X41.367480 Y181.138446 Z-0.125000
G01 X44.555229 Y179.234269 Z-0.125000
G01 X46.255360 Y178.430281 Z-0.125000
G01 X47.849234 Y177.973319 Z-0.125000
G01 X49.443109 Y177.853146 Z-0.125000
G01 X51.036983 Y178.063304 Z-0.125000
G01 X52.843371 Y178.636417 Z-0.125000
G01 X54.482780 Y179.370397 Z-0.125000
G01 X58.581303 Y181.436817 Z-0.125000
G01 X60.812743 Y182.353411 Z-0.125000
G01 X62.831643 Y182.923191 Z-0.125000
G01 X64.744288 Y183.212592 Z-0.125000
G01 X66.763188 Y183.270906 Z-0.125000
G01 X68.994628 Y183.093715 Z-0.125000
G01 X71.332298 Y182.719065 Z-0.125000
G01 X77.601540 Y181.414221 Z-0.125000
G01 X80.789289 Y180.864127 Z-0.125000
G01 X84.402064 Y180.462913 Z-0.125000
G01 X87.908582 Y180.333109 Z-0.125000
G01 X91.096331 Y180.445715 Z-0.125000
G01 X94.390336 Y180.790387 Z-0.125000
G01 X97.790598 Y181.366464 Z-0.125000
G01 X105.228688 Y182.918561 Z-0.125000
G01 X107.353845 Y183.198701 Z-0.125000
G01 X109.266489 Y183.276859 Z-0.125000
G01 X111.604186 Y183.073553 Z-0.125000
G01 X113.835599 Y182.528671 Z-0.125000
G01 X116.233991 Y181.580803 Z-0.125000
G01 X120.605776 Y179.369153 Z-0.125000
G01 X122.336254 Y178.601042 Z-0.125000
G01 X124.248898 Y178.025125 Z-0.125000
G01 X126.055286 Y177.850209 Z-0.125000
G01 X127.542904 Y178.013404 Z-0.125000
G01 X129.136778 Y178.487139 Z-0.125000
G01 X130.806562 Y179.253107 Z-0.125000
G01 X133.994310 Y181.041053 Z-0.125000
G01 X135.406020 Y181.744527 Z-0.125000
G01 X136.893637 Y182.287319 Z-0.125000
G01 X138.274999 Y182.544017 Z-0.125000
G01 X139.762617 Y182.519702 Z-0.125000
G01 X141.356491 Y182.157990 Z-0.125000
G01 X142.919992 Y181.530691 Z-0.125000
G01 X146.289906 Y179.804578 Z-0.125000
G01 X147.731963 Y179.166615 Z-0.125000
G01 X149.325837 Y178.685947 Z-0.125000
G01 X150.813455 Y178.508491 Z-0.125000
G01 X152.301073 Y178.606704 Z-0.125000
G01 X153.788691 Y178.951615 Z-0.125000
G01 X155.276309 Y179.480305 Z-0.125000
G01 X159.101597 Y181.071877 Z-0.125000
G01 X161.333037 Y181.726376 Z-0.125000
G01 X162.608115 Y181.917590 Z-0.125000
G01 X163.776964 Y181.964263 Z-0.125000
G01 X165.052068 Y181.880655 Z-0.125000
G01 X166.327173 Y181.674306 Z-0.125000
G00 Z3.000000

(End cutting path id: polyline34300)


(Start cutting path id: polyline34298)
(Change tool to Default tool)

G00 Z3.000000
G00 X9.490017 Y178.290872

G00 Z4.875000 (Fast pre-penetrate)
G01 Z-0.125000 F400.0(Penetrate)
G01 X14.484154 Y180.276673 Z-0.125000 F800.000000
G01 X15.865515 Y180.581843 Z-0.125000
G01 X17.140594 Y180.631505 Z-0.125000
G01 X18.415698 Y180.436402 Z-0.125000
G01 X19.690803 Y180.014709 Z-0.125000
G01 X23.516091 Y178.092170 Z-0.125000
G01 X24.897453 Y177.527338 Z-0.125000
G01 X26.278814 Y177.218861 Z-0.125000
G01 X27.553919 Y177.218332 Z-0.125000
G01 X28.722741 Y177.464923 Z-0.125000
G01 X29.891589 Y177.920614 Z-0.125000
G01 X33.716877 Y180.085379 Z-0.125000
G01 X35.098239 Y180.739931 Z-0.125000
G01 X36.479600 Y181.145696 Z-0.125000
G01 X37.860961 Y181.242798 Z-0.125000
G01 X39.242323 Y181.021950 Z-0.125000
G01 X40.623684 Y180.521915 Z-0.125000
G01 X42.005019 Y179.818944 Z-0.125000
G01 X45.283864 Y177.920456 Z-0.125000
G01 X46.999156 Y177.129670 Z-0.125000
G01 X48.699286 Y176.652098 Z-0.125000
G01 X50.399444 Y176.531210 Z-0.125000
G01 X52.099575 Y176.757957 Z-0.125000
G01 X53.905962 Y177.314428 Z-0.125000
G01 X55.575719 Y178.027823 Z-0.125000
G01 X59.765338 Y180.040295 Z-0.125000
G01 X62.087848 Y180.958927 Z-0.125000
G01 X64.213005 Y181.547095 Z-0.125000
G01 X66.338162 Y181.871579 Z-0.125000
G01 X68.357063 Y181.954500 Z-0.125000
G01 X70.694759 Y181.830490 Z-0.125000
G01 X73.032429 Y181.545190 Z-0.125000
G01 X78.876645 Y180.607640 Z-0.125000
G01 X81.745597 Y180.223889 Z-0.125000
G01 X84.933346 Y179.949675 Z-0.125000
G01 X87.908582 Y179.866887 Z-0.125000
G01 X90.671305 Y179.947770 Z-0.125000
G01 X93.434028 Y180.175708 Z-0.125000
G01 X96.409237 Y180.563613 Z-0.125000
G01 X103.528557 Y181.698463 Z-0.125000
G01 X105.653714 Y181.906478 Z-0.125000
G01 X107.460102 Y181.952542 Z-0.125000
G01 X110.010311 Y181.738044 Z-0.125000
G01 X112.454238 Y181.170752 Z-0.125000
G01 X115.004448 Y180.211056 Z-0.125000
G01 X119.603906 Y177.997952 Z-0.125000
G01 X121.379919 Y177.251087 Z-0.125000
G01 X123.292590 Y176.702554 Z-0.125000
G01 X125.098977 Y176.526500 Z-0.125000
G01 X126.692852 Y176.688848 Z-0.125000
G01 X128.286726 Y177.143534 Z-0.125000
G01 X130.077926 Y177.941014 Z-0.125000
G01 X133.356745 Y179.738352 Z-0.125000
G01 X134.768480 Y180.425739 Z-0.125000
G01 X136.256072 Y180.959509 Z-0.125000
G01 X137.637433 Y181.217318 Z-0.125000
G01 X139.231308 Y181.191151 Z-0.125000
G01 X140.825182 Y180.827270 Z-0.125000
G01 X142.464591 Y180.168908 Z-0.125000
G01 X145.743436 Y178.498225 Z-0.125000
G01 X147.200680 Y177.853675 Z-0.125000
G01 X148.794554 Y177.369435 Z-0.125000
G01 X150.282172 Y177.186317 Z-0.125000
G01 X151.769790 Y177.278948 Z-0.125000
