%
(Header)
(Generated by gcodetools from Inkscape.)
(Using default header. To add your own header create file "header" in the output dir.)
M3
(Header end.)
G21 (All units in mm)

(Start cutting path id: path94447)
(Change tool to Default tool)

G00 Z3.000000
G00 X53.035861 Y221.917084

G00 Z4.875000 (Fast pre-penetrate)
G01 Z-0.125000 F400.0(Penetrate)
G02 X53.032292 Y221.929080 Z-0.125000 I0.064170 J0.025624 F800.000000
G01 X53.031390 Y221.939732 Z-0.125000
G01 X53.032967 Y221.950236 Z-0.125000
G01 X53.037025 Y221.959973 Z-0.125000
G01 X53.043364 Y221.968489 Z-0.125000
G02 X53.052900 Y221.976747 Z-0.125000 I0.043658 J-0.040779
G02 X53.063904 Y221.983138 Z-0.125000 I0.045392 J-0.065484
G02 X53.078856 Y221.988998 Z-0.125000 I0.047650 J-0.099592
G02 X53.094490 Y221.992975 Z-0.125000 I0.044661 J-0.142840
G02 X53.114318 Y221.995877 Z-0.125000 I0.038989 J-0.197204
G02 X53.134361 Y221.997054 Z-0.125000 I0.024440 J-0.244885
G02 X53.158427 Y221.996670 Z-0.125000 I0.006363 J-0.356047
G02 X53.182437 Y221.994702 Z-0.125000 I-0.018652 J-0.374912
G02 X53.209994 Y221.990744 Z-0.125000 I-0.055018 J-0.480949
G02 X53.237310 Y221.985341 Z-0.125000 I-0.100015 J-0.577396
G02 X53.267543 Y221.977779 Z-0.125000 I-0.130039 J-0.584159
G02 X53.297391 Y221.968802 Z-0.125000 I-0.197974 J-0.712326
G02 X53.329345 Y221.957592 Z-0.125000 I-0.215880 J-0.666481
G02 X53.360785 Y221.944996 Z-0.125000 I-0.291909 J-0.774192
G02 X53.393453 Y221.930242 Z-0.125000 I-0.308304 J-0.726163
G02 X53.425452 Y221.914102 Z-0.125000 I-0.388645 J-0.810345
G02 X53.457763 Y221.896005 Z-0.125000 I-0.368856 J-0.696426
G02 X53.489239 Y221.876512 Z-0.125000 I-0.442629 J-0.749932
G02 X53.520141 Y221.855380 Z-0.125000 I-0.423211 J-0.652028
G02 X53.550029 Y221.832825 Z-0.125000 I-0.503286 J-0.697987
G02 X53.578497 Y221.809081 Z-0.125000 I-0.426490 J-0.540283
G02 X53.605687 Y221.783893 Z-0.125000 I-0.487510 J-0.553519
G02 X53.630652 Y221.758035 Z-0.125000 I-0.409407 J-0.420249
G02 X53.654021 Y221.730729 Z-0.125000 I-0.449699 J-0.408510
G02 X53.674480 Y221.703356 Z-0.125000 I-0.365424 J-0.294463
G02 X53.692920 Y221.674581 Z-0.125000 I-0.398457 J-0.275637
G02 X53.707966 Y221.646331 Z-0.125000 I-0.304452 J-0.180279
G02 X53.720425 Y221.616876 Z-0.125000 I-0.324443 J-0.154604
G02 X53.729238 Y221.588384 Z-0.125000 I-0.251151 J-0.093295
G02 X53.734828 Y221.559148 Z-0.125000 I-0.260730 J-0.065003
G02 X53.736646 Y221.531052 Z-0.125000 I-0.202753 J-0.027229
G02 X53.734736 Y221.503053 Z-0.125000 I-0.218836 J0.000865
G02 X53.728788 Y221.475942 Z-0.125000 I-0.164580 J0.021899
G02 X53.718921 Y221.450074 Z-0.125000 I-0.185298 J0.055866
G02 X53.704552 Y221.424695 Z-0.125000 I-0.167153 J0.077877
G02 X53.686618 Y221.401687 Z-0.125000 I-0.178606 J0.120727
G02 X53.663177 Y221.378938 Z-0.125000 I-0.172651 J0.154452
G02 X53.636989 Y221.359328 Z-0.125000 I-0.185024 J0.219803
G02 X53.604275 Y221.340237 Z-0.125000 I-0.182167 J0.274579
G02 X53.569719 Y221.324593 Z-0.125000 I-0.187128 J0.367358
G02 X53.527869 Y221.310070 Z-0.125000 I-0.181987 J0.456843
G02 X53.484932 Y221.298986 Z-0.125000 I-0.174406 J0.586947
G02 X53.434379 Y221.289750 Z-0.125000 I-0.154680 J0.703617
G02 X53.383273 Y221.283808 Z-0.125000 I-0.126914 J0.868923
G02 X53.324627 Y221.280436 Z-0.125000 I-0.087444 J1.009132
G02 X53.265841 Y221.280231 Z-0.125000 I-0.033756 J1.246108
G02 X53.199964 Y221.283082 Z-0.125000 I0.028562 J1.422194
G02 X53.134243 Y221.288904 Z-0.125000 I0.107714 J1.589841
G02 X53.062190 Y221.298296 Z-0.125000 I0.192350 J1.756775
G02 X52.990522 Y221.310502 Z-0.125000 I0.303633 J1.999325
G02 X52.913545 Y221.326519 Z-0.125000 I0.394790 J2.090303
G02 X52.837150 Y221.345238 Z-0.125000 I0.528861 J2.323609
G02 X52.756686 Y221.367865 Z-0.125000 I0.612319 J2.331788
G02 X52.676986 Y221.393117 Z-0.125000 I0.765137 J2.553297
G02 X52.594635 Y221.422163 Z-0.125000 I0.835679 J2.500637
G02 X52.513226 Y221.453815 Z-0.125000 I1.010803 J2.720291
G02 X52.430712 Y221.488944 Z-0.125000 I1.015263 J2.499219
G02 X52.349344 Y221.526696 Z-0.125000 I1.183343 J2.657024
G02 X52.268483 Y221.567461 Z-0.125000 I1.149969 J2.381636
G02 X52.189008 Y221.610896 Z-0.125000 I1.307894 J2.487561
G02 X52.111660 Y221.656697 Z-0.125000 I1.209884 J2.131451
G02 X52.035997 Y221.705249 Z-0.125000 I1.347904 J2.183768
G02 X51.964017 Y221.755384 Z-0.125000 I1.195912 J1.793756
G02 X51.894155 Y221.808352 Z-0.125000 I1.289505 J1.773344
G02 X51.829294 Y221.862024 Z-0.125000 I1.156270 J1.463341
G02 X51.767015 Y221.918558 Z-0.125000 I1.187664 J1.370937
G02 X51.710605 Y221.974911 Z-0.125000 I1.115672 J1.173207
G02 X51.657031 Y222.034073 Z-0.125000 I1.137275 J1.083687
G02 X51.610031 Y222.092127 Z-0.125000 I0.947017 J0.814749
G02 X51.566641 Y222.152902 Z-0.125000 I0.971152 J0.739225
G02 X51.530416 Y222.211623 Z-0.125000 I0.782294 J0.523139
G02 X51.498682 Y222.272841 Z-0.125000 I0.788019 J0.447322
G02 X51.474364 Y222.331238 Z-0.125000 I0.627800 J0.295694
G02 X51.455585 Y222.391574 Z-0.125000 I0.624609 J0.227495
G02 X51.444130 Y222.448737 Z-0.125000 I0.500301 J0.129984
G02 X51.439261 Y222.506740 Z-0.125000 I0.498775 J0.071077
G02 X51.441484 Y222.561844 Z-0.125000 I0.416188 J0.010804
G02 X51.451056 Y222.616078 Z-0.125000 I0.415529 J-0.045372
G02 X51.467956 Y222.668280 Z-0.125000 I0.367899 J-0.090269
G02 X51.491994 Y222.717595 Z-0.125000 I0.376034 J-0.152778
G02 X51.524338 Y222.765803 Z-0.125000 I0.361083 J-0.207310
G02 X51.562764 Y222.809407 Z-0.125000 I0.373709 J-0.290595
G02 X51.610947 Y222.852229 Z-0.125000 I0.377789 J-0.376567
G02 X51.663691 Y222.889464 Z-0.125000 I0.387761 J-0.493297
G02 X51.727509 Y222.925492 Z-0.125000 I0.397004 J-0.628695
G02 X51.794416 Y222.955624 Z-0.125000 I0.395960 J-0.789863
G02 X51.873151 Y222.983652 Z-0.125000 I0.392912 J-0.979134
G02 X51.953784 Y223.005869 Z-0.125000 I0.374119 J-1.200407
G02 X52.046382 Y223.024951 Z-0.125000 I0.341092 J-1.420947
G02 X52.139986 Y223.038462 Z-0.125000 I0.293605 J-1.703126
G02 X52.245184 Y223.047838 Z-0.125000 I0.225571 J-1.936109
G02 X52.350803 Y223.051928 Z-0.125000 I0.141384 J-2.285084
G02 X52.467164 Y223.051065 Z-0.125000 I0.039463 J-2.525804
G02 X52.583421 Y223.045133 Z-0.125000 I-0.088745 J-2.881462
G02 X52.709088 Y223.033577 Z-0.125000 I-0.218518 J-3.065105
G02 X52.834252 Y223.017169 Z-0.125000 I-0.390427 J-3.463914
G02 X52.967152 Y222.994717 Z-0.125000 I-0.527391 J-3.526410
G02 X53.099196 Y222.967538 Z-0.125000 I-0.736059 J-3.910284
G02 X53.237034 Y222.934146 Z-0.125000 I-0.872657 J-3.903475
G02 X53.373687 Y222.896102 Z-0.125000 I-1.103608 J-4.228575
G02 X53.513981 Y222.851938 Z-0.125000 I-1.211664 J-4.093911
G02 X53.652756 Y222.803138 Z-0.125000 I-1.461773 J-4.378691
G02 X53.792881 Y222.748581 Z-0.125000 I-1.514114 J-4.096067
G02 X53.931127 Y222.689373 Z-0.125000 I-1.762498 J-4.306300
G02 X54.068362 Y222.625029 Z-0.125000 I-1.756840 J-3.925549
G02 X54.203317 Y222.555989 Z-0.125000 I-1.984936 J-4.046431
G02 X54.334916 Y222.482691 Z-0.125000 I-1.915422 J-3.593760
G02 X54.463765 Y222.404636 Z-0.125000 I-2.109436 J-3.627502
G02 X54.587006 Y222.323444 Z-0.125000 I-1.975486 J-3.132703
G02 X54.706942 Y222.237436 Z-0.125000 I-2.124217 J-3.088822
G02 X54.819206 Y222.149629 Z-0.125000 I-1.942867 J-2.599675
G02 X54.927413 Y222.056991 Z-0.125000 I-2.017975 J-2.466652
G02 X55.026332 Y221.964008 Z-0.125000 I-1.879703 J-2.098805
G02 X55.120282 Y221.866376 Z-0.125000 I-1.825458 J-1.850630
G02 X55.204370 Y221.769706 Z-0.125000 I-1.954022 J-1.784611
G02 X55.283625 Y221.668722 Z-0.125000 I-1.880197 J-1.557221
G02 X55.352629 Y221.570028 Z-0.125000 I-1.669217 J-1.240539
G02 X55.415682 Y221.467406 Z-0.125000 I-1.663066 J-1.092498
G02 X55.467874 Y221.368585 Z-0.125000 I-1.394220 J-0.799542
G02 X55.512893 Y221.266343 Z-0.125000 I-1.382278 J-0.669678
G02 X55.546809 Y221.169208 Z-0.125000 I-1.126034 J-0.447665
G02 X55.572157 Y221.069578 Z-0.125000 I-1.106418 J-0.334533
G02 X55.586566 Y220.975854 Z-0.125000 I-0.891273 J-0.184987
G02 X55.590968 Y220.881260 Z-0.125000 I-0.874734 J-0.088104
G02 X55.584714 Y220.792521 Z-0.125000 I-0.706728 J0.005217
G02 X55.567497 Y220.705393 Z-0.125000 I-0.703254 J0.093695
G02 X55.539544 Y220.623162 Z-0.125000 I-0.600673 J0.158324
G02 X55.500680 Y220.545578 Z-0.125000 I-0.599239 J0.251646
G02 X55.449877 Y220.471572 Z-0.125000 I-0.550132 J0.323213
G02 X55.389628 Y220.404974 Z-0.125000 I-0.554146 J0.440770
G02 X55.315321 Y220.341275 Z-0.125000 I-0.539924 J0.554651
G02 X55.233927 Y220.286699 Z-0.125000 I-0.538406 J0.714979
G02 X55.136304 Y220.235442 Z-0.125000 I-0.537328 J0.904798
G02 X55.034029 Y220.193835 Z-0.125000 I-0.516418 J1.122898
G02 X54.914125 Y220.156766 Z-0.125000 I-0.502532 J1.413039
G02 X54.791587 Y220.129090 Z-0.125000 I-0.448924 J1.702570
G02 X54.651024 Y220.107397 Z-0.125000 I-0.395649 J2.097431
G02 X54.509334 Y220.094471 Z-0.125000 I-0.294401 J2.444006
G02 X54.350071 Y220.088850 Z-0.125000 I-0.184489 J2.968212
G02 X54.190552 Y220.091339 Z-0.125000 I-0.025862 J3.455173
G02 X54.014747 Y220.102052 Z-0.125000 I0.153655 J3.969257
G02 X53.839441 Y220.120173 Z-0.125000 I0.366133 J4.399278
G02 X53.650040 Y220.147166 Z-0.125000 I0.630489 J5.101724
G02 X53.461653 Y220.180930 Z-0.125000 I0.888458 J5.499739
G02 X53.261992 Y220.223663 Z-0.125000 I1.208533 J6.134411
G02 X53.063726 Y220.272702 Z-0.125000 I1.502273 J6.499090
G02 X52.857487 Y220.330374 Z-0.125000 I1.832798 J6.951698
G02 X52.652962 Y220.394024 Z-0.125000 I2.148789 J7.265101
G02 X52.444119 Y220.465560 Z-0.125000 I2.420479 J7.406982
G02 X52.237306 Y220.542879 Z-0.125000 I2.743759 J7.654300
G02 X52.030033 Y220.626977 Z-0.125000 I2.879176 J7.393641
G02 X51.825148 Y220.716795 Z-0.125000 I3.195341 J7.567574
G02 X51.623721 Y220.811968 Z-0.125000 I3.149853 J6.927139
G02 X51.425128 Y220.912930 Z-0.125000 I3.438368 J7.009078
G02 X51.233816 Y221.017563 Z-0.125000 I3.200747 J6.079562
G02 X51.045907 Y221.128162 Z-0.125000 I3.441628 J6.062242
G02 X50.868837 Y221.240537 Z-0.125000 I3.054406 J5.008556
G02 X50.695923 Y221.359149 Z-0.125000 I3.232541 J4.897793
G02 X50.536959 Y221.477492 Z-0.125000 I2.758397 J3.871107
G02 X50.383235 Y221.602364 Z-0.125000 I2.842381 J3.656193
G02 X50.245775 Y221.724904 Z-0.125000 I2.432596 J2.867149
G02 X50.115267 Y221.854003 Z-0.125000 I2.288247 J2.443738
G02 X50.001290 Y221.979094 Z-0.125000 I2.499317 J2.391731
G02 X49.893805 Y222.110251 Z-0.125000 I2.288776 J1.985303
G02 X49.802538 Y222.235912 Z-0.125000 I2.021946 J1.564514
G02 X49.719380 Y222.367105 Z-0.125000 I1.955441 J1.331428
G02 X49.652578 Y222.491240 Z-0.125000 I1.581472 J0.931099
G02 X49.595914 Y222.620175 Z-0.125000 I1.535389 J0.751675
G02 X49.555243 Y222.741046 Z-0.125000 I1.230713 J0.481400
G02 X49.526867 Y222.865188 Z-0.125000 I1.191073 J0.337562
G02 X49.513589 Y222.981361 Z-0.125000 I0.969102 J0.169605
G02 X49.514526 Y223.098098 Z-0.125000 I0.935708 J0.050862
G02 X49.529835 Y223.208331 Z-0.125000 I0.821307 J-0.057878
G02 X49.560026 Y223.315354 Z-0.125000 I0.797575 J-0.167224
G02 X49.605233 Y223.418233 Z-0.125000 I0.748035 J-0.267332
G02 X49.664121 Y223.514023 Z-0.125000 I0.749648 J-0.394858
G02 X49.740094 Y223.607513 Z-0.125000 I0.758477 J-0.538747
G02 X49.827067 Y223.691134 Z-0.125000 I0.765283 J-0.708919
G02 X49.933689 Y223.772795 Z-0.125000 I0.804572 J-0.940067
G02 X50.048210 Y223.843337 Z-0.125000 I0.803738 J-1.176590
G02 X50.184239 Y223.910921 Z-0.125000 I0.839744 J-1.519511
G02 X50.325476 Y223.967258 Z-0.125000 I0.815292 J-1.838732
G02 X50.488890 Y224.018966 Z-0.125000 I0.814255 J-2.289234
G02 X50.655468 Y224.059835 Z-0.125000 I0.751461 J-2.702917
G02 X50.843736 Y224.094284 Z-0.125000 I0.686988 J-3.222775
G02 X51.033564 Y224.118432 Z-0.125000 I0.570768 J-3.728728
G02 X51.243899 Y224.134559 Z-0.125000 I0.432442 J-4.260262
G02 X51.454928 Y224.140931 Z-0.125000 I0.252403 J-4.861467
G02 X51.684588 Y224.137946 Z-0.125000 I0.045406 J-5.342200
G02 X51.914049 Y224.125626 Z-0.125000 I-0.207015 J-5.998764
G02 X52.159337 Y224.102958 Z-0.125000 I-0.462358 J-6.341426
G02 X52.403677 Y224.071240 Z-0.125000 I-0.785849 J-7.010825
G02 X52.660402 Y224.028567 Z-0.125000 I-1.046404 J-7.088959
G02 X52.915544 Y223.977016 Z-0.125000 I-1.433403 J-7.751477
G02 X53.179199 Y223.914352 Z-0.125000 I-1.661688 J-7.577454
G02 X53.440647 Y223.842868 Z-0.125000 I-2.089627 J-8.156490
G02 X53.706436 Y223.760577 Z-0.125000 I-2.250639 J-7.739621
G02 X53.969364 Y223.669438 Z-0.125000 I-2.688777 J-8.181776
G02 X54.232287 Y223.568278 Z-0.125000 I-2.763512 J-7.574800
G02 X54.491638 Y223.458197 Z-0.125000 I-3.177429 J-7.846633
G02 X54.746605 Y223.339363 Z-0.125000 I-3.154649 J-7.101447
G02 X54.997192 Y223.211506 Z-0.125000 I-3.513541 J-7.195674
G02 X55.239142 Y223.076640 Z-0.125000 I-3.399783 J-6.383694
G02 X55.475785 Y222.932645 Z-0.125000 I-3.677632 J-6.310323
G02 X55.699820 Y222.783834 Z-0.125000 I-3.479973 J-5.482152
G02 X55.917467 Y222.625824 Z-0.125000 I-3.665617 J-5.278020
G02 X56.119002 Y222.465570 Z-0.125000 I-3.397134 J-4.479057
G02 X56.312803 Y222.296146 Z-0.125000 I-3.479493 J-4.175695
G02 X56.487735 Y222.127292 Z-0.125000 I-3.203047 J-3.493397
G02 X56.652528 Y221.949843 Z-0.125000 I-2.978303 J-2.931121
G02 X56.798517 Y221.775125 Z-0.125000 I-3.659767 J-3.206329
G02 X56.935728 Y221.592811 Z-0.125000 I-3.246876 J-2.586415
G02 X57.055144 Y221.415001 Z-0.125000 I-3.323172 J-2.360826
G02 X57.164814 Y221.230641 Z-0.125000 I-3.178150 J-2.015375
G02 X57.256291 Y221.053234 Z-0.125000 I-2.720475 J-1.515056
G02 X57.335897 Y220.870229 Z-0.125000 I-2.673230 J-1.271659
G02 X57.396851 Y220.696674 Z-0.125000 I-2.202429 J-0.870987
G02 X57.443769 Y220.518918 Z-0.125000 I-2.150428 J-0.662674
G02 X57.472243 Y220.352414 Z-0.125000 I-1.725110 J-0.380704
G02 X57.484327 Y220.184119 Z-0.125000 I-1.678341 J-0.205089
G02 X57.478593 Y220.027623 Z-0.125000 I-1.341561 J-0.029200
G02 X57.454516 Y219.873147 Z-0.125000 I-1.306189 J0.124472
G02 X57.412845 Y219.729366 Z-0.125000 I-1.078447 J0.234637
G02 X57.352397 Y219.592641 Z-0.125000 I-1.059573 J0.386727
G02 X57.273007 Y219.464376 Z-0.125000 I-0.933358 J0.488996
G02 X57.176762 Y219.348245 Z-0.125000 I-0.924660 J0.668380
G02 X57.058282 Y219.238837 Z-0.125000 I-0.874487 J0.828141
G02 X56.926844 Y219.145079 Z-0.125000 I-0.859394 J1.065763
G02 X56.769217 Y219.058135 Z-0.125000 I-0.846620 J1.348534
G02 X56.603078 Y218.988126 Z-0.125000 I-0.801337 J1.669540
G02 X56.407837 Y218.926642 Z-0.125000 I-0.779918 J2.135879
G02 X56.207875 Y218.881671 Z-0.125000 I-0.678652 J2.550497
G02 X55.977744 Y218.847543 Z-0.125000 I-0.600190 J3.254237
G02 X55.745810 Y218.828648 Z-0.125000 I-0.422489 J3.753054
G02 X55.484146 Y218.822698 Z-0.125000 I-0.238023 J4.711562
G02 X55.222206 Y218.830478 Z-0.125000 I0.023752 J5.213490
G02 X54.932382 Y218.852755 Z-0.125000 I0.363891 J6.630622
G02 X54.643460 Y218.887257 Z-0.125000 I0.707306 J7.149990
G02 X54.330310 Y218.936832 Z-0.125000 I1.227890 J8.770113
G02 X54.018928 Y218.997311 Z-0.125000 I1.630133 J9.224704
G02 X53.688357 Y219.072600 Z-0.125000 I2.317044 J10.936778
G02 X53.360059 Y219.157727 Z-0.125000 I2.748043 J11.273622
G02 X53.018486 Y219.256604 Z-0.125000 I3.505075 J12.747775
G02 X52.679584 Y219.364544 Z-0.125000 I3.945590 J12.974095
G02 X52.333946 Y219.484497 Z-0.125000 I4.591040 J13.786708
G02 X51.991362 Y219.613041 Z-0.125000 I5.043197 J13.961483
G02 X51.648933 Y219.751313 Z-0.125000 I5.364257 J13.777653
G02 X51.310012 Y219.898013 Z-0.125000 I5.828254 J13.929938
G02 X50.978194 Y220.051739 Z-0.125000 I5.690179 J12.717183
G02 X50.650502 Y220.214025 Z-0.125000 I6.143954 J12.818045
G02 X50.336601 Y220.380343 Z-0.125000 I5.560694 J10.874328
G02 X50.027690 Y220.555626 Z-0.125000 I5.959401 J10.862453
G02 X49.738686 Y220.731755 Z-0.125000 I5.074410 J8.651626
G02 X49.455872 Y220.917473 Z-0.125000 I5.366595 J8.480523
G02 X49.198164 Y221.100766 Z-0.125000 I4.380849 J6.432228
G02 X48.948325 Y221.294386 Z-0.125000 I4.543132 J6.120285
G02 X48.727505 Y221.482355 Z-0.125000 I3.621130 J4.477646
G02 X48.518003 Y221.681067 Z-0.125000 I3.373634 J3.766638
G02 X48.337449 Y221.871658 Z-0.125000 I3.734499 J3.718645
G02 X48.167618 Y222.072115 Z-0.125000 I3.194737 J2.878818
G02 X48.024305 Y222.262714 Z-0.125000 I3.379631 J2.690351
G02 X47.892248 Y222.461853 Z-0.125000 I3.085454 J2.189434
G02 X47.785738 Y222.649174 Z-0.125000 I2.479493 J1.533770
G02 X47.694041 Y222.843936 Z-0.125000 I2.385094 J1.241917
G02 X47.627163 Y223.025430 Z-0.125000 I1.898019 J0.802458
G02 X47.578391 Y223.212294 Z-0.125000 I1.813350 J0.573083
G02 X47.552834 Y223.386128 Z-0.125000 I1.470496 J0.304993
G02 X47.548374 Y223.561460 Z-0.125000 I1.409655 J0.123581
G02 X47.565745 Y223.726199 Z-0.125000 I1.209600 J-0.044267
G02 X47.605478 Y223.886841 Z-0.125000 I1.179381 J-0.206473
G02 X47.667504 Y224.040836 Z-0.125000 I1.109631 J-0.357445
G02 X47.750319 Y224.184851 Z-0.125000 I1.103458 J-0.538722
G02 X47.858329 Y224.325504 Z-0.125000 I1.129381 J-0.755475
G02 X47.983142 Y224.451909 Z-0.125000 I1.134791 J-0.995670
G02 X48.136954 Y224.575894 Z-0.125000 I1.214733 J-1.349556
G02 X48.302880 Y224.683724 Z-0.125000 I1.212276 J-1.683860
G02 X48.500607 Y224.787923 Z-0.125000 I1.293904 J-2.215582
G02 X48.706394 Y224.875794 Z-0.125000 I1.262200 J-2.671076
G02 X48.944982 Y224.957719 Z-0.125000 I1.291818 J-3.373736
G02 X49.188598 Y225.023940 Z-0.125000 I1.209784 J-3.969380
G02 X49.464255 Y225.081629 Z-0.125000 I1.142979 J-4.774126
G02 X49.742549 Y225.124388 Z-0.125000 I0.988920 J-5.509232
G02 X50.051087 Y225.156265 Z-0.125000 I0.808619 J-6.317600
G02 X50.360866 Y225.173982 Z-0.125000 I0.568195 J-7.217752
G02 X50.698419 Y225.178834 Z-0.125000 I0.282511 J-7.910102
G02 X51.036210 Y225.170116 Z-0.125000 I-0.063784 J-9.019359
G02 X51.397958 Y225.146936 Z-0.125000 I-0.414866 J-9.308861
G02 X51.758703 Y225.110489 Z-0.125000 I-0.872040 J-10.434915
G02 X52.138330 Y225.058441 Z-0.125000 I-1.235927 J-10.424963
G02 X52.516000 Y224.993240 Z-0.125000 I-1.792967 J-11.512028
G02 X52.906803 Y224.911933 Z-0.125000 I-2.098374 J-11.065750
G02 X53.294694 Y224.817409 Z-0.125000 I-2.726800 J-12.032919
G02 X53.689461 Y224.706940 Z-0.125000 I-2.932078 J-11.238451
G02 X54.080304 Y224.583076 Z-0.125000 I-3.582592 J-11.983150
G02 X54.471462 Y224.444148 Z-0.125000 I-3.667468 J-10.946081
G02 X54.857573 Y224.291592 Z-0.125000 I-4.287149 J-11.415461
G02 X55.237356 Y224.125627 Z-0.125000 I-4.250716 J-10.244542
G02 X55.610819 Y223.945791 Z-0.125000 I-4.785297 J-10.415266
G02 X55.971470 Y223.754973 Z-0.125000 I-4.637705 J-9.201612
G02 X56.324348 Y223.550087 Z-0.125000 I-5.048034 J-9.100635
G02 X56.658365 Y223.337397 Z-0.125000 I-4.809660 J-7.921909
G02 X56.982920 Y223.110534 Z-0.125000 I-5.074258 J-7.604945
G02 X57.283292 Y222.879695 Z-0.125000 I-4.753049 J-6.495573
G02 X57.572230 Y222.634750 Z-0.125000 I-4.873837 J-6.042104
G02 X57.832682 Y222.390137 Z-0.125000 I-4.489665 J-5.041339
G02 X58.078055 Y222.132271 Z-0.125000 I-4.217047 J-4.258425
G02 X58.294594 Y221.878222 Z-0.125000 I-4.967039 J-4.452950
G02 X58.496287 Y221.612849 Z-0.125000 I-4.186546 J-3.391267
G02 X58.672709 Y221.353117 Z-0.125000 I-5.735935 J-4.085902
G02 X58.837146 Y221.083924 Z-0.125000 I-5.089856 J-3.293941
G02 X58.977440 Y220.823068 Z-0.125000 I-4.443007 J-2.557713
G02 X59.102114 Y220.554365 Z-0.125000 I-4.394875 J-2.202430
G02 X59.201473 Y220.297989 Z-0.125000 I-3.658082 J-1.565141
G02 X59.282470 Y220.035303 Z-0.125000 I-3.596776 J-1.252859
G02 X59.337839 Y219.788381 Z-0.125000 I-2.881997 J-0.775925
G02 X59.371621 Y219.537792 Z-0.125000 I-2.815898 J-0.507180
G02 X59.380294 Y219.305099 Z-0.125000 I-2.207902 J-0.198804
G02 X59.364168 Y219.073147 Z-0.125000 I-2.152120 J0.033086
G02 X59.323623 Y218.859057 Z-0.125000 I-1.698058 J0.210699
G02 X59.256357 Y218.652225 Z-0.125000 I-1.658208 J0.424927
G02 X59.163963 Y218.460860 Z-0.125000 I-1.376460 J0.546589
G02 X59.045903 Y218.284445 Z-0.125000 I-1.351481 J0.776727
G02 X58.899092 Y218.120365 Z-0.125000 I-1.210901 J0.935740
G02 X58.731211 Y217.977737 Z-0.125000 I-1.185682 J1.225492
G02 X58.528684 Y217.846218 Z-0.125000 I-1.132766 J1.522656
G02 X58.311668 Y217.739462 Z-0.125000 I-1.075768 J1.912896
G02 X58.054527 Y217.645413 Z-0.125000 I-1.042635 J2.452114
G02 X57.789163 Y217.576225 Z-0.125000 I-0.914953 J2.965756
G02 X57.480694 Y217.522905 Z-0.125000 I-0.825532 J3.856971
G02 X57.168911 Y217.492613 Z-0.125000 I-0.593425 J4.488213
G02 X56.813643 Y217.481339 Z-0.125000 I-0.362232 J5.811448
G02 X56.458077 Y217.490619 Z-0.125000 I-0.007308 J6.536885
G02 X56.060608 Y217.521199 Z-0.125000 I0.452215 J8.476099
G02 X55.664170 Y217.569785 Z-0.125000 I0.921180 J9.158092
G02 X55.230209 Y217.640621 Z-0.125000 I1.733223 J11.982828
G02 X54.798769 Y217.726915 Z-0.125000 I2.257250 J12.407162
G02 X54.337001 Y217.834783 Z-0.125000 I3.455919 J15.836673
G02 X53.878364 Y217.956068 Z-0.125000 I3.973331 J15.952763
G02 X53.398136 Y218.096945 Z-0.125000 I5.445542 J19.452074
G02 X52.921416 Y218.249720 Z-0.125000 I5.929153 J19.321537
G02 X52.432927 Y218.419066 Z-0.125000 I7.319348 J21.902222
G02 X51.948281 Y218.599333 Z-0.125000 I7.808815 J21.735595
G02 X51.462323 Y218.792414 Z-0.125000 I8.612394 J22.384262
G02 X50.980656 Y218.995995 Z-0.125000 I9.189402 J22.413437
G02 X50.508279 Y219.208167 Z-0.125000 I9.010845 J20.693637
G02 X50.040892 Y219.430979 Z-0.125000 I9.689045 J20.925991
G02 X49.593041 Y219.657918 Z-0.125000 I8.546144 J17.420721
G02 X49.151244 Y219.896167 Z-0.125000 I9.220607 J17.626993
G02 X48.738351 Y220.134009 Z-0.125000 I7.501429 J13.499792
G02 X48.333099 Y220.384280 Z-0.125000 I8.036888 J13.466980
G02 X47.964686 Y220.629676 Z-0.125000 I6.212458 J9.726001
G02 X47.606214 Y220.888915 Z-0.125000 I6.530347 J9.407566
G02 X47.290531 Y221.139011 Z-0.125000 I4.931539 J6.549065
G02 X46.989122 Y221.404174 Z-0.125000 I4.769026 J5.724836
G02 X46.731737 Y221.656763 Z-0.125000 I4.455002 J4.796996
G02 X46.491517 Y221.923955 Z-0.125000 I3.700460 J3.568494
G02 X46.289876 Y222.176669 Z-0.125000 I5.190265 J4.348142
G02 X46.101231 Y222.441206 Z-0.125000 I4.295100 J3.262414
G02 X45.947429 Y222.689346 Z-0.125000 I3.520056 J2.353544
G02 X45.812040 Y222.947740 Z-0.125000 I3.354471 J1.922288
G02 X45.710497 Y223.187686 Z-0.125000 I2.639619 J1.258517
G02 X45.631839 Y223.435646 Z-0.125000 I2.510135 J0.932726
G02 X45.584810 Y223.665210 Z-0.125000 I2.005055 J0.530359
G02 X45.564985 Y223.898240 Z-0.125000 I1.908717 J0.279743
G02 X45.574438 Y224.115954 Z-0.125000 I1.612303 J0.039053
G02 X45.613494 Y224.330051 Z-0.125000 I1.557641 J-0.173536
G02 X45.681687 Y224.534408 Z-0.125000 I1.447759 J-0.369554
G02 X45.778111 Y224.727179 Z-0.125000 I1.431583 J-0.595579
G02 X45.907040 Y224.915450 Z-0.125000 I1.465589 J-0.865363
G02 X46.059250 Y225.086005 Z-0.125000 I1.470495 J-1.159130
G02 X46.249093 Y225.254227 Z-0.125000 I1.595243 J-1.609039
G02 X46.455955 Y225.401818 Z-0.125000 I1.597206 J-2.019869
G02 X46.704541 Y225.546075 Z-0.125000 I1.742915 J-2.717096
G02 X46.964611 Y225.669293 Z-0.125000 I1.716278 J-3.286388
G02 X47.268134 Y225.786412 Z-0.125000 I1.806252 J-4.229211
G02 X47.579004 Y225.883271 Z-0.125000 I1.725280 J-4.990013
G02 X47.932674 Y225.970694 Z-0.125000 I1.690517 J-6.079875
G02 X48.290593 Y226.038864 Z-0.125000 I1.528448 J-7.051219
G02 X48.688998 Y226.094408 Z-0.125000 I1.335540 J-8.123015
G02 X49.089312 Y226.131582 Z-0.125000 I1.064644 J-9.290642
G02 X49.527327 Y226.153425 Z-0.125000 I0.732345 J-10.282808
G02 X49.966485 Y226.157761 Z-0.125000 I0.335517 J-11.742769
G02 X50.439178 Y226.144403 Z-0.125000 I-0.107377 J-12.170411
G02 X50.911237 Y226.113747 Z-0.125000 I-0.660928 J-13.827261
G02 X51.410449 Y226.063459 Z-0.125000 I-1.112373 J-13.545581
G02 X51.907732 Y225.995819 Z-0.125000 I-1.820825 J-15.248355
G02 X52.424698 Y225.907305 Z-0.125000 I-2.193996 J-14.367932
G02 X52.938453 Y225.801128 Z-0.125000 I-3.021939 J-15.918197
G02 X53.463618 Y225.673678 Z-0.125000 I-3.258991 J-14.574573
G02 X53.984166 Y225.528093 Z-0.125000 I-4.141946 J-15.813213
G02 X54.507297 Y225.361806 Z-0.125000 I-4.225830 J-14.200280
G02 X55.024233 Y225.176856 Z-0.125000 I-5.085596 J-15.029149
G02 X55.534655 Y224.972875 Z-0.125000 I-5.029165 J-13.325033
G02 X56.037080 Y224.749726 Z-0.125000 I-5.784550 J-13.701272
G02 X56.523975 Y224.510378 Z-0.125000 I-5.612612 J-12.032411
G02 X57.000821 Y224.251476 Z-0.125000 I-6.203952 J-11.995002
G02 X57.453609 Y223.980376 Z-0.125000 I-5.938231 J-10.431640
G02 X57.893990 Y223.689529 Z-0.125000 I-6.326489 J-10.057949
G02 X58.302717 Y223.391539 Z-0.125000 I-5.982643 J-8.635170
G02 X58.696319 Y223.073892 Z-0.125000 I-6.165905 J-8.042972
G02 X59.052063 Y222.754979 Z-0.125000 I-5.749877 J-6.771799
G02 X59.388574 Y222.417294 Z-0.125000 I-5.574615 J-5.891745
G02 X59.684753 Y222.083885 Z-0.125000 I-5.818587 J-5.467111
G02 X59.957502 Y221.734799 Z-0.125000 I-4.826895 J-4.052460
G02 X60.196443 Y221.391908 Z-0.125000 I-8.675196 J-6.299948
G02 X60.421381 Y221.036173 Z-0.125000 I-6.929271 J-4.630498
G02 X60.617254 Y220.688466 Z-0.125000 I-6.698890 J-4.002702
G02 X60.794848 Y220.330569 Z-0.125000 I-6.575961 J-3.486108
G02 X60.941810 Y219.985863 Z-0.125000 I-5.526566 J-2.559876
G02 X61.066988 Y219.632631 Z-0.125000 I-5.513445 J-2.152643
G02 X61.160171 Y219.297956 Z-0.125000 I-4.430623 J-1.413911
G02 X61.227678 Y218.957295 Z-0.125000 I-4.382807 J-1.045546
G02 X61.262988 Y218.639565 Z-0.125000 I-3.403019 J-0.539004
G02 X61.268263 Y218.320253 Z-0.125000 I-3.335105 J-0.214795
G02 X61.242033 Y218.026079 Z-0.125000 I-2.561636 J0.080151
G02 X61.182003 Y217.737452 Z-0.125000 I-2.497083 J0.368798
G02 X61.090678 Y217.472899 Z-0.125000 I-1.962281 J0.529349
G02 X60.964554 Y217.223664 Z-0.125000 I-1.915548 J0.812824
G02 X60.804410 Y216.994742 Z-0.125000 I-1.607698 J0.954201
G02 X60.613247 Y216.791243 Z-0.125000 I-1.569245 J1.282579
G02 X60.381185 Y216.604831 Z-0.125000 I-1.427150 J1.538990
G02 X60.126145 Y216.450716 Z-0.125000 I-1.364681 J1.970284
G02 X59.821717 Y216.314092 Z-0.125000 I-1.298865 J2.486666
G02 X59.503513 Y216.211706 Z-0.125000 I-1.161405 J3.063850
G02 X59.129708 Y216.130429 Z-0.125000 I-1.066459 J4.004575
G02 X58.749807 Y216.081522 Z-0.125000 I-0.802392 J4.732884
G02 X58.311990 Y216.058145 Z-0.125000 I-0.554831 J6.279623
G02 X57.873584 Y216.063508 Z-0.125000 I-0.132182 J7.116474
G02 X57.377589 Y216.097904 Z-0.125000 I0.408256 J9.480470
G02 X56.882645 Y216.157323 Z-0.125000 I0.986363 J10.307219
G02 X56.334089 Y216.247414 Z-0.125000 I2.068330 J14.308877
G02 X55.788764 Y216.358337 Z-0.125000 I2.700203 J14.670794
G02 X55.198676 Y216.498935 Z-0.125000 I4.525975 J20.304129
G02 X54.612638 Y216.656849 Z-0.125000 I5.071296 J19.986562
G02 X53.993403 Y216.841321 Z-0.125000 I7.638012 J26.770813
G02 X53.378476 Y217.040417 Z-0.125000 I8.000470 J25.759414
G02 X52.743698 Y217.261415 Z-0.125000 I10.816259 J32.089877
G02 X52.113393 Y217.495204 Z-0.125000 I11.100645 J30.894456
G02 X51.477690 Y217.745250 Z-0.125000 I13.084034 J34.197162
G02 X50.846774 Y218.007167 Z-0.125000 I13.603186 J33.658729
G02 X50.225310 Y218.279221 Z-0.125000 I13.662105 J32.054763
G02 X49.609289 Y218.563145 Z-0.125000 I14.602921 J32.493773
G02 X49.017211 Y218.851017 Z-0.125000 I12.612108 J26.692664
G02 X48.431741 Y219.151652 Z-0.125000 I13.773345 J27.543143
G02 X47.883568 Y219.450242 Z-0.125000 I10.628657 J20.165402
G02 X47.343877 Y219.763285 Z-0.125000 I11.627699 J20.668079
G02 X46.852885 Y220.068644 Z-0.125000 I8.421833 J14.089030
G02 X46.373211 Y220.390741 Z-0.125000 I9.047512 J13.991963
G02 X45.950876 Y220.699968 Z-0.125000 I6.415753 J9.205497
G02 X45.544562 Y221.028341 Z-0.125000 I6.529231 J8.494558
G02 X45.199537 Y221.339478 Z-0.125000 I5.061826 J5.959994
G02 X44.878605 Y221.670696 Z-0.125000 I4.236028 J4.425576
G02 X44.610967 Y221.982481 Z-0.125000 I6.755652 J6.069849
G02 X44.359079 Y222.310152 Z-0.125000 I5.098788 J4.180204
G02 X44.152318 Y222.616819 Z-0.125000 I4.871125 J3.507252
G02 X43.966081 Y222.936645 Z-0.125000 I4.461189 J2.811903
G02 X43.822798 Y223.232945 Z-0.125000 I3.471770 J1.861658
G02 X43.706160 Y223.540154 Z-0.125000 I3.294087 J1.426419
G02 X43.629843 Y223.823394 Z-0.125000 I2.587620 J0.849113
G02 X43.585857 Y224.112788 Z-0.125000 I2.449223 J0.520305
G02 X43.578808 Y224.381526 Z-0.125000 I2.025518 J0.187595
G02 X43.608001 Y224.648301 Z-0.125000 I1.941509 J-0.077480
G02 X43.672880 Y224.901435 Z-0.125000 I1.768183 J-0.318308
G02 X43.773467 Y225.142654 Z-0.125000 I1.737006 J-0.582738
G02 X43.913039 Y225.377787 Z-0.125000 I1.765078 J-0.888740
G02 X44.082870 Y225.592728 Z-0.125000 I1.767835 J-1.222248
G02 X44.298031 Y225.805628 Z-0.125000 I1.934027 J-1.739395
G02 X44.535714 Y225.994051 Z-0.125000 I1.942910 J-2.206729
G02 X44.824361 Y226.180159 Z-0.125000 I2.164967 J-3.040897
G02 X45.128418 Y226.340959 Z-0.125000 I2.150338 J-3.698194
G02 X45.486271 Y226.496531 Z-0.125000 I2.329217 J-4.868398
G02 X45.854176 Y226.627670 Z-0.125000 I2.263051 J-5.767265
G02 X46.275707 Y226.749653 Z-0.125000 I2.299274 J-7.156203
G02 X46.703473 Y226.848463 Z-0.125000 I2.153105 J-8.345803
G02 X47.182275 Y226.934091 Z-0.125000 I1.981468 J-9.698221
G02 X47.663975 Y226.997477 Z-0.125000 I1.711149 J-11.141788
G02 X48.193683 Y227.044218 Z-0.125000 I1.363316 J-12.425239
G02 X48.725532 Y227.069862 Z-0.125000 I0.957243 J-14.324944
G02 X49.301365 Y227.075730 Z-0.125000 I0.438786 J-14.802399
G02 X49.877454 Y227.060702 Z-0.125000 I-0.158662 J-17.131108
G02 X50.490520 Y227.022962 Z-0.125000 I-0.708929 J-16.514550
G02 X51.102090 Y226.963965 Z-0.125000 I-1.524659 J-19.004272
G02 X51.741765 Y226.879955 Z-0.125000 I-1.974977 J-17.515201
G02 X52.378356 Y226.773982 Z-0.125000 I-2.977803 J-19.853053
G02 X53.032980 Y226.641608 Z-0.125000 I-3.251304 J-17.763356
G02 X53.682739 Y226.486333 Z-0.125000 I-4.365926 J-19.706700
G02 X54.339507 Y226.304444 Z-0.125000 I-4.444655 J-17.325518
G02 X54.989364 Y226.098648 Z-0.125000 I-5.564899 J-18.701668
G02 X55.634593 Y225.867454 Z-0.125000 I-5.483487 J-16.319523
G02 X56.270538 Y225.611419 Z-0.125000 I-6.499804 J-17.062183
G02 X56.890068 Y225.332819 Z-0.125000 I-6.298498 J-14.834253
G02 X57.497586 Y225.028665 Z-0.125000 I-7.117567 J-14.975484
G02 X58.077297 Y224.706482 Z-0.125000 I-6.835842 J-12.982499
G02 X58.641883 Y224.358368 Z-0.125000 I-7.397138 J-12.628877
G02 X59.168303 Y223.998381 Z-0.125000 I-7.048392 J-10.871972
G02 X59.676048 Y223.612526 Z-0.125000 I-7.335412 J-10.179647
G02 X60.136975 Y223.222296 Z-0.125000 I-6.919485 J-8.640398
G02 X60.574885 Y222.806967 Z-0.125000 I-6.907299 J-7.721367
G02 X60.960260 Y222.395336 Z-0.125000 I-6.607236 J-6.572000
G02 X61.313392 Y221.962703 Z-0.125000 I-5.567094 J-4.904514
G02 X61.621939 Y221.536717 Z-0.125000 I-10.460971 J-7.901762
G02 X61.911213 Y221.094041 Z-0.125000 I-7.760588 J-5.387144
G02 X62.166158 Y220.658145 Z-0.125000 I-9.963774 J-6.120051
G02 X62.401913 Y220.209307 Z-0.125000 I-9.237616 J-5.138455
G02 X62.603437 Y219.772231 Z-0.125000 I-7.803525 J-3.862991
G02 X62.780455 Y219.324495 Z-0.125000 I-7.938961 J-3.397631
G02 X62.920394 Y218.895779 Z-0.125000 I-6.401491 J-2.326733
G02 X63.031448 Y218.458673 Z-0.125000 I-6.445845 J-1.870343
G02 X63.103887 Y218.047481 Z-0.125000 I-4.997539 J-1.092385
G02 X63.142194 Y217.631943 Z-0.125000 I-4.968252 J-0.667531
G02 X63.141847 Y217.247538 Z-0.125000 I-3.751459 J-0.188821
G02 X63.101947 Y216.865754 Z-0.125000 I-3.687174 J0.192365
G02 X63.024092 Y216.516932 Z-0.125000 I-2.783651 J0.438198
G02 X62.903089 Y216.181466 Z-0.125000 I-2.714548 J0.789589
G02 X62.743025 Y215.876408 Z-0.125000 I-2.139787 J0.928218
G02 X62.541172 Y215.598001 Z-0.125000 I-2.080785 J1.296251
G02 X62.294184 Y215.345242 Z-0.125000 I-1.775998 J1.488393
G02 X62.013301 Y215.130738 Z-0.125000 I-1.705909 J1.942658
G02 X61.676573 Y214.939901 Z-0.125000 I-1.565557 J2.369892
G02 X61.317828 Y214.792993 Z-0.125000 I-1.428475 J2.976839
G02 X60.892886 Y214.672804 Z-0.125000 I-1.318182 J3.849257
G02 X60.457203 Y214.595876 Z-0.125000 I-1.043266 J4.636331
G02 X59.949600 Y214.551292 Z-0.125000 I-0.802643 J6.226419
G02 X59.440185 Y214.545433 Z-0.125000 I-0.337238 J7.172652
G02 X58.856907 Y214.577036 Z-0.125000 I0.232328 J9.686373
G02 X58.274906 Y214.642286 Z-0.125000 I0.900390 J10.659187
G02 X57.621272 Y214.747980 Z-0.125000 I2.155214 J15.402275
G02 X56.971338 Y214.881260 Z-0.125000 I2.900084 J15.793442
G02 X56.259006 Y215.054084 Z-0.125000 I5.368142 J23.680430
G02 X55.551794 Y215.248808 Z-0.125000 I5.900694 J22.812197
G02 X54.796338 Y215.478684 Z-0.125000 I9.940926 J34.025698
G02 X54.046048 Y215.726057 Z-0.125000 I9.974949 J31.515887
G02 X53.264432 Y216.001876 Z-0.125000 I15.259669 J44.488255
G02 X52.487820 Y216.292050 Z-0.125000 I14.846693 J40.919573
G02 X51.698635 Y216.602609 Z-0.125000 I19.497922 J50.705589
G02 X50.914479 Y216.925736 Z-0.125000 I19.413548 J48.225273
G02 X50.137360 Y217.260714 Z-0.125000 I20.654983 J48.986658
G02 X49.365755 Y217.607873 Z-0.125000 I21.766337 J49.409573
G02 X48.620590 Y217.958565 Z-0.125000 I18.581827 J40.450424
G02 X47.882092 Y218.322426 Z-0.125000 I20.596291 J42.733986
G02 X47.188127 Y218.682152 Z-0.125000 I14.946774 J29.683757
G02 X46.502883 Y219.057310 Z-0.125000 I16.847277 J31.585765
G02 X45.877825 Y219.421497 Z-0.125000 I11.253384 J20.032769
G02 X45.264752 Y219.804398 Z-0.125000 I12.476026 J20.657940
G02 X44.723939 Y220.170352 Z-0.125000 I8.184503 J12.677811
G02 X44.200087 Y220.558859 Z-0.125000 I8.733139 J12.322933
G02 X43.755782 Y220.925371 Z-0.125000 I5.878817 J7.579171
G02 X43.340214 Y221.317461 Z-0.125000 I5.151902 J5.876671
G02 X42.996394 Y221.684838 Z-0.125000 I6.998383 J6.894192
G02 X42.675362 Y222.073870 Z-0.125000 I5.130152 J4.560422
G02 X42.411994 Y222.437032 Z-0.125000 I6.923788 J5.298266
G02 X42.169237 Y222.816369 Z-0.125000 I5.724049 J3.930453
G02 X41.978459 Y223.167291 Z-0.125000 I4.414164 J2.627068
G02 X41.817178 Y223.532031 Z-0.125000 I4.183583 J2.067922
G02 X41.705102 Y223.867145 Z-0.125000 I3.236766 J1.268809
G02 X41.629472 Y224.211512 Z-0.125000 I3.049796 J0.850292
G02 X41.598703 Y224.529352 Z-0.125000 I2.465261 J0.399062
G02 X41.609993 Y224.847797 Z-0.125000 I2.342485 J0.076371
G02 X41.663428 Y225.147764 Z-0.125000 I2.082869 J-0.216288
G02 X41.759790 Y225.436691 Z-0.125000 I2.028654 J-0.516057
G02 X41.900859 Y225.717118 Z-0.125000 I2.032146 J-0.846582
G02 X42.079482 Y225.975913 Z-0.125000 I2.027356 J-1.208256
G02 X42.310042 Y226.232740 Z-0.125000 I2.225920 J-1.766365
G02 X42.569142 Y226.461919 Z-0.125000 I2.238704 J-2.269931
G02 X42.887505 Y226.690198 Z-0.125000 I2.542869 J-3.210192
G02 X43.225635 Y226.889338 Z-0.125000 I2.540291 J-3.926662
G02 X43.627287 Y227.084919 Z-0.125000 I2.832778 J-5.307277
G02 X44.042013 Y227.252288 Z-0.125000 I2.787396 J-6.309416
G02 X44.520908 Y227.411822 Z-0.125000 I2.934815 J-8.011294
G02 X45.008234 Y227.544701 Z-0.125000 I2.819300 J-9.379535
G02 X45.557290 Y227.665033 Z-0.125000 I2.713947 J-11.070533
G02 X46.110817 Y227.759789 Z-0.125000 I2.475729 J-12.798048
G02 X46.722622 Y227.837734 Z-0.125000 I2.136856 J-14.332550
G02 X47.337211 Y227.891284 Z-0.125000 I1.752401 J-16.558675
G02 X48.006429 Y227.924221 Z-0.125000 I1.191884 J-17.401670
G02 X48.677357 Y227.933311 Z-0.125000 I0.612102 J-20.414023
G02 X49.396289 Y227.917898 Z-0.125000 I-0.055814 J-19.377640
G02 X50.114520 Y227.877831 Z-0.125000 I-0.913916 J-22.840443
G02 X50.870924 Y227.809649 Z-0.125000 I-1.470854 J-20.547177
G02 X51.624810 Y227.715583 Z-0.125000 I-2.600519 J-23.909738
G02 X52.405371 Y227.590630 Z-0.125000 I-2.931400 J-20.812416
G02 X53.181319 Y227.438216 Z-0.125000 I-4.253505 J-23.706269
G02 X53.970974 Y227.253416 Z-0.125000 I-4.338650 J-20.318699
G02 X54.753518 Y227.039449 Z-0.125000 I-5.724741 J-22.475074
G02 X55.535678 Y226.793301 Z-0.125000 I-5.612554 J-19.200277
G02 X56.307759 Y226.516406 Z-0.125000 I-6.917727 J-20.503936
G02 X57.064767 Y226.209628 Z-0.125000 I-6.680872 J-17.573167
G02 X57.808238 Y225.870864 Z-0.125000 I-7.772450 J-18.043065
G02 X58.522043 Y225.506853 Z-0.125000 I-7.472237 J-15.534517
G02 X59.218353 Y225.110142 Z-0.125000 I-8.257930 J-15.303806
G02 X59.871371 Y224.695179 Z-0.125000 I-7.915021 J-13.176994
G02 X60.502422 Y224.247460 Z-0.125000 I-8.355006 J-12.444797
G02 X61.078475 Y223.790551 Z-0.125000 I-7.960621 J-10.628042
G02 X61.627505 Y223.301648 Z-0.125000 I-8.070197 J-9.615411
G02 X62.112704 Y222.814031 Z-0.125000 I-7.603508 J-8.051009
G02 X62.560165 Y222.298553 Z-0.125000 I-6.744257 J-6.306310
G02 X62.948609 Y221.790547 Z-0.125000 I-9.922873 J-7.989980
G02 X63.304664 Y221.261606 Z-0.125000 I-7.326261 J-5.315953
G02 X63.618708 Y220.738536 Z-0.125000 I-15.650516 J-9.752166
G02 X63.915326 Y220.198916 Z-0.125000 I-12.362266 J-7.146613
G02 X64.176041 Y219.667311 Z-0.125000 I-10.469596 J-5.464348
G02 X64.410139 Y219.123076 Z-0.125000 I-10.911538 J-5.015972
G02 X64.603761 Y218.595718 Z-0.125000 I-8.786243 J-3.525126
G02 X64.765950 Y218.057644 Z-0.125000 I-9.054771 J-3.022819
G02 X64.884277 Y217.545789 Z-0.125000 I-7.018932 J-1.892192
G02 X64.965256 Y217.026745 Z-0.125000 I-7.112313 J-1.375468
G02 X65.000852 Y216.542467 Z-0.125000 I-5.344095 J-0.636261
G02 X64.992419 Y216.057352 Z-0.125000 I-5.316638 J-0.150201
G02 X64.938876 Y215.612780 Z-0.125000 I-3.932728 J0.248130
G02 X64.835305 Y215.178002 Z-0.125000 I-3.852485 J0.687997
G02 X64.686919 Y214.784522 Z-0.125000 I-2.895182 J0.867088
G02 X64.486481 Y214.416019 Z-0.125000 I-2.808828 J1.289036
G02 X64.237501 Y214.084477 Z-0.125000 I-2.244488 J1.426292
G02 X63.942128 Y213.794294 Z-0.125000 I-2.156698 J1.899853
G02 X63.587476 Y213.536433 Z-0.125000 I-1.875722 J2.206976
G02 X63.199569 Y213.331212 Z-0.125000 I-1.739538 J2.818836
G02 X62.738144 Y213.159215 Z-0.125000 I-1.582690 J3.541016
G02 X62.258775 Y213.042422 Z-0.125000 I-1.314084 J4.351405
G02 X61.695195 Y212.964987 Z-0.125000 I-1.085422 J5.810217
G02 X61.126616 Y212.938330 Z-0.125000 I-0.604809 J6.823241
G02 X60.468654 Y212.958055 Z-0.125000 I-0.049382 J9.336515
G02 X59.812740 Y213.021697 Z-0.125000 I0.681967 J10.440343
G02 X59.066557 Y213.136685 Z-0.125000 I1.956457 J15.174427
G02 X58.324073 Y213.288108 Z-0.125000 I2.835488 J15.799600
G02 X57.498710 Y213.491055 Z-0.125000 I5.805223 J25.389012
G02 X56.679775 Y213.721667 Z-0.125000 I6.343955 J24.097630
G02 X55.794110 Y213.998199 Z-0.125000 I12.039355 J40.115585
G02 X54.914641 Y214.295600 Z-0.125000 I11.576043 J35.681569
G02 X53.988736 Y214.629788 Z-0.125000 I20.642392 J58.641823
G02 X53.068361 Y214.979812 Z-0.125000 I18.734198 J50.645942
G02 X52.124714 Y215.355521 Z-0.125000 I28.995420 J74.199081
G02 X51.186149 Y215.743933 Z-0.125000 I26.894603 J66.316654
G02 X50.249077 Y216.146402 Z-0.125000 I31.997687 J75.792711
G02 X49.317246 Y216.560444 Z-0.125000 I32.625153 J74.680800
G02 X48.411845 Y216.977520 Z-0.125000 I28.145742 J62.290847
G02 X47.512710 Y217.407034 Z-0.125000 I31.717609 J67.552870
G02 X46.663610 Y217.829867 Z-0.125000 I21.356696 J43.950834
G02 X45.822907 Y218.267877 Z-0.125000 I25.112174 J49.225343
G02 X45.052964 Y218.691050 Z-0.125000 I15.102071 J28.389522
G02 X44.294986 Y219.133739 Z-0.125000 I17.481613 J30.802446
G02 X43.624107 Y219.554911 Z-0.125000 I10.402442 J17.314842
G02 X42.970743 Y220.001002 Z-0.125000 I11.505560 J17.553045
G02 X42.414931 Y220.420208 Z-0.125000 I7.129730 J10.031149
G02 X41.888178 Y220.869542 Z-0.125000 I6.807932 J8.514341
G02 X41.455733 Y221.288702 Z-0.125000 I6.374246 J7.008935
G02 X41.058565 Y221.737555 Z-0.125000 I4.803706 J4.650708
G02 X40.735162 Y222.155256 Z-0.125000 I9.921251 J8.015512
G02 X40.431336 Y222.592691 Z-0.125000 I6.887855 J5.108286
G02 X40.188766 Y222.997038 Z-0.125000 I5.545754 J3.601855
G02 X39.977564 Y223.418001 Z-0.125000 I5.195670 J2.870200
G02 X39.824515 Y223.803741 Z-0.125000 I3.970736 J1.798687
G02 X39.711068 Y224.201963 Z-0.125000 I3.727018 J1.277039
G02 X39.650692 Y224.567417 Z-0.125000 I2.950411 J0.675145
G02 X39.637239 Y224.936665 Z-0.125000 I2.781234 J0.286198
G02 X39.672494 Y225.281656 Z-0.125000 I2.404999 J-0.071469
G02 X39.757373 Y225.617538 Z-0.125000 I2.320363 J-0.407702
G02 X39.892113 Y225.941362 Z-0.125000 I2.275739 J-0.756973
G02 X40.071803 Y226.243162 Z-0.125000 I2.256239 J-1.138958
G02 X40.308916 Y226.542392 Z-0.125000 I2.470464 J-1.714065
G02 X40.581024 Y226.811503 Z-0.125000 I2.481137 J-2.236635
G02 X40.919542 Y227.081104 Z-0.125000 I2.863162 J-3.247742
G02 X41.282594 Y227.318158 Z-0.125000 I2.867391 J-3.994922
G02 X41.717993 Y227.553781 Z-0.125000 I3.291744 J-5.562579
G02 X42.169753 Y227.757770 Z-0.125000 I3.261699 J-6.621224
G02 X42.695640 Y227.956040 Z-0.125000 I3.565199 J-8.659706
G02 X43.232258 Y228.124575 Z-0.125000 I3.481361 J-10.146168
G02 X43.841150 Y228.282274 Z-0.125000 I3.500351 J-12.260860
G02 X44.456557 Y228.411699 Z-0.125000 I3.321879 J-14.267475
G02 X45.140281 Y228.525232 Z-0.125000 I3.010200 J-16.012567
G02 X45.827215 Y228.611379 Z-0.125000 I2.668030 J-18.492859
G02 X46.579123 Y228.677288 Z-0.125000 I2.128825 J-19.964422
G02 X47.334352 Y228.717092 Z-0.125000 I1.622734 J-23.604485
G02 X48.149159 Y228.732073 Z-0.125000 I0.816874 J-22.264330
G02 X48.964423 Y228.719743 Z-0.125000 I0.002487 J-26.795200
G02 X49.829195 Y228.677587 Z-0.125000 I-0.714782 J-23.553690
G02 X50.692404 Y228.606267 Z-0.125000 I-1.892885 J-28.169647
G02 X51.592733 Y228.500684 Z-0.125000 I-2.333371 J-23.788678
G02 X52.489192 Y228.363542 Z-0.125000 I-3.810734 J-27.908165
G02 X53.408309 Y228.188881 Z-0.125000 I-3.931074 J-23.192153
G02 X54.320692 Y227.980035 Z-0.125000 I-5.561501 J-26.393806
G02 X55.239462 Y227.732266 Z-0.125000 I-5.430061 J-21.963003
G02 X56.147965 Y227.447809 Z-0.125000 I-7.032047 J-24.052074
G02 X57.045296 Y227.125540 Z-0.125000 I-6.755615 J-20.220876
G02 X57.928145 Y226.764550 Z-0.125000 I-8.155407 J-21.205162
G02 X58.781810 Y226.369891 Z-0.125000 I-7.826997 J-18.050748
G02 X59.616108 Y225.935233 Z-0.125000 I-8.887614 J-18.077193
G02 X60.403876 Y225.474294 Z-0.125000 I-8.551655 J-15.518847
G02 X61.166761 Y224.973031 Z-0.125000 I-9.197275 J-14.828723
G02 X61.867713 Y224.455909 Z-0.125000 I-8.839920 J-12.716022
G02 X62.537627 Y223.899252 Z-0.125000 I-9.067464 J-11.593756
G02 X63.133492 Y223.339453 Z-0.125000 I-8.646164 J-9.800233
G02 X63.688571 Y222.743544 Z-0.125000 I-8.141622 J-8.140273
G02 X64.167672 Y222.155560 Z-0.125000 I-9.286456 J-8.055975
G02 X64.597238 Y221.541458 Z-0.125000 I-7.011590 J-5.361910
G02 X64.973545 Y220.933298 Z-0.125000 I-21.805099 J-13.912682
G02 X65.332169 Y220.304377 Z-0.125000 I-14.088645 J-8.450352
G02 X65.653311 Y219.678688 Z-0.125000 I-14.058330 J-7.610868
G02 X65.947348 Y219.038110 Z-0.125000 I-14.489344 J-7.038642
G02 X66.199498 Y218.409602 Z-0.125000 I-11.545566 J-4.996778
G02 X66.418224 Y217.768250 Z-0.125000 I-12.248595 J-4.535215
G02 X66.589440 Y217.150407 Z-0.125000 I-9.448638 J-2.951051
G02 X66.720740 Y216.522643 Z-0.125000 I-9.812565 J-2.379948
G02 X66.800861 Y215.930190 Z-0.125000 I-7.362329 J-1.297298
G02 X66.833443 Y215.333377 Z-0.125000 I-7.461486 J-0.706648
G02 X66.813746 Y214.782053 Z-0.125000 I-5.478286 J-0.080291
G02 X66.738641 Y214.236214 Z-0.125000 I-5.422710 J0.468055
G02 X66.611956 Y213.741525 Z-0.125000 I-3.963920 J0.751551
G02 X66.424453 Y213.267878 Z-0.125000 I-3.853071 J1.251382
G02 X66.184380 Y212.844210 Z-0.125000 I-2.913571 J1.371137
G02 X65.885254 Y212.461507 Z-0.125000 I-2.795135 J1.876464
G02 X65.525393 Y212.123004 Z-0.125000 I-2.282107 J2.065562
G02 X65.118503 Y211.843283 Z-0.125000 I-2.136695 J2.672292
G02 X64.634799 Y211.605200 Z-0.125000 I-1.877574 J3.204190
G02 X64.122658 Y211.434216 Z-0.125000 I-1.621679 J4.004869
G02 X63.517412 Y211.309922 Z-0.125000 I-1.388717 J5.226566
G02 X62.901500 Y211.250339 Z-0.125000 I-0.916209 J6.257699
G02 X62.182636 Y211.246160 Z-0.125000 I-0.409518 J8.614934
G02 X61.465975 Y211.298154 Z-0.125000 I0.352338 J9.821504
G02 X60.641040 Y211.413155 Z-0.125000 I1.534528 J14.023953
G02 X59.820010 Y211.575820 Z-0.125000 I2.540987 J14.978609
G02 X58.894052 Y211.804036 Z-0.125000 I5.701467 J25.125572
G02 X57.975807 Y212.067614 Z-0.125000 I6.341022 J23.821908
G02 X56.969131 Y212.390567 Z-0.125000 I13.500963 J43.814366
G02 X55.970000 Y212.738736 Z-0.125000 I12.541807 J37.598484
G02 X54.905601 Y213.134476 Z-0.125000 I26.580754 J73.122069
G02 X53.847356 Y213.547792 Z-0.125000 I22.208510 J58.423529
G02 X52.751297 Y213.993876 Z-0.125000 I43.363078 J108.115700
G02 X51.660232 Y214.452459 Z-0.125000 I35.905996 J86.955141
G02 X50.561494 Y214.928262 Z-0.125000 I52.491075 J122.720488
G02 X49.467400 Y215.414207 Z-0.125000 I49.704510 J113.383207
G02 X48.396639 Y215.902869 Z-0.125000 I45.373663 J100.840612
G02 X47.331303 Y216.402083 Z-0.125000 I52.026080 J112.411262
G02 X46.319165 Y216.891687 Z-0.125000 I31.756636 J66.940203
G02 X45.314580 Y217.394884 Z-0.125000 I39.845147 J80.801488
G02 X44.389850 Y217.878722 Z-0.125000 I20.668421 J40.627900
G02 X43.476455 Y218.381508 Z-0.125000 I25.474949 J47.360551
G02 X42.664385 Y218.857570 Z-0.125000 I13.315171 J23.643739
G02 X41.869654 Y219.359650 Z-0.125000 I15.427315 J25.299581
G02 X41.190639 Y219.829548 Z-0.125000 I8.678492 J13.266200
G02 X40.539521 Y220.333052 Z-0.125000 I9.052424 J12.379106
G02 X40.006921 Y220.800893 Z-0.125000 I6.287491 J7.694894
G02 X39.520392 Y221.306828 Z-0.125000 I4.966498 J5.262898
G02 X39.127857 Y221.776162 Z-0.125000 I11.082529 J9.667874
G02 X38.758611 Y222.270978 Z-0.125000 I6.954989 J5.575197
G02 X38.462063 Y222.728084 Z-0.125000 I7.234352 J5.018034
G02 X38.196932 Y223.204556 Z-0.125000 I6.343186 J3.841648
G02 X37.998802 Y223.640432 Z-0.125000 I4.809345 J2.449079
G02 X37.842639 Y224.091935 Z-0.125000 I4.500049 J1.809214
G02 X37.747962 Y224.504272 Z-0.125000 I3.501697 J1.021065
G02 X37.704101 Y224.923918 Z-0.125000 I3.276371 J0.554558
G02 X37.715751 Y225.312713 Z-0.125000 I2.756009 J0.111986
G02 X37.783003 Y225.695171 Z-0.125000 I2.629811 J-0.265283
G02 X37.904952 Y226.060686 Z-0.125000 I2.511574 J-0.634853
G02 X38.079143 Y226.404795 Z-0.125000 I2.467858 J-1.033108
G02 X38.315193 Y226.744626 Z-0.125000 I2.674927 J-1.606141
G02 X38.593059 Y227.052577 Z-0.125000 I2.675517 J-2.134786
G02 X38.943205 Y227.361927 Z-0.125000 I3.120364 J-3.179040
G02 X39.323058 Y227.635702 Z-0.125000 I3.122553 J-3.932026
G02 X39.782973 Y227.910230 Z-0.125000 I3.683803 J-5.648935
G02 X40.262789 Y228.149971 Z-0.125000 I3.658334 J-6.721758
G02 X40.825843 Y228.386564 Z-0.125000 I4.156205 J-9.102801
G02 X41.402031 Y228.590676 Z-0.125000 I4.091997 J-10.636003
G02 X42.060461 Y228.786447 Z-0.125000 I4.303768 J-13.269594
G02 X42.727464 Y228.951754 Z-0.125000 I4.186727 J-15.464833
G02 X43.472609 Y229.103105 Z-0.125000 I3.957936 J-17.576121
G02 X44.221854 Y229.224699 Z-0.125000 I3.677545 J-20.291397
G02 X45.045873 Y229.327509 Z-0.125000 I3.212168 J-22.391817
G02 X45.874233 Y229.402393 Z-0.125000 I2.811974 J-26.486744
G02 X46.773354 Y229.453524 Z-0.125000 I1.891033 J-25.321926
G02 X47.674505 Y229.475651 Z-0.125000 I1.213166 J-31.046898
G02 X48.637259 Y229.467891 Z-0.125000 I0.267066 J-26.593239
G02 X49.599680 Y229.428564 Z-0.125000 I-0.856106 J-32.746850
G02 X50.611069 Y229.353118 Z-0.125000 I-1.488264 J-26.767501
G02 X51.619774 Y229.242777 Z-0.125000 I-3.037304 J-32.432023
G02 X52.662135 Y229.090961 Z-0.125000 I-3.255260 J-26.004756
G02 X53.698713 Y228.900474 Z-0.125000 I-5.080629 J-30.563114
G02 X54.751010 Y228.664921 Z-0.125000 I-4.958648 J-24.620254
G02 X55.793523 Y228.386977 Z-0.125000 I-6.846678 J-27.774602
G02 X56.831601 Y228.063164 Z-0.125000 I-6.531098 J-22.763219
G02 X57.854938 Y227.693804 Z-0.125000 I-8.258868 J-24.484051
G02 X58.852372 Y227.281462 Z-0.125000 I-7.891148 J-20.500795
G02 X59.829203 Y226.821422 Z-0.125000 I-9.271660 J-20.954221
G02 X60.758690 Y226.325537 Z-0.125000 I-8.928846 J-17.855252
G02 X61.660913 Y225.781119 Z-0.125000 I-9.838355 J-17.324189
G02 X62.496058 Y225.212227 Z-0.125000 I-9.521210 J-14.874777
G02 X63.296552 Y224.595480 Z-0.125000 I-9.921243 J-13.704930
G02 X64.013762 Y223.969126 Z-0.125000 I-9.566577 J-11.678063
G02 X64.687429 Y223.297595 Z-0.125000 I-9.422893 J-10.126530
G02 X65.268293 Y222.632622 Z-0.125000 I-9.313103 J-8.721324
G02 X65.785372 Y221.934323 Z-0.125000 I-7.327220 J-5.966286
G02 X66.233240 Y221.243389 Z-0.125000 I-21.000900 J-14.103548
G02 X66.653959 Y220.527493 Z-0.125000 I-12.790257 J-7.998165
G02 X67.032731 Y219.811016 Z-0.125000 I-20.308408 J-11.194576
G02 X67.387155 Y219.076386 Z-0.125000 I-18.828643 J-9.536748
G02 X67.700501 Y218.346542 Z-0.125000 I-14.642488 J-6.718681
G02 X67.979019 Y217.601992 Z-0.125000 I-16.100911 J-6.447329
G02 X68.208334 Y216.875185 Z-0.125000 I-12.235454 J-4.259984
G02 X68.395684 Y216.135924 Z-0.125000 I-13.101116 J-3.713571
G02 X68.527482 Y215.429046 Z-0.125000 I-9.785084 J-2.190161
G02 X68.608888 Y214.714432 Z-0.125000 I-10.153055 J-1.518550
G02 X68.631375 Y214.046750 Z-0.125000 I-7.448186 J-0.585069
G02 X68.594253 Y213.380109 Z-0.125000 I-7.491022 J0.082793
G02 X68.498100 Y212.771780 Z-0.125000 I-5.420230 J0.544964
G02 X68.334154 Y212.179315 Z-0.125000 I-5.306350 J1.149444
G02 X68.112108 Y211.649568 Z-0.125000 I-3.872243 J1.311663
G02 X67.819576 Y211.157210 Z-0.125000 I-3.713928 J1.873531
G02 X67.464948 Y210.723768 Z-0.125000 I-2.856249 J1.975091
G02 X67.048253 Y210.351406 Z-0.125000 I-2.683255 J2.583382
G02 X66.554986 Y210.032248 Z-0.125000 I-2.239499 J2.920455
G02 X66.019350 Y209.790319 Z-0.125000 I-1.989720 J3.691359
G02 X65.386450 Y209.603410 Z-0.125000 I-1.710373 J4.626552
G02 X64.734037 Y209.496171 Z-0.125000 I-1.260962 J5.633206
G02 X63.968341 Y209.453243 Z-0.125000 I-0.815144 J7.689248
G02 X63.202791 Y209.481102 Z-0.125000 I-0.057366 J8.955968
G02 X62.313226 Y209.583756 Z-0.125000 I0.990923 J12.492617
G02 X61.428751 Y209.747441 Z-0.125000 I2.085410 J13.740067
G02 X60.417544 Y209.992161 Z-0.125000 I5.034725 J23.015492
G02 X59.414913 Y210.282858 Z-0.125000 I5.908416 J22.252933
G02 X58.299399 Y210.649476 Z-0.125000 I13.915936 J44.222688
G02 X57.193268 Y211.047219 Z-0.125000 I12.714894 J37.097238
G02 X55.999445 Y211.506441 Z-0.125000 I31.996933 J84.962678
G02 X54.812653 Y211.985672 Z-0.125000 I24.584814 J62.592246
G02 X53.569448 Y212.507293 Z-0.125000 I65.050959 J156.781510
G02 X52.331105 Y213.041155 Z-0.125000 I45.427310 J107.076096
G02 X51.071856 Y213.596994 Z-0.125000 I96.806793 J221.019345
G02 X49.816367 Y214.160901 Z-0.125000 I77.336008 J173.861298
G02 X48.577447 Y214.727808 Z-0.125000 I83.367841 J183.829417
G02 X47.342675 Y215.302295 Z-0.125000 I96.697076 J209.449955
G02 X46.161315 Y215.864041 Z-0.125000 I51.019770 J108.818313
G02 X44.986162 Y216.436434 Z-0.125000 I71.840183 J148.984227
G02 X43.897911 Y216.984275 Z-0.125000 I29.340352 J59.637546
G02 X42.819789 Y217.549016 Z-0.125000 I39.929153 J77.538392
G02 X41.856118 Y218.081035 Z-0.125000 I17.326100 J32.522356
G02 X40.908906 Y218.638713 Z-0.125000 I21.414754 J37.456078
G02 X40.095363 Y219.158301 Z-0.125000 I10.636299 J17.550442
G02 X39.308225 Y219.713603 Z-0.125000 I11.948402 J17.772342
G02 X38.663210 Y220.227637 Z-0.125000 I6.816139 J9.214664
G02 X38.068705 Y220.786611 Z-0.125000 I5.807274 J6.772045
G02 X37.593726 Y221.303548 Z-0.125000 I9.222238 J8.950389
G02 X37.154879 Y221.855688 Z-0.125000 I6.016913 J5.232775
G02 X36.803993 Y222.365454 Z-0.125000 I10.234101 J7.420053
G02 X36.482049 Y222.897395 Z-0.125000 I7.632082 J4.982517
G02 X36.235685 Y223.383755 Z-0.125000 I5.766807 J3.226745
G02 X36.033062 Y223.888686 Z-0.125000 I5.384041 J2.453672
G02 X35.900413 Y224.348139 Z-0.125000 I4.140359 J1.444241
G02 X35.821581 Y224.818472 Z-0.125000 I3.846397 J0.886468
G02 X35.805391 Y225.250798 Z-0.125000 I3.156989 J0.334689
G02 X35.849893 Y225.680156 Z-0.125000 I2.977694 J-0.091648
G02 X35.953901 Y226.086335 Z-0.125000 I2.758862 J-0.490041
G02 X36.117123 Y226.472657 Z-0.125000 I2.680947 J-0.905064
G02 X36.345767 Y226.851515 Z-0.125000 I2.852613 J-1.463156
G02 X36.623326 Y227.197462 Z-0.125000 I2.834371 J-1.989736
G02 X36.977724 Y227.544778 Z-0.125000 I3.316580 J-3.029743
G02 X37.367443 Y227.853821 Z-0.125000 I3.307375 J-3.770512
G02 X37.843688 Y228.165431 Z-0.125000 I3.994681 J-5.585486
G02 X38.343659 Y228.439247 Z-0.125000 I3.958320 J-6.634276
G02 X38.934939 Y228.712538 Z-0.125000 I4.675166 J-9.338698
G02 X39.541862 Y228.950798 Z-0.125000 I4.606858 J-10.842973
G02 X40.240164 Y229.183636 Z-0.125000 I5.086895 J-14.092495
G02 X40.948908 Y229.384154 Z-0.125000 I5.003996 J-16.334147
G02 X41.745361 Y229.573510 Z-0.125000 I4.962623 J-19.103721
G02 X42.547527 Y229.731607 Z-0.125000 I4.770988 J-22.093305
G02 X43.433440 Y229.873208 Z-0.125000 I4.373512 J-24.520318
G02 X44.323715 Y229.985115 Z-0.125000 I4.068322 J-28.768273
G02 X45.294811 Y230.075461 Z-0.125000 I3.168746 J-28.795645
G02 X46.269850 Y230.136243 Z-0.125000 I2.709015 J-35.605630
G02 X47.318723 Y230.168811 Z-0.125000 I1.452831 J-29.883504
G02 X48.368608 Y230.168418 Z-0.125000 I0.510774 J-37.826527
G02 X49.480154 Y230.131973 Z-0.125000 I-0.427818 J-30.017338
G02 X50.590510 Y230.058294 Z-0.125000 I-1.928673 J-37.468959
G02 X51.747162 Y229.940854 Z-0.125000 I-2.342948 J-28.829997
G02 X52.899511 Y229.781134 Z-0.125000 I-4.280807 J-35.121987
G02 X54.079295 Y229.571412 Z-0.125000 I-4.228727 J-27.211786
G02 X55.250479 Y229.314177 Z-0.125000 I-6.360011 J-31.751803
G02 X56.426902 Y229.003490 Z-0.125000 I-6.026414 J-25.201746
G02 X57.589128 Y228.640631 Z-0.125000 I-8.082139 J-27.929593
G02 X58.731876 Y228.225073 Z-0.125000 I-7.665016 J-22.857112
G02 X59.853579 Y227.753921 Z-0.125000 I-9.398865 J-23.947340
G02 X60.930087 Y227.236091 Z-0.125000 I-9.030932 J-20.152128
G02 X61.977651 Y226.660986 Z-0.125000 I-10.257990 J-19.926750
G02 X62.955393 Y226.050863 Z-0.125000 I-9.971228 J-17.067689
G02 X63.895431 Y225.383800 Z-0.125000 I-10.605288 J-15.941071
G02 X64.744514 Y224.698423 Z-0.125000 I-10.327954 J-13.663473
G02 X65.546335 Y223.958581 Z-0.125000 I-10.396780 J-12.072177
G02 X66.241879 Y223.220481 Z-0.125000 I-10.011253 J-10.130807
G02 X66.868561 Y222.438704 Z-0.125000 I-8.486997 J-7.445358
G02 X67.403567 Y221.667360 Z-0.125000 I-15.207880 J-11.119433
G02 X67.885764 Y220.867221 Z-0.125000 I-9.974325 J-6.556307
G02 X68.315492 Y220.065834 Z-0.125000 I-36.189690 J-19.921916
G02 X68.728326 Y219.241358 Z-0.125000 I-24.077427 J-12.571714
G02 X69.103151 Y218.412322 Z-0.125000 I-18.122420 J-8.692777
G02 X69.442526 Y217.567091 Z-0.125000 I-20.782933 J-8.835457
G02 X69.733255 Y216.730948 Z-0.125000 I-15.323737 J-5.796721
G02 X69.980535 Y215.880077 Z-0.125000 I-17.039291 J-5.413312
G02 X70.169717 Y215.055103 Z-0.125000 I-12.544510 J-3.310870
G02 X70.306156 Y214.219228 Z-0.125000 I-13.409663 J-2.617925
G02 X70.378123 Y213.427748 Z-0.125000 I-9.821378 J-1.292046
G02 X70.387025 Y212.633035 Z-0.125000 I-10.087630 J-0.510396
G02 X70.329358 Y211.899948 Z-0.125000 I-7.302772 J0.205645
G02 X70.198422 Y211.177184 Z-0.125000 I-7.235260 J0.937496
G02 X70.002325 Y210.527516 Z-0.125000 I-5.201142 J1.215492
G02 X69.726279 Y209.909543 Z-0.125000 I-5.005644 J1.865363
G02 X69.385170 Y209.366259 Z-0.125000 I-3.684042 J1.934354
G02 X68.967361 Y208.882210 Z-0.125000 I-3.462258 J2.566123
G02 X68.474877 Y208.466634 Z-0.125000 I-2.727323 J2.732449
G02 X67.923451 Y208.134837 Z-0.125000 I-2.463711 J3.470418
G02 X67.275657 Y207.868679 Z-0.125000 I-2.067959 J4.111744
G02 X66.595848 Y207.696641 Z-0.125000 I-1.644948 J5.070859
G02 X65.796824 Y207.597892 Z-0.125000 I-1.234221 J6.704633
G02 X64.991841 Y207.587128 Z-0.125000 I-0.508965 J7.957199
G02 X64.051163 Y207.662426 Z-0.125000 I0.409956 J11.034879
G02 X63.118144 Y207.813294 Z-0.125000 I1.533451 J12.443880
G02 X62.039137 Y208.060952 Z-0.125000 I3.945115 J19.662647
G02 X60.968768 Y208.369192 Z-0.125000 I5.136176 J19.848006
G02 X59.759227 Y208.773071 Z-0.125000 I13.119105 J41.302251
G02 X58.561532 Y209.216288 Z-0.125000 I12.103153 J34.546015
G02 X57.250473 Y209.738651 Z-0.125000 I35.241463 J90.357580
G02 X55.947791 Y210.284696 Z-0.125000 I25.367636 J62.345628
G02 X54.566043 Y210.886103 Z-0.125000 I96.138257 J222.768409
G02 X53.189100 Y211.499858 Z-0.125000 I53.384680 J121.618493
G02 X51.773623 Y212.142718 Z-0.125000 I240.313011 J531.010800
G02 X50.360774 Y212.791192 Z-0.125000 I121.424077 J266.413932
G02 X48.953520 Y213.444139 Z-0.125000 I221.242758 J478.672701
G02 X47.548700 Y214.100737 Z-0.125000 I246.799113 J529.868311
G02 X46.193935 Y214.741601 Z-0.125000 I96.295908 J205.318756
G02 X44.843517 Y215.388824 Z-0.125000 I181.476884 J380.380649
G02 X43.584393 Y216.005718 Z-0.125000 I44.340795 J92.096104
G02 X42.333672 Y216.635919 Z-0.125000 I72.438294 J145.319923
G02 X41.208866 Y217.226527 Z-0.125000 I23.146821 J45.449205
G02 X40.099056 Y217.840836 Z-0.125000 I31.488266 J58.196323
G02 X39.140174 Y218.410354 Z-0.125000 I13.196405 J23.310441
G02 X38.206541 Y219.016122 Z-0.125000 I15.661547 J25.160504
G02 X37.436553 Y219.574649 Z-0.125000 I8.018123 J11.863860
G02 X36.713495 Y220.181980 Z-0.125000 I7.655213 J9.847986
G02 X36.140610 Y220.742044 Z-0.125000 I7.159497 J7.896431
G02 X35.625131 Y221.351082 Z-0.125000 I5.103366 J4.842063
G02 X35.217921 Y221.913023 Z-0.125000 I14.923671 J11.242933
G02 X34.836831 Y222.501031 Z-0.125000 I8.590101 J5.984764
G02 X34.540277 Y223.039053 Z-0.125000 I6.963157 J4.188792
G02 X34.288472 Y223.598343 Z-0.125000 I6.387050 J3.211925
G02 X34.115020 Y224.106177 Z-0.125000 I4.887639 J1.952916
G02 X33.997667 Y224.628342 Z-0.125000 I4.512150 J1.288344
G02 X33.950357 Y225.105108 Z-0.125000 I3.632714 J0.601212
G02 X33.967906 Y225.582602 Z-0.125000 I3.386562 J0.114606
G02 X34.049983 Y226.029492 Z-0.125000 I3.041255 J-0.327584
G02 X34.197710 Y226.458895 Z-0.125000 I2.917505 J-0.763593
G02 X34.413819 Y226.875917 Z-0.125000 I3.022915 J-1.302027
G02 X34.686116 Y227.259765 Z-0.125000 I2.976502 J-1.822992
G02 X35.038537 Y227.643573 Z-0.125000 I3.462857 J-2.825959
G02 X35.432387 Y227.986724 Z-0.125000 I3.432804 J-3.542390
G02 X35.917897 Y228.333452 Z-0.125000 I4.218194 J-5.393294
G02 X36.431342 Y228.639394 Z-0.125000 I4.156025 J-6.390996
G02 X37.042999 Y228.947062 Z-0.125000 I5.094902 J-9.367056
G02 X37.672967 Y229.217172 Z-0.125000 I4.991053 J-10.770776
G02 X38.402453 Y229.484774 Z-0.125000 I5.805127 J-14.696744
G02 X39.144095 Y229.718349 Z-0.125000 I5.705228 J-16.820894
G02 X39.982423 Y229.944051 Z-0.125000 I5.997481 J-20.606845
G02 X40.828418 Y230.137748 Z-0.125000 I5.896659 J-23.810017
G02 X41.766366 Y230.317856 Z-0.125000 I5.564327 J-26.444940
G02 X42.708349 Y230.466679 Z-0.125000 I5.320269 J-30.619295
G02 X43.739841 Y230.596936 Z-0.125000 I4.654256 J-32.707472
G02 X44.776818 Y230.697866 Z-0.125000 I4.445753 J-40.298932
G02 X45.899039 Y230.773770 Z-0.125000 I2.841317 J-33.674502
G02 X47.023697 Y230.816609 Z-0.125000 I2.233197 J-43.843412
G02 X48.222866 Y230.825284 Z-0.125000 I0.840251 J-33.264896
G02 X49.422461 Y230.795719 Z-0.125000 I-0.467144 J-43.306418
G02 X50.682025 Y230.722176 Z-0.125000 I-1.224564 J-31.795787
G02 X51.939156 Y230.603948 Z-0.125000 I-3.156164 J-40.302625
G02 X53.237429 Y230.432592 Z-0.125000 I-3.272998 J-29.801644
G02 X54.528945 Y230.209572 Z-0.125000 I-5.574504 J-36.133097
G02 X55.838205 Y229.926689 Z-0.125000 I-5.269287 J-27.558975
G02 X57.134670 Y229.585584 Z-0.125000 I-7.624737 J-31.614321
G02 X58.421448 Y229.182298 Z-0.125000 I-7.162584 J-25.108395
G02 X59.687679 Y228.715625 Z-0.125000 I-9.264267 J-27.088056
G02 X60.914310 Y228.190627 Z-0.125000 I-8.850149 J-22.373415
G02 X62.111199 Y227.599256 Z-0.125000 I-10.444679 J-22.646096
G02 X63.238565 Y226.960578 Z-0.125000 I-10.163164 J-19.253916
G02 X64.325911 Y226.255170 Z-0.125000 I-11.095957 J-18.294502
G02 X65.316862 Y225.520397 Z-0.125000 I-10.894980 J-15.729136
G02 X66.256664 Y224.721309 Z-0.125000 I-11.145834 J-14.060715
G02 X67.079374 Y223.915993 Z-0.125000 I-10.869654 J-11.927323
G02 X67.833023 Y223.054680 Z-0.125000 I-9.975621 J-9.489055
G02 X68.469467 Y222.206130 Z-0.125000 I-12.255385 J-9.854940
G02 X69.022688 Y221.323294 Z-0.125000 I-8.541675 J-5.967319
G02 X69.506529 Y220.441737 Z-0.125000 I-56.231773 J-31.436252
G02 X69.975209 Y219.531991 Z-0.125000 I-24.436119 J-13.164539
G02 X70.407246 Y218.609222 Z-0.125000 I-23.566389 J-11.596207
G02 X70.806232 Y217.668083 Z-0.125000 I-26.670786 J-11.861935
G02 X71.159625 Y216.724870 Z-0.125000 I-18.698556 J-7.543584
G02 X71.468809 Y215.765022 Z-0.125000 I-21.782548 J-7.546271
G02 X71.719575 Y214.821169 Z-0.125000 I-15.566635 J-4.641032
G02 X71.915745 Y213.863500 Z-0.125000 I-17.266412 J-4.035800
G02 X72.043470 Y212.943532 Z-0.125000 I-12.524581 J-2.207709
G02 X72.105167 Y212.016313 Z-0.125000 I-13.214456 J-1.344957
G02 X72.093275 Y211.149519 Z-0.125000 I-9.593375 J-0.301858
G02 X72.003628 Y210.287645 Z-0.125000 I-9.668671 J0.570079
G02 X71.840741 Y209.505294 Z-0.125000 I-6.951263 J1.039134
G02 X71.590368 Y208.748010 Z-0.125000 I-6.742712 J1.809240
G02 X71.269601 Y208.079830 Z-0.125000 I-4.850900 J1.917638
G02 X70.859252 Y207.465652 Z-0.125000 I-4.563994 J2.605162
G02 X70.375306 Y206.937987 Z-0.125000 I-3.418818 J2.649802
G02 X69.814797 Y206.495900 Z-0.125000 I-3.111981 J3.369214
G02 X69.162669 Y206.133753 Z-0.125000 I-2.502679 J3.738415
G02 X68.462177 Y205.877638 Z-0.125000 I-2.091594 J4.634649
G02 X67.642452 Y205.704668 Z-0.125000 I-1.658423 J5.830597
G02 X66.806537 Y205.638071 Z-0.125000 I-0.978875 J7.007219
G02 X65.828238 Y205.667941 Z-0.125000 I-0.195000 J9.648756
G02 X64.858541 Y205.789789 Z-0.125000 I0.907063 J11.138140
G02 X63.727586 Y206.023477 Z-0.125000 I2.769701 J16.257715
G02 X62.606230 Y206.335682 Z-0.125000 I4.202657 J17.264721
G02 X61.320175 Y206.765312 Z-0.125000 I11.216441 J35.714958
G02 X60.048469 Y207.246078 Z-0.125000 I10.854734 J30.634909
G02 X58.635147 Y207.827862 Z-0.125000 I35.003825 J87.042067
G02 X57.232291 Y208.438905 Z-0.125000 I24.462030 J58.076709
G02 X55.723884 Y209.122482 Z-0.125000 I132.616360 J294.642219
G02 X54.220506 Y209.819365 Z-0.125000 I57.256925 J125.489950
G03 X52.656394 Y210.555779 Z-0.125000 I-10541.274110 J-22387.182843
G02 X51.093614 Y211.295318 Z-0.125000 I184.223255 J391.317831
G03 X49.520768 Y212.042764 Z-0.125000 I-1018.163455 J-2140.487142
G03 X47.948194 Y212.789193 Z-0.125000 I-4042.512474 J-8514.745978
G02 X46.418127 Y213.517510 Z-0.125000 I304.474339 J641.618672
G03 X44.889999 Y214.246658 Z-0.125000 I-1418.532167 J-2970.956484
G02 X43.454274 Y214.939313 Z-0.125000 I75.248660 J157.808556
G02 X42.024692 Y215.640146 Z-0.125000 I200.099180 J409.977212
G02 X40.730288 Y216.293608 Z-0.125000 I32.163544 J65.319604
G02 X39.448898 Y216.967151 Z-0.125000 I51.339313 J99.226796
G02 X38.334532 Y217.588239 Z-0.125000 I16.652369 J31.188202
G02 X37.243693 Y218.244445 Z-0.125000 I21.238570 J36.540524
G02 X36.337637 Y218.846765 Z-0.125000 I9.562031 J15.366594
G02 X35.473749 Y219.500018 Z-0.125000 I10.207453 J14.396583
G02 X34.791019 Y220.100655 Z-0.125000 I6.576426 J8.163599
G02 X34.181276 Y220.762810 Z-0.125000 I5.055852 J5.267480
G02 X33.705263 Y221.373390 Z-0.125000 I14.762521 J11.999836
G02 X33.261934 Y222.018580 Z-0.125000 I7.879845 J5.889384
G02 X32.915419 Y222.610162 Z-0.125000 I8.961888 J5.646629
G02 X32.612575 Y223.225476 Z-0.125000 I7.509461 J4.078185
G02 X32.396157 Y223.783960 Z-0.125000 I5.761023 J2.553623
G02 X32.237633 Y224.359991 Z-0.125000 I5.289772 J1.765572
G02 X32.156680 Y224.883364 Z-0.125000 I4.209247 J0.919017
G02 X32.143888 Y225.411264 Z-0.125000 I3.884612 J0.358241
G02 X32.200987 Y225.900270 Z-0.125000 I3.384114 J-0.147315
G02 X32.329462 Y226.374818 Z-0.125000 I3.203400 J-0.612596
G02 X32.529001 Y226.830282 Z-0.125000 I3.210437 J-1.135054
G02 X32.792004 Y227.253083 Z-0.125000 I3.126012 J-1.651328
G02 X33.137278 Y227.672701 Z-0.125000 I3.576831 J-2.591262
G02 X33.530615 Y228.049607 Z-0.125000 I3.518844 J-3.278546
G02 X34.019387 Y228.429898 Z-0.125000 I4.358005 J-5.096927
G02 X34.540812 Y228.766320 Z-0.125000 I4.260240 J-6.030700
G02 X35.166156 Y229.105950 Z-0.125000 I5.391591 J-9.181766
G02 X35.812729 Y229.405301 Z-0.125000 I5.227256 J-10.442468
G02 X36.565908 Y229.704635 Z-0.125000 I6.410555 J-15.032919
G02 X37.332975 Y229.968200 Z-0.125000 I6.232956 J-16.892063
G02 X38.204711 Y230.227128 Z-0.125000 I7.002589 J-21.978824
G02 X39.085726 Y230.453532 Z-0.125000 I6.918458 J-25.094661
G02 X40.066418 Y230.669701 Z-0.125000 I6.806880 J-28.548084
G02 X41.051533 Y230.853853 Z-0.125000 I6.611809 J-32.642780
G02 X42.133602 Y231.022927 Z-0.125000 I6.269259 J-36.575750
G02 X43.221453 Y231.162931 Z-0.125000 I6.257179 J-44.323060
G02 X44.404121 Y231.282060 Z-0.125000 I4.471274 J-38.458880
G02 X45.590746 Y231.369296 Z-0.125000 I4.333972 J-50.838822
G02 X46.864116 Y231.426186 Z-0.125000 I2.302314 J-37.252884
G02 X48.139438 Y231.445201 Z-0.125000 I1.388980 J-50.381760
G02 X49.488666 Y231.422297 Z-0.125000 I0.079131 J-35.090027
G02 X50.837497 Y231.353792 Z-0.125000 I-1.682351 J-46.438047
G02 X52.242554 Y231.231347 Z-0.125000 I-2.124994 J-32.507112
G02 X53.643198 Y231.054451 Z-0.125000 I-4.485721 J-41.150793
G02 X55.076598 Y230.813182 Z-0.125000 I-4.293942 J-29.889331
G02 X56.499418 Y230.508651 Z-0.125000 I-6.891635 J-35.675024
G02 X57.925741 Y230.133481 Z-0.125000 I-6.409347 J-27.265981
G02 X59.333036 Y229.687617 Z-0.125000 I-8.871070 J-30.443848
G02 X60.710152 Y229.171624 Z-0.125000 I-8.393220 J-24.496084
G02 X62.057779 Y228.580079 Z-0.125000 I-10.389212 J-25.498972
G02 X63.339866 Y227.927571 Z-0.125000 I-10.081604 J-21.394755
G02 X64.580540 Y227.197981 Z-0.125000 I-11.376063 J-20.764764
G02 X65.722362 Y226.425666 Z-0.125000 I-11.230408 J-17.833707
G02 X66.809883 Y225.578311 Z-0.125000 I-11.734645 J-16.182157
G02 X67.771383 Y224.714012 Z-0.125000 I-11.580684 J-13.850041
G02 X68.663408 Y223.780952 Z-0.125000 I-11.253245 J-11.651270
G02 X69.414896 Y222.859267 Z-0.125000 I-11.423494 J-10.081243
G02 X70.061478 Y221.893689 Z-0.125000 I-8.455781 J-6.361540
G02 X70.614568 Y220.934835 Z-0.125000 I-39.972478 J-23.696045
G02 X71.136222 Y219.944100 Z-0.125000 I-18.323219 J-10.280462
G02 X71.616001 Y218.936141 Z-0.125000 I-36.434359 J-17.960599
G02 X72.070848 Y217.905775 Z-0.125000 I-34.576793 J-15.879225
G02 X72.485815 Y216.860223 Z-0.125000 I-22.427002 J-9.506132
G02 X72.856832 Y215.796653 Z-0.125000 I-27.671268 J-10.249373
G02 X73.171667 Y214.736137 Z-0.125000 I-18.794592 J-6.156539
G02 X73.430751 Y213.659195 Z-0.125000 I-21.823225 J-5.819728
G02 X73.619461 Y212.609194 Z-0.125000 I-15.460531 J-3.320576
G02 X73.739622 Y211.548161 Z-0.125000 I-16.872448 J-2.448116
G02 X73.780272 Y210.541557 Z-0.125000 I-12.222405 J-0.997698
G02 X73.739234 Y209.534755 Z-0.125000 I-12.616565 J0.010014
G02 X73.616566 Y208.608977 Z-0.125000 I-9.120077 J0.737420
G02 X73.400260 Y207.701547 Z-0.125000 I-8.960022 J1.656325
G02 X73.106024 Y206.894098 Z-0.125000 I-6.424087 J1.883614
G02 X72.711573 Y206.133409 Z-0.125000 I-6.068375 J2.664105
G02 X72.241909 Y205.477727 Z-0.125000 I-4.401666 J2.656857
G02 X71.678848 Y204.904697 Z-0.125000 I-4.018394 J3.385341
G02 X71.030109 Y204.429992 Z-0.125000 I-3.079394 J3.527702
G02 X70.313798 Y204.068755 Z-0.125000 I-2.648931 J4.361847
G02 X69.484158 Y203.802954 Z-0.125000 I-2.107545 J5.150578
G02 X68.623819 Y203.661049 Z-0.125000 I-1.468483 J6.224140
G02 X67.620134 Y203.625469 Z-0.125000 I-0.798956 J8.363454
G02 X66.621470 Y203.700760 Z-0.125000 I0.239878 J9.842592
G02 X65.452138 Y203.901231 Z-0.125000 I1.709793 J13.483649
G02 X64.295472 Y204.199588 Z-0.125000 I3.244946 J14.971173
G02 X62.952337 Y204.637208 Z-0.125000 I8.625684 J28.753797
G02 X61.625407 Y205.142980 Z-0.125000 I9.189807 J26.103633
G02 X60.126990 Y205.775962 Z-0.125000 I31.298843 J76.181757
G02 X58.642200 Y206.446486 Z-0.125000 I22.202682 J51.144208
G02 X57.022071 Y207.211653 Z-0.125000 I155.804046 J331.990013
G02 X55.407761 Y207.992562 Z-0.125000 I55.942869 J117.705354
G03 X53.706000 Y208.827724 Z-0.125000 I-347.384484 J-705.693685
G02 X52.004251 Y209.663943 Z-0.125000 I243.992464 J498.685945
G03 X50.271723 Y210.514401 Z-0.125000 I-201.431462 J-408.160284
G03 X48.536888 Y211.358713 Z-0.125000 I-334.934533 J-685.995596
G03 X46.832181 Y212.183845 Z-0.125000 I-468.922203 J-966.611047
G03 X45.126436 Y213.003172 Z-0.125000 I-194.278104 J-402.281096
G02 X43.510230 Y213.779818 Z-0.125000 I169.301376 J354.388547
G03 X41.897359 Y214.558011 Z-0.125000 I-558.666396 J-1155.822806
G02 X40.426124 Y215.280212 Z-0.125000 I47.525714 J98.676850
G02 X38.965434 Y216.017203 Z-0.125000 I105.374518 J210.664625
G02 X37.686229 Y216.692983 Z-0.125000 I21.498317 J42.243478
G02 X36.428325 Y217.401020 Z-0.125000 I30.434659 J55.541864
G02 X35.375703 Y218.047647 Z-0.125000 I11.533752 J19.955462
G02 X34.361133 Y218.745673 Z-0.125000 I13.474300 J20.671049
G02 X33.556102 Y219.385178 Z-0.125000 I6.905850 J9.519770
G02 X32.828189 Y220.094366 Z-0.125000 I5.813928 J6.695592
G02 X32.265887 Y220.747963 Z-0.125000 I10.382111 J9.500615
G02 X31.756921 Y221.451818 Z-0.125000 I6.286895 J5.082070
G02 X31.362084 Y222.099342 Z-0.125000 I12.879992 J8.297900
G02 X31.007045 Y222.772947 Z-0.125000 I8.741933 J5.038007
G02 X30.746027 Y223.385202 Z-0.125000 I6.769453 J3.247742
G02 X30.544460 Y224.017964 Z-0.125000 I6.188055 J2.319693
G02 X30.427924 Y224.591330 Z-0.125000 I4.913060 J1.297102
G02 X30.382117 Y225.172929 Z-0.125000 I4.491783 J0.646378
G02 X30.411917 Y225.706950 Z-0.125000 I3.822018 J0.054563
G02 X30.517980 Y226.230004 Z-0.125000 I3.567829 J-0.451193
G02 X30.697828 Y226.725626 Z-0.125000 I3.443470 J-0.969099
G02 X30.948213 Y227.189900 Z-0.125000 I3.310788 J-1.485874
G02 X31.282075 Y227.645811 Z-0.125000 I3.683403 J-2.347136
G02 X31.671163 Y228.057394 Z-0.125000 I3.591676 J-3.005671
G02 X32.158093 Y228.470593 Z-0.125000 I4.429589 J-4.726499
G02 X32.683067 Y228.836697 Z-0.125000 I4.292374 J-5.595591
G02 X33.316435 Y229.206367 Z-0.125000 I5.557377 J-8.794233
G02 X33.974388 Y229.532656 Z-0.125000 I5.318124 J-9.897323
G02 X34.744977 Y229.860593 Z-0.125000 I6.855606 J-15.040020
G02 X35.531332 Y230.150719 Z-0.125000 I6.549012 J-16.539664
G02 X36.429336 Y230.438945 Z-0.125000 I7.907629 J-23.094167
G02 X37.337822 Y230.693988 Z-0.125000 I7.712070 J-25.725577
G02 X38.353283 Y230.942298 Z-0.125000 I8.125726 J-31.029437
G02 X39.374426 Y231.158902 Z-0.125000 I7.975305 J-35.083022
G02 X40.498662 Y231.364015 Z-0.125000 I7.860246 J-39.898950
G02 X41.627689 Y231.539732 Z-0.125000 I7.878507 J-46.906286
G02 X42.858803 Y231.699067 Z-0.125000 I6.439593 J-44.920341
G02 X44.095336 Y231.828894 Z-0.125000 I6.847993 J-59.269762
G02 X45.429497 Y231.933725 Z-0.125000 I3.989194 J-42.227240
G02 X46.766824 Y232.002452 Z-0.125000 I3.712595 J-59.196750
G02 X48.191362 Y232.033515 Z-0.125000 I1.563044 J-38.999614
G02 X49.617463 Y232.019763 Z-0.125000 I0.191718 J-54.068603
G02 X51.115386 Y231.953902 Z-0.125000 I-0.810898 J-35.510019
G02 X52.611523 Y231.832539 Z-0.125000 I-3.071680 J-47.149400
G02 X54.157294 Y231.644843 Z-0.125000 I-3.135427 J-32.280840
G02 X55.695406 Y231.390336 Z-0.125000 I-5.878809 J-40.303674
G02 X57.253351 Y231.058601 Z-0.125000 I-5.437112 J-29.358786
G02 X58.794832 Y230.649843 Z-0.125000 I-8.219532 J-34.107828
G02 X60.319561 Y230.159826 Z-0.125000 I-7.678881 J-26.510687
G02 X61.816262 Y229.585392 Z-0.125000 I-10.089517 J-28.525540
G02 X63.255620 Y228.935579 Z-0.125000 I-9.720998 J-23.451366
G02 X64.653322 Y228.198002 Z-0.125000 I-11.432953 J-23.358426
G02 X65.953454 Y227.402278 Z-0.125000 I-11.306336 J-19.933427
G02 X67.197078 Y226.519991 Z-0.125000 I-12.139495 J-18.428768
G02 X68.308439 Y225.607159 Z-0.125000 I-12.103834 J-15.869223
G02 X69.347640 Y224.613383 Z-0.125000 I-12.089735 J-13.682586
G02 X70.230303 Y223.623324 Z-0.125000 I-11.854359 J-11.456961
G02 X71.004315 Y222.573973 Z-0.125000 I-9.625705 J-7.910146
G02 X71.651043 Y221.539601 Z-0.125000 I-20.867700 J-13.766626
G02 X72.222501 Y220.471473 Z-0.125000 I-12.095812 J-7.158310
G02 X72.736185 Y219.388988 Z-0.125000 I-106.269077 J-51.092150
G02 X73.240509 Y218.277400 Z-0.125000 I-45.802924 J-21.450846
G02 X73.713208 Y217.136387 Z-0.125000 I-26.796670 J-11.769743
G02 X74.143656 Y215.976651 Z-0.125000 I-35.464374 J-13.822709
G02 X74.523033 Y214.804572 Z-0.125000 I-22.248013 J-7.848653
G02 X74.846516 Y213.613891 Z-0.125000 I-27.339434 J-8.066846
G02 X75.100223 Y212.435649 Z-0.125000 I-18.543281 J-4.609299
G02 X75.283454 Y211.242834 Z-0.125000 I-21.109418 J-3.853137
G02 X75.382925 Y210.093618 Z-0.125000 I-15.081674 J-1.884318
G02 X75.397187 Y208.939364 Z-0.125000 I-16.003050 J-0.774953
G02 X75.321687 Y207.862181 Z-0.125000 I-11.662212 J0.276169
G02 X75.147243 Y206.796927 Z-0.125000 I-11.650958 J1.361031
G02 X74.885745 Y205.837486 Z-0.125000 I-8.429102 J1.782022
G02 X74.515366 Y204.916848 Z-0.125000 I-8.023846 J2.693222
G02 X74.064773 Y204.117472 Z-0.125000 I-5.756403 J2.718092
G02 X73.506000 Y203.394205 Z-0.125000 I-5.267938 J3.492363
G02 X72.865719 Y202.790445 Z-0.125000 I-3.880321 J3.473651
G02 X72.137607 Y202.302023 Z-0.125000 I-3.387421 J4.262856
G02 X71.306164 Y201.925391 Z-0.125000 I-2.627743 J4.694880
G02 X70.425647 Y201.686898 Z-0.125000 I-2.008356 J5.670186
G02 X69.406747 Y201.565299 Z-0.125000 I-1.378751 J7.223193
G02 X68.382269 Y201.576268 Z-0.125000 I-0.420420 J8.581014
G02 X67.185297 Y201.723495 Z-0.125000 I0.815427 J11.568838
G02 X66.006264 Y201.986410 Z-0.125000 I2.330393 J13.225716
G02 X64.625925 Y202.407683 Z-0.125000 I5.926400 J21.890406
G02 X63.262503 Y202.920841 Z-0.125000 I7.349517 J21.594947
G02 X61.697671 Y203.591134 Z-0.125000 I25.418573 J61.502668
G02 X60.150923 Y204.310998 Z-0.125000 I19.113514 J43.090205
G02 X58.436588 Y205.153081 Z-0.125000 I144.543822 J296.432399
G02 X56.729811 Y206.015546 Z-0.125000 I50.392648 J101.844669
G03 X54.904696 Y206.952296 Z-0.125000 I-222.640312 J-431.534691
G02 X53.078476 Y207.889016 Z-0.125000 I251.839651 J493.232431
G03 X51.195541 Y208.850285 Z-0.125000 I-128.603760 J-249.584540
G03 X49.307351 Y209.800217 Z-0.125000 I-222.560402 J-440.033893
G03 X47.431546 Y210.732068 Z-0.125000 I-160.973514 J-321.683980
G03 X45.551096 Y211.650593 Z-0.125000 I-122.474967 J-248.352810
G02 X43.752652 Y212.520739 Z-0.125000 I12006.530807 J24817.721401
G03 X41.954111 Y213.384384 Z-0.125000 I-145.289115 J-300.260072
G02 X40.300209 Y214.182762 Z-0.125000 I78.280453 J164.276303
G02 X38.653896 Y214.988961 Z-0.125000 I674.671856 J1379.810004
G02 X37.201381 Y215.724053 Z-0.125000 I28.601639 J58.318363
G02 X35.767538 Y216.486795 Z-0.125000 I47.857251 J91.693714
G02 X34.558451 Y217.179532 Z-0.125000 I14.100034 J26.011389
G02 X33.384640 Y217.922496 Z-0.125000 I17.568338 J29.055007
G02 X32.444851 Y218.600123 Z-0.125000 I8.005616 J12.093350
G02 X31.574461 Y219.349941 Z-0.125000 I7.630348 J9.737408
G02 X30.907293 Y220.040606 Z-0.125000 I7.312407 J7.731202
G02 X30.324813 Y220.803104 Z-0.125000 I5.099101 J4.498985
G02 X29.879766 Y221.507348 Z-0.125000 I19.172886 J12.609034
G02 X29.471348 Y222.241759 Z-0.125000 I9.477974 J5.751622
G02 X29.165040 Y222.911651 Z-0.125000 I8.061368 J4.091036
G02 X28.919213 Y223.604674 Z-0.125000 I7.206549 J2.946397
G02 X28.765597 Y224.232471 Z-0.125000 I5.768067 J1.744090
G02 X28.684760 Y224.871996 Z-0.125000 I5.230719 J0.986040
G02 X28.685523 Y225.455395 Z-0.125000 I4.383417 J0.285965
G02 X28.766512 Y226.031592 Z-0.125000 I4.043096 J-0.274497
G02 X28.924280 Y226.570705 Z-0.125000 I3.754863 J-0.806198
G02 X29.159207 Y227.080586 Z-0.125000 I3.562477 J-1.332346
G02 X29.478148 Y227.574744 Z-0.125000 I3.813019 J-2.110998
G02 X29.859918 Y228.023542 Z-0.125000 I3.681482 J-2.744882
G02 X30.340585 Y228.470276 Z-0.125000 I4.458741 J-4.315465
G02 X30.865508 Y228.866583 Z-0.125000 I4.282966 J-5.127148
G02 X31.502046 Y229.265398 Z-0.125000 I5.600656 J-8.231670
G02 X32.167160 Y229.617179 Z-0.125000 I5.288616 J-9.194552
G02 X32.949958 Y229.971152 Z-0.125000 I7.105640 J-14.671307
G02 X33.750707 Y230.284686 Z-0.125000 I6.641600 J-15.782946
G02 X34.669168 Y230.598161 Z-0.125000 I8.628797 J-23.779628
G02 X35.599161 Y230.877355 Z-0.125000 I8.186731 J-25.581390
G02 X36.642762 Y231.152941 Z-0.125000 I9.471166 J-33.752063
G02 X37.693524 Y231.397649 Z-0.125000 I9.277809 J-37.460070
G02 X38.852638 Y231.634283 Z-0.125000 I9.378859 J-42.983567
G02 X40.015368 Y231.841093 Z-0.125000 I9.262868 J-48.705918
G02 X41.285402 Y232.035886 Z-0.125000 I8.802494 J-53.153907
G02 X42.561489 Y232.203932 Z-0.125000 I9.642527 J-68.293266
G02 X43.943789 Y232.353118 Z-0.125000 I5.983531 J-48.962323
G02 X45.330132 Y232.469312 Z-0.125000 I6.621561 J-70.675634
G02 X46.815494 Y232.553995 Z-0.125000 I3.252691 J-43.983640
G02 X48.304005 Y232.596388 Z-0.125000 I2.569310 J-64.061415
G02 X49.879444 Y232.591172 Z-0.125000 I0.658436 J-39.052830
G02 X51.455698 Y232.531413 Z-0.125000 I-1.286144 J-54.742712
G02 X53.099443 Y232.406411 Z-0.125000 I-1.825601 J-34.876102
G02 X54.738909 Y232.213001 Z-0.125000 I-4.574944 J-45.825437
G02 X56.417124 Y231.938480 Z-0.125000 I-4.283124 J-31.450721
G02 X58.082390 Y231.582137 Z-0.125000 I-7.312717 J-38.243156
G02 X59.748258 Y231.135055 Z-0.125000 I-6.736713 J-28.428722
G02 X61.388839 Y230.595507 Z-0.125000 I-9.548579 J-31.797955
G02 X62.984894 Y229.966246 Z-0.125000 I-9.091844 J-25.399276
G02 X64.540398 Y229.238567 Z-0.125000 I-11.260658 J-26.097428
G02 X66.004095 Y228.435753 Z-0.125000 I-11.104735 J-21.981957
G02 X67.410240 Y227.534223 Z-0.125000 I-12.342512 J-20.798386
G02 X68.681464 Y226.585699 Z-0.125000 I-12.396584 J-17.940155
G02 X69.877307 Y225.543752 Z-0.125000 I-12.642313 J-15.716801
G02 X70.905646 Y224.493035 Z-0.125000 I-12.580375 J-13.341024
G02 X71.829837 Y223.365014 Z-0.125000 I-11.246404 J-10.156820
G02 X72.589672 Y222.258235 Z-0.125000 I-14.716749 J-10.917672
G02 X73.225493 Y221.112718 Z-0.125000 I-9.499799 J-6.022098
G02 X73.778367 Y219.961347 Z-0.125000 I-748.943754 J-360.341548
G02 X74.326216 Y218.775164 Z-0.125000 I-41.405075 J-19.842907
G02 X74.846420 Y217.549223 Z-0.125000 I-35.499558 J-15.786872
G02 X75.331248 Y216.302668 Z-0.125000 I-46.866622 J-18.945607
G02 X75.773196 Y215.026676 Z-0.125000 I-26.054546 J-9.738682
G02 X76.160543 Y213.730561 Z-0.125000 I-34.375697 J-10.979222
G02 X76.481699 Y212.429190 Z-0.125000 I-21.732679 J-6.053551
G02 X76.731395 Y211.110023 Z-0.125000 I-26.076353 J-5.619035
G02 X76.895361 Y209.818997 Z-0.125000 I-18.056127 J-2.949131
G02 X76.971039 Y208.518297 Z-0.125000 I-19.881579 J-1.809313
G02 X76.949836 Y207.285075 Z-0.125000 I-14.452141 J-0.368314
G02 X76.824779 Y206.057693 Z-0.125000 I-14.779319 J0.885785
G02 X76.602703 Y204.936049 Z-0.125000 I-10.834769 J1.562390
G02 X76.264366 Y203.845333 Z-0.125000 I-10.436043 J2.639396
G02 X75.837685 Y202.887674 Z-0.125000 I-7.536804 J2.784109
G02 X75.290449 Y201.997581 Z-0.125000 I-6.925492 J3.644575
G02 X74.662005 Y201.248318 Z-0.125000 I-4.993938 J3.550478
G02 X73.926349 Y200.610963 Z-0.125000 I-4.390038 J4.323889
G02 X73.098182 Y200.106266 Z-0.125000 I-3.289116 J4.465353
G02 X72.199384 Y199.748717 Z-0.125000 I-2.647592 J5.346988
G02 X71.173587 Y199.521011 Z-0.125000 I-1.950558 J6.362687
G02 X70.125999 Y199.447097 Z-0.125000 I-1.058764 J7.545180
G02 X68.911407 Y199.518895 Z-0.125000 I-0.014756 J10.059824
G02 X67.716389 Y199.724739 Z-0.125000 I1.411928 J11.768632
G02 X66.313070 Y200.104266 Z-0.125000 I3.773452 J16.736676
G02 X64.929320 Y200.602817 Z-0.125000 I5.647861 J17.845503
G02 X63.318462 Y201.288987 Z-0.125000 I18.711592 J46.161408
G02 X61.730387 Y202.042697 Z-0.125000 I15.686908 J35.102355
G02 X59.941194 Y202.951793 Z-0.125000 I109.418827 J217.562503
G02 X58.162753 Y203.888977 Z-0.125000 I42.668852 J83.126306
G03 X56.231587 Y204.926685 Z-0.125000 I-195.364500 J-361.255668
G02 X54.298757 Y205.964930 Z-0.125000 I204.619660 J383.244946
G03 X52.278138 Y207.043209 Z-0.125000 I-103.418522 J-191.366621
G03 X50.249072 Y208.105383 Z-0.125000 I-199.491468 J-378.618438
G03 X48.208854 Y209.153809 Z-0.125000 I-108.240579 J-208.124932
G03 X46.159721 Y210.180792 Z-0.125000 I-99.617410 J-196.208268
G03 X44.179689 Y211.154900 Z-0.125000 I-224.158345 J-453.138338
G03 X42.195410 Y212.113165 Z-0.125000 I-94.594685 J-193.343811
G02 X40.354599 Y212.996557 Z-0.125000 I165.456507 J347.137476
G03 X38.517876 Y213.879153 Z-0.125000 I-207.295359 J-429.038681
G02 X36.884553 Y214.679633 Z-0.125000 I39.691639 J83.054577
G02 X35.266919 Y215.501401 Z-0.125000 I91.332723 J181.789738
G02 X33.892099 Y216.243361 Z-0.125000 I17.501979 J34.075152
G02 X32.549561 Y217.032601 Z-0.125000 I23.715491 J41.877708
G02 X31.464833 Y217.748846 Z-0.125000 I9.416072 J15.439840
G02 X30.441251 Y218.537927 Z-0.125000 I10.084692 J14.140101
G02 X29.657411 Y219.263528 Z-0.125000 I6.463435 J7.768394
G02 X28.978972 Y220.078482 Z-0.125000 I4.952175 J4.812500
G02 X28.466901 Y220.833807 Z-0.125000 I17.215966 J12.222755
G02 X28.002362 Y221.631240 Z-0.125000 I8.303371 J5.371086
G02 X27.652260 Y222.363377 Z-0.125000 I10.353152 J5.400571
G02 X27.361468 Y223.120613 Z-0.125000 I8.331153 J3.633771
G02 X27.169619 Y223.808069 Z-0.125000 I6.790834 J2.265622
G02 X27.052335 Y224.510487 Z-0.125000 I6.115043 J1.382035
G02 X27.022703 Y225.148939 Z-0.125000 I5.107588 J0.556968
G02 X27.076385 Y225.784026 Z-0.125000 I4.657420 J-0.073862
G02 X27.210282 Y226.371643 Z-0.125000 I4.183841 J-0.644287
G02 X27.427213 Y226.932876 Z-0.125000 I3.916467 J-1.191269
G02 X27.728370 Y227.468890 Z-0.125000 I4.000638 J-1.895137
G02 X28.100180 Y227.959279 Z-0.125000 I3.821861 J-2.511564
G02 X28.570646 Y228.441717 Z-0.125000 I4.479170 J-3.897408
G02 X29.092502 Y228.870440 Z-0.125000 I4.267854 J-4.662990
G02 X29.727853 Y229.298934 Z-0.125000 I5.548144 J-7.541262
G02 X30.396652 Y229.676116 Z-0.125000 I5.178336 J-8.400398
G02 X31.187227 Y230.054673 Z-0.125000 I7.149126 J-13.915403
G02 X31.998477 Y230.389346 Z-0.125000 I6.538222 J-14.698096
G02 X32.932747 Y230.724597 Z-0.125000 I9.077497 J-23.827584
G02 X33.879797 Y231.023787 Z-0.125000 I8.318966 J-24.684190
G02 X34.946224 Y231.321509 Z-0.125000 I10.669761 J-36.159757
G02 X36.020816 Y231.588713 Z-0.125000 I10.186420 J-38.671467
G02 X37.208670 Y231.850921 Z-0.125000 I10.988894 J-46.960167
G02 X38.399995 Y232.083819 Z-0.125000 I10.646441 J-51.295603
G02 X39.702349 Y232.308653 Z-0.125000 I11.333889 J-61.767437
G02 X41.009933 Y232.508628 Z-0.125000 I12.185864 J-75.305231
G02 X42.429321 Y232.695719 Z-0.125000 I8.483553 J-58.883609
G02 X43.853349 Y232.854071 Z-0.125000 I10.272895 J-85.900177
G02 X45.385909 Y232.988351 Z-0.125000 I5.221482 J-50.780853
G02 X46.922598 Y233.084464 Z-0.125000 I5.641388 J-77.863218
G02 X48.559770 Y233.139885 Z-0.125000 I2.295148 J-43.591063
G02 X50.199981 Y233.143874 Z-0.125000 I0.977847 J-64.864935
G02 X51.925398 Y233.086937 Z-0.125000 I-0.386979 J-37.899004
G02 X53.650026 Y232.962352 Z-0.125000 I-2.946266 J-52.784606
G02 X55.434018 Y232.756187 Z-0.125000 I-2.984389 J-33.646233
G02 X57.209304 Y232.465508 Z-0.125000 I-6.146772 J-43.107236
G02 X59.006052 Y232.077283 Z-0.125000 I-5.603600 J-30.285924
G02 X60.781518 Y231.589979 Z-0.125000 I-8.769929 J-35.430860
G02 X62.530044 Y230.999763 Z-0.125000 I-8.217073 J-27.228353
G02 X64.240632 Y230.300994 Z-0.125000 I-10.858371 J-29.024459
G02 X65.870290 Y229.509301 Z-0.125000 I-10.621886 J-23.937721
G02 X67.442778 Y228.606390 Z-0.125000 I-12.330240 J-23.294813
G02 X68.882163 Y227.637498 Z-0.125000 I-12.427580 J-20.016011
G02 X70.244081 Y226.561768 Z-0.125000 I-13.020862 J-17.884927
G02 X71.430634 Y225.461171 Z-0.125000 I-13.133171 J-15.348775
G02 X72.516399 Y224.265722 Z-0.125000 I-12.573292 J-12.510471
G02 X73.406136 Y223.090803 Z-0.125000 I-12.997962 J-10.767378
G02 X74.140429 Y221.864626 Z-0.125000 I-9.066674 J-6.262509
G02 X74.757012 Y220.645345 Z-0.125000 I-93.736932 J-48.167719
G02 X75.342840 Y219.389245 Z-0.125000 I-24.511048 J-12.196289
G02 X75.893546 Y218.091798 Z-0.125000 I-66.781614 J-29.111333
G02 X76.424715 Y216.768880 Z-0.125000 I-66.396900 J-27.427278
G02 X76.924330 Y215.398640 Z-0.125000 I-30.538506 J-11.911118
G02 X77.372536 Y214.007696 Z-0.125000 I-44.171818 J-15.001223
G02 X77.761542 Y212.591401 Z-0.125000 I-25.083555 J-7.651143
G02 X78.079528 Y211.154563 Z-0.125000 I-32.130344 J-7.864365
G02 X78.312732 Y209.726269 Z-0.125000 I-21.062000 J-4.172066
G02 X78.455338 Y208.283823 Z-0.125000 I-24.293881 J-3.130068
G02 X78.495662 Y206.893670 Z-0.125000 I-17.367726 J-1.199442
G02 X78.427536 Y205.503482 Z-0.125000 I-18.305021 J0.200274
G02 X78.252325 Y204.212587 Z-0.125000 I-13.548635 J1.181593
G02 X77.954120 Y202.945114 Z-0.125000 I-13.272159 J2.453800
G02 X77.557001 Y201.816568 Z-0.125000 I-9.747245 J2.795768
G02 X77.028904 Y200.746421 Z-0.125000 I-9.018956 J3.785305
G02 X76.415315 Y199.835709 Z-0.125000 I-6.496995 J3.715271
G02 X75.677291 Y199.029538 Z-0.125000 I-5.734813 J4.509128
G02 X74.854921 Y198.380005 Z-0.125000 I-4.177670 J4.443967
G02 X73.939014 Y197.880397 Z-0.125000 I-3.455916 J5.246217
G02 X72.911889 Y197.527847 Z-0.125000 I-2.567996 J5.809132
G02 X71.842270 Y197.346676 Z-0.125000 I-1.704990 J6.818094
G02 X70.617785 Y197.320424 Z-0.125000 I-0.801919 J8.833970
G02 X69.406622 Y197.449192 Z-0.125000 I0.498220 J10.446521
G02 X67.989531 Y197.762601 Z-0.125000 I2.218968 J13.393577
G02 X66.597906 Y198.220469 Z-0.125000 I4.200620 J15.110943
G02 X64.961773 Y198.892709 Z-0.125000 I12.485138 J32.714165
G02 X63.352352 Y199.658950 Z-0.125000 I12.293649 J27.895040
G02 X61.508502 Y200.618867 Z-0.125000 I73.951177 J144.299532
G02 X59.680598 Y201.618655 Z-0.125000 I34.534335 J65.309683
G03 X57.663132 Y202.752072 Z-0.125000 I-207.307443 J-366.641876
G02 X55.644503 Y203.889031 Z-0.125000 I147.249322 J263.796353
G03 X53.502281 Y205.087888 Z-0.125000 I-92.279433 J-162.379532
G03 X51.348432 Y206.266897 Z-0.125000 I-212.087955 J-384.891773
G03 X49.153852 Y207.440970 Z-0.125000 I-87.373624 J-160.680911
G03 X46.945440 Y208.585286 Z-0.125000 I-90.974751 J-172.868747
G03 X44.787179 Y209.674352 Z-0.125000 I-125.357567 J-245.744664
G03 X42.619702 Y210.737125 Z-0.125000 I-76.313087 J-152.895414
G02 X40.589565 Y211.715573 Z-0.125000 I1648.185538 J3422.342215
G03 X38.559361 Y212.682996 Z-0.125000 I-103.342171 J-214.256669
G02 X36.738813 Y213.556295 Z-0.125000 I58.809528 J124.933192
G02 X34.930592 Y214.442763 Z-0.125000 I358.962693 J734.501356
G02 X33.381422 Y215.238313 Z-0.125000 I22.120524 J44.981304
G02 X31.861323 Y216.076448 Z-0.125000 I33.850850 J63.191741
G02 X30.622107 Y216.832918 Z-0.125000 I11.173670 J19.697483
G02 X29.437558 Y217.661572 Z-0.125000 I13.077258 J19.954721
G02 X28.525003 Y218.420945 Z-0.125000 I6.659623 J8.931014
G02 X27.721997 Y219.279220 Z-0.125000 I5.605828 J6.049625
G02 X27.121179 Y220.077023 Z-0.125000 I10.979084 J8.893388
G02 X26.597131 Y220.939459 Z-0.125000 I6.454907 J4.512668
G02 X26.205676 Y221.738504 Z-0.125000 I14.953659 J7.821275
G02 X25.869560 Y222.564031 Z-0.125000 I9.535307 J4.363521
G02 X25.638584 Y223.316823 Z-0.125000 I7.983880 J2.861483
G02 X25.483980 Y224.087584 Z-0.125000 I7.145138 J1.834107
G02 X25.422944 Y224.787801 Z-0.125000 I6.030093 J0.878398
G02 X25.447574 Y225.488398 Z-0.125000 I5.445354 J0.159295
G02 X25.556259 Y226.131118 Z-0.125000 I4.773686 J-0.476690
G02 X25.752878 Y226.750901 Z-0.125000 I4.413706 J-1.059119
G02 X26.033957 Y227.334111 Z-0.125000 I4.286402 J-1.706497
G02 X26.393397 Y227.872406 Z-0.125000 I4.050408 J-2.315465
G02 X26.850090 Y228.394396 Z-0.125000 I4.529245 J-3.501893
G02 X27.366203 Y228.859701 Z-0.125000 I4.283533 J-4.232368
G02 X27.996216 Y229.320095 Z-0.125000 I5.442380 J-6.786213
G02 X28.665655 Y229.724319 Z-0.125000 I5.033612 J-7.579764
G02 X29.459971 Y230.127576 Z-0.125000 I7.012353 J-12.828672
G02 X30.278471 Y230.482502 Z-0.125000 I6.295089 J-13.395961
G02 X31.224713 Y230.837243 Z-0.125000 I9.193438 J-23.083331
G02 X32.185402 Y231.153160 Z-0.125000 I8.134023 J-23.116538
G02 X33.270643 Y231.468443 Z-0.125000 I11.539949 J-37.696467
G02 X34.364757 Y231.752650 Z-0.125000 I10.509598 J-38.210816
G02 X35.576905 Y232.034267 Z-0.125000 I12.743513 J-52.101604
G02 X36.793323 Y232.287947 Z-0.125000 I12.053749 J-54.755602
G02 X38.123334 Y232.536694 Z-0.125000 I13.583378 J-68.947964
G02 X39.456723 Y232.761104 Z-0.125000 I13.827776 J-78.087649
G02 X40.904633 Y232.977706 Z-0.125000 I11.868496 J-74.389113
G02 X42.357408 Y233.170476 Z-0.125000 I14.786801 J-105.867505
G02 X43.925361 Y233.347083 Z-0.125000 I7.627474 J-60.669747
G02 X45.497677 Y233.490930 Z-0.125000 I9.746812 J-97.872095
G02 X47.181473 Y233.602797 Z-0.125000 I4.157679 J-49.852468
G02 X48.869835 Y233.668407 Z-0.125000 I3.929533 J-79.363703
G02 X50.659718 Y233.680518 Z-0.125000 I1.177322 J-41.725442
G02 X52.451999 Y233.628341 Z-0.125000 I-0.910764 J-62.093543
G02 X54.324751 Y233.497969 Z-0.125000 I-1.573858 J-36.123828
G02 X56.193415 Y233.283034 Z-0.125000 I-4.705149 J-49.137647
G02 X58.107100 Y232.967393 Z-0.125000 I-4.320579 J-32.154012
G02 X60.004612 Y232.548173 Z-0.125000 I-7.756619 J-39.612691
G02 X61.897344 Y232.015177 Z-0.125000 I-7.131056 J-28.950386
G02 X63.756346 Y231.364645 Z-0.125000 I-10.228760 J-32.211831
G02 X65.550849 Y230.603656 Z-0.125000 I-9.871012 J-25.773337
G02 X67.290223 Y229.719029 Z-0.125000 I-12.098542 J-25.940755
G02 X68.903682 Y228.747485 Z-0.125000 I-12.172426 J-22.040448
G02 X70.438973 Y227.654937 Z-0.125000 I-13.204709 J-20.180774
G02 X71.795188 Y226.517841 Z-0.125000 I-13.464372 J-17.436294
G02 X73.049779 Y225.270268 Z-0.125000 I-13.327862 J-14.657453
G02 X74.089474 Y224.032118 Z-0.125000 I-13.215870 J-12.153183
G02 X74.972084 Y222.720575 Z-0.125000 I-10.276604 J-7.868445
G02 X75.688968 Y221.432365 Z-0.125000 I-27.141389 J-15.947667
G02 X76.307127 Y220.109151 Z-0.125000 I-13.648073 J-7.181891
G03 X76.866537 Y218.754711 Z-0.125000 I337.003738 J138.396470
G02 X77.432884 Y217.366121 Z-0.125000 I-107.682574 J-44.728942
G02 X77.981723 Y215.912677 Z-0.125000 I-36.475863 J-14.604087
G02 X78.484820 Y214.439137 Z-0.125000 I-59.756220 J-21.224658
G02 X78.939389 Y212.918756 Z-0.125000 I-28.770120 J-9.429944
G02 X79.325378 Y211.375846 Z-0.125000 I-40.032098 J-10.834553
G02 X79.631101 Y209.818463 Z-0.125000 I-24.080940 J-5.535925
G02 X79.845214 Y208.242695 Z-0.125000 I-29.427674 J-4.801016
G02 X79.954160 Y206.698725 Z-0.125000 I-20.285526 J-2.207217
G02 X79.950562 Y205.148917 Z-0.125000 I-22.240394 J-0.723278
G02 X79.830555 Y203.685392 Z-0.125000 I-16.433027 J0.610807
G02 X79.581074 Y202.238089 Z-0.125000 I-16.478969 J2.095434
G02 X79.220479 Y200.928794 Z-0.125000 I-12.330014 J2.691520
G02 X78.719664 Y199.668903 Z-0.125000 I-11.533305 J3.855078
G02 X78.124735 Y198.582033 Z-0.125000 I-8.432904 J3.909729
G02 X77.390608 Y197.590200 Z-0.125000 I-7.475041 J4.765216
G02 X76.575266 Y196.779334 Z-0.125000 I-5.382821 J4.597175
G02 X75.644151 Y196.115295 Z-0.125000 I-4.513970 J5.344661
G02 X74.618272 Y195.620563 Z-0.125000 I-3.306124 J5.544602
G02 X73.526330 Y195.308773 Z-0.125000 I-2.422637 J6.416504
G02 X72.296713 Y195.163901 Z-0.125000 I-1.541853 J7.795953
G02 X71.063887 Y195.198415 Z-0.125000 I-0.360337 J9.164166
G02 X69.637783 Y195.424729 Z-0.125000 I1.106644 J11.579841
G02 X68.245397 Y195.813035 Z-0.125000 I3.000031 J13.448076
G02 X66.602990 Y196.434066 Z-0.125000 I7.554015 J22.460004
G02 X64.989853 Y197.185838 Z-0.125000 I9.201061 J21.850042
G02 X63.111409 Y198.172995 Z-0.125000 I47.421015 J92.517393
G02 X61.256440 Y199.217300 Z-0.125000 I26.999851 J50.128701
G03 X59.174031 Y200.435402 Z-0.125000 I-282.029211 J-479.754624
G02 X57.092658 Y201.663408 Z-0.125000 I102.605868 J176.286648
G03 X54.847972 Y202.982657 Z-0.125000 I-87.738891 J-146.717508
G03 X52.588881 Y204.280070 Z-0.125000 I-269.922414 J-467.380386
G03 X50.253485 Y205.587209 Z-0.125000 I-76.853502 J-134.570287
G03 X47.898800 Y206.856588 Z-0.125000 I-89.258666 J-162.755304
G03 X45.568691 Y208.071617 Z-0.125000 I-93.742856 J-176.932541
G03 X43.223492 Y209.249050 Z-0.125000 I-68.065223 J-132.647301
G03 X41.003709 Y210.333542 Z-0.125000 I-266.573875 J-542.820523
G03 X38.778906 Y211.395229 Z-0.125000 I-75.210902 J-154.745131
G02 X36.765925 Y212.350030 Z-0.125000 I98.192658 J209.616429
G03 X34.761446 Y213.308095 Z-0.125000 I-260.799365 J-543.072522
G02 X33.029957 Y214.162778 Z-0.125000 I28.593443 J60.108249
G02 X31.324176 Y215.053609 Z-0.125000 I53.104132 J103.763351
G02 X29.921382 Y215.852942 Z-0.125000 I13.372071 J25.097989
G02 X28.569124 Y216.722597 Z-0.125000 I16.577053 J27.262446
G02 X27.516024 Y217.515545 Z-0.125000 I7.611402 J11.204342
G02 X26.561450 Y218.408641 Z-0.125000 I7.205346 J8.658028
G02 X25.850805 Y219.240538 Z-0.125000 I7.390805 J7.033047
G02 X25.258106 Y220.167134 Z-0.125000 I5.190265 J3.972822
G02 X24.822593 Y221.034361 Z-0.125000 I22.100840 J11.641813
G02 X24.440322 Y221.931696 Z-0.125000 I10.176009 J4.865134
G02 X24.170111 Y222.755915 Z-0.125000 I9.516119 J3.576156
G02 X23.977766 Y223.600617 Z-0.125000 I8.304603 J2.335279
G02 X23.884606 Y224.369991 Z-0.125000 I7.182975 J1.260073
G02 X23.878967 Y225.143281 Z-0.125000 I6.428737 J0.433551
G02 X23.961511 Y225.849054 Z-0.125000 I5.575770 J-0.294404
G02 X24.135754 Y226.535750 Z-0.125000 I5.099394 J-0.928477
G02 X24.395011 Y227.173245 Z-0.125000 I4.717827 J-1.547182
G02 X24.739769 Y227.767610 Z-0.125000 I4.410533 J-2.161135
G02 X25.179476 Y228.334724 Z-0.125000 I4.651347 J-3.152361
G02 X25.687334 Y228.842891 Z-0.125000 I4.368411 J-3.857898
G02 X26.307852 Y229.339198 Z-0.125000 I5.330346 J-6.028316
G02 X26.975060 Y229.774101 Z-0.125000 I4.900202 J-6.788409
G02 X27.769071 Y230.204025 Z-0.125000 I6.751720 J-11.521345
G02 X28.591829 Y230.580079 Z-0.125000 I5.982579 J-12.001041
G02 X29.546577 Y230.953713 Z-0.125000 I8.984882 J-21.552442
G02 X30.518071 Y231.284510 Z-0.125000 I7.714699 J-21.064787
G02 X31.619039 Y231.614022 Z-0.125000 I11.907667 J-37.781959
G02 X32.729690 Y231.910689 Z-0.125000 I10.259295 J-36.180969
G02 X33.962996 Y232.206008 Z-0.125000 I14.409184 J-57.452553
G02 X35.201579 Y232.474601 Z-0.125000 I13.084942 J-57.349318
G02 X36.555918 Y232.740431 Z-0.125000 I15.510600 J-75.439916
G02 X37.912080 Y232.981989 Z-0.125000 I14.749478 J-78.879419
G02 X39.383431 Y233.219567 Z-0.125000 I16.367480 J-96.690848
G02 X40.858990 Y233.437573 Z-0.125000 I19.516846 J-126.995565
G02 X42.452988 Y233.646702 Z-0.125000 I10.824746 J-76.327957
G02 X44.050952 Y233.829325 Z-0.125000 I15.445463 J-128.066310
G02 X45.768041 Y233.989585 Z-0.125000 I6.386738 J-59.150918
G02 X47.490298 Y234.110536 Z-0.125000 I8.014334 J-101.796663
G02 X49.327728 Y234.187959 Z-0.125000 I2.898928 J-46.956176
G02 X51.170015 Y234.207089 Z-0.125000 I1.706322 J-75.604991
G02 X53.112942 Y234.155352 Z-0.125000 I-0.070390 J-39.151248
G02 X55.056301 Y234.022056 Z-0.125000 I-2.940430 J-57.102272
G02 X57.069739 Y233.789304 Z-0.125000 I-2.927704 J-34.151419
G02 X59.072880 Y233.451286 Z-0.125000 I-6.505920 J-44.659453
G02 X61.097385 Y232.992195 Z-0.125000 I-5.874631 J-30.599388
G02 X63.093900 Y232.408505 Z-0.125000 I-9.379161 J-35.787890
G02 X65.048038 Y231.698376 Z-0.125000 I-8.876946 J-27.471405
G02 X66.950953 Y230.852867 Z-0.125000 I-11.646122 J-28.775058
G02 X68.741251 Y229.898497 Z-0.125000 I-11.626513 J-23.966518
G02 X70.454375 Y228.808508 Z-0.125000 I-13.180545 J-22.606963
G02 X71.989931 Y227.651034 Z-0.125000 I-13.529322 J-19.545894
G02 X73.421899 Y226.367633 Z-0.125000 I-13.738691 J-16.769656
G02 X74.628334 Y225.075459 Z-0.125000 I-13.874932 J-14.163572
G02 X75.688746 Y223.684520 Z-0.125000 I-12.072496 J-10.303406
G02 X76.532017 Y222.329085 Z-0.125000 I-16.638983 J-11.291817
G02 X77.203932 Y220.935034 Z-0.125000 I-9.944167 J-5.651918
G03 X77.781460 Y219.527770 Z-0.125000 I88.274527 J35.404890
G02 X78.373465 Y218.080423 Z-0.125000 I-78.683291 J-33.028388
G02 X78.954264 Y216.558596 Z-0.125000 I-52.118954 J-20.762721
G02 X79.502865 Y215.015471 Z-0.125000 I-90.615837 J-33.084210
G02 X80.017350 Y213.403774 Z-0.125000 I-33.181968 J-11.480302
G02 X80.468278 Y211.768711 Z-0.125000 I-51.502289 J-15.083323
G02 X80.847612 Y210.093745 Z-0.125000 I-27.190272 J-7.038290
G02 X81.136268 Y208.396634 Z-0.125000 I-35.711644 J-6.947190
G02 X81.320297 Y206.706078 Z-0.125000 I-23.130279 J-3.373188
G02 X81.388681 Y205.003878 Z-0.125000 I-26.643443 J-1.922837
G02 X81.332971 Y203.368424 Z-0.125000 I-19.343121 J-0.159773
G02 X81.141556 Y201.742065 Z-0.125000 I-20.011865 J1.530860
G02 X80.826061 Y200.245493 Z-0.125000 I-15.169565 J2.416374
G02 X80.361591 Y198.789713 Z-0.125000 I-14.417373 J3.797920
G02 X79.790759 Y197.514006 Z-0.125000 I-10.792898 J4.063860
G02 X79.067914 Y196.323179 Z-0.125000 I-9.624963 J5.027651
G02 X78.261043 Y195.335004 Z-0.125000 I-6.979580 J4.875510
G02 X77.318198 Y194.486189 Z-0.125000 I-5.894642 J5.599588
G02 X76.293829 Y193.832800 Z-0.125000 I-4.254268 J5.540057
G02 X75.178036 Y193.367108 Z-0.125000 I-3.280518 J6.290534
G02 X73.946168 Y193.084786 Z-0.125000 I-2.276994 J7.106620
G02 X72.688249 Y193.003896 Z-0.125000 I-1.158046 J8.187306
G02 X71.257513 Y193.120444 Z-0.125000 I0.125370 J10.379090
G02 X69.861917 Y193.415030 Z-0.125000 I1.859129 J12.260717
G02 X68.222156 Y193.952730 Z-0.125000 I4.416784 J16.238491
G02 X66.617300 Y194.659596 Z-0.125000 I6.755929 J17.513781
G02 X64.724712 Y195.640462 Z-0.125000 I28.702106 J57.697200
G02 X62.863823 Y196.704838 Z-0.125000 I20.472742 J37.952216
G03 X60.738277 Y197.989785 Z-0.125000 I-953.643661 J-1575.106839
G02 X58.618467 Y199.295401 Z-0.125000 I71.710384 J118.803244
G03 X56.292926 Y200.729928 Z-0.125000 I-87.725952 J-139.612139
G03 X53.951181 Y202.143233 Z-0.125000 I-496.105306 J-819.363794
G03 X51.491993 Y203.588197 Z-0.125000 I-71.061456 J-118.124585
G03 X49.007724 Y204.988352 Z-0.125000 I-92.652517 J-161.487660
G03 X46.515465 Y206.339691 Z-0.125000 I-78.671176 J-142.118498
G03 X44.001281 Y207.641654 Z-0.125000 I-64.483826 J-121.444325
G03 X41.593954 Y208.843808 Z-0.125000 I-138.366608 J-274.069477
G03 X39.175702 Y210.009927 Z-0.125000 I-62.950307 J-127.453331
G02 X36.966471 Y211.056026 Z-0.125000 I220.708220 J468.964251
G03 X34.761330 Y212.093657 Z-0.125000 I-109.624198 J-230.107868
G02 X32.840214 Y213.014120 Z-0.125000 I38.104372 J81.993404
G02 X30.941270 Y213.962508 Z-0.125000 I102.139035 J206.886847
G02 X29.366187 Y214.808255 Z-0.125000 I16.136870 J31.942203
G02 X27.837719 Y215.720824 Z-0.125000 I21.497977 J37.743390
G02 X26.634976 Y216.548512 Z-0.125000 I8.797923 J14.072286
G02 X25.519925 Y217.476397 Z-0.125000 I9.244486 J12.243148
G02 X24.688511 Y218.340250 Z-0.125000 I6.409674 J7.001002
G02 X24.000680 Y219.321343 Z-0.125000 I4.995585 J4.234001
G02 X23.499977 Y220.247422 Z-0.125000 I18.888030 J10.810577
G02 X23.068529 Y221.218469 Z-0.125000 I8.876639 J4.525367
G02 X22.761100 Y222.120929 Z-0.125000 I12.224395 J4.667920
G02 X22.530897 Y223.044966 Z-0.125000 I9.556707 J2.871530
G02 X22.405143 Y223.891130 Z-0.125000 I8.584656 J1.708257
G02 X22.368587 Y224.744512 Z-0.125000 I7.614789 J0.753660
G02 X22.424457 Y225.522300 Z-0.125000 I6.648132 J-0.086647
G02 X22.574655 Y226.285050 Z-0.125000 I6.021775 J-0.789618
G02 X22.810903 Y226.985531 Z-0.125000 I5.352471 J-1.415124
G02 X23.138739 Y227.645759 Z-0.125000 I4.955456 J-2.049126
G02 X23.558715 Y228.265303 Z-0.125000 I4.892806 J-2.864614
G02 X24.055858 Y228.824749 Z-0.125000 I4.564578 J-3.555629
G02 X24.662672 Y229.362762 Z-0.125000 I5.261450 J-5.323075
G02 X25.324775 Y229.834147 Z-0.125000 I4.819142 J-6.068232
G02 X26.114095 Y230.294679 Z-0.125000 I6.440035 J-10.131096
G02 X26.938063 Y230.694762 Z-0.125000 I5.664459 J-10.617383
G02 X27.897698 Y231.088674 Z-0.125000 I8.533371 J-19.422853
G02 X28.877284 Y231.434325 Z-0.125000 I7.175035 J-18.773359
G02 X29.991293 Y231.776505 Z-0.125000 I11.697781 J-36.099073
G02 X31.116306 Y232.082691 Z-0.125000 I9.604009 J-33.067925
G02 X32.368526 Y232.387152 Z-0.125000 I15.424916 J-60.713893
G02 X33.626726 Y232.664701 Z-0.125000 I13.122567 J-56.497186
G02 X35.003204 Y232.940620 Z-0.125000 I17.558736 J-84.024080
G02 X36.381204 Y233.193045 Z-0.125000 I15.572455 J-81.123290
G02 X37.874065 Y233.443994 Z-0.125000 I21.145637 J-121.226303
G02 X39.369427 Y233.677649 Z-0.125000 I22.403768 J-138.479346
G02 X40.983105 Y233.908062 Z-0.125000 I15.621269 J-103.636453
G02 X42.599943 Y234.118456 Z-0.125000 I23.432031 J-173.752652
G02 X44.339722 Y234.315949 Z-0.125000 I9.296153 J-74.131228
G02 X46.084256 Y234.482304 Z-0.125000 I14.199684 J-139.678843
G02 X47.953867 Y234.616713 Z-0.125000 I4.873460 J-54.718734
G02 X49.829700 Y234.701262 Z-0.125000 I5.311778 J-96.998320
G02 X51.823878 Y234.725798 Z-0.125000 I1.528693 J-43.193336
G02 X53.822355 Y234.675076 Z-0.125000 I-0.736654 J-68.419889
G02 X55.915932 Y234.530946 Z-0.125000 I-1.459013 J-36.470452
G02 X58.005368 Y234.283306 Z-0.125000 I-4.998857 J-51.115760
G02 X60.145214 Y233.912010 Z-0.125000 I-4.494714 J-32.255666
G02 X62.264111 Y233.411796 Z-0.125000 I-8.315295 J-39.961362
G02 X64.368179 Y232.772181 Z-0.125000 I-7.679011 J-29.041313
G02 X66.426874 Y231.986896 Z-0.125000 I-10.978541 J-31.872413
G02 X68.392912 Y231.071063 Z-0.125000 I-10.801285 J-25.755528
G02 X70.284744 Y230.005043 Z-0.125000 I-12.941391 J-25.178358
G02 X72.006804 Y228.846018 Z-0.125000 I-13.298245 J-21.617134
G02 X73.624871 Y227.544670 Z-0.125000 I-13.962430 J-19.017189
G02 X75.011384 Y226.211787 Z-0.125000 I-14.332266 J-16.296537
G02 X76.260466 Y224.756686 Z-0.125000 I-13.508313 J-12.859415
G02 X77.250550 Y223.337659 Z-0.125000 I-14.053179 J-10.860105
