%
(Header)
(Generated by gcodetools from Inkscape.)
(Using default header. To add your own header create file "header" in the output dir.)
M3
(Header end.)
G21 (All units in mm)

(Start cutting path id: polyline2216)
(Change tool to Default tool)

G00 Z3.000000
G00 X116.137634 Y165.649372

G00 Z4.875000 (Fast pre-penetrate)
G01 Z-0.125000 F400.0(Penetrate)
G01 X115.473538 Y169.274896 Z-0.125000 F800.000000
G01 X114.602263 Y172.300166 Z-0.125000
G01 X113.595672 Y174.420850 Z-0.125000
G01 X112.378087 Y175.787723 Z-0.125000
G01 X111.068458 Y176.430732 Z-0.125000
G01 X109.272158 Y176.627497 Z-0.125000
G01 X106.793262 Y176.352531 Z-0.125000
G01 X103.234555 Y175.578022 Z-0.125000
G01 X95.308478 Y173.328037 Z-0.125000
G01 X87.869009 Y170.682260 Z-0.125000
G01 X82.751969 Y168.515393 Z-0.125000
G01 X70.215834 Y162.662782 Z-0.125000
G01 X55.265162 Y156.661207 Z-0.125000
G01 X52.536009 Y155.061607 Z-0.125000
G01 X50.666747 Y153.368734 Z-0.125000
G01 X49.345928 Y151.317325 Z-0.125000
G01 X48.619737 Y149.013589 Z-0.125000
G01 X48.433645 Y145.348221 Z-0.125000
G01 X49.130341 Y141.067720 Z-0.125000
G01 X50.754327 Y136.087807 Z-0.125000
G01 X53.067830 Y131.137841 Z-0.125000
G01 X55.488253 Y127.237351 Z-0.125000
G01 X58.462553 Y123.560145 Z-0.125000
G01 X61.961752 Y120.254024 Z-0.125000
G01 X65.640187 Y117.600808 Z-0.125000
G01 X69.323020 Y115.576760 Z-0.125000
G01 X73.138905 Y114.013899 Z-0.125000
G01 X77.248449 Y112.838358 Z-0.125000
G01 X81.773191 Y112.060485 Z-0.125000
G01 X86.011195 Y111.743281 Z-0.125000
G01 X90.719183 Y111.745222 Z-0.125000
G01 X102.016323 Y112.226913 Z-0.125000
G01 X105.815584 Y112.760868 Z-0.125000
G01 X108.135620 Y113.536024 Z-0.125000
G01 X110.014003 Y114.582718 Z-0.125000
G01 X111.711145 Y116.025657 Z-0.125000
G01 X113.185261 Y117.891492 Z-0.125000
G01 X114.323675 Y119.995681 Z-0.125000
G01 X115.304069 Y122.676581 Z-0.125000
G01 X116.026380 Y125.741696 Z-0.125000
G01 X116.513569 Y129.137015 Z-0.125000
G01 X116.863437 Y133.954639 Z-0.125000
G01 X117.005480 Y140.229046 Z-0.125000
G01 X117.022362 Y157.273493 Z-0.125000
G01 X116.789958 Y163.545570 Z-0.125000
G01 X116.167388 Y168.401423 Z-0.125000
G01 X115.223863 Y172.321253 Z-0.125000
G01 X114.105501 Y174.865543 Z-0.125000
G01 X112.685912 Y176.366567 Z-0.125000
G01 X111.428417 Y176.877236 Z-0.125000
G01 X109.805207 Y177.009771 Z-0.125000
G01 X104.512683 Y176.158807 Z-0.125000
G01 X94.817602 Y173.507661 Z-0.125000
G01 X85.862943 Y170.240220 Z-0.125000
G01 X70.198046 Y163.098355 Z-0.125000
G01 X56.758295 Y158.015014 Z-0.125000
G01 X53.205216 Y156.404547 Z-0.125000
G01 X51.069396 Y155.012189 Z-0.125000
G01 X49.509963 Y153.468668 Z-0.125000
G01 X48.383322 Y151.623403 Z-0.125000
G01 X47.699756 Y149.437260 Z-0.125000
G01 X47.502345 Y145.707403 Z-0.125000
G01 X48.211266 Y141.331625 Z-0.125000
G01 X49.771410 Y136.477325 Z-0.125000
G01 X52.093904 Y131.395343 Z-0.125000
G01 X54.527134 Y127.372732 Z-0.125000
G01 X57.527824 Y123.566161 Z-0.125000
G01 X61.071396 Y120.131709 Z-0.125000
G01 X64.808433 Y117.367239 Z-0.125000
G01 X68.558795 Y115.253218 Z-0.125000
G01 X72.451200 Y113.617783 Z-0.125000
G01 X76.647419 Y112.386291 Z-0.125000
G01 X81.003210 Y111.604278 Z-0.125000
G01 X85.101435 Y111.259132 Z-0.125000
G01 X89.515505 Y111.219158 Z-0.125000
G01 X102.239154 Y111.650268 Z-0.125000
G01 X105.907369 Y112.125555 Z-0.125000
G01 X108.244481 Y112.889586 Z-0.125000
G01 X110.135347 Y113.940937 Z-0.125000
G01 X111.842386 Y115.402893 Z-0.125000
G01 X113.217926 Y117.140850 Z-0.125000
G01 X114.377103 Y119.258429 Z-0.125000
G01 X115.308597 Y121.745799 Z-0.125000
G01 X116.063960 Y124.827213 Z-0.125000
G01 X116.577411 Y128.257849 Z-0.125000
G01 X117.104509 Y138.314570 Z-0.125000
G01 X117.311752 Y158.236552 Z-0.125000
G01 X117.155091 Y164.073704 Z-0.125000
G01 X116.606389 Y168.795663 Z-0.125000
G01 X115.714545 Y172.750487 Z-0.125000
G01 X114.636415 Y175.289020 Z-0.125000
G01 X113.243087 Y176.764495 Z-0.125000
G01 X111.991350 Y177.255630 Z-0.125000
G01 X110.358890 Y177.373740 Z-0.125000
G01 X104.618892 Y176.452207 Z-0.125000
G01 X95.000912 Y173.905653 Z-0.125000
G01 X86.308412 Y170.798366 Z-0.125000
G01 X69.937440 Y163.434575 Z-0.125000
G01 X55.894007 Y158.338880 Z-0.125000
G01 X52.284653 Y156.761853 Z-0.125000
G01 X50.124836 Y155.376805 Z-0.125000
G01 X48.554860 Y153.821576 Z-0.125000
G01 X47.428607 Y151.944875 Z-0.125000
G01 X46.756166 Y149.707828 Z-0.125000
G01 X46.594201 Y145.875966 Z-0.125000
G01 X47.360625 Y141.373151 Z-0.125000
G01 X48.994960 Y136.379202 Z-0.125000
G01 X51.401024 Y131.156341 Z-0.125000
G01 X53.916207 Y127.027456 Z-0.125000
G01 X57.013533 Y123.127354 Z-0.125000
G01 X60.421206 Y119.823820 Z-0.125000
G01 X64.238579 Y116.978044 Z-0.125000
G01 X68.069471 Y114.805356 Z-0.125000
G01 X72.043505 Y113.129882 Z-0.125000
G01 X76.039855 Y111.942568 Z-0.125000
G01 X80.486202 Y111.122846 Z-0.125000
G01 X84.414376 Y110.773430 Z-0.125000
G01 X88.483235 Y110.708295 Z-0.125000
G01 X102.611920 Y111.071747 Z-0.125000
G01 X105.987381 Y111.483969 Z-0.125000
G01 X108.188207 Y112.171221 Z-0.125000
G01 X110.103653 Y113.195664 Z-0.125000
G01 X111.836952 Y114.642355 Z-0.125000
G01 X113.236425 Y116.378436 Z-0.125000
G01 X114.417529 Y118.507270 Z-0.125000
G01 X115.367329 Y121.019801 Z-0.125000
G01 X116.087440 Y123.889509 Z-0.125000
G01 X116.628769 Y127.351581 Z-0.125000
G01 X117.177148 Y136.319047 Z-0.125000
G01 X117.630961 Y159.189327 Z-0.125000
G01 X117.551984 Y164.376807 Z-0.125000
G01 X117.062789 Y169.173798 Z-0.125000
G01 X116.225214 Y173.160510 Z-0.125000
G01 X115.188934 Y175.690764 Z-0.125000
G01 X113.896511 Y177.093341 Z-0.125000
G01 X112.667154 Y177.593920 Z-0.125000
G01 X110.933078 Y177.719533 Z-0.125000
G01 X105.079949 Y176.817405 Z-0.125000
G01 X95.676134 Y174.453191 Z-0.125000
G01 X87.043982 Y171.472164 Z-0.125000
G01 X69.685954 Y163.780756 Z-0.125000
G01 X64.262512 Y161.752245 Z-0.125000
G01 X54.826097 Y158.609641 Z-0.125000
G01 X51.366936 Y157.139794 Z-0.125000
G01 X49.185515 Y155.761084 Z-0.125000
G01 X47.607001 Y154.192208 Z-0.125000
G01 X46.482624 Y152.281484 Z-0.125000
G01 X45.854232 Y150.167074 Z-0.125000
G01 X45.667105 Y146.479519 Z-0.125000
G01 X46.399959 Y141.908012 Z-0.125000
G01 X48.129249 Y136.546471 Z-0.125000
G01 X50.581560 Y131.184542 Z-0.125000
G01 X53.143638 Y126.939035 Z-0.125000
G01 X56.301636 Y122.924833 Z-0.125000
G01 X59.778908 Y119.523498 Z-0.125000
G01 X63.675841 Y116.594929 Z-0.125000
G01 X67.300977 Y114.505034 Z-0.125000
G01 X71.349590 Y112.751812 Z-0.125000
G01 X75.425823 Y111.507319 Z-0.125000
G01 X79.962725 Y110.647429 Z-0.125000
G01 X83.710435 Y110.295167 Z-0.125000
G01 X87.644237 Y110.208622 Z-0.125000
G01 X102.816705 Y110.474209 Z-0.125000
G01 X106.055557 Y110.835784 Z-0.125000
G01 X108.271324 Y111.510489 Z-0.125000
G01 X110.199383 Y112.537454 Z-0.125000
G01 X111.817095 Y113.872309 Z-0.125000
G01 X113.241470 Y115.604380 Z-0.125000
G01 X114.445537 Y117.742463 Z-0.125000
G01 X115.414741 Y120.278150 Z-0.125000
G01 X116.149859 Y123.184857 Z-0.125000
G01 X116.668225 Y126.418858 Z-0.125000
G01 X117.233357 Y134.566666 Z-0.125000
G01 X117.981993 Y160.130329 Z-0.125000
G01 X117.955344 Y164.882301 Z-0.125000
G01 X117.537495 Y169.535373 Z-0.125000
G01 X116.756711 Y173.550740 Z-0.125000
G01 X115.763445 Y176.070321 Z-0.125000
G01 X114.496895 Y177.447802 Z-0.125000
G01 X113.273230 Y177.931304 Z-0.125000
G01 X111.527576 Y178.047668 Z-0.125000
G01 X105.182601 Y177.103237 Z-0.125000
G01 X95.885447 Y174.861144 Z-0.125000
G01 X87.551353 Y172.053143 Z-0.125000
G01 X69.158985 Y164.025903 Z-0.125000
G01 X63.588390 Y162.022036 Z-0.125000
G01 X53.957410 Y158.976456 Z-0.125000
G01 X50.452971 Y157.538691 Z-0.125000
G01 X48.252404 Y156.165092 Z-0.125000
G01 X46.667228 Y154.580497 Z-0.125000
G01 X45.546278 Y152.632904 Z-0.125000
G01 X44.930306 Y150.465973 Z-0.125000
G01 X44.778690 Y146.674796 Z-0.125000
G01 X45.570922 Y141.970042 Z-0.125000
G01 X47.380483 Y136.456109 Z-0.125000
G01 X49.917981 Y130.948968 Z-0.125000
G01 X52.563888 Y126.594406 Z-0.125000
G01 X55.598730 Y122.731238 Z-0.125000
G01 X59.144889 Y119.230486 Z-0.125000
G01 X63.120541 Y116.217700 Z-0.125000
G01 X66.818833 Y114.070885 Z-0.125000
G01 X70.947459 Y112.274843 Z-0.125000
G01 X75.100276 Y111.006805 Z-0.125000
G01 X79.433104 Y110.178092 Z-0.125000
G01 X82.989548 Y109.824343 Z-0.125000
G01 X86.778654 Y109.715935 Z-0.125000
G01 X95.966818 Y109.978352 Z-0.125000
G01 X103.174335 Y109.870203 Z-0.125000
G01 X106.112154 Y110.180744 Z-0.125000
G01 X108.187172 Y110.780416 Z-0.125000
G01 X110.140134 Y111.776334 Z-0.125000
G01 X111.783266 Y113.093013 Z-0.125000
G01 X113.233579 Y114.818810 Z-0.125000
G01 X114.461902 Y116.964073 Z-0.125000
G01 X115.378583 Y119.292711 Z-0.125000
G01 X116.093779 Y121.947673 Z-0.125000
G01 X116.658587 Y125.177146 Z-0.125000
G01 X117.254120 Y132.436086 Z-0.125000
G01 X118.387618 Y165.156749 Z-0.125000
G01 X118.031282 Y169.879937 Z-0.125000
G01 X117.347392 Y173.772019 Z-0.125000
G01 X116.412794 Y176.334355 Z-0.125000
G01 X115.191198 Y177.733375 Z-0.125000
G01 X113.991012 Y178.228715 Z-0.125000
G01 X112.257971 Y178.361961 Z-0.125000
G01 X105.662545 Y177.462355 Z-0.125000
G01 X96.609892 Y175.415604 Z-0.125000
G01 X88.361373 Y172.749128 Z-0.125000
G01 X68.916943 Y164.392912 Z-0.125000
G01 X63.185159 Y162.395384 Z-0.125000
G01 X53.089498 Y159.364552 Z-0.125000
G01 X49.543663 Y157.958740 Z-0.125000
G01 X47.457973 Y156.690120 Z-0.125000
G01 X45.834504 Y155.112641 Z-0.125000
G01 X44.684059 Y153.154246 Z-0.125000
G01 X44.049135 Y150.960083 Z-0.125000
G01 X43.886717 Y147.100149 Z-0.125000
G01 X44.691498 Y142.291774 Z-0.125000
G01 X46.537539 Y136.644142 Z-0.125000
G01 X49.121609 Y130.993987 Z-0.125000
G01 X51.814410 Y126.519698 Z-0.125000
G01 X54.905333 Y122.546504 Z-0.125000
G01 X58.519473 Y118.944719 Z-0.125000
G01 X62.572808 Y115.846228 Z-0.125000
G01 X66.343416 Y113.641457 Z-0.125000
G01 X70.248240 Y111.914949 Z-0.125000
G01 X74.479711 Y110.585139 Z-0.125000
G01 X78.897274 Y109.714770 Z-0.125000
G01 X85.885711 Y109.230621 Z-0.125000
G01 X95.831760 Y109.491615 Z-0.125000
G01 X103.362820 Y109.249638 Z-0.125000
G01 X106.320820 Y109.550541 Z-0.125000
G01 X108.402242 Y110.165931 Z-0.125000
G01 X110.356626 Y111.196196 Z-0.125000
G01 X111.996524 Y112.560999 Z-0.125000
G01 X113.326722 Y114.184467 Z-0.125000
G01 X114.467270 Y116.172228 Z-0.125000
G01 X115.404262 Y118.518137 Z-0.125000
G01 X116.135887 Y121.202400 Z-0.125000
G01 X116.713826 Y124.476698 Z-0.125000
G01 X117.279993 Y130.890107 Z-0.125000
G01 X117.810390 Y146.706102 Z-0.125000
G01 X118.725973 Y160.782200 Z-0.125000
G01 X118.837421 Y165.415156 Z-0.125000
G01 X118.544991 Y170.207296 Z-0.125000
G01 X117.919639 Y174.121434 Z-0.125000
G01 X117.030448 Y176.669605 Z-0.125000
G01 X115.835178 Y178.043722 Z-0.125000
G01 X114.549482 Y178.543654 Z-0.125000
G01 X112.657063 Y178.648763 Z-0.125000
G01 X105.346183 Y177.678654 Z-0.125000
G01 X96.581885 Y175.766766 Z-0.125000
G01 X88.649534 Y173.248931 Z-0.125000
G01 X68.683503 Y164.771370 Z-0.125000
G01 X62.504439 Y162.694671 Z-0.125000
G01 X52.223140 Y159.774251 Z-0.125000
G01 X48.639982 Y158.399940 Z-0.125000
G01 X46.540838 Y157.133778 Z-0.125000
G01 X44.913553 Y155.537282 Z-0.125000
G01 X43.768477 Y153.537296 Z-0.125000
G01 X43.147524 Y151.285566 Z-0.125000
G01 X43.022816 Y147.314248 Z-0.125000
G01 X43.889822 Y142.365318 Z-0.125000
G01 X45.818851 Y136.559408 Z-0.125000
G01 X48.489466 Y130.759901 Z-0.125000
G01 X51.267713 Y126.174099 Z-0.125000
G01 X54.451261 Y122.109832 Z-0.125000
G01 X58.165659 Y118.436055 Z-0.125000
G01 X62.033032 Y115.480383 Z-0.125000
G01 X65.874920 Y113.216686 Z-0.125000
G01 X69.852188 Y111.448587 Z-0.125000
G01 X73.853130 Y110.172076 Z-0.125000
G01 X78.355298 Y109.257335 Z-0.125000
G01 X84.964372 Y108.753069 Z-0.125000
G01 X95.690235 Y109.010247 Z-0.125000
G01 X103.543285 Y108.617947 Z-0.125000
G01 X106.356008 Y108.879200 Z-0.125000
G01 X108.450948 Y109.481525 Z-0.125000
G01 X110.273768 Y110.416900 Z-0.125000
G01 X111.941027 Y111.760875 Z-0.125000
G01 X113.297162 Y113.376129 Z-0.125000
G01 X114.462419 Y115.367189 Z-0.125000
G01 X115.421080 Y117.728686 Z-0.125000
G01 X116.170169 Y120.440633 Z-0.125000
G01 X116.721200 Y123.468814 Z-0.125000
G01 X117.289049 Y129.300726 Z-0.125000
G01 X117.976431 Y146.714123 Z-0.125000
G01 X119.136901 Y161.207877 Z-0.125000
G01 X119.305658 Y165.657651 Z-0.125000
G01 X119.079204 Y170.517126 Z-0.125000
G01 X118.514202 Y174.449957 Z-0.125000
G01 X117.718865 Y176.888685 Z-0.125000
G01 X116.570037 Y178.285312 Z-0.125000
G01 X115.309826 Y178.800962 Z-0.125000
G01 X113.429373 Y178.930909 Z-0.125000
G01 X105.829168 Y178.043593 Z-0.125000
G01 X97.349538 Y176.331574 Z-0.125000
G01 X89.527988 Y173.966713 Z-0.125000
G01 X84.587855 Y172.048163 Z-0.125000
G01 X74.356943 Y167.501235 Z-0.125000
G01 X68.458537 Y165.161665 Z-0.125000
G01 X62.108775 Y163.095315 Z-0.125000
G01 X51.359239 Y160.206072 Z-0.125000
G01 X47.911786 Y158.941980 Z-0.125000
G01 X45.767557 Y157.697940 Z-0.125000
G01 X44.103468 Y156.107654 Z-0.125000
G01 X42.929608 Y154.094925 Z-0.125000
G01 X42.289703 Y151.813182 Z-0.125000
G01 X42.099019 Y149.785900 Z-0.125000
G01 X42.153935 Y147.768320 Z-0.125000
G01 X43.033941 Y142.710593 Z-0.125000
G01 X45.000551 Y136.766457 Z-0.125000
G01 X47.718061 Y130.820185 Z-0.125000
G01 X50.543009 Y126.111615 Z-0.125000
G01 X53.781990 Y121.934672 Z-0.125000
G01 X57.563206 Y118.157661 Z-0.125000
G01 X61.501276 Y115.119972 Z-0.125000
G01 X65.106167 Y112.957180 Z-0.125000
G01 X69.148377 Y111.107063 Z-0.125000
G01 X73.531852 Y109.685146 Z-0.125000
G01 X77.807242 Y108.805915 Z-0.125000
G01 X84.013538 Y108.284185 Z-0.125000
G01 X94.844963 Y108.541040 Z-0.125000
G01 X103.219548 Y107.982182 Z-0.125000
G01 X106.380393 Y108.200098 Z-0.125000
G01 X108.489110 Y108.788774 Z-0.125000
G01 X110.325708 Y109.724279 Z-0.125000
G01 X111.873498 Y110.951696 Z-0.125000
G01 X113.256800 Y112.556730 Z-0.125000
G01 X114.448124 Y114.549212 Z-0.125000
G01 X115.349476 Y116.693182 Z-0.125000
G01 X116.136469 Y119.399567 Z-0.125000
G01 X116.719066 Y122.437644 Z-0.125000
G01 X117.367250 Y128.978283 Z-0.125000
G01 X118.193635 Y147.365865 Z-0.125000
G01 X119.573444 Y161.620228 Z-0.125000
G01 X119.795305 Y166.117674 Z-0.125000
G01 X119.634699 Y170.809232 Z-0.125000
G01 X119.131403 Y174.757264 Z-0.125000
G01 X118.380180 Y177.178981 Z-0.125000
G01 X117.257160 Y178.551416 Z-0.125000
G01 X115.909045 Y179.074569 Z-0.125000
G01 X113.978529 Y179.191580 Z-0.125000
G01 X105.883048 Y178.345790 Z-0.125000
G01 X97.598113 Y176.767535 Z-0.125000
G01 X90.152628 Y174.591871 Z-0.125000
G01 X85.097489 Y172.673450 Z-0.125000
G01 X73.984501 Y167.791401 Z-0.125000
G01 X67.924000 Y165.452543 Z-0.125000
G01 X61.421588 Y163.426749 Z-0.125000
G01 X50.498702 Y160.660144 Z-0.125000
G01 X47.023241 Y159.425030 Z-0.125000
G01 X44.869504 Y158.180990 Z-0.125000
G01 X43.204380 Y156.567612 Z-0.125000
G01 X42.104194 Y154.671053 Z-0.125000
G01 X41.445078 Y152.358521 Z-0.125000
G01 X41.245468 Y150.295857 Z-0.125000
G01 X41.297472 Y148.238498 Z-0.125000
G01 X42.189963 Y143.069970 Z-0.125000
G01 X44.076690 Y137.285858 Z-0.125000
G01 X46.800215 Y131.197285 Z-0.125000
G01 X49.630855 Y126.355016 Z-0.125000
G01 X52.885748 Y122.042692 Z-0.125000
G01 X56.698076 Y118.128553 Z-0.125000
G01 X60.680390 Y114.969455 Z-0.125000
G01 X64.334504 Y112.713262 Z-0.125000
G01 X68.439908 Y110.777635 Z-0.125000
G01 X72.582441 Y109.372599 Z-0.125000
G01 X76.948581 Y108.409475 Z-0.125000
G01 X83.303064 Y107.816789 Z-0.125000
G01 X94.870318 Y108.073837 Z-0.125000
G01 X103.214438 Y107.338849 Z-0.125000
G01 X106.394429 Y107.512910 Z-0.125000
G01 X108.357740 Y108.027913 Z-0.125000
G01 X110.219693 Y108.928747 Z-0.125000
G01 X111.794521 Y110.133590 Z-0.125000
G01 X113.206283 Y111.726464 Z-0.125000
G01 X114.425162 Y113.718623 Z-0.125000
G01 X115.349024 Y115.873136 Z-0.125000
G01 X116.091903 Y118.340001 Z-0.125000
G01 X116.708134 Y121.384029 Z-0.125000
G01 X117.401014 Y127.978808 Z-0.125000
G01 X118.327334 Y146.694330 Z-0.125000
G01 X120.012122 Y161.773073 Z-0.125000
G01 X120.305910 Y166.332614 Z-0.125000
G01 X120.211991 Y171.083293 Z-0.125000
G01 X119.771567 Y175.043097 Z-0.125000
G01 X119.064263 Y177.445926 Z-0.125000
G01 X117.965693 Y178.795011 Z-0.125000
G01 X116.618937 Y179.310661 Z-0.125000
G01 X114.666105 Y179.441255 Z-0.125000
G01 X105.913320 Y178.659371 Z-0.125000
G01 X97.849081 Y177.212745 Z-0.125000
G01 X90.503467 Y175.126408 Z-0.125000
G01 X84.710622 Y172.935026 Z-0.125000
G01 X73.277132 Y167.957441 Z-0.125000
G01 X67.706731 Y165.867676 Z-0.125000
G01 X60.728190 Y163.776487 Z-0.125000
G01 X49.642369 Y161.136790 Z-0.125000
G01 X46.143040 Y159.929166 Z-0.125000
G01 X43.982124 Y158.682927 Z-0.125000
G01 X42.317517 Y157.043352 Z-0.125000
G01 X41.224704 Y155.100610 Z-0.125000
G01 X40.580854 Y152.722748 Z-0.125000
G01 X40.399484 Y150.598701 Z-0.125000
G01 X40.473157 Y148.479635 Z-0.125000
G01 X41.431365 Y143.159814 Z-0.125000
G01 X43.400239 Y137.217036 Z-0.125000
G01 X46.211215 Y130.972707 Z-0.125000
G01 X48.926009 Y126.318923 Z-0.125000
G01 X52.234006 Y121.890752 Z-0.125000
G01 X56.110046 Y117.869564 Z-0.125000
G01 X60.160018 Y114.624891 Z-0.125000
G01 X63.876357 Y112.309836 Z-0.125000
G01 X67.726912 Y110.460690 Z-0.125000
G01 X71.938525 Y108.986444 Z-0.125000
G01 X76.382738 Y107.972674 Z-0.125000
G01 X82.298738 Y107.365369 Z-0.125000
G01 X94.714498 Y107.612198 Z-0.125000
G01 X103.033004 Y106.699332 Z-0.125000
G01 X106.398569 Y106.817507 Z-0.125000
G01 X108.375592 Y107.318539 Z-0.125000
G01 X110.101906 Y108.126554 Z-0.125000
G01 X111.704806 Y109.306817 Z-0.125000
G01 X113.146452 Y110.885655 Z-0.125000
G01 X114.289652 Y112.677751 Z-0.125000
G01 X115.255622 Y114.808008 Z-0.125000
G01 X116.036923 Y117.263100 Z-0.125000
G01 X116.688924 Y120.309198 Z-0.125000
G01 X117.429281 Y126.951389 Z-0.125000
G01 X118.484189 Y146.326933 Z-0.125000
G01 X120.470527 Y161.908713 Z-0.125000
G01 X120.837148 Y166.531901 Z-0.125000
G01 X120.811598 Y171.339306 Z-0.125000
G01 X120.434822 Y175.307325 Z-0.125000
G01 X119.770920 Y177.689585 Z-0.125000
G01 X118.760966 Y178.971077 Z-0.125000
G01 X117.440212 Y179.509560 Z-0.125000
G01 X115.370692 Y179.677605 Z-0.125000
G01 X106.399280 Y179.044233 Z-0.125000
G01 X98.681288 Y177.794048 Z-0.125000
G01 X91.175907 Y175.773881 Z-0.125000
G01 X85.880472 Y173.842782 Z-0.125000
G01 X74.220592 Y168.810152 Z-0.125000
G01 X67.497159 Y166.295875 Z-0.125000
G01 X60.340030 Y164.222344 Z-0.125000
G01 X48.791340 Y161.635946 Z-0.125000
G01 X45.445956 Y160.530391 Z-0.125000
G01 X43.244289 Y159.305238 Z-0.125000
G01 X41.545401 Y157.669027 Z-0.125000
G01 X40.426392 Y155.710891 Z-0.125000
G01 X39.762942 Y153.299070 Z-0.125000
G01 X39.572258 Y151.136925 Z-0.125000
G01 X39.642827 Y148.975556 Z-0.125000
G01 X40.613583 Y143.539630 Z-0.125000
G01 X42.618938 Y137.459660 Z-0.125000
G01 X45.476486 Y131.064168 Z-0.125000
G01 X48.233258 Y126.291627 Z-0.125000
G01 X51.593325 Y121.746316 Z-0.125000
G01 X55.531913 Y117.616785 Z-0.125000
G01 X59.648185 Y114.285243 Z-0.125000
G01 X63.425454 Y111.910615 Z-0.125000
G01 X67.338558 Y110.017485 Z-0.125000
G01 X71.616665 Y108.513614 Z-0.125000
G01 X75.810620 Y107.542017 Z-0.125000
G01 X79.205357 Y107.079601 Z-0.125000
G01 X82.949056 Y106.864726 Z-0.125000
G01 X95.065336 Y107.134905 Z-0.125000
G01 X103.008166 Y106.043903 Z-0.125000
G01 X106.393394 Y106.113566 Z-0.125000
G01 X108.384971 Y106.600432 Z-0.125000
G01 X110.126809 Y107.406442 Z-0.125000
G01 X111.746073 Y108.596537 Z-0.125000
G01 X113.078017 Y110.034755 Z-0.125000
G01 X114.249355 Y111.822776 Z-0.125000
G01 X115.240939 Y113.959436 Z-0.125000
G01 X116.043909 Y116.431605 Z-0.125000
G01 X116.662145 Y119.214122 Z-0.125000
G01 X117.452825 Y125.897063 Z-0.125000
G01 X118.641821 Y145.936703 Z-0.125000
G01 X119.369759 Y151.901473 Z-0.125000
G01 X120.982813 Y162.278891 Z-0.125000
G01 X121.389602 Y166.715665 Z-0.125000
G01 X121.433910 Y171.577015 Z-0.125000
G01 X121.121363 Y175.549691 Z-0.125000
G01 X120.499958 Y177.909959 Z-0.125000
G01 X119.510573 Y179.171334 Z-0.125000
G01 X118.188590 Y179.708070 Z-0.125000
G01 X116.091321 Y179.901665 Z-0.125000
G01 X106.892097 Y179.434722 Z-0.125000
G01 X99.246808 Y178.317783 Z-0.125000
G01 X91.875385 Y176.431832 Z-0.125000
G01 X86.460416 Y174.512052 Z-0.125000
G01 X74.192843 Y169.271792 Z-0.125000
G01 X67.295091 Y166.737527 Z-0.125000
G01 X59.959243 Y164.682885 Z-0.125000
G01 X47.946391 Y162.157676 Z-0.125000
G01 X44.585742 Y161.075536 Z-0.125000
G01 X42.380712 Y159.844626 Z-0.125000
G01 X40.788744 Y158.312683 Z-0.125000
G01 X39.643409 Y156.338506 Z-0.125000
G01 X38.959778 Y153.891822 Z-0.125000
G01 X38.759327 Y151.690673 Z-0.125000
G01 X38.826209 Y149.485966 Z-0.125000
G01 X39.733253 Y144.228047 Z-0.125000
G01 X41.726512 Y138.034753 Z-0.125000
G01 X44.754628 Y131.165137 Z-0.125000
G01 X47.552862 Y126.272804 Z-0.125000
G01 X50.964158 Y121.609060 Z-0.125000
G01 X54.963935 Y117.369891 Z-0.125000
G01 X59.144825 Y113.950446 Z-0.125000
G01 X62.981732 Y111.515340 Z-0.125000
G01 X66.956090 Y109.577578 Z-0.125000
G01 X70.966799 Y108.141560 Z-0.125000
G01 X75.232228 Y107.117764 Z-0.125000
G01 X78.687120 Y106.628246 Z-0.125000
G01 X82.496278 Y106.399270 Z-0.125000
G01 X94.727628 Y106.686848 Z-0.125000
G01 X97.326834 Y106.409813 Z-0.125000
G01 X102.974531 Y105.380389 Z-0.125000
G01 X106.549020 Y105.425732 Z-0.125000
G01 X108.386653 Y105.873400 Z-0.125000
G01 X110.145438 Y106.677469 Z-0.125000
G01 X111.782554 Y107.877655 Z-0.125000
G01 X113.129569 Y109.335924 Z-0.125000
G01 X114.313132 Y111.154540 Z-0.125000
G01 X115.221534 Y113.098123 Z-0.125000
G01 X116.047466 Y115.585880 Z-0.125000
G01 X116.683814 Y118.394334 Z-0.125000
G01 X117.472489 Y124.816734 Z-0.125000
G01 X118.241629 Y139.010102 Z-0.125000
G01 X118.801005 Y145.523834 Z-0.125000
G01 X119.617816 Y151.589703 Z-0.125000
G01 X121.487467 Y162.383289 Z-0.125000
G01 X121.978796 Y167.132285 Z-0.125000
G01 X122.075885 Y172.007478 Z-0.125000
G01 X121.831126 Y175.770129 Z-0.125000
G01 X121.250858 Y178.107176 Z-0.125000
G01 X120.280166 Y179.350052 Z-0.125000
G01 X118.954755 Y179.888794 Z-0.125000
G01 X116.693710 Y180.119452 Z-0.125000
G01 X107.136468 Y179.811304 Z-0.125000
G01 X99.524167 Y178.792229 Z-0.125000
G01 X92.278810 Y177.001815 Z-0.125000
G01 X86.736740 Y175.069228 Z-0.125000
G01 X74.173309 Y169.746627 Z-0.125000
G01 X67.100202 Y167.192828 Z-0.125000
G01 X59.259895 Y165.084887 Z-0.125000
G01 X47.108557 Y162.701915 Z-0.125000
G01 X43.736459 Y161.640991 Z-0.125000
G01 X41.530136 Y160.401349 Z-0.125000
G01 X39.941790 Y158.837777 Z-0.125000
G01 X38.805252 Y156.809719 Z-0.125000
G01 X38.137727 Y154.289102 Z-0.125000
G01 X37.956099 Y152.019972 Z-0.125000
G01 X38.045555 Y149.747931 Z-0.125000
G01 X39.017540 Y144.336261 Z-0.125000
G01 X41.095663 Y137.976862 Z-0.125000
G01 X44.046030 Y131.275163 Z-0.125000
G01 X47.096397 Y125.933738 Z-0.125000
G01 X50.599412 Y121.173034 Z-0.125000
G01 X54.406113 Y117.128625 Z-0.125000
G01 X58.650067 Y113.620241 Z-0.125000
G01 X62.545060 Y111.123945 Z-0.125000
G01 X66.579378 Y109.140971 Z-0.125000
G01 X70.649207 Y107.676298 Z-0.125000
G01 X74.974145 Y106.638854 Z-0.125000
G01 X78.472438 Y106.149659 Z-0.125000
G01 X82.038002 Y105.936466 Z-0.125000
G01 X94.554732 Y106.235105 Z-0.125000
G01 X97.129617 Y105.917772 Z-0.125000
G01 X102.932487 Y104.708725 Z-0.125000
G01 X106.528322 Y104.702904 Z-0.125000
G01 X108.381479 Y105.137635 Z-0.125000
G01 X110.158827 Y105.939829 Z-0.125000
G01 X111.671042 Y107.022551 Z-0.125000
G01 X113.049686 Y108.464714 Z-0.125000
G01 X114.264361 Y110.277315 Z-0.125000
G01 X115.198442 Y112.224520 Z-0.125000
G01 X115.972628 Y114.460985 Z-0.125000
G01 X116.647009 Y117.262453 Z-0.125000
G01 X117.489177 Y123.711697 Z-0.125000
G01 X118.314850 Y138.091415 Z-0.125000
G01 X118.919826 Y144.730372 Z-0.125000
G01 X119.870855 Y151.255165 Z-0.125000
G01 X122.014048 Y162.471192 Z-0.125000
G01 X122.579050 Y167.289141 Z-0.125000
G01 X122.747937 Y172.209481 Z-0.125000
G01 X122.563979 Y175.968769 Z-0.125000
G01 X122.060490 Y178.193269 Z-0.125000
G01 X121.131971 Y179.462147 Z-0.125000
G01 X119.830622 Y180.030901 Z-0.125000
G01 X117.577274 Y180.317186 Z-0.125000
G01 X112.811978 Y180.406901 Z-0.125000
G01 X107.893966 Y180.237756 Z-0.125000
G01 X100.422737 Y179.387568 Z-0.125000
G01 X93.024212 Y177.681694 Z-0.125000
G01 X87.023219 Y175.639988 Z-0.125000
G01 X74.161602 Y170.235110 Z-0.125000
G01 X66.912235 Y167.662295 Z-0.125000
G01 X59.891521 Y165.796525 Z-0.125000
G01 X46.956165 Y163.417175 Z-0.125000
G01 X43.076438 Y162.299978 Z-0.125000
G01 X40.833827 Y161.079158 Z-0.125000
G01 X39.215533 Y159.515650 Z-0.125000
G01 X38.052670 Y157.468575 Z-0.125000
G01 X37.364253 Y154.909602 Z-0.125000
G01 X37.172081 Y152.598493 Z-0.125000
G01 X37.257397 Y150.280463 Z-0.125000
G01 X38.239861 Y144.752041 Z-0.125000
G01 X40.354271 Y138.250534 Z-0.125000
G01 X43.350951 Y131.393920 Z-0.125000
G01 X46.444655 Y125.922548 Z-0.125000
G01 X49.997347 Y121.041599 Z-0.125000
G01 X53.858575 Y116.892986 Z-0.125000
G01 X58.163784 Y113.294499 Z-0.125000
G01 X61.779218 Y110.929574 Z-0.125000
G01 X65.864183 Y108.856044 Z-0.125000
G01 X69.993196 Y107.318409 Z-0.125000
G01 X74.388250 Y106.224238 Z-0.125000
G01 X77.946763 Y105.705031 Z-0.125000
G01 X81.862065 Y105.469845 Z-0.125000
G01 X94.211720 Y105.799015 Z-0.125000
G01 X96.925996 Y105.428966 Z-0.125000
G01 X102.882552 Y104.028652 Z-0.125000
G01 X104.773742 Y103.873673 Z-0.125000
G01 X106.500444 Y103.971085 Z-0.125000
G01 X108.370547 Y104.392751 Z-0.125000
G01 X110.008893 Y105.103612 Z-0.125000
G01 X111.552090 Y106.159685 Z-0.125000
G01 X112.963917 Y107.584190 Z-0.125000
G01 X114.211386 Y109.389352 Z-0.125000
G01 X115.172634 Y111.339080 Z-0.125000
G01 X115.970300 Y113.586735 Z-0.125000
G01 X116.665444 Y116.410584 Z-0.125000
G01 X117.503730 Y122.582856 Z-0.125000
G01 X118.385031 Y137.139416 Z-0.125000
G01 X119.079592 Y144.267116 Z-0.125000
G01 X120.192263 Y151.227804 Z-0.125000
G01 X122.563139 Y162.542731 Z-0.125000
G01 X123.202138 Y167.430860 Z-0.125000
G01 X123.443598 Y172.392792 Z-0.125000
G01 X123.319731 Y176.145353 Z-0.125000
G01 X122.852464 Y178.346114 Z-0.125000
G01 X121.938887 Y179.599598 Z-0.125000
G01 X120.536827 Y180.200758 Z-0.125000
G01 X118.060065 Y180.533162 Z-0.125000
G01 X113.028341 Y180.726433 Z-0.125000
G01 X108.131545 Y180.640017 Z-0.125000
G01 X100.714068 Y179.884072 Z-0.125000
G01 X93.458103 Y178.275868 Z-0.125000
G01 X87.319142 Y176.224266 Z-0.125000
G01 X74.157268 Y170.737176 Z-0.125000
G01 X66.730929 Y168.145862 Z-0.125000
G01 X59.547150 Y166.298462 Z-0.125000
G01 X46.369429 Y164.045179 Z-0.125000
G01 X42.251799 Y162.904307 Z-0.125000
G01 X40.011388 Y161.670163 Z-0.125000
G01 X38.398334 Y160.069463 Z-0.125000
G01 X37.244913 Y157.962168 Z-0.125000
G01 X36.606949 Y155.544592 Z-0.125000
G01 X36.403587 Y153.190533 Z-0.125000
G01 X36.484117 Y150.825672 Z-0.125000
G01 X37.476154 Y145.178493 Z-0.125000
G01 X39.626721 Y138.533197 Z-0.125000
G01 X42.669584 Y131.520633 Z-0.125000
G01 X45.588839 Y126.263102 Z-0.125000
G01 X49.147417 Y121.237523 Z-0.125000
G01 X53.025592 Y116.949131 Z-0.125000
G01 X57.361784 Y113.214875 Z-0.125000
G01 X61.011953 Y110.751697 Z-0.125000
G01 X65.145106 Y108.584248 Z-0.125000
G01 X69.331429 Y106.970352 Z-0.125000
G01 X73.457920 Y105.884396 Z-0.125000
G01 X77.093599 Y105.300442 Z-0.125000
G01 X81.104050 Y105.018296 Z-0.125000
G01 X94.032226 Y105.356198 Z-0.125000
G01 X96.716230 Y104.942941 Z-0.125000
G01 X102.654093 Y103.368760 Z-0.125000
G01 X104.552851 Y103.159577 Z-0.125000
G01 X106.466227 Y103.230404 Z-0.125000
G01 X108.354829 Y103.639004 Z-0.125000
G01 X110.013226 Y104.348055 Z-0.125000
G01 X111.577510 Y105.412795 Z-0.125000
G01 X112.873103 Y106.694998 Z-0.125000
G01 X114.155177 Y108.491299 Z-0.125000
G01 X115.145144 Y110.442320 Z-0.125000
G01 X115.967519 Y112.700066 Z-0.125000
G01 X116.621848 Y115.245521 Z-0.125000
G01 X117.549267 Y121.782862 Z-0.125000
G01 X118.482766 Y136.543043 Z-0.125000
G01 X119.242787 Y143.782061 Z-0.125000
G01 X120.462959 Y150.853227 Z-0.125000
G01 X123.135256 Y162.598488 Z-0.125000
G01 X123.872961 Y167.815075 Z-0.125000
G01 X124.168367 Y172.767821 Z-0.125000
G01 X124.084991 Y176.442440 Z-0.125000
G01 X123.630143 Y178.562477 Z-0.125000
G01 X122.763396 Y179.717191 Z-0.125000
G01 X121.253510 Y180.358001 Z-0.125000
G01 X118.532636 Y180.755735 Z-0.125000
G01 X113.444832 Y181.062201 Z-0.125000
G01 X108.632835 Y181.069574 Z-0.125000
G01 X101.002423 Y180.393965 Z-0.125000
G01 X93.902537 Y178.882720 Z-0.125000
G01 X87.975283 Y176.954015 Z-0.125000
G01 X74.159855 Y171.253278 Z-0.125000
G01 X66.178152 Y168.533116 Z-0.125000
G01 X58.858151 Y166.744578 Z-0.125000
G01 X45.560379 Y164.647244 Z-0.125000
G01 X41.620497 Y163.599257 Z-0.125000
G01 X39.346516 Y162.382060 Z-0.125000
G01 X37.704548 Y160.778966 Z-0.125000
G01 X36.524543 Y158.649421 Z-0.125000
G01 X35.830693 Y155.967874 Z-0.125000
G01 X35.646477 Y153.538978 Z-0.125000
G01 X35.750228 Y151.101026 Z-0.125000
G01 X36.726676 Y145.615036 Z-0.125000
G01 X38.780220 Y139.176077 Z-0.125000
G01 X42.002125 Y131.654849 Z-0.125000
G01 X45.180628 Y125.920931 Z-0.125000
G01 X48.565985 Y121.125751 Z-0.125000
G01 X52.494936 Y116.730568 Z-0.125000
G01 X56.888049 Y112.903299 Z-0.125000
G01 X60.586665 Y110.380225 Z-0.125000
G01 X64.774798 Y108.163164 Z-0.125000
G01 X69.016618 Y106.516668 Z-0.125000
G01 X73.195955 Y105.414542 Z-0.125000
G01 X76.874778 Y104.828259 Z-0.125000
G01 X80.925785 Y104.554586 Z-0.125000
G01 X91.248222 Y104.976705 Z-0.125000
G01 X93.849109 Y104.916680 Z-0.125000
G01 X96.500902 Y104.459568 Z-0.125000
G01 X102.588828 Y102.674393 Z-0.125000
G01 X104.498194 Y102.432997 Z-0.125000
G01 X106.426576 Y102.480668 Z-0.125000
G01 X108.335489 Y102.876461 Z-0.125000
G01 X110.015749 Y103.584024 Z-0.125000
G01 X111.603060 Y104.658014 Z-0.125000
G01 X112.918122 Y105.958134 Z-0.125000
G01 X114.096704 Y107.583802 Z-0.125000
G01 X115.116813 Y109.534953 Z-0.125000
G01 X115.965384 Y111.801690 Z-0.125000
G01 X116.640670 Y114.364608 Z-0.125000
G01 X117.564209 Y120.612301 Z-0.125000
G01 X118.583218 Y135.926747 Z-0.125000
G01 X119.409862 Y143.275661 Z-0.125000
G01 X120.740448 Y150.456594 Z-0.125000
G01 X123.730854 Y162.638979 Z-0.125000
G01 X124.546436 Y167.930404 Z-0.125000
G01 X124.914480 Y172.914328 Z-0.125000
G01 X124.887702 Y176.574328 Z-0.125000
G01 X124.496631 Y178.585051 Z-0.125000
G01 X123.604334 Y179.815638 Z-0.125000
G01 X122.079701 Y180.479346 Z-0.125000
G01 X119.149838 Y180.971322 Z-0.125000
G01 X114.085772 Y181.402172 Z-0.125000
G01 X109.420281 Y181.513879 Z-0.125000
G01 X101.956491 Y181.009032 Z-0.125000
G01 X94.710164 Y179.595587 Z-0.125000
G01 X88.295979 Y177.567788 Z-0.125000
G01 X74.168846 Y171.783482 Z-0.125000
G01 X66.000404 Y169.045726 Z-0.125000
G01 X58.520055 Y167.278921 Z-0.125000
G01 X44.996735 Y165.311599 Z-0.125000
G01 X40.823219 Y164.240456 Z-0.125000
G01 X38.554671 Y163.004500 Z-0.125000
G01 X36.919236 Y161.358199 Z-0.125000
G01 X35.748870 Y159.161837 Z-0.125000
G01 X35.105342 Y156.626214 Z-0.125000
G01 X34.908901 Y154.151328 Z-0.125000
G01 X35.007219 Y151.663765 Z-0.125000
G01 X35.991559 Y146.061087 Z-0.125000
G01 X38.078672 Y139.482867 Z-0.125000
G01 X41.348766 Y131.796052 Z-0.125000
G01 X44.568665 Y125.929728 Z-0.125000
G01 X47.996779 Y121.019542 Z-0.125000
G01 X51.974758 Y116.516663 Z-0.125000
G01 X56.422852 Y112.595539 Z-0.125000
G01 X60.168039 Y110.012116 Z-0.125000
G01 X64.052423 Y107.911225 Z-0.125000
G01 X68.348059 Y106.183294 Z-0.125000
G01 X72.589168 Y105.020042 Z-0.125000
G01 X76.327887 Y104.396308 Z-0.125000
G01 X80.447974 Y104.100062 Z-0.125000
G01 X84.147754 Y104.134150 Z-0.125000
G01 X91.089426 Y104.553293 Z-0.125000
G01 X93.662565 Y104.480007 Z-0.125000
G01 X96.280334 Y103.978717 Z-0.125000
G01 X102.517160 Y101.971034 Z-0.125000
G01 X104.437716 Y101.697491 Z-0.125000
G01 X106.382527 Y101.722006 Z-0.125000
G01 X108.139824 Y102.054022 Z-0.125000
G01 X109.850808 Y102.724651 Z-0.125000
G01 X111.474148 Y103.769534 Z-0.125000
G01 X112.823944 Y105.051478 Z-0.125000
G01 X114.036937 Y106.667444 Z-0.125000
G01 X115.088805 Y108.617624 Z-0.125000
G01 X116.593387 Y113.170697 Z-0.125000
G01 X117.579603 Y119.421559 Z-0.125000
G01 X118.652881 Y134.891631 Z-0.125000
G01 X119.581659 Y142.748303 Z-0.125000
G01 X121.025116 Y150.038226 Z-0.125000
G01 X124.350254 Y162.664852 Z-0.125000
G01 X125.243586 Y168.031244 Z-0.125000
G01 X125.684074 Y173.042334 Z-0.125000
G01 X125.711888 Y176.684741 Z-0.125000
G01 X125.347207 Y178.672179 Z-0.125000
G01 X124.460797 Y179.895844 Z-0.125000
G01 X122.815724 Y180.616732 Z-0.125000
G01 X119.765875 Y181.193442 Z-0.125000
G01 X114.968884 Y181.730631 Z-0.125000
G01 X110.221310 Y181.959607 Z-0.125000
G01 X106.243977 Y181.886386 Z-0.125000
G01 X102.595555 Y181.584448 Z-0.125000
G01 X98.763758 Y181.010066 Z-0.125000
G01 X95.181636 Y180.227084 Z-0.125000
G01 X88.624308 Y178.195791 Z-0.125000
G01 X74.183853 Y172.327980 Z-0.125000
G01 X65.828219 Y169.573083 Z-0.125000
G01 X58.188492 Y167.828658 Z-0.125000
G01 X44.208383 Y165.954415 Z-0.125000
G01 X40.222706 Y164.969429 Z-0.125000
G01 X37.923369 Y163.748221 Z-0.125000
G01 X36.259733 Y162.096551 Z-0.125000
G01 X35.062328 Y159.874509 Z-0.125000
G01 X34.397197 Y157.297102 Z-0.125000
G01 X34.187690 Y154.775127 Z-0.125000
G01 X34.279798 Y152.237111 Z-0.125000
G01 X35.271059 Y146.515806 Z-0.125000
G01 X37.391484 Y139.797030 Z-0.125000
G01 X40.709702 Y131.943593 Z-0.125000
G01 X43.970287 Y125.944217 Z-0.125000
G01 X47.439926 Y120.918379 Z-0.125000
G01 X51.465189 Y116.307156 Z-0.125000
G01 X55.965869 Y112.291466 Z-0.125000
G01 X59.755946 Y109.647112 Z-0.125000
G01 X63.687419 Y107.499132 Z-0.125000
G01 X67.673614 Y105.860463 Z-0.125000
G01 X71.975006 Y104.632723 Z-0.125000
G01 X75.773298 Y103.968821 Z-0.125000
G01 X79.963243 Y103.647478 Z-0.125000
G01 X83.994327 Y103.688680 Z-0.125000
G01 X90.929078 Y104.132468 Z-0.125000
G01 X93.473045 Y104.045987 Z-0.125000
G01 X96.054980 Y103.500066 Z-0.125000
G01 X102.266709 Y101.299499 Z-0.125000
G01 X104.372322 Y100.952930 Z-0.125000
G01 X106.335050 Y100.954224 Z-0.125000
G01 X108.114275 Y101.274596 Z-0.125000
G01 X109.851067 Y101.943738 Z-0.125000
G01 X111.341548 Y102.874650 Z-0.125000
G01 X112.727632 Y104.137384 Z-0.125000
G01 X113.976782 Y105.742547 Z-0.125000
G01 X115.062156 Y107.690787 Z-0.125000
G01 X115.875605 Y109.702804 Z-0.125000
G01 X116.616414 Y112.263912 Z-0.125000
G01 X117.634324 Y118.570077 Z-0.125000
G01 X118.758767 Y134.231416 Z-0.125000
G01 X119.758566 Y142.200248 Z-0.125000
G01 X121.406614 Y149.946895 Z-0.125000
G01 X124.993781 Y162.676366 Z-0.125000
G01 X125.999143 Y168.381953 Z-0.125000
G01 X126.490860 Y173.358568 Z-0.125000
G01 X126.556836 Y176.773680 Z-0.125000
G01 X126.215377 Y178.738155 Z-0.125000
G01 X125.331360 Y179.958392 Z-0.125000
G01 X123.663584 Y180.717313 Z-0.125000
G01 X120.206299 Y181.454113 Z-0.125000
G01 X115.378001 Y182.105660 Z-0.125000
G01 X110.738448 Y182.416590 Z-0.125000
G01 X106.975408 Y182.414649 Z-0.125000
G01 X103.245615 Y182.168661 Z-0.125000
G01 X99.325785 Y181.634254 Z-0.125000
G01 X95.661645 Y180.871452 Z-0.125000
G01 X88.959622 Y178.838025 Z-0.125000
G01 X74.204292 Y172.886902 Z-0.125000
G01 X65.661273 Y170.115188 Z-0.125000
G01 X57.492508 Y168.330466 Z-0.125000
G01 X43.669642 Y166.653699 Z-0.125000
G01 X39.639399 Y165.713796 Z-0.125000
G01 X37.310566 Y164.506689 Z-0.125000
G01 X35.619116 Y162.848809 Z-0.125000
G01 X34.394092 Y160.600054 Z-0.125000
G01 X33.669518 Y157.738108 Z-0.125000
G01 X33.483103 Y155.409664 Z-0.125000
G01 X33.568225 Y152.820160 Z-0.125000
G01 X34.565307 Y146.978545 Z-0.125000
G01 X36.718850 Y140.117727 Z-0.125000
G01 X40.084932 Y132.096955 Z-0.125000
G01 X43.385556 Y125.963945 Z-0.125000
G01 X46.895428 Y120.821937 Z-0.125000
G01 X50.965969 Y116.101660 Z-0.125000
G01 X55.517036 Y111.990822 Z-0.125000
G01 X58.994438 Y109.510438 Z-0.125000
G01 X62.961616 Y107.267439 Z-0.125000
G01 X66.993217 Y105.548499 Z-0.125000
G01 X71.353213 Y104.252842 Z-0.125000
G01 X75.551307 Y103.502007 Z-0.125000
G01 X79.782002 Y103.187649 Z-0.125000
G01 X83.841029 Y103.244958 Z-0.125000
G01 X90.584385 Y103.708279 Z-0.125000
G01 X93.124147 Y103.632601 Z-0.125000
G01 X95.825422 Y103.023291 Z-0.125000
G01 X102.183333 Y100.581199 Z-0.125000
G01 X104.302723 Y100.199248 Z-0.125000
G01 X106.285310 Y100.178032 Z-0.125000
G01 X108.088596 Y100.487215 Z-0.125000
G01 X109.853396 Y101.155645 Z-0.125000
G01 X111.370009 Y102.095548 Z-0.125000
G01 X112.780672 Y103.376716 Z-0.125000
G01 X114.050391 Y105.009305 Z-0.125000
G01 X115.037706 Y106.755735 Z-0.125000
G01 X115.878386 Y108.772603 Z-0.125000
G01 X116.644099 Y111.347100 Z-0.125000
G01 X117.655540 Y117.344665 Z-0.125000
G01 X118.869633 Y133.553672 Z-0.125000
G01 X119.941359 Y141.632658 Z-0.125000
G01 X121.713985 Y149.491917 Z-0.125000
G01 X125.592289 Y162.399201 Z-0.125000
G01 X126.747844 Y168.457373 Z-0.125000
G01 X127.309677 Y173.449770 Z-0.125000
G01 X127.421901 Y176.842308 Z-0.125000
G01 X127.100170 Y178.784468 Z-0.125000
G01 X126.277602 Y179.955611 Z-0.125000
G01 X124.521016 Y180.808968 Z-0.125000
G01 X120.985789 Y181.669182 Z-0.125000
G01 X116.278707 Y182.440263 Z-0.125000
G01 X111.558300 Y182.873055 Z-0.125000
G01 X107.717900 Y182.949057 Z-0.125000
G01 X103.905701 Y182.762059 Z-0.125000
G01 X99.896738 Y182.269954 Z-0.125000
G01 X96.149481 Y181.528950 Z-0.125000
G01 X89.301211 Y179.494812 Z-0.125000
G01 X74.229648 Y173.460378 Z-0.125000
G01 X65.499114 Y170.672299 Z-0.125000
G01 X57.166507 Y168.912997 Z-0.125000
G01 X42.904576 Y167.335453 Z-0.125000
G01 X38.887787 Y166.405512 Z-0.125000
G01 X36.568398 Y165.171497 Z-0.125000
G01 X34.884387 Y163.461483 Z-0.125000
G01 X33.668483 Y161.136273 Z-0.125000
G01 X32.994878 Y158.427301 Z-0.125000
G01 X32.795333 Y156.054226 Z-0.125000
G01 X32.872693 Y153.412330 Z-0.125000
G01 X33.874432 Y147.448594 Z-0.125000
G01 X36.060640 Y140.444503 Z-0.125000
G01 X39.474652 Y132.255621 Z-0.125000
G01 X42.814538 Y125.988524 Z-0.125000
G01 X46.363284 Y120.729829 Z-0.125000
G01 X50.477162 Y115.900109 Z-0.125000
G01 X55.076160 Y111.693605 Z-0.125000
G01 X58.590559 Y109.156430 Z-0.125000
G01 X62.601075 Y106.864143 Z-0.125000
G01 X66.677631 Y105.110598 Z-0.125000
G01 X71.086526 Y103.793725 Z-0.125000
G01 X74.985658 Y103.080858 Z-0.125000
G01 X79.287245 Y102.737652 Z-0.125000
G01 X83.415353 Y102.788557 Z-0.125000
G01 X90.422937 Y103.291659 Z-0.125000
G01 X92.931781 Y103.204337 Z-0.125000
G01 X95.591982 Y102.548262 Z-0.125000
G01 X102.095623 Y99.853714 Z-0.125000
G01 X104.230085 Y99.436640 Z-0.125000
G01 X106.417715 Y99.407533 Z-0.125000
G01 X108.245968 Y99.741101 Z-0.125000
G01 X109.859282 Y100.360114 Z-0.125000
G01 X111.403967 Y101.309978 Z-0.125000
G01 X112.840632 Y102.610551 Z-0.125000
G01 X114.132085 Y104.271729 Z-0.125000
G01 X115.133630 Y106.050436 Z-0.125000
G01 X116.677539 Y110.420522 Z-0.125000
G01 X117.721646 Y116.465370 Z-0.125000
G01 X118.986320 Y132.858399 Z-0.125000
G01 X120.130491 Y141.045663 Z-0.125000
G01 X122.030154 Y149.016500 Z-0.125000
G01 X126.280318 Y162.381672 Z-0.125000
G01 X127.561034 Y168.785378 Z-0.125000
G01 X128.150874 Y173.522603 Z-0.125000
G01 X128.306048 Y176.890367 Z-0.125000
G01 X128.000423 Y178.811246 Z-0.125000
G01 X127.173520 Y179.985688 Z-0.125000
G01 X125.275797 Y180.931024 Z-0.125000
G01 X121.397752 Y181.971121 Z-0.125000
G01 X116.675276 Y182.850157 Z-0.125000
G01 X112.077830 Y183.354423 Z-0.125000
G01 X108.127211 Y183.489997 Z-0.125000
G01 X104.209580 Y183.337929 Z-0.125000
G01 X100.475842 Y182.917233 Z-0.125000
G01 X96.644303 Y182.199579 Z-0.125000
G01 X89.648298 Y180.166023 Z-0.125000
G01 X74.259402 Y174.048472 Z-0.125000
G01 X65.341418 Y171.244288 Z-0.125000
G01 X56.846523 Y169.510794 Z-0.125000
G01 X42.392484 Y168.067984 Z-0.125000
G01 X38.337985 Y167.180344 Z-0.125000
G01 X35.991753 Y165.957455 Z-0.125000
G01 X34.280316 Y164.237933 Z-0.125000
G01 X33.035823 Y161.882193 Z-0.125000
G01 X32.300964 Y158.872317 Z-0.125000
G01 X32.118106 Y156.421623 Z-0.125000
G01 X32.218817 Y153.697451 Z-0.125000
G01 X32.609952 Y150.732465 Z-0.125000
G01 X33.287567 Y147.564311 Z-0.125000
G01 X35.417112 Y140.776519 Z-0.125000
G01 X38.878861 Y132.418880 Z-0.125000
G01 X42.257297 Y126.017373 Z-0.125000
G01 X45.843495 Y120.641667 Z-0.125000
G01 X49.998640 Y115.702050 Z-0.125000
G01 X54.642916 Y111.399429 Z-0.125000
G01 X58.192567 Y108.805204 Z-0.125000
G01 X62.244350 Y106.463305 Z-0.125000
G01 X66.364308 Y104.674831 Z-0.125000
G01 X70.453930 Y103.424646 Z-0.125000
G01 X74.760886 Y102.617213 Z-0.125000
G01 X79.103223 Y102.279829 Z-0.125000
G01 X83.260180 Y102.346517 Z-0.125000
G01 X90.260389 Y102.876461 Z-0.125000
G01 X92.737345 Y102.777755 Z-0.125000
G01 X95.355179 Y102.074720 Z-0.125000
G01 X101.828872 Y99.169954 Z-0.125000
G01 X104.155247 Y98.665106 Z-0.125000
G01 X106.369656 Y98.612584 Z-0.125000
G01 X108.227275 Y98.937291 Z-0.125000
G01 X109.870213 Y99.557791 Z-0.125000
G01 X111.444911 Y100.518716 Z-0.125000
G01 X112.753117 Y101.674917 Z-0.125000
G01 X113.945864 Y103.122966 Z-0.125000
G01 X114.999673 Y104.862734 Z-0.125000
G01 X115.898696 Y106.886718 Z-0.125000
G01 X116.636660 Y109.180492 Z-0.125000
G01 X117.795449 Y115.575143 Z-0.125000
G01 X119.109476 Y132.146502 Z-0.125000
G01 X120.326544 Y140.439911 Z-0.125000
G01 X122.355443 Y148.521420 Z-0.125000
G01 X126.913302 Y162.069061 Z-0.125000
G01 X128.404107 Y169.101094 Z-0.125000
G01 X129.055072 Y173.976675 Z-0.125000
G01 X129.204683 Y177.049292 Z-0.125000
G01 X128.914711 Y178.819526 Z-0.125000
G01 X128.079788 Y180.001471 Z-0.125000
G01 X126.145908 Y181.012201 Z-0.125000
G01 X122.174914 Y182.207018 Z-0.125000
G01 X117.589047 Y183.194463 Z-0.125000
G01 X113.229439 Y183.793229 Z-0.125000
G01 X109.232702 Y184.036501 Z-0.125000
G01 X105.253040 Y183.976346 Z-0.125000
G01 X101.449444 Y183.627836 Z-0.125000
G01 X97.539834 Y182.967103 Z-0.125000
G01 X90.398745 Y180.988980 Z-0.125000
G01 X74.293102 Y174.651185 Z-0.125000
G01 X65.187732 Y171.831153 Z-0.125000
G01 X60.549343 Y170.798236 Z-0.125000
G01 X56.143875 Y170.069069 Z-0.125000
G01 X41.895204 Y168.814809 Z-0.125000
G01 X37.806488 Y167.968567 Z-0.125000
G01 X35.434641 Y166.755833 Z-0.125000
G01 X33.696038 Y165.025767 Z-0.125000
G01 X32.422373 Y162.638397 Z-0.125000
G01 X31.660476 Y159.575999 Z-0.125000
G01 X31.463259 Y157.077893 Z-0.125000
G01 X31.555108 Y154.298805 Z-0.125000
G01 X31.944368 Y151.272759 Z-0.125000
G01 X32.627611 Y148.039146 Z-0.125000
G01 X34.788204 Y141.112998 Z-0.125000
G01 X38.297558 Y132.586085 Z-0.125000
G01 X41.713770 Y126.049908 Z-0.125000
G01 X45.335995 Y120.556997 Z-0.125000
G01 X49.530144 Y115.507291 Z-0.125000
G01 X54.217110 Y111.108163 Z-0.125000
G01 X57.799944 Y108.456629 Z-0.125000
G01 X61.514795 Y106.258779 Z-0.125000
G01 X65.673951 Y104.383501 Z-0.125000
G01 X69.812991 Y103.063847 Z-0.125000
G01 X74.182494 Y102.202339 Z-0.125000
G01 X78.596758 Y101.832031 Z-0.125000
G01 X82.826095 Y101.889599 Z-0.125000
G01 X90.096807 Y102.462492 Z-0.125000
G01 X92.541227 Y102.352338 Z-0.125000
G01 X95.115530 Y101.602408 Z-0.125000
G01 X99.673260 Y99.260445 Z-0.125000
G01 X101.733660 Y98.427333 Z-0.125000
G01 X104.079439 Y97.884711 Z-0.125000
G01 X106.323278 Y97.809550 Z-0.125000
G01 X108.024431 Y98.077465 Z-0.125000
G01 X109.704173 Y98.663166 Z-0.125000
G01 X111.320591 Y99.596277 Z-0.125000
G01 X112.667671 Y100.734367 Z-0.125000
G01 X113.898710 Y102.171033 Z-0.125000
G01 X114.988095 Y103.906467 Z-0.125000
G01 X115.918230 Y105.932973 Z-0.125000
G01 X116.681679 Y108.235738 Z-0.125000
G01 X117.833353 Y114.306459 Z-0.125000
G01 X119.194533 Y130.992629 Z-0.125000
G01 X120.530100 Y139.816112 Z-0.125000
G01 X122.690305 Y148.007452 Z-0.125000
G01 X127.646221 Y162.025077 Z-0.125000
G01 X129.276416 Y169.403615 Z-0.125000
G01 X129.944264 Y174.012056 Z-0.125000
G01 X130.125117 Y177.056925 Z-0.125000
G01 X129.841807 Y178.810147 Z-0.125000
G01 X128.994982 Y180.004058 Z-0.125000
G01 X126.902759 Y181.136780 Z-0.125000
G01 X122.953433 Y182.449513 Z-0.125000
G01 X118.511550 Y183.536957 Z-0.125000
G01 X114.078787 Y184.257650 Z-0.125000
G01 X110.003201 Y184.589925 Z-0.125000
G01 X105.938481 Y184.597558 Z-0.125000
G01 X102.050928 Y184.294843 Z-0.125000
G01 X98.055031 Y183.662312 Z-0.125000
G01 X94.416052 Y182.804944 Z-0.125000
G01 X90.762844 Y181.690333 Z-0.125000
G01 X74.330035 Y175.268515 Z-0.125000
G01 X69.453097 Y173.648152 Z-0.125000
G01 X65.037733 Y172.432960 Z-0.125000
G01 X60.310599 Y171.408969 Z-0.125000
G01 X55.828807 Y170.699272 Z-0.125000
G01 X50.969397 Y170.194489 Z-0.125000
G01 X41.412995 Y169.575541 Z-0.125000
G01 X37.293425 Y168.769402 Z-0.125000
G01 X34.897323 Y167.565917 Z-0.125000
G01 X33.131747 Y165.824274 Z-0.125000
G01 X31.828328 Y163.404110 Z-0.125000
G01 X31.038230 Y160.287961 Z-0.125000
G01 X30.825553 Y157.741601 Z-0.125000
G01 X30.907636 Y154.906562 Z-0.125000
G01 X31.891652 Y148.894638 Z-0.125000
G01 X34.027601 Y141.858141 Z-0.125000
G01 X37.539025 Y133.175861 Z-0.125000
G01 X40.945728 Y126.497576 Z-0.125000
G01 X44.559869 Y120.863981 Z-0.125000
G01 X48.751754 Y115.664340 Z-0.125000
G01 X53.446740 Y111.114890 Z-0.125000
G01 X57.043934 Y108.361028 Z-0.125000
G01 X61.160917 Y105.866544 Z-0.125000
G01 X64.977190 Y104.104137 Z-0.125000
G01 X69.163448 Y102.711650 Z-0.125000
G01 X73.594400 Y101.792639 Z-0.125000
G01 X78.080979 Y101.386045 Z-0.125000
G01 X82.384765 Y101.432034 Z-0.125000
G01 X89.932319 Y102.049235 Z-0.125000
G01 X92.343622 Y101.927891 Z-0.125000
G01 X94.873552 Y101.131001 Z-0.125000
G01 X99.397712 Y98.638522 Z-0.125000
G01 X101.459535 Y97.737299 Z-0.125000
G01 X103.817410 Y97.124108 Z-0.125000
G01 X106.279941 Y96.998559 Z-0.125000
G01 X108.012076 Y97.259748 Z-0.125000
G01 X109.725906 Y97.848036 Z-0.125000
G01 X111.376348 Y98.793566 Z-0.125000
G01 X112.751176 Y99.950932 Z-0.125000
G01 X114.005437 Y101.414052 Z-0.125000
G01 X115.112350 Y103.182280 Z-0.125000
G01 X116.735366 Y107.284192 Z-0.125000
G01 X117.924232 Y113.394305 Z-0.125000
G01 X119.330302 Y130.244963 Z-0.125000
G01 X120.741612 Y139.175043 Z-0.125000
G01 X123.035063 Y147.475114 Z-0.125000
G01 X128.314069 Y161.679930 Z-0.125000
G01 X129.262315 Y165.205520 Z-0.125000
G01 X130.177445 Y169.691970 Z-0.125000
G01 X130.876664 Y174.221692 Z-0.125000
G01 X131.057646 Y177.170572 Z-0.125000
G01 X130.748334 Y178.864868 Z-0.125000
G01 X129.850410 Y180.051276 Z-0.125000
G01 X127.528046 Y181.323648 Z-0.125000
G01 X123.315397 Y182.830494 Z-0.125000
G01 X118.888908 Y184.003448 Z-0.125000
G01 X114.607179 Y184.771360 Z-0.125000
G01 X110.415940 Y185.170839 Z-0.125000
G01 X106.240484 Y185.217540 Z-0.125000
G01 X102.253578 Y184.929121 Z-0.125000
G01 X98.163180 Y184.290639 Z-0.125000
G01 X94.444513 Y183.412702 Z-0.125000
G01 X90.715561 Y182.266591 Z-0.125000
G01 X74.369686 Y175.900400 Z-0.125000
G01 X69.393524 Y174.266776 Z-0.125000
G01 X64.890774 Y173.049579 Z-0.125000
G01 X60.075801 Y172.034644 Z-0.125000
G01 X55.518977 Y171.344416 Z-0.125000
G01 X50.590874 Y170.872815 Z-0.125000
G01 X40.700646 Y170.326183 Z-0.125000
G01 X38.416962 Y170.001282 Z-0.125000
G01 X36.609213 Y169.517586 Z-0.125000
G01 X34.226694 Y168.275292 Z-0.125000
G01 X32.468362 Y166.469095 Z-0.125000
G01 X31.171605 Y163.959604 Z-0.125000
G01 X30.394573 Y160.734465 Z-0.125000
G01 X30.198003 Y158.104405 Z-0.125000
G01 X30.303630 Y155.181916 Z-0.125000
G01 X31.352652 Y149.002593 Z-0.125000
G01 X33.574046 Y141.796628 Z-0.125000
G01 X37.178290 Y132.929808 Z-0.125000
G01 X40.667787 Y126.124099 Z-0.125000
G01 X44.357541 Y120.396584 Z-0.125000
G01 X48.622841 Y115.126311 Z-0.125000
G01 X53.032125 Y110.835332 Z-0.125000
G01 X56.658037 Y108.022738 Z-0.125000
G01 X60.809755 Y105.476508 Z-0.125000
G01 X64.660245 Y103.679560 Z-0.125000
G01 X68.886218 Y102.263141 Z-0.125000
G01 X73.360120 Y101.333199 Z-0.125000
G01 X77.888096 Y100.929580 Z-0.125000
G01 X82.223576 Y100.989734 Z-0.125000
G01 X89.590342 Y101.629575 Z-0.125000
G01 X91.999316 Y101.528152 Z-0.125000
G01 X94.493542 Y100.726994 Z-0.125000
G01 X99.119577 Y98.016728 Z-0.125000
G01 X101.359924 Y96.979478 Z-0.125000
G01 X103.740567 Y96.328900 Z-0.125000
G01 X106.241131 Y96.180130 Z-0.125000
G01 X108.006837 Y96.435627 Z-0.125000
G01 X109.757083 Y97.027796 Z-0.125000
G01 X111.260954 Y97.861684 Z-0.125000
G01 X112.678020 Y99.000744 Z-0.125000
G01 X113.973677 Y100.452351 Z-0.125000
G01 X115.118689 Y102.215858 Z-0.125000
G01 X116.798561 Y106.326760 Z-0.125000
G01 X117.509746 Y109.252419 Z-0.125000
G01 X118.025525 Y112.474324 Z-0.125000
G01 X119.474544 Y129.483196 Z-0.125000
G01 X120.131461 Y134.258130 Z-0.125000
G01 X120.961533 Y138.517350 Z-0.125000
G01 X122.016183 Y142.631616 Z-0.125000
G01 X123.390106 Y146.925182 Z-0.125000
G01 X129.092006 Y161.612790 Z-0.125000
G01 X130.085660 Y165.189931 Z-0.125000
G01 X131.106222 Y169.965318 Z-0.125000
G01 X131.830732 Y174.407655 Z-0.125000
G01 X132.008480 Y177.140624 Z-0.125000
G01 X131.695869 Y178.823536 Z-0.125000
G01 X130.777182 Y180.034265 Z-0.125000
G01 X128.400614 Y181.413298 Z-0.125000
G01 X124.081110 Y183.107464 Z-0.125000
G01 X119.817621 Y184.361013 Z-0.125000
G01 X115.465258 Y185.250722 Z-0.125000
G01 X111.565674 Y185.716890 Z-0.125000
G01 X107.328575 Y185.868441 Z-0.125000
G01 X103.270195 Y185.663462 Z-0.125000
G01 X99.098749 Y185.091991 Z-0.125000
G01 X95.303886 Y184.257004 Z-0.125000
G01 X91.500355 Y183.136313 Z-0.125000
G01 X74.411535 Y176.546838 Z-0.125000
G01 X69.336280 Y174.900019 Z-0.125000
G01 X64.746532 Y173.680946 Z-0.125000
G01 X59.844626 Y172.675067 Z-0.125000
G01 X55.214257 Y172.004308 Z-0.125000
G01 X49.859831 Y171.544027 Z-0.125000
G01 X40.247415 Y171.115246 Z-0.125000
G01 X37.951377 Y170.812661 Z-0.125000
G01 X36.132373 Y170.342612 Z-0.125000
G01 X33.727926 Y169.105687 Z-0.125000
G01 X31.942493 Y167.284095 Z-0.125000
G01 X30.614365 Y164.737800 Z-0.125000
G01 X29.806802 Y161.454899 Z-0.125000
G01 X29.593350 Y158.774000 Z-0.125000
G01 X29.687981 Y155.793167 Z-0.125000
G01 X30.040630 Y152.923847 Z-0.125000
G01 X30.737585 Y149.489524 Z-0.125000
G01 X32.838088 Y142.562923 Z-0.125000
G01 X36.444143 Y133.540929 Z-0.125000
G01 X39.922385 Y126.593501 Z-0.125000
G01 X43.600820 Y120.724978 Z-0.125000
G01 X47.858875 Y115.303412 Z-0.125000
G01 X52.624236 Y110.558167 Z-0.125000
G01 X56.276604 Y107.686841 Z-0.125000
G01 X60.075219 Y105.299665 Z-0.125000
G01 X63.954235 Y103.417402 Z-0.125000
G01 X68.223416 Y101.923234 Z-0.125000
G01 X72.756566 Y100.930485 Z-0.125000
G01 X77.693142 Y100.473761 Z-0.125000
G01 X82.060641 Y100.547629 Z-0.125000
G01 X89.426113 Y101.216770 Z-0.125000
G01 X91.802293 Y101.105904 Z-0.125000
G01 X94.250659 Y100.260179 Z-0.125000
G01 X98.839566 Y97.394999 Z-0.125000
G01 X101.081400 Y96.283299 Z-0.125000
G01 X103.475627 Y95.561506 Z-0.125000
G01 X106.009179 Y95.346566 Z-0.125000
G01 X107.809684 Y95.561247 Z-0.125000
G01 X109.602686 Y96.118552 Z-0.125000
G01 X111.148859 Y96.927473 Z-0.125000
G01 X112.609974 Y98.047776 Z-0.125000
G01 X113.948645 Y99.487416 Z-0.125000
G01 X115.133372 Y101.245813 Z-0.125000
G01 X116.025992 Y103.039008 Z-0.125000
G01 X116.872299 Y105.364542 Z-0.125000
G01 X117.607158 Y108.304754 Z-0.125000
G01 X118.138267 Y111.547487 Z-0.125000
G01 X119.627842 Y128.708234 Z-0.125000
G01 X120.316324 Y133.535043 Z-0.125000
G01 X121.190380 Y137.843875 Z-0.125000
G01 X122.303567 Y142.009111 Z-0.125000
G01 X123.755692 Y146.358433 Z-0.125000
G01 X129.794589 Y161.238407 Z-0.125000
G01 X130.932485 Y165.165546 Z-0.125000
G01 X132.061714 Y170.222885 Z-0.125000
G01 X132.780467 Y174.389285 Z-0.125000
G01 X132.971992 Y177.093923 Z-0.125000
G01 X132.651296 Y178.768038 Z-0.125000
G01 X131.707835 Y180.008650 Z-0.125000
G01 X129.273570 Y181.504306 Z-0.125000
G01 X125.065062 Y183.313867 Z-0.125000
G01 X120.751767 Y184.718514 Z-0.125000
G01 X116.329094 Y185.734095 Z-0.125000
G01 X112.355642 Y186.290754 Z-0.125000
G01 X108.031352 Y186.518243 Z-0.125000
G01 X103.886361 Y186.365139 Z-0.125000
G01 X99.625654 Y185.826333 Z-0.125000
G01 X95.751813 Y185.003829 Z-0.125000
G01 X91.872215 Y183.880745 Z-0.125000
G01 X74.455002 Y177.207700 Z-0.125000
G01 X69.280782 Y175.547750 Z-0.125000
G01 X64.604618 Y174.326931 Z-0.125000
G01 X59.616620 Y173.330172 Z-0.125000
G01 X54.914324 Y172.678624 Z-0.125000
G01 X49.492176 Y172.253595 Z-0.125000
G01 X39.809643 Y171.916210 Z-0.125000
G01 X37.503385 Y171.635035 Z-0.125000
G01 X35.674614 Y171.177794 Z-0.125000
G01 X33.249534 Y169.944943 Z-0.125000
G01 X31.437127 Y168.106793 Z-0.125000
G01 X30.076788 Y165.522529 Z-0.125000
G01 X29.237337 Y162.180703 Z-0.125000
G01 X29.005903 Y159.448057 Z-0.125000
G01 X29.088567 Y156.408104 Z-0.125000
G01 X29.437012 Y153.481411 Z-0.125000
G01 X30.137331 Y149.978848 Z-0.125000
G01 X32.264871 Y142.918031 Z-0.125000
G01 X35.918079 Y133.725792 Z-0.125000
G01 X39.430991 Y126.644147 Z-0.125000
G01 X43.139309 Y120.658419 Z-0.125000
G01 X47.426731 Y115.126311 Z-0.125000
G01 X52.222752 Y110.283330 Z-0.125000
G01 X55.899311 Y107.353209 Z-0.125000
G01 X59.724963 Y104.918103 Z-0.125000
G01 X63.634379 Y102.999681 Z-0.125000
G01 X67.551234 Y101.592964 Z-0.125000
G01 X72.141888 Y100.533657 Z-0.125000
G01 X77.157053 Y100.029780 Z-0.125000
G01 X81.895765 Y100.105588 Z-0.125000
G01 X89.261302 Y100.803578 Z-0.125000
G01 X91.604817 Y100.683462 Z-0.125000
G01 X94.006870 Y99.793494 Z-0.125000
G01 X98.558455 Y96.773334 Z-0.125000
G01 X100.801583 Y95.586926 Z-0.125000
G01 X103.401889 Y94.752132 Z-0.125000
G01 X105.979749 Y94.515329 Z-0.125000
G01 X107.818675 Y94.725871 Z-0.125000
G01 X109.652815 Y95.288933 Z-0.125000
G01 X111.234887 Y96.111502 Z-0.125000
G01 X112.728343 Y97.253344 Z-0.125000
G01 X114.093728 Y98.721510 Z-0.125000
G01 X115.157240 Y100.272922 Z-0.125000
G01 X116.081425 Y102.066570 Z-0.125000
G01 X116.957292 Y104.398378 Z-0.125000
G01 X117.716601 Y107.352303 Z-0.125000
G01 X118.263233 Y110.614829 Z-0.125000
G01 X119.790842 Y127.920917 Z-0.125000
G01 X120.510436 Y132.798050 Z-0.125000
G01 X121.428606 Y137.155393 Z-0.125000
G01 X122.600849 Y141.370823 Z-0.125000
G01 X124.132144 Y145.775578 Z-0.125000
G01 X130.617157 Y161.151861 Z-0.125000
G01 X131.802466 Y165.133011 Z-0.125000
G01 X133.042496 Y170.463827 Z-0.125000
G01 X133.771728 Y174.534174 Z-0.125000
G01 X133.946629 Y177.031375 Z-0.125000
G01 X133.613126 Y178.699798 Z-0.125000
G01 X132.640882 Y179.975921 Z-0.125000
G01 X130.005713 Y181.673128 Z-0.125000
G01 X125.828769 Y183.607073 Z-0.125000
G01 X121.690118 Y185.076144 Z-0.125000
G01 X117.197652 Y186.221544 Z-0.125000
G01 X113.150139 Y186.871604 Z-0.125000
G01 X108.738074 Y187.177682 Z-0.125000
G01 X104.505568 Y187.078329 Z-0.125000
G01 X100.154822 Y186.573611 Z-0.125000
G01 X96.201163 Y185.764367 Z-0.125000
G01 X92.245175 Y184.639278 Z-0.125000
G01 X74.499374 Y177.882857 Z-0.125000
G01 X69.226513 Y176.209906 Z-0.125000
G01 X64.464386 Y174.987340 Z-0.125000
G01 X59.391395 Y173.999637 Z-0.125000
G01 X54.618724 Y173.367235 Z-0.125000
G01 X49.131894 Y172.976811 Z-0.125000
G01 X39.387395 Y172.728300 Z-0.125000
G01 X37.073116 Y172.467565 Z-0.125000
G01 X35.236066 Y172.022290 Z-0.125000
G01 X32.791646 Y170.792156 Z-0.125000
G01 X30.828658 Y168.762093 Z-0.125000
G01 X29.472135 Y166.078347 Z-0.125000
G01 X28.643292 Y162.618022 Z-0.125000
G01 X28.427187 Y159.796049 Z-0.125000
G01 X28.505324 Y157.025888 Z-0.125000
G01 X28.848788 Y154.041174 Z-0.125000
G01 X29.551759 Y150.469724 Z-0.125000
G01 X31.705948 Y143.273850 Z-0.125000
G01 X35.406181 Y133.911431 Z-0.125000
G01 X38.952987 Y126.695764 Z-0.125000
G01 X42.689507 Y120.593349 Z-0.125000
G01 X47.003771 Y114.951021 Z-0.125000
G01 X51.827282 Y110.010628 Z-0.125000
G01 X55.525510 Y107.021775 Z-0.125000
G01 X59.376000 Y104.538675 Z-0.125000
G01 X63.313942 Y102.583837 Z-0.125000
G01 X67.262556 Y101.152540 Z-0.125000
G01 X71.893636 Y100.078421 Z-0.125000
G01 X76.953562 Y99.574350 Z-0.125000
G01 X81.728431 Y99.663353 Z-0.125000
G01 X89.095909 Y100.389609 Z-0.125000
G01 X91.407083 Y100.260503 Z-0.125000
G01 X93.762758 Y99.326615 Z-0.125000
G01 X98.276827 Y96.151605 Z-0.125000
G01 X100.700873 Y94.808536 Z-0.125000
G01 X103.332743 Y93.934868 Z-0.125000
G01 X105.958986 Y93.677949 Z-0.125000
G01 X107.839115 Y93.885709 Z-0.125000
G01 X109.510125 Y94.373804 Z-0.125000
G01 X111.138122 Y95.171664 Z-0.125000
G01 X112.679055 Y96.295136 Z-0.125000
G01 X114.090559 Y97.751594 Z-0.125000
G01 X115.191198 Y99.298220 Z-0.125000
G01 X116.148112 Y101.091933 Z-0.125000
G01 X117.054639 Y103.429433 Z-0.125000
G01 X117.763496 Y106.050178 Z-0.125000
G01 X118.348291 Y109.298861 Z-0.125000
G01 X119.964062 Y127.122281 Z-0.125000
G01 X120.714316 Y132.047990 Z-0.125000
G01 X121.676534 Y136.452811 Z-0.125000
G01 X122.908285 Y140.717658 Z-0.125000
G01 X124.519723 Y145.177523 Z-0.125000
G01 X131.354151 Y160.751735 Z-0.125000
G01 X132.695215 Y165.092908 Z-0.125000
G01 X134.046952 Y170.687564 Z-0.125000
G01 X134.778318 Y174.656424 Z-0.125000
G01 X134.925277 Y177.070637 Z-0.125000
G01 X134.541451 Y178.701027 Z-0.125000
G01 X133.497797 Y180.006451 Z-0.125000
G01 X130.575372 Y181.946800 Z-0.125000
G01 X126.352957 Y184.015673 Z-0.125000
G01 X122.030542 Y185.631056 Z-0.125000
G01 X117.713367 Y186.792950 Z-0.125000
G01 X113.553111 Y187.511444 Z-0.125000
G01 X109.023841 Y187.860471 Z-0.125000
G01 X104.686808 Y187.775672 Z-0.125000
G01 X100.685349 Y187.333696 Z-0.125000
G01 X96.651354 Y186.538488 Z-0.125000
G01 X92.618329 Y185.411782 Z-0.125000
G01 X74.544135 Y178.572115 Z-0.125000
G01 X69.173021 Y176.886357 Z-0.125000
G01 X64.325448 Y175.662044 Z-0.125000
G01 X59.168628 Y174.683397 Z-0.125000
G01 X54.327265 Y174.069688 Z-0.125000
G01 X48.778662 Y173.713222 Z-0.125000
G01 X38.980671 Y173.550804 Z-0.125000
G01 X36.660506 Y173.309474 Z-0.125000
G01 X34.816858 Y172.875195 Z-0.125000
G01 X32.354391 Y171.646355 Z-0.125000
G01 X30.362167 Y169.594752 Z-0.125000
G01 X28.971297 Y166.868962 Z-0.125000
G01 X28.107979 Y163.345960 Z-0.125000
G01 X27.872146 Y160.469783 Z-0.125000
G01 X27.938122 Y157.645418 Z-0.125000
G01 X28.275830 Y154.602231 Z-0.125000
G01 X28.980806 Y150.961312 Z-0.125000
G01 X31.160997 Y143.629669 Z-0.125000
G01 X34.908254 Y134.097006 Z-0.125000
G01 X38.488178 Y126.747833 Z-0.125000
G01 X42.542612 Y120.099820 Z-0.125000
G01 X46.920201 Y114.391063 Z-0.125000
G01 X51.437375 Y109.739867 Z-0.125000
G01 X54.775192 Y106.974557 Z-0.125000
G01 X58.635320 Y104.390357 Z-0.125000
G01 X62.593895 Y102.344770 Z-0.125000
G01 X66.575174 Y100.835984 Z-0.125000
G01 X71.260522 Y99.689743 Z-0.125000
G01 X76.398973 Y99.132438 Z-0.125000
G01 X81.262910 Y99.200226 Z-0.125000
G01 X88.930062 Y99.974606 Z-0.125000
G01 X91.209413 Y99.836573 Z-0.125000
G01 X93.518775 Y98.859284 Z-0.125000
G01 X97.995523 Y95.529941 Z-0.125000
G01 X100.421314 Y94.106535 Z-0.125000
G01 X103.269613 Y93.110165 Z-0.125000
G01 X105.948378 Y92.834940 Z-0.125000
G01 X107.872556 Y93.041601 Z-0.125000
G01 X109.584510 Y93.537393 Z-0.125000
G01 X111.252028 Y94.351230 Z-0.125000
G01 X112.828084 Y95.498440 Z-0.125000
G01 X114.268177 Y96.985493 Z-0.125000
G01 X115.387122 Y98.563555 Z-0.125000
G01 X116.355614 Y100.392196 Z-0.125000
G01 X117.267574 Y102.772451 Z-0.125000
G01 X118.049910 Y105.789119 Z-0.125000
G01 X118.605210 Y109.120467 Z-0.125000
G01 X119.987154 Y124.955284 Z-0.125000
G01 X121.295618 Y133.078513 Z-0.125000
G01 X122.546709 Y137.914896 Z-0.125000
G01 X124.276516 Y142.955417 Z-0.125000
G01 X126.262854 Y147.662952 Z-0.125000
G01 X131.361460 Y158.476395 Z-0.125000
G01 X133.610215 Y165.045819 Z-0.125000
G01 X135.275081 Y171.827272 Z-0.125000
G01 X135.916215 Y175.970969 Z-0.125000
G01 X135.656190 Y178.274769 Z-0.125000
G01 X135.172171 Y179.159950 Z-0.125000
G01 X134.428191 Y179.968547 Z-0.125000
G01 X131.429247 Y182.076359 Z-0.125000
G01 X127.336973 Y184.238246 Z-0.125000
G01 X122.965917 Y186.010031 Z-0.125000
G01 X118.581989 Y187.298832 Z-0.125000
G01 X114.346120 Y188.115127 Z-0.125000
G01 X109.727006 Y188.545783 Z-0.125000
G01 X105.300452 Y188.516353 Z-0.125000
G01 X100.759798 Y188.037896 Z-0.125000
G01 X96.644045 Y187.217138 Z-0.125000
G01 X92.534888 Y186.053304 Z-0.125000
G01 X74.588701 Y179.275409 Z-0.125000
G01 X69.119658 Y177.576779 Z-0.125000
G01 X64.187351 Y176.350849 Z-0.125000
G01 X58.947801 Y175.381063 Z-0.125000
G01 X54.039556 Y174.785854 Z-0.125000
G01 X48.432287 Y174.462506 Z-0.125000
G01 X38.343095 Y174.369945 Z-0.125000
G01 X36.049579 Y174.124604 Z-0.125000
G01 X34.224301 Y173.672343 Z-0.125000
G01 X31.778069 Y172.387876 Z-0.125000
G01 X29.790114 Y170.248305 Z-0.125000
G01 X28.400797 Y167.415595 Z-0.125000
G01 X27.546469 Y163.767690 Z-0.125000
G01 X27.325772 Y160.798565 Z-0.125000
G01 X27.412835 Y157.889595 Z-0.125000
G01 X27.779132 Y154.761932 Z-0.125000
G01 X28.424277 Y151.452641 Z-0.125000
G01 X30.629953 Y143.984711 Z-0.125000
G01 X34.424041 Y134.281933 Z-0.125000
G01 X38.036370 Y126.799773 Z-0.125000
G01 X42.117260 Y120.028152 Z-0.125000
G01 X46.516194 Y114.211181 Z-0.125000
G01 X51.052708 Y109.471046 Z-0.125000
G01 X54.405466 Y106.652761 Z-0.125000
G01 X58.285322 Y104.019532 Z-0.125000
G01 X62.267895 Y101.935976 Z-0.125000
G01 X66.277634 Y100.400799 Z-0.125000
G01 X71.001275 Y99.237289 Z-0.125000
G01 X76.184809 Y98.677073 Z-0.125000
G01 X81.087621 Y98.755791 Z-0.125000
G01 X88.763763 Y99.558114 Z-0.125000
G01 X91.012066 Y99.411350 Z-0.125000
G01 X93.151508 Y98.472934 Z-0.125000
G01 X97.882005 Y94.788161 Z-0.125000
G01 X100.324679 Y93.313850 Z-0.125000
G01 X103.213921 Y92.278411 Z-0.125000
G01 X105.949542 Y91.986887 Z-0.125000
G01 X107.920615 Y92.194259 Z-0.125000
G01 X109.675583 Y92.699560 Z-0.125000
G01 X111.384174 Y93.531119 Z-0.125000
G01 X112.996388 Y94.703750 Z-0.125000
G01 X114.465265 Y96.222885 Z-0.125000
G01 X115.602191 Y97.833482 Z-0.125000
G01 X116.581680 Y99.697699 Z-0.125000
G01 X117.395258 Y101.801889 Z-0.125000
G01 X118.202690 Y104.830458 Z-0.125000
G01 X118.823902 Y108.568530 Z-0.125000
G01 X120.531135 Y126.865362 Z-0.125000
G01 X121.244131 Y130.966303 Z-0.125000
G01 X122.203180 Y135.008642 Z-0.125000
G01 X123.555046 Y139.370125 Z-0.125000
G01 X125.329031 Y143.938981 Z-0.125000
G01 X132.869729 Y159.911961 Z-0.125000
G01 X134.456781 Y164.681138 Z-0.125000
G01 X136.119641 Y171.081417 Z-0.125000
G01 X136.806118 Y174.673436 Z-0.125000
G01 X136.904112 Y176.986679 Z-0.125000
G01 X136.433287 Y178.598117 Z-0.125000
G01 X135.271717 Y180.006775 Z-0.125000
G01 X132.116435 Y182.317561 Z-0.125000
G01 X128.078624 Y184.579123 Z-0.125000
G01 X123.902068 Y186.390818 Z-0.125000
G01 X119.452035 Y187.809695 Z-0.125000
G01 X115.140616 Y188.726377 Z-0.125000
G01 X110.431141 Y189.240927 Z-0.125000
G01 X105.914484 Y189.268482 Z-0.125000
G01 X101.281334 Y188.825730 Z-0.125000
G01 X97.084339 Y188.018556 Z-0.125000
G01 X92.897887 Y186.852199 Z-0.125000
G01 X74.632426 Y179.992350 Z-0.125000
G01 X69.065907 Y178.281108 Z-0.125000
G01 X64.049577 Y177.053497 Z-0.125000
G01 X58.728527 Y176.092442 Z-0.125000
G01 X53.755276 Y175.515215 Z-0.125000
G01 X48.092509 Y175.224208 Z-0.125000
G01 X37.967095 Y175.213083 Z-0.125000
G01 X35.672156 Y174.983977 Z-0.125000
G01 X33.842932 Y174.539737 Z-0.125000
G01 X31.380401 Y173.251841 Z-0.125000
G01 X29.362174 Y171.086139 Z-0.125000
G01 X27.936117 Y168.207439 Z-0.125000
G01 X27.044467 Y164.493235 Z-0.125000
G01 X26.802296 Y161.467707 Z-0.125000
G01 X26.876034 Y158.502850 Z-0.125000
G01 X27.235798 Y155.315098 Z-0.125000
G01 X27.881913 Y151.943000 Z-0.125000
G01 X29.953826 Y144.797836 Z-0.125000
G01 X33.749142 Y134.942343 Z-0.125000
G01 X37.347565 Y127.322862 Z-0.125000
G01 X41.408338 Y120.402276 Z-0.125000
G01 X45.787221 Y114.433366 Z-0.125000
G01 X50.672762 Y109.203972 Z-0.125000
G01 X54.038069 Y106.333035 Z-0.125000
G01 X57.935195 Y103.650841 Z-0.125000
G01 X61.939760 Y101.529252 Z-0.125000
G01 X65.976407 Y99.967296 Z-0.125000
G01 X70.737305 Y98.785933 Z-0.125000
G01 X75.965858 Y98.221837 Z-0.125000
G01 X80.908579 Y98.310581 Z-0.125000
G01 X88.597206 Y99.139747 Z-0.125000
G01 X90.683349 Y99.014198 Z-0.125000
G01 X91.823186 Y98.636775 Z-0.125000
G01 X92.911729 Y98.007090 Z-0.125000
G01 X97.436600 Y94.286353 Z-0.125000
G01 X100.048678 Y92.606611 Z-0.125000
G01 X102.960818 Y91.489671 Z-0.125000
G01 X105.964031 Y91.134499 Z-0.125000
G01 X107.984845 Y91.344524 Z-0.125000
G01 X109.785026 Y91.861208 Z-0.125000
G01 X111.536114 Y92.712431 Z-0.125000
G01 X112.986427 Y93.742890 Z-0.125000
G01 X114.505562 Y95.251676 Z-0.125000
G01 X115.682333 Y96.858263 Z-0.125000
G01 X116.696168 Y98.722933 Z-0.125000
G01 X117.537689 Y100.831650 Z-0.125000
G01 X118.370736 Y103.871279 Z-0.125000
G01 X119.007859 Y107.627463 Z-0.125000
G01 X120.139676 Y120.996063 Z-0.125000
G01 X120.744070 Y126.049649 Z-0.125000
G01 X121.483392 Y130.186943 Z-0.125000
G01 X122.482609 Y134.268867 Z-0.125000
G01 X123.894953 Y138.677439 Z-0.125000
G01 X125.751215 Y143.300369 Z-0.125000
G01 X132.075168 Y155.965805 Z-0.125000
G01 X133.647925 Y159.474318 Z-0.125000
G01 X135.411496 Y164.619948 Z-0.125000
G01 X137.129272 Y171.018416 Z-0.125000
G01 X137.824481 Y174.577382 Z-0.125000
G01 X137.903911 Y176.870509 Z-0.125000
G01 X137.398352 Y178.496242 Z-0.125000
G01 X136.102953 Y180.055933 Z-0.125000
G01 X132.784477 Y182.589551 Z-0.125000
G01 X128.557146 Y185.069935 Z-0.125000
G01 X124.194240 Y187.028071 Z-0.125000
G01 X119.943752 Y188.432136 Z-0.125000
G01 X115.514417 Y189.419128 Z-0.125000
G01 X111.135405 Y189.945903 Z-0.125000
G01 X106.527999 Y190.031931 Z-0.125000
G01 X101.801641 Y189.626048 Z-0.125000
G01 X97.522758 Y188.833039 Z-0.125000
G01 X93.258751 Y187.664418 Z-0.125000
G01 X74.674794 Y180.722940 Z-0.125000
G01 X69.011250 Y178.999020 Z-0.125000
G01 X63.911544 Y177.769792 Z-0.125000
G01 X58.510418 Y176.817211 Z-0.125000
G01 X53.474036 Y176.257577 Z-0.125000
G01 X47.759070 Y175.997747 Z-0.125000
G01 X37.606618 Y176.064176 Z-0.125000
G01 X35.312650 Y175.850012 Z-0.125000
G01 X33.480904 Y175.412564 Z-0.125000
G01 X32.012803 Y174.775117 Z-0.125000
G01 X30.842500 Y173.994333 Z-0.125000
G01 X29.778148 Y172.984638 Z-0.125000
G01 X28.825891 Y171.732059 Z-0.125000
G01 X27.398605 Y168.739260 Z-0.125000
G01 X26.514264 Y164.894203 Z-0.125000
G01 X26.295313 Y162.136331 Z-0.125000
G01 X26.354627 Y159.115006 Z-0.125000
G01 X26.707018 Y155.866776 Z-0.125000
G01 X27.353586 Y152.431547 Z-0.125000
G01 X29.447685 Y145.157019 Z-0.125000
G01 X33.289572 Y135.132057 Z-0.125000
G01 X36.919236 Y127.381205 Z-0.125000
G01 X41.003102 Y120.338629 Z-0.125000
G01 X45.397961 Y114.262733 Z-0.125000
G01 X50.297215 Y108.938514 Z-0.125000
G01 X54.057021 Y105.717062 Z-0.125000
G01 X57.584486 Y103.284285 Z-0.125000
G01 X61.203348 Y101.314700 Z-0.125000
G01 X65.265351 Y99.669368 Z-0.125000
G01 X70.467967 Y98.335549 Z-0.125000
G01 X75.741604 Y97.766600 Z-0.125000
G01 X80.725463 Y97.864336 Z-0.125000
G01 X88.430260 Y98.719116 Z-0.125000
G01 X90.489883 Y98.586517 Z-0.125000
G01 X91.607340 Y98.194088 Z-0.125000
G01 X92.673568 Y97.539888 Z-0.125000
G01 X97.160470 Y93.664495 Z-0.125000
G01 X99.775329 Y91.899694 Z-0.125000
G01 X102.711014 Y90.701773 Z-0.125000
G01 X105.766102 Y90.277972 Z-0.125000
G01 X107.835040 Y90.450287 Z-0.125000
G01 X109.684898 Y90.938899 Z-0.125000
G01 X111.489477 Y91.767871 Z-0.125000
G01 X112.987203 Y92.784100 Z-0.125000
G01 X114.558214 Y94.282472 Z-0.125000
G01 X115.776123 Y95.884919 Z-0.125000
G01 X116.825404 Y97.749912 Z-0.125000
G01 X117.695514 Y99.862769 Z-0.125000
G01 X118.554758 Y102.912683 Z-0.125000
G01 X119.207729 Y106.685813 Z-0.125000
G01 X120.349312 Y120.134555 Z-0.125000
G01 X120.968907 Y125.225916 Z-0.125000
G01 X121.734037 Y129.398138 Z-0.125000
G01 X122.773034 Y133.518549 Z-0.125000
G01 X124.246050 Y137.973434 Z-0.125000
G01 X126.185235 Y142.649986 Z-0.125000
G01 X132.795408 Y155.474799 Z-0.125000
G01 X134.572563 Y159.349610 Z-0.125000
G01 X136.386845 Y164.553778 Z-0.125000
G01 X138.153715 Y170.944742 Z-0.125000
G01 X138.851058 Y174.469491 Z-0.125000
G01 X138.905586 Y176.744637 Z-0.125000
G01 X138.309471 Y178.476126 Z-0.125000
G01 X136.919765 Y180.119581 Z-0.125000
G01 X133.607887 Y182.771568 Z-0.125000
G01 X129.530231 Y185.318316 Z-0.125000
G01 X125.120430 Y187.434795 Z-0.125000
G01 X120.807394 Y188.963762 Z-0.125000
G01 X116.301087 Y190.054570 Z-0.125000
G01 X111.838828 Y190.660516 Z-0.125000
G01 X107.140090 Y190.806570 Z-0.125000
G01 X102.319878 Y190.438590 Z-0.125000
G01 X97.958654 Y189.660329 Z-0.125000
G01 X93.616770 Y188.489768 Z-0.125000
G01 X74.715091 Y181.466726 Z-0.125000
G01 X68.955105 Y179.730257 Z-0.125000
G01 X63.772929 Y178.499347 Z-0.125000
G01 X58.292955 Y177.555045 Z-0.125000
G01 X53.195384 Y177.012552 Z-0.125000
G01 X47.431711 Y176.782800 Z-0.125000
G01 X37.261601 Y176.922450 Z-0.125000
G01 X34.970803 Y176.721739 Z-0.125000
G01 X33.138086 Y176.289789 Z-0.125000
G01 X31.664163 Y175.650854 Z-0.125000
G01 X30.484223 Y174.863279 Z-0.125000
G01 X29.405964 Y173.841165 Z-0.125000
G01 X28.435919 Y172.570281 Z-0.125000
G01 X26.969177 Y169.527547 Z-0.125000
G01 X26.044410 Y165.612762 Z-0.125000
G01 X25.794023 Y162.432577 Z-0.125000
G01 X25.874877 Y159.323349 Z-0.125000
G01 X26.257021 Y155.988250 Z-0.125000
G01 X26.940393 Y152.468740 Z-0.125000
G01 X29.117545 Y145.037356 Z-0.125000
G01 X33.051411 Y134.825979 Z-0.125000
G01 X36.756236 Y126.949578 Z-0.125000
G01 X40.905302 Y119.813082 Z-0.125000
G01 X45.351131 Y113.677356 Z-0.125000
G01 X50.293399 Y108.323059 Z-0.125000
G01 X53.694022 Y105.395978 Z-0.125000
G01 X57.232613 Y102.919992 Z-0.125000
G01 X60.866999 Y100.915543 Z-0.125000
G01 X64.952093 Y99.241687 Z-0.125000
G01 X70.192677 Y97.886263 Z-0.125000
G01 X75.511463 Y97.311364 Z-0.125000
G01 X80.537818 Y97.416862 Z-0.125000
G01 X88.095204 Y98.286390 Z-0.125000
G01 X90.297453 Y98.156442 Z-0.125000
G01 X92.320918 Y97.159554 Z-0.125000
G01 X97.054197 Y92.905056 Z-0.125000
G01 X99.690530 Y91.088316 Z-0.125000
G01 X102.676926 Y89.854754 Z-0.125000
G01 X105.806011 Y89.419246 Z-0.125000
G01 X107.929994 Y89.597382 Z-0.125000
G01 X109.829204 Y90.100419 Z-0.125000
G01 X111.679580 Y90.952030 Z-0.125000
G01 X113.211910 Y91.994131 Z-0.125000
G01 X114.813904 Y93.527820 Z-0.125000
G01 X116.050442 Y95.165002 Z-0.125000
G01 X117.110007 Y97.066993 Z-0.125000
G01 X117.982640 Y99.218143 Z-0.125000
G01 X118.836062 Y102.317345 Z-0.125000
G01 X119.475773 Y106.143320 Z-0.125000
G01 X120.528935 Y118.805716 Z-0.125000
G01 X121.134688 Y123.927219 Z-0.125000
G01 X121.996196 Y128.600860 Z-0.125000
G01 X123.074907 Y132.758593 Z-0.125000
G01 X124.608661 Y137.259015 Z-0.125000
G01 X126.631286 Y141.988800 Z-0.125000
G01 X133.529038 Y154.974091 Z-0.125000
G01 X135.382842 Y158.895862 Z-0.125000
G01 X137.381922 Y164.483274 Z-0.125000
G01 X139.247562 Y171.090020 Z-0.125000
G01 X139.902733 Y174.507977 Z-0.125000
G01 X139.889537 Y176.720381 Z-0.125000
G01 X139.208041 Y178.458273 Z-0.125000
G01 X137.617496 Y180.300628 Z-0.125000
G01 X134.239836 Y183.102807 Z-0.125000
G01 X130.237470 Y185.719154 Z-0.125000
G01 X126.044097 Y187.844753 Z-0.125000
G01 X121.669290 Y189.501081 Z-0.125000
G01 X117.086269 Y190.697968 Z-0.125000
G01 X112.540440 Y191.384767 Z-0.125000
G01 X107.749853 Y191.592205 Z-0.125000
G01 X102.835204 Y191.263099 Z-0.125000
G01 X98.391122 Y190.500104 Z-0.125000
G01 X93.971165 Y189.327796 Z-0.125000
G01 X74.752865 Y182.223447 Z-0.125000
G01 X68.897020 Y180.474495 Z-0.125000
G01 X63.633021 Y179.241903 Z-0.125000
G01 X58.075686 Y178.305687 Z-0.125000
G01 X52.919060 Y177.779623 Z-0.125000
G01 X47.109980 Y177.578784 Z-0.125000
G01 X36.931850 Y177.786997 Z-0.125000
G01 X34.646549 Y177.598253 Z-0.125000
G01 X32.814479 Y177.170443 Z-0.125000
G01 X31.335511 Y176.528921 Z-0.125000
G01 X30.146257 Y175.733648 Z-0.125000
G01 X29.054026 Y174.698274 Z-0.125000
G01 X28.066000 Y173.408309 Z-0.125000
G01 X26.463100 Y170.039057 Z-0.125000
G01 X25.544025 Y165.987727 Z-0.125000
G01 X25.316860 Y163.090205 Z-0.125000
G01 X25.382125 Y159.923151 Z-0.125000
G01 X25.756184 Y156.526409 Z-0.125000
G01 X26.439685 Y152.942863 Z-0.125000
G01 X28.639346 Y145.381532 Z-0.125000
G01 X32.619655 Y135.001592 Z-0.125000
G01 X36.353717 Y126.995632 Z-0.125000
G01 X40.521540 Y119.739991 Z-0.125000
G01 X44.977136 Y113.500513 Z-0.125000
G01 X49.925678 Y108.054627 Z-0.125000
G01 X53.331670 Y105.077028 Z-0.125000
G01 X56.878929 Y102.558029 Z-0.125000
G01 X60.526833 Y100.518651 Z-0.125000
G01 X64.633337 Y98.815946 Z-0.125000
G01 X69.511699 Y97.512980 Z-0.125000
G01 X74.908750 Y96.871652 Z-0.125000
G01 X80.345194 Y96.967964 Z-0.125000
G01 X88.095657 Y97.869704 Z-0.125000
G01 X90.106315 Y97.723522 Z-0.125000
G01 X91.066011 Y97.362593 Z-0.125000
G01 X92.089678 Y96.691770 Z-0.125000
G01 X96.618236 Y92.420260 Z-0.125000
G01 X99.425461 Y90.377001 Z-0.125000
G01 X102.655322 Y89.002496 Z-0.125000
G01 X105.863579 Y88.558450 Z-0.125000
G01 X108.045517 Y88.744801 Z-0.125000
G01 X109.995827 Y89.264461 Z-0.125000
G01 X111.893097 Y90.140910 Z-0.125000
G01 X113.460356 Y91.210566 Z-0.125000
G01 X114.899997 Y92.564632 Z-0.125000
G01 X116.179289 Y94.198320 Z-0.125000
G01 X117.275336 Y96.100829 Z-0.125000
G01 X118.176947 Y98.255924 Z-0.125000
G01 X119.055983 Y101.364570 Z-0.125000
G01 X119.710054 Y105.205487 Z-0.125000
G01 X120.765415 Y117.932436 Z-0.125000
G01 X121.382487 Y123.087122 Z-0.125000
G01 X122.270320 Y127.796080 Z-0.125000
G01 X123.388295 Y131.990035 Z-0.125000
G01 X124.982850 Y136.535087 Z-0.125000
G01 X127.089368 Y141.317783 Z-0.125000
G01 X134.275734 Y154.464651 Z-0.125000
G01 X136.205863 Y158.433640 Z-0.125000
G01 X138.292330 Y164.089357 Z-0.125000
G01 X140.351953 Y171.217703 Z-0.125000
G01 X140.953695 Y174.530293 Z-0.125000
G01 X140.864110 Y176.688234 Z-0.125000
G01 X140.028411 Y178.538868 Z-0.125000
G01 X138.168721 Y180.632579 Z-0.125000
G01 X134.652963 Y183.621303 Z-0.125000
G01 X130.656614 Y186.306278 Z-0.125000
G01 X126.275596 Y188.573274 Z-0.125000
G01 X121.720583 Y190.310648 Z-0.125000
G01 X116.969258 Y191.538841 Z-0.125000
G01 X112.278993 Y192.215163 Z-0.125000
G01 X107.360722 Y192.376675 Z-0.125000
G01 X102.843290 Y192.038838 Z-0.125000
G01 X98.819450 Y191.352167 Z-0.125000
G01 X94.321163 Y190.178372 Z-0.125000
G01 X74.787406 Y182.992847 Z-0.125000
G01 X68.836348 Y181.231540 Z-0.125000
G01 X63.491495 Y179.997137 Z-0.125000
G01 X57.858158 Y179.068683 Z-0.125000
G01 X52.644547 Y178.558531 Z-0.125000
G01 X46.793682 Y178.385182 Z-0.125000
G01 X36.617169 Y178.657043 Z-0.125000
G01 X34.339694 Y178.478519 Z-0.125000
G01 X32.509759 Y178.053425 Z-0.125000
G01 X31.026716 Y177.408216 Z-0.125000
G01 X29.828471 Y176.604211 Z-0.125000
G01 X28.722334 Y175.554801 Z-0.125000
G01 X27.715937 Y174.245107 Z-0.125000
G01 X26.067566 Y170.818935 Z-0.125000
G01 X25.104960 Y166.694902 Z-0.125000
G01 X24.855220 Y163.744211 Z-0.125000
G01 X24.903926 Y160.519072 Z-0.125000
G01 X25.268995 Y157.060364 Z-0.125000
G01 X25.951978 Y153.412588 Z-0.125000
G01 X28.173632 Y145.721116 Z-0.125000
G01 X31.987706 Y135.682376 Z-0.125000
G01 X35.962775 Y127.038905 Z-0.125000
G01 X40.147416 Y119.665671 Z-0.125000
G01 X44.609739 Y113.323865 Z-0.125000
G01 X49.560674 Y107.787682 Z-0.125000
G01 X52.969447 Y104.760148 Z-0.125000
G01 X56.522980 Y102.198393 Z-0.125000
G01 X60.182269 Y100.124152 Z-0.125000
G01 X63.895309 Y98.538781 Z-0.125000
G01 X69.219463 Y97.067123 Z-0.125000
G01 X74.661857 Y96.416222 Z-0.125000
G01 X80.147136 Y96.517450 Z-0.125000
G01 X87.928064 Y97.440147 Z-0.125000
G01 X89.916795 Y97.287496 Z-0.125000
G01 X90.858574 Y96.914601 Z-0.125000
G01 X91.861348 Y96.221721 Z-0.125000
G01 X96.353620 Y91.797884 Z-0.125000
G01 X99.165372 Y89.666463 Z-0.125000
G01 X102.426087 Y88.208388 Z-0.125000
G01 X105.695275 Y87.699465 Z-0.125000
G01 X107.931740 Y87.850952 Z-0.125000
G01 X109.937548 Y88.345256 Z-0.125000
G01 X111.893614 Y89.202301 Z-0.125000
G01 X113.512296 Y90.259797 Z-0.125000
G01 X115.200512 Y91.822011 Z-0.125000
G01 X116.497916 Y93.492115 Z-0.125000
G01 X117.602889 Y95.432658 Z-0.125000
G01 X118.505082 Y97.626368 Z-0.125000
G01 X119.375192 Y100.783656 Z-0.125000
G01 X119.961734 Y104.270242 Z-0.125000
G01 X121.016254 Y117.056504 Z-0.125000
G01 X121.643287 Y122.242173 Z-0.125000
G01 X122.556606 Y126.984766 Z-0.125000
G01 X123.713454 Y131.213714 Z-0.125000
G01 X125.368876 Y135.802621 Z-0.125000
G01 X127.559611 Y140.637904 Z-0.125000
G01 X135.035367 Y153.947513 Z-0.125000
G01 X137.041110 Y157.963915 Z-0.125000
G01 X139.321883 Y164.011026 Z-0.125000
G01 X141.412230 Y171.112141 Z-0.125000
G01 X141.990363 Y174.390449 Z-0.125000
G01 X141.826264 Y176.650977 Z-0.125000
G01 X140.889207 Y178.540355 Z-0.125000
G01 X138.663673 Y181.036328 Z-0.125000
G01 X135.223981 Y184.046785 Z-0.125000
G01 X131.326919 Y186.764489 Z-0.125000
G01 X127.182576 Y189.013180 Z-0.125000
G01 X122.563397 Y190.881084 Z-0.125000
G01 X117.732577 Y192.216327 Z-0.125000
G01 X112.956285 Y192.972984 Z-0.125000
G01 X107.944224 Y193.193810 Z-0.125000
G01 X103.340828 Y192.889349 Z-0.125000
G01 X99.242862 Y192.216133 Z-0.125000
G01 X94.666051 Y191.040979 Z-0.125000
G01 X74.818260 Y183.774601 Z-0.125000
G01 X68.772571 Y182.000939 Z-0.125000
G01 X63.347771 Y180.764725 Z-0.125000
G01 X57.640049 Y179.843710 Z-0.125000
G01 X52.371457 Y179.348759 Z-0.125000
G01 X46.482430 Y179.201541 Z-0.125000
G01 X36.317365 Y179.531746 Z-0.125000
G01 X34.050046 Y179.361630 Z-0.125000
G01 X32.223797 Y178.937830 Z-0.125000
G01 X30.737456 Y178.287576 Z-0.125000
G01 X29.530608 Y177.473998 Z-0.125000
G01 X28.257913 Y176.236167 Z-0.125000
G01 X27.247571 Y174.867160 Z-0.125000
G01 X25.590985 Y171.304442 Z-0.125000
G01 X24.632518 Y167.038819 Z-0.125000
G01 X24.395521 Y163.997766 Z-0.125000
G01 X24.466413 Y160.682072 Z-0.125000
G01 X24.795259 Y157.589273 Z-0.125000
G01 X25.477014 Y153.877139 Z-0.125000
G01 X27.720012 Y146.055395 Z-0.125000
G01 X31.578265 Y135.857407 Z-0.125000
G01 X35.583088 Y127.078814 Z-0.125000
G01 X39.782541 Y119.589604 Z-0.125000
G01 X44.248357 Y113.147282 Z-0.125000
G01 X49.197870 Y107.522224 Z-0.125000
G01 X53.385615 Y103.824773 Z-0.125000
G01 X57.783579 Y100.842193 Z-0.125000
G01 X62.315630 Y98.602752 Z-0.125000
G01 X66.874266 Y97.087821 Z-0.125000
G01 X71.324494 Y96.231359 Z-0.125000
G01 X75.879766 Y95.917648 Z-0.125000
G01 X80.562074 Y96.119135 Z-0.125000
G01 X87.760278 Y97.006903 Z-0.125000
G01 X89.090605 Y96.974239 Z-0.125000
G01 X90.086717 Y96.730838 Z-0.125000
G01 X91.636447 Y95.749021 Z-0.125000
G01 X96.094113 Y91.175249 Z-0.125000
G01 X98.910846 Y88.956766 Z-0.125000
G01 X102.203449 Y87.416220 Z-0.125000
G01 X104.062363 Y86.985369 Z-0.125000
G01 X105.785830 Y86.836405 Z-0.125000
G01 X108.085491 Y87.000246 Z-0.125000
G01 X110.146279 Y87.514861 Z-0.125000
G01 X112.151957 Y88.400172 Z-0.125000
G01 X113.806926 Y89.488004 Z-0.125000
G01 X115.323086 Y90.868783 Z-0.125000
G01 X116.664732 Y92.536107 Z-0.125000
G01 X117.806962 Y94.477490 Z-0.125000
G01 X118.738262 Y96.674952 Z-0.125000
G01 X119.633146 Y99.840648 Z-0.125000
G01 X120.231396 Y103.338748 Z-0.125000
G01 X121.281647 Y116.178826 Z-0.125000
G01 X121.917347 Y121.393408 Z-0.125000
G01 X122.855181 Y126.167889 Z-0.125000
G01 X124.050580 Y130.430667 Z-0.125000
G01 X125.766738 Y135.062588 Z-0.125000
G01 X128.042078 Y139.950134 Z-0.125000
G01 X135.807612 Y153.423649 Z-0.125000
G01 X137.888322 Y157.487851 Z-0.125000
G01 X140.368771 Y163.930432 Z-0.125000
G01 X142.480658 Y170.998817 Z-0.125000
G01 X143.027290 Y174.243490 Z-0.125000
G01 X142.773023 Y176.611779 Z-0.125000
G01 X141.654079 Y178.658919 Z-0.125000
G01 X139.098210 Y181.522805 Z-0.125000
G01 X135.326115 Y184.868513 Z-0.125000
G01 X131.386233 Y187.620628 Z-0.125000
G01 X126.985229 Y189.986782 Z-0.125000
G01 X122.549361 Y191.754234 Z-0.125000
G01 X118.020091 Y193.008495 Z-0.125000
G01 X113.126982 Y193.794906 Z-0.125000
G01 X108.004120 Y194.016444 Z-0.125000
G01 X103.310492 Y193.689861 Z-0.125000
G01 X99.140922 Y192.982686 Z-0.125000
G01 X95.005182 Y191.915423 Z-0.125000
G01 X90.894150 Y190.548357 Z-0.125000
G01 X74.844715 Y184.568321 Z-0.125000
G01 X68.705172 Y182.782434 Z-0.125000
G01 X63.201394 Y181.544280 Z-0.125000
G01 X57.420710 Y180.630380 Z-0.125000
G01 X52.099467 Y180.149853 Z-0.125000
G01 X46.175834 Y180.027214 Z-0.125000
G01 X36.032115 Y180.410200 Z-0.125000
G01 X33.777279 Y180.246618 Z-0.125000
G01 X31.956270 Y179.822429 Z-0.125000
G01 X30.467600 Y179.165966 Z-0.125000
G01 X29.252408 Y178.341780 Z-0.125000
G01 X27.963284 Y177.085450 Z-0.125000
G01 X26.933213 Y175.694450 Z-0.125000
G01 X25.227727 Y172.071061 Z-0.125000
G01 X24.222495 Y167.730017 Z-0.125000
G01 X23.961371 Y164.634567 Z-0.125000
G01 X24.014476 Y161.259752 Z-0.125000
G01 X24.334460 Y158.112361 Z-0.125000
G01 X25.014469 Y154.335609 Z-0.125000
G01 X27.107015 Y146.891741 Z-0.125000
G01 X30.966303 Y136.551710 Z-0.125000
G01 X34.955343 Y127.634891 Z-0.125000
G01 X39.426463 Y119.511467 Z-0.125000
G01 X43.892732 Y112.970504 Z-0.125000
G01 X48.836811 Y107.258254 Z-0.125000
G01 X53.021840 Y103.502265 Z-0.125000
G01 X57.423556 Y100.471303 Z-0.125000
G01 X61.968996 Y98.194282 Z-0.125000
G01 X66.551629 Y96.653025 Z-0.125000
G01 X71.034716 Y95.780909 Z-0.125000
G01 X75.630867 Y95.461054 Z-0.125000
G01 X80.357742 Y95.665839 Z-0.125000
G01 X87.427615 Y96.559623 Z-0.125000
G01 X88.779287 Y96.550762 Z-0.125000
G01 X89.779668 Y96.327801 Z-0.125000
G01 X91.415297 Y95.273474 Z-0.125000
G01 X95.840428 Y90.552421 Z-0.125000
G01 X98.662724 Y88.247974 Z-0.125000
G01 X100.248741 Y87.336208 Z-0.125000
G01 X101.988056 Y86.626381 Z-0.125000
G01 X103.879440 Y86.158402 Z-0.125000
G01 X105.640230 Y85.980072 Z-0.125000
G01 X107.998428 Y86.111313 Z-0.125000
G01 X110.118142 Y86.602707 Z-0.125000
G01 X112.185915 Y87.470553 Z-0.125000
G01 X113.894635 Y88.547842 Z-0.125000
G01 X115.671466 Y90.142592 Z-0.125000
G01 X117.030318 Y91.847884 Z-0.125000
G01 X118.179728 Y93.828271 Z-0.125000
G01 X119.109152 Y96.064478 Z-0.125000
G01 X119.991552 Y99.277909 Z-0.125000
G01 X120.571432 Y102.819993 Z-0.125000
G01 X121.561981 Y115.300566 Z-0.125000
G01 X122.204862 Y120.541732 Z-0.125000
G01 X123.166369 Y125.346420 Z-0.125000
G01 X124.399736 Y129.641862 Z-0.125000
G01 X126.176567 Y134.315892 Z-0.125000
G01 X128.536641 Y139.255378 Z-0.125000
G01 X136.592277 Y152.894222 Z-0.125000
G01 X138.747113 Y157.006354 Z-0.125000
G01 X141.319605 Y163.523514 Z-0.125000
G01 X143.555553 Y170.878572 Z-0.125000
G01 X144.066869 Y174.236440 Z-0.125000
G01 X143.701477 Y176.573746 Z-0.125000
G01 X142.297541 Y178.921207 Z-0.125000
G01 X139.311857 Y182.258958 Z-0.125000
G01 X135.578119 Y185.603889 Z-0.125000
G01 X131.692117 Y188.350054 Z-0.125000
G01 X127.484708 Y190.654760 Z-0.125000
G01 X122.928854 Y192.512703 Z-0.125000
G01 X118.282185 Y193.822137 Z-0.125000
G01 X113.271483 Y194.634615 Z-0.125000
G01 X108.038014 Y194.852596 Z-0.125000
G01 X103.255188 Y194.500140 Z-0.125000
G01 X99.015115 Y193.755967 Z-0.125000
G01 X94.814821 Y192.644073 Z-0.125000
G01 X75.431127 Y185.556865 Z-0.125000
G01 X69.199217 Y183.721108 Z-0.125000
G01 X63.051848 Y182.335478 Z-0.125000
G01 X57.199884 Y181.428239 Z-0.125000
G01 X51.828123 Y180.961425 Z-0.125000
G01 X45.873637 Y180.861685 Z-0.125000
G01 X35.761224 Y181.291500 Z-0.125000
G01 X33.521265 Y181.132575 Z-0.125000
G01 X31.706983 Y180.706317 Z-0.125000
G01 X30.216696 Y180.042221 Z-0.125000
G01 X28.824791 Y179.066160 Z-0.125000
G01 X27.532174 Y177.745988 Z-0.125000
G01 X26.495830 Y176.291730 Z-0.125000
G01 X24.778377 Y172.525132 Z-0.125000
G01 X23.775732 Y168.038036 Z-0.125000
G01 X23.527804 Y164.850283 Z-0.125000
G01 X23.604129 Y161.383813 Z-0.125000
G01 X23.952380 Y158.158157 Z-0.125000
G01 X24.672104 Y154.295894 Z-0.125000
G01 X26.847574 Y146.705261 Z-0.125000
G01 X30.793794 Y136.191040 Z-0.125000
G01 X34.855862 Y127.146796 Z-0.125000
G01 X39.381250 Y118.935016 Z-0.125000
G01 X43.879666 Y112.348258 Z-0.125000
G01 X46.306816 Y109.361086 Z-0.125000
G01 X48.846449 Y106.620355 Z-0.125000
G01 X53.047907 Y102.871157 Z-0.125000
G01 X57.058552 Y100.103195 Z-0.125000
G01 X61.615053 Y97.788463 Z-0.125000
G01 X66.220260 Y96.220039 Z-0.125000
G01 X70.735882 Y95.331300 Z-0.125000
G01 X75.373624 Y95.003748 Z-0.125000
G01 X80.147071 Y95.210150 Z-0.125000
G01 X87.259893 Y96.117776 Z-0.125000
G01 X88.604515 Y96.107427 Z-0.125000
G01 X89.592606 Y95.878062 Z-0.125000
G01 X91.093113 Y94.894305 Z-0.125000
G01 X95.593146 Y89.929333 Z-0.125000
G01 X98.613112 Y87.411369 Z-0.125000
G01 X100.230371 Y86.482333 Z-0.125000
G01 X102.012506 Y85.761704 Z-0.125000
G01 X103.956412 Y85.291073 Z-0.125000
G01 X105.768366 Y85.117789 Z-0.125000
G01 X108.194869 Y85.265912 Z-0.125000
G01 X110.373120 Y85.781691 Z-0.125000
G01 X112.492769 Y86.681620 Z-0.125000
G01 X114.238747 Y87.792155 Z-0.125000
G01 X116.046367 Y89.428949 Z-0.125000
G01 X117.420937 Y91.173180 Z-0.125000
G01 X118.575715 Y93.192894 Z-0.125000
G01 X119.501388 Y95.467716 Z-0.125000
G01 X120.289092 Y98.348744 Z-0.125000
G01 X120.878545 Y101.900336 Z-0.125000
G01 X121.857451 Y114.422629 Z-0.125000
G01 X122.430410 Y119.206036 Z-0.125000
G01 X123.372059 Y124.038150 Z-0.125000
G01 X124.601287 Y128.370267 Z-0.125000
G01 X126.396035 Y133.098371 Z-0.125000
G01 X128.807079 Y138.111661 Z-0.125000
G01 X131.495741 Y142.843904 Z-0.125000
G01 X137.389037 Y152.360202 Z-0.125000
G01 X139.617094 Y156.520587 Z-0.125000
G01 X142.396053 Y163.439944 Z-0.125000
G01 X144.682971 Y170.961948 Z-0.125000
G01 X145.093188 Y174.220657 Z-0.125000
G01 X144.608974 Y176.540240 Z-0.125000
G01 X142.885635 Y179.242744 Z-0.125000
G01 X139.421235 Y183.133532 Z-0.125000
G01 X135.768221 Y186.416950 Z-0.125000
G01 X131.955634 Y189.128509 Z-0.125000
G01 X127.563750 Y191.540588 Z-0.125000
G01 X123.283444 Y193.295556 Z-0.125000
G01 X118.517824 Y194.657125 Z-0.125000
G01 X113.388753 Y195.491466 Z-0.125000
G01 X108.584776 Y195.710287 Z-0.125000
G01 X103.715211 Y195.388362 Z-0.125000
G01 X99.401205 Y194.654861 Z-0.125000
G01 X95.131895 Y193.539733 Z-0.125000
G01 X75.455836 Y186.374971 Z-0.125000
G01 X69.131236 Y184.526213 Z-0.125000
G01 X63.455661 Y183.243815 Z-0.125000
G01 X57.497035 Y182.299320 Z-0.125000
G01 X51.556974 Y181.782959 Z-0.125000
G01 X45.575321 Y181.704499 Z-0.125000
G01 X35.504305 Y182.174806 Z-0.125000
G01 X33.281552 Y182.018468 Z-0.125000
G01 X31.475549 Y181.588458 Z-0.125000
G01 X29.984486 Y180.915371 Z-0.125000
G01 X28.583266 Y179.924369 Z-0.125000
G01 X27.273056 Y178.582917 Z-0.125000
G01 X26.215495 Y177.104466 Z-0.125000
G01 X25.137624 Y175.057780 Z-0.125000
G01 X24.341317 Y172.955983 Z-0.125000
G01 X23.341583 Y168.320634 Z-0.125000
G01 X23.107561 Y165.039738 Z-0.125000
G01 X23.176707 Y161.939631 Z-0.125000
G01 X23.515579 Y158.658929 Z-0.125000
G01 X24.233297 Y154.731919 Z-0.125000
G01 X26.427978 Y147.019425 Z-0.125000
G01 X30.418053 Y136.348478 Z-0.125000
G01 X34.507546 Y127.173833 Z-0.125000
G01 X39.041667 Y118.844913 Z-0.125000
G01 X43.533291 Y112.164365 Z-0.125000
G01 X45.953843 Y109.134309 Z-0.125000
G01 X48.486361 Y106.353798 Z-0.125000
G01 X52.678958 Y102.548908 Z-0.125000
G01 X56.687921 Y99.738061 Z-0.125000
G01 X61.253089 Y97.385361 Z-0.125000
G01 X65.879577 Y95.789124 Z-0.125000
G01 X70.427281 Y94.882468 Z-0.125000
G01 X75.107585 Y94.545730 Z-0.125000
G01 X79.929737 Y94.752003 Z-0.125000
G01 X87.256012 Y95.681298 Z-0.125000
G01 X89.408261 Y95.423861 Z-0.125000
G01 X90.882701 Y94.414813 Z-0.125000
G01 X95.352980 Y89.305922 Z-0.125000
G01 X98.380837 Y86.699796 Z-0.125000
G01 X100.011356 Y85.730980 Z-0.125000
G01 X101.817359 Y84.972576 Z-0.125000
G01 X103.796776 Y84.467017 Z-0.125000
G01 X105.648962 Y84.266372 Z-0.125000
G01 X107.857808 Y84.349295 Z-0.125000
G01 X109.820214 Y84.720185 Z-0.125000
G01 X111.755517 Y85.386286 Z-0.125000
G01 X113.608997 Y86.356654 Z-0.125000
G01 X115.328131 Y87.632971 Z-0.125000
G01 X116.659881 Y88.966403 Z-0.125000
G01 X118.016793 Y90.790776 Z-0.125000
G01 X118.995117 Y92.572329 Z-0.125000
G01 X120.134760 Y95.589707 Z-0.125000
G01 X120.908040 Y98.972219 Z-0.125000
G01 X121.428476 Y103.086938 Z-0.125000
G01 X122.126531 Y113.071474 Z-0.125000
G01 X122.671353 Y117.865425 Z-0.125000
G01 X123.705563 Y123.207431 Z-0.125000
G01 X125.134466 Y128.050670 Z-0.125000
G01 X127.032059 Y132.806523 Z-0.125000
G01 X129.562184 Y137.848985 Z-0.125000
G01 X132.360418 Y142.607166 Z-0.125000
G01 X137.983082 Y151.466354 Z-0.125000
G01 X139.969873 Y154.980430 Z-0.125000
G01 X141.917725 Y159.234605 Z-0.125000
G01 X143.933041 Y164.631203 Z-0.125000
G01 X145.846223 Y171.230575 Z-0.125000
G01 X146.113620 Y173.324286 Z-0.125000
G01 X145.975458 Y175.111919 Z-0.125000
G01 X145.438658 Y176.627109 Z-0.125000
G01 X144.294228 Y178.471598 Z-0.125000
G01 X139.802733 Y183.764769 Z-0.125000
G01 X136.163820 Y187.090166 Z-0.125000
G01 X132.174326 Y189.956252 Z-0.125000
G01 X128.006244 Y192.270919 Z-0.125000
G01 X123.143665 Y194.265148 Z-0.125000
G01 X118.214915 Y195.625165 Z-0.125000
G01 X113.477950 Y196.364810 Z-0.125000
G01 X108.574685 Y196.573412 Z-0.125000
G01 X103.616958 Y196.219856 Z-0.125000
G01 X99.779469 Y195.564169 Z-0.125000
G01 X95.441142 Y194.445936 Z-0.125000
G01 X75.474659 Y187.203814 Z-0.125000
G01 X69.058080 Y185.342248 Z-0.125000
G01 X63.305404 Y184.056876 Z-0.125000
G01 X57.276985 Y183.117620 Z-0.125000
G01 X51.285630 Y182.614066 Z-0.125000
G01 X45.280627 Y182.555010 Z-0.125000
G01 X35.261033 Y183.059276 Z-0.125000
G01 X33.057879 Y182.903326 Z-0.125000
G01 X31.261644 Y182.467754 Z-0.125000
G01 X29.770645 Y181.784253 Z-0.125000
G01 X28.360370 Y180.777080 Z-0.125000
G01 X27.032372 Y179.413312 Z-0.125000
G01 X25.953078 Y177.910024 Z-0.125000
G01 X24.845324 Y175.828667 Z-0.125000
G01 X24.020620 Y173.691101 Z-0.125000
G01 X22.969528 Y168.976580 Z-0.125000
G01 X22.709440 Y165.639799 Z-0.125000
G01 X22.761703 Y162.487104 Z-0.125000
G01 X23.090485 Y159.151358 Z-0.125000
G01 X23.805680 Y155.159730 Z-0.125000
G01 X25.841694 Y147.857841 Z-0.125000
G01 X29.832481 Y137.046726 Z-0.125000
G01 X33.906515 Y127.738318 Z-0.125000
G01 X38.407130 Y119.261922 Z-0.125000
G01 X43.191055 Y111.980020 Z-0.125000
G01 X45.603005 Y108.908243 Z-0.125000
G01 X48.126273 Y106.088922 Z-0.125000
G01 X52.306645 Y102.229376 Z-0.125000
G01 X56.311080 Y99.376033 Z-0.125000
G01 X60.882587 Y96.985299 Z-0.125000
G01 X65.528868 Y95.360408 Z-0.125000
G01 X70.108525 Y94.434606 Z-0.125000
G01 X74.832102 Y94.087001 Z-0.125000
G01 X79.705289 Y94.291140 Z-0.125000
G01 X87.087643 Y95.229684 Z-0.125000
G01 X89.226826 Y94.964809 Z-0.125000
G01 X90.677204 Y93.931569 Z-0.125000
G01 X95.120381 Y88.682188 Z-0.125000
G01 X98.156906 Y85.989581 Z-0.125000
G01 X100.019506 Y84.870054 Z-0.125000
G01 X101.873762 Y84.104212 Z-0.125000
G01 X103.911070 Y83.599882 Z-0.125000
G01 X105.818883 Y83.408033 Z-0.125000
G01 X107.805415 Y83.477373 Z-0.125000
G01 X109.822736 Y83.830087 Z-0.125000
G01 X111.815801 Y84.482282 Z-0.125000
G01 X113.727301 Y85.442883 Z-0.125000
G01 X115.501869 Y86.713250 Z-0.125000
G01 X116.877215 Y88.044288 Z-0.125000
G01 X118.278175 Y89.868531 Z-0.125000
G01 X119.287353 Y91.651831 Z-0.125000
G01 X120.459919 Y94.673996 Z-0.125000
G01 X121.250082 Y98.063105 Z-0.125000
G01 X121.773429 Y102.186362 Z-0.125000
G01 X122.453372 Y112.195865 Z-0.125000
G01 X122.998452 Y117.007022 Z-0.125000
G01 X124.052003 Y122.375160 Z-0.125000
G01 X125.520233 Y127.250223 Z-0.125000
G01 X127.477787 Y132.045726 Z-0.125000
G01 X130.092905 Y137.139222 Z-0.125000
G01 X132.719212 Y141.528713 Z-0.125000
G01 X138.796272 Y150.921855 Z-0.125000
G01 X141.029568 Y154.830625 Z-0.125000
G01 X143.001999 Y159.138486 Z-0.125000
G01 X145.249655 Y165.155779 Z-0.125000
G01 X146.955529 Y171.282062 Z-0.125000
G01 X147.145243 Y173.316459 Z-0.125000
G01 X146.915361 Y175.078284 Z-0.125000
G01 X146.227203 Y176.732736 Z-0.125000
G01 X144.953861 Y178.691971 Z-0.125000
G01 X142.561834 Y181.760579 Z-0.125000
G01 X140.130803 Y184.476860 Z-0.125000
G01 X136.520091 Y187.816422 Z-0.125000
G01 X132.345929 Y190.833219 Z-0.125000
G01 X127.997900 Y193.234366 Z-0.125000
G01 X123.432861 Y195.102270 Z-0.125000
G01 X118.382120 Y196.503878 Z-0.125000
G01 X113.538169 Y197.253808 Z-0.125000
G01 X108.536329 Y197.447920 Z-0.125000
G01 X103.491927 Y197.058660 Z-0.125000
G01 X99.595188 Y196.364551 Z-0.125000
G01 X95.742046 Y195.362295 Z-0.125000
G01 X75.487013 Y188.043070 Z-0.125000
G01 X68.979232 Y186.168698 Z-0.125000
G01 X63.150489 Y184.880285 Z-0.125000
G01 X57.053766 Y183.945816 Z-0.125000
G01 X51.487828 Y183.476673 Z-0.125000
G01 X44.989167 Y183.412702 Z-0.125000
G01 X35.031087 Y183.944069 Z-0.125000
G01 X32.849860 Y183.786244 Z-0.125000
G01 X31.064879 Y183.343103 Z-0.125000
G01 X29.574592 Y182.647701 Z-0.125000
G01 X28.155585 Y181.623128 Z-0.125000
G01 X26.809605 Y180.236074 Z-0.125000
G01 X25.557997 Y178.464289 Z-0.125000
G01 X24.438664 Y176.298392 Z-0.125000
G01 X23.606652 Y174.082560 Z-0.125000
G01 X22.557565 Y169.216359 Z-0.125000
G01 X22.312224 Y165.785335 Z-0.125000
G01 X22.386609 Y162.551528 Z-0.125000
G01 X22.745532 Y159.137322 Z-0.125000
G01 X23.388671 Y155.578550 Z-0.125000
G01 X25.619768 Y147.623366 Z-0.125000
G01 X29.697295 Y136.641943 Z-0.125000
G01 X33.839439 Y127.211866 Z-0.125000
G01 X38.384168 Y118.655975 Z-0.125000
G01 X43.188662 Y111.336040 Z-0.125000
G01 X45.605916 Y108.258377 Z-0.125000
G01 X48.133453 Y105.439962 Z-0.125000
G01 X52.321651 Y101.594064 Z-0.125000
G01 X56.336888 Y98.763747 Z-0.125000
G01 X60.925149 Y96.406584 Z-0.125000
G01 X65.591481 Y94.820114 Z-0.125000
G01 X69.778903 Y93.987714 Z-0.125000
G01 X74.546787 Y93.627431 Z-0.125000
G01 X79.473402 Y93.827430 Z-0.125000
G01 X86.754657 Y94.762417 Z-0.125000
G01 X88.937372 Y94.545083 Z-0.125000
G01 X90.377465 Y93.547225 Z-0.125000
G01 X94.895997 Y88.058130 Z-0.125000
G01 X98.139248 Y85.139845 Z-0.125000
G01 X99.821254 Y84.118701 Z-0.125000
G01 X101.702030 Y83.317284 Z-0.125000
G01 X103.777824 Y82.780677 Z-0.125000
G01 X105.728780 Y82.563925 Z-0.125000
G01 X107.765765 Y82.612114 Z-0.125000
G01 X109.838907 Y82.947752 Z-0.125000
G01 X111.890962 Y83.587075 Z-0.125000
G01 X113.861647 Y84.538685 Z-0.125000
G01 X115.692812 Y85.803748 Z-0.125000
G01 X117.112530 Y87.132781 Z-0.125000
G01 X118.558509 Y88.957154 Z-0.125000
G01 X119.598994 Y90.742135 Z-0.125000
G01 X120.804807 Y93.768698 Z-0.125000
G01 X121.611722 Y97.163500 Z-0.125000
G01 X122.137204 Y101.293872 Z-0.125000
G01 X122.795867 Y111.323815 Z-0.125000
G01 X123.339783 Y116.150042 Z-0.125000
G01 X124.411379 Y121.542307 Z-0.125000
G01 X125.918096 Y126.447835 Z-0.125000
G01 X127.935352 Y131.282148 Z-0.125000
G01 X130.635592 Y136.426420 Z-0.125000
G01 X133.348962 Y140.866363 Z-0.125000
G01 X139.620587 Y150.375740 Z-0.125000
G01 X141.919989 Y154.329982 Z-0.125000
G01 X144.101474 Y159.047413 Z-0.125000
G01 X146.467693 Y165.363087 Z-0.125000
G01 X147.521955 Y168.810669 Z-0.125000
G01 X148.052287 Y171.323265 Z-0.125000
G01 X148.156426 Y173.304170 Z-0.125000
G01 X147.869106 Y174.924598 Z-0.125000
G01 X147.043627 Y176.743020 Z-0.125000
G01 X145.467053 Y179.109045 Z-0.125000
G01 X142.845273 Y182.516201 Z-0.125000
G01 X140.401953 Y185.272973 Z-0.125000
G01 X136.834772 Y188.596624 Z-0.125000
G01 X132.842303 Y191.520666 Z-0.125000
G01 X128.377522 Y194.026664 Z-0.125000
G01 X123.693532 Y195.962678 Z-0.125000
G01 X119.055078 Y197.284403 Z-0.125000
G01 X114.128398 Y198.101473 Z-0.125000
G01 X109.039107 Y198.343063 Z-0.125000
G01 X103.907901 Y197.980776 Z-0.125000
G01 X99.946997 Y197.293911 Z-0.125000
G01 X96.033894 Y196.288226 Z-0.125000
G01 X75.492382 Y188.892223 Z-0.125000
G01 X68.894174 Y187.005173 Z-0.125000
G01 X62.990399 Y185.713720 Z-0.125000
G01 X56.827053 Y184.783585 Z-0.125000
G01 X51.217455 Y184.324274 Z-0.125000
G01 X44.700424 Y184.276991 Z-0.125000
G01 X35.044476 Y184.828863 Z-0.125000
G01 X32.862344 Y184.696845 Z-0.125000
G01 X31.075875 Y184.280807 Z-0.125000
G01 X29.396068 Y183.504745 Z-0.125000
G01 X27.968523 Y182.461479 Z-0.125000
G01 X26.604367 Y181.050040 Z-0.125000
G01 X25.326368 Y179.247983 Z-0.125000
G01 X24.174953 Y177.045605 Z-0.125000
G01 X23.312540 Y174.792775 Z-0.125000
G01 X22.626646 Y172.247191 Z-0.125000
G01 X22.156339 Y169.427353 Z-0.125000
G01 X21.926974 Y165.901699 Z-0.125000
G01 X22.024774 Y162.586910 Z-0.125000
G01 X22.415328 Y159.094567 Z-0.125000
G01 X23.096371 Y155.461604 Z-0.125000
G01 X25.230250 Y147.911851 Z-0.125000
G01 X29.351372 Y136.776935 Z-0.125000
G01 X33.518743 Y127.222021 Z-0.125000
G01 X38.065412 Y118.556688 Z-0.125000
G01 X42.851666 Y111.144773 Z-0.125000
G01 X45.256047 Y108.028171 Z-0.125000
G01 X47.770001 Y105.173534 Z-0.125000
G01 X51.939636 Y101.275955 Z-0.125000
G01 X55.945623 Y98.404824 Z-0.125000
G01 X60.536794 Y96.009886 Z-0.125000
G01 X65.221496 Y94.393856 Z-0.125000
G01 X69.437961 Y93.541921 Z-0.125000
G01 X74.251187 Y93.167150 Z-0.125000
G01 X79.233753 Y93.360745 Z-0.125000
G01 X86.585577 Y94.299613 Z-0.125000
G01 X88.763440 Y94.076458 Z-0.125000
G01 X90.184258 Y93.057966 Z-0.125000
G01 X94.680281 Y87.433749 Z-0.125000
G01 X97.935109 Y84.427949 Z-0.125000
G01 X99.632963 Y83.370129 Z-0.125000
G01 X101.540905 Y82.534236 Z-0.125000
G01 X103.656027 Y81.966452 Z-0.125000
G01 X105.650838 Y81.725962 Z-0.125000
G01 X108.042283 Y81.781525 Z-0.125000
G01 X110.173639 Y82.144329 Z-0.125000
G01 X112.277958 Y82.816511 Z-0.125000
G01 X114.292239 Y83.805508 Z-0.125000
G01 X116.156198 Y85.110932 Z-0.125000
G01 X117.594286 Y86.475606 Z-0.125000
G01 X119.050162 Y88.341440 Z-0.125000
G01 X120.089805 Y90.160897 Z-0.125000
G01 X121.386627 Y93.600588 Z-0.125000
G01 X122.187656 Y97.479151 Z-0.125000
G01 X123.236226 Y111.414629 Z-0.125000
G01 X123.933828 Y116.765820 Z-0.125000
G01 X124.913446 Y121.203888 Z-0.125000
G01 X126.328183 Y125.644284 Z-0.125000
G01 X128.404689 Y130.516694 Z-0.125000
G01 X131.189922 Y135.711483 Z-0.125000
G01 X133.990355 Y140.202138 Z-0.125000
G01 X140.455639 Y149.829043 Z-0.125000
G01 X142.820112 Y153.829015 Z-0.125000
G01 X145.214985 Y158.961967 Z-0.125000
G01 X147.592071 Y165.270914 Z-0.125000
G01 X148.563280 Y168.452845 Z-0.125000
G01 X149.088826 Y170.989115 Z-0.125000
G01 X149.170844 Y172.995440 Z-0.125000
G01 X148.850083 Y174.647757 Z-0.125000
G01 X147.979649 Y176.521094 Z-0.125000
G01 X146.033737 Y179.452509 Z-0.125000
G01 X143.399474 Y182.963287 Z-0.125000
G01 X140.842441 Y185.913202 Z-0.125000
G01 X137.105792 Y189.431353 Z-0.125000
G01 X132.929301 Y192.485730 Z-0.125000
G01 X128.729525 Y194.845416 Z-0.125000
G01 X123.924707 Y196.846113 Z-0.125000
G01 X119.174352 Y198.198885 Z-0.125000
G01 X114.139847 Y199.020160 Z-0.125000
G01 X108.952561 Y199.240857 Z-0.125000
G01 X103.736492 Y198.836720 Z-0.125000
G01 X99.718344 Y198.107359 Z-0.125000
G01 X95.752718 Y197.055426 Z-0.125000
G01 X76.096129 Y189.945191 Z-0.125000
G01 X69.409177 Y188.004325 Z-0.125000
G01 X63.412324 Y186.666495 Z-0.125000
G01 X57.141605 Y185.693863 Z-0.125000
G01 X50.945400 Y185.180154 Z-0.125000
G01 X44.414074 Y185.147295 Z-0.125000
G01 X34.836845 Y185.711974 Z-0.125000
G01 X32.682073 Y185.573877 Z-0.125000
G01 X30.910934 Y185.146907 Z-0.125000
G01 X29.234426 Y184.354222 Z-0.125000
G01 X27.622600 Y183.132367 Z-0.125000
G01 X26.247901 Y181.646931 Z-0.125000
G01 X24.955413 Y179.763309 Z-0.125000
G01 X23.789768 Y177.473287 Z-0.125000
G01 X22.918688 Y175.140056 Z-0.125000
G01 X21.816626 Y170.039121 Z-0.125000
G01 X21.572061 Y166.921032 Z-0.125000
G01 X21.610417 Y163.582116 Z-0.125000
G01 X21.947802 Y160.058143 Z-0.125000
G01 X22.584731 Y156.386953 Z-0.125000
G01 X24.666994 Y148.746709 Z-0.125000
G01 X28.788246 Y137.473825 Z-0.125000
G01 X33.206391 Y127.225773 Z-0.125000
G01 X38.055451 Y117.927455 Z-0.125000
G01 X42.851860 Y110.487404 Z-0.125000
G01 X45.256759 Y107.369185 Z-0.125000
G01 X47.770648 Y104.519334 Z-0.125000
G01 X51.942611 Y100.640384 Z-0.125000
G01 X55.956296 Y97.795125 Z-0.125000
G01 X60.138026 Y95.616809 Z-0.125000
G01 X64.839804 Y93.970120 Z-0.125000
G01 X69.085182 Y93.097293 Z-0.125000
G01 X73.944786 Y92.706092 Z-0.125000
G01 X78.985953 Y92.890891 Z-0.125000
G01 X86.581890 Y93.840884 Z-0.125000
G01 X88.592872 Y93.602141 Z-0.125000
G01 X89.996808 Y92.564049 Z-0.125000
G01 X94.473620 Y86.808915 Z-0.125000
G01 X97.741126 Y83.717863 Z-0.125000
G01 X99.684838 Y82.502542 Z-0.125000
G01 X101.648731 Y81.664708 Z-0.125000
G01 X103.829570 Y81.104363 Z-0.125000
G01 X105.886347 Y80.878620 Z-0.125000
G01 X108.037302 Y80.929008 Z-0.125000
G01 X110.227197 Y81.277583 Z-0.125000
G01 X112.392770 Y81.939480 Z-0.125000
G01 X114.468176 Y82.921944 Z-0.125000
G01 X116.390155 Y84.223940 Z-0.125000
G01 X117.873456 Y85.587902 Z-0.125000
G01 X119.374674 Y87.454706 Z-0.125000
G01 X120.445495 Y89.276039 Z-0.125000
G01 X121.554672 Y91.993355 Z-0.125000
G01 X122.394446 Y95.397018 Z-0.125000
G01 X122.921739 Y99.537092 Z-0.125000
G01 X123.528268 Y109.594267 Z-0.125000
G01 X124.065263 Y114.444039 Z-0.125000
G01 X125.168877 Y119.878347 Z-0.125000
G01 X126.750302 Y124.840667 Z-0.125000
G01 X128.885733 Y129.750206 Z-0.125000
G01 X131.755765 Y134.995318 Z-0.125000
G01 X134.643261 Y139.536877 Z-0.125000
G01 X141.056153 Y148.907122 Z-0.125000
G01 X143.729420 Y153.328695 Z-0.125000
G01 X146.341562 Y158.882472 Z-0.125000
G01 X148.818259 Y165.467743 Z-0.125000
G01 X149.725820 Y168.564099 Z-0.125000
G01 X150.146257 Y170.842091 Z-0.125000
