%
(Header)
(Generated by gcodetools from Inkscape.)
(Using default header. To add your own header create file "header" in the output dir.)
M3
(Header end.)
G21 (All units in mm)

(Start cutting path id: polyline542)
(Change tool to Default tool)

G00 Z3.000000
G00 X102.040419 Y67.115542

G00 Z4.875000 (Fast pre-penetrate)
G01 Z-0.125000 F400.0(Penetrate)
G01 X102.753412 Y68.729499 Z-0.125000 F800.000000
G01 X104.000833 Y73.198610 Z-0.125000
G01 X104.633553 Y78.032478 Z-0.125000
G01 X104.609355 Y83.057454 Z-0.125000
G01 X103.990957 Y88.123245 Z-0.125000
G01 X101.828014 Y98.166597 Z-0.125000
G01 X100.450520 Y103.247600 Z-0.125000
G01 X98.765839 Y108.389731 Z-0.125000
G01 X92.967350 Y123.471352 Z-0.125000
G01 X91.415411 Y128.085701 Z-0.125000
G01 X90.358864 Y132.377278 Z-0.125000
G01 X89.915332 Y136.320665 Z-0.125000
G01 X90.135740 Y139.927613 Z-0.125000
G01 X90.999588 Y143.246378 Z-0.125000
G01 X92.419301 Y146.356389 Z-0.125000
G01 X94.253105 Y149.357904 Z-0.125000
G01 X98.466937 Y155.448273 Z-0.125000
G01 X100.535800 Y158.685830 Z-0.125000
G01 X104.403082 Y165.417392 Z-0.125000
G01 X106.423266 Y168.285417 Z-0.125000
G01 X107.713749 Y169.497967 Z-0.125000
G01 X105.919262 Y173.065084 Z-0.125000
G01 X104.418621 Y177.416150 Z-0.125000
G01 X103.199986 Y182.269349 Z-0.125000
G01 X101.396793 Y190.931322 Z-0.125000
G00 Z3.000000

(End cutting path id: polyline542)


(Start cutting path id: polygon170)
(Change tool to Default tool)

G00 Z3.000000
G00 X107.091840 Y169.759893

G00 Z4.875000 (Fast pre-penetrate)
G01 Z-0.125000 F400.0(Penetrate)
G01 X109.139126 Y170.499097 Z-0.125000 F800.000000
G01 X110.996707 Y170.302231 Z-0.125000
G01 X112.496505 Y169.359048 Z-0.125000
G01 X113.492907 Y167.944998 Z-0.125000
G01 X113.886684 Y166.379017 Z-0.125000
G01 X113.639737 Y164.987200 Z-0.125000
G01 X112.782395 Y164.071444 Z-0.125000
G01 X111.411032 Y163.884081 Z-0.125000
G01 X109.678094 Y164.607839 Z-0.125000
G01 X107.773333 Y166.341104 Z-0.125000
G01 X106.037961 Y168.881769 Z-0.125000
G01 X107.091840 Y169.759893 Z-0.125000
G00 Z3.000000

(End cutting path id: polygon170)


(Start cutting path id: polygon166)
(Change tool to Default tool)

G00 Z3.000000
G00 X104.329690 Y163.840926

G00 Z4.875000 (Fast pre-penetrate)
G01 Z-0.125000 F400.0(Penetrate)
G01 X102.587953 Y166.160668 Z-0.125000 F800.000000
G01 X102.246833 Y166.828165 Z-0.125000
G01 X102.968391 Y167.263085 Z-0.125000
G01 X104.847596 Y167.566620 Z-0.125000
G01 X106.488233 Y167.080027 Z-0.125000
G01 X107.746045 Y166.021889 Z-0.125000
G01 X108.503316 Y164.681932 Z-0.125000
G01 X108.688386 Y163.375864 Z-0.125000
G01 X108.287401 Y162.408247 Z-0.125000
G01 X107.348289 Y162.042928 Z-0.125000
G01 X105.977629 Y162.479954 Z-0.125000
G01 X104.329690 Y163.840926 Z-0.125000
G00 Z3.000000

(End cutting path id: polygon166)


(Start cutting path id: polygon164)
(Change tool to Default tool)

G00 Z3.000000
G00 X106.567569 Y161.733355

G00 Z4.875000 (Fast pre-penetrate)
G01 Z-0.125000 F400.0(Penetrate)
G01 X105.606412 Y161.591908 Z-0.125000 F800.000000
G01 X104.235985 Y162.267690 Z-0.125000
G01 X102.610982 Y163.861942 Z-0.125000
G01 X101.153870 Y166.031343 Z-0.125000
G01 X101.579335 Y166.263266 Z-0.125000
G01 X103.413326 Y166.479462 Z-0.125000
G01 X104.995549 Y165.958514 Z-0.125000
G01 X106.188208 Y164.925837 Z-0.125000
G01 X106.881121 Y163.672472 Z-0.125000
G01 X107.010071 Y162.509956 Z-0.125000
G01 X106.567569 Y161.733355 Z-0.125000
G00 Z3.000000

(End cutting path id: polygon164)


(Start cutting path id: polygon162)
(Change tool to Default tool)

G00 Z3.000000
G00 X103.835093 Y160.798035

G00 Z4.875000 (Fast pre-penetrate)
G01 Z-0.125000 F400.0(Penetrate)
G01 X102.842951 Y161.035480 Z-0.125000 F800.000000
G01 X101.472758 Y162.106771 Z-0.125000
G01 X99.585034 Y164.597916 Z-0.125000
G01 X101.083381 Y164.697940 Z-0.125000
G01 X102.583319 Y164.165056 Z-0.125000
G01 X103.684145 Y163.215273 Z-0.125000
G01 X104.286301 Y162.139629 Z-0.125000
G01 X104.336056 Y161.241192 Z-0.125000
G01 X103.835093 Y160.798035 Z-0.125000
G00 Z3.000000

(End cutting path id: polygon162)


(Start cutting path id: polygon160)
(Change tool to Default tool)

G00 Z3.000000
G00 X103.404948 Y160.831080

G00 Z4.875000 (Fast pre-penetrate)
G01 Z-0.125000 F400.0(Penetrate)
G01 X102.885685 Y160.509571 Z-0.125000 F800.000000
G01 X101.883807 Y160.882800 Z-0.125000
G01 X100.513754 Y162.093806 Z-0.125000
G01 X99.075647 Y164.009333 Z-0.125000
G01 X100.259973 Y164.073036 Z-0.125000
G01 X101.734122 Y163.546330 Z-0.125000
G01 X102.806209 Y162.635162 Z-0.125000
G01 X103.379954 Y161.630242 Z-0.125000
G01 X103.404948 Y160.831080 Z-0.125000
G00 Z3.000000

(End cutting path id: polygon160)


(Start cutting path id: polygon158)
(Change tool to Default tool)

G00 Z3.000000
G00 X99.971041 Y162.291139

G00 Z4.875000 (Fast pre-penetrate)
G01 Z-0.125000 F400.0(Penetrate)
G01 X100.988833 Y161.472225 Z-0.125000 F800.000000
G01 X101.508986 Y160.623543 Z-0.125000
G01 X101.487128 Y160.036926 Z-0.125000
G01 X100.933322 Y159.971491 Z-0.125000
G01 X99.913096 Y160.626819 Z-0.125000
G01 X98.543231 Y162.125821 Z-0.125000
G01 X98.115800 Y162.776562 Z-0.125000
G01 X98.545571 Y162.791446 Z-0.125000
G01 X99.971041 Y162.291139 Z-0.125000
G00 Z3.000000

(End cutting path id: polygon158)


(Start cutting path id: polygon156)
(Change tool to Default tool)

G00 Z3.000000
G00 X97.129743 Y159.191754

G00 Z4.875000 (Fast pre-penetrate)
G01 Z-0.125000 F400.0(Penetrate)
G01 X97.556752 Y158.702586 Z-0.125000 F800.000000
G01 X97.453732 Y158.582623 Z-0.125000
G01 X96.274180 Y159.732969 Z-0.125000
G01 X97.129743 Y159.191754 Z-0.125000
G00 Z3.000000

(End cutting path id: polygon156)


(Start cutting path id: polygon168)
(Change tool to Default tool)

G00 Z3.000000
G00 X109.922655 Y163.116747

G00 Z4.875000 (Fast pre-penetrate)
G01 Z-0.125000 F400.0(Penetrate)
G01 X109.006291 Y162.554750 Z-0.125000 F800.000000
G01 X107.635490 Y162.777452 Z-0.125000
G01 X105.963821 Y163.925504 Z-0.125000
G01 X104.176635 Y166.053061 Z-0.125000
G01 X103.348126 Y167.539332 Z-0.125000
G01 X104.260839 Y168.145982 Z-0.125000
G01 X106.186897 Y168.554035 Z-0.125000
G01 X107.888054 Y168.123422 Z-0.125000
G01 X109.213360 Y167.065330 Z-0.125000
G01 X110.037376 Y165.666820 Z-0.125000
G01 X110.280672 Y164.246311 Z-0.125000
G01 X109.922655 Y163.116747 Z-0.125000
G00 Z3.000000

(End cutting path id: polygon168)


(Start cutting path id: polygon172)
(Change tool to Default tool)

G00 Z3.000000
G00 X115.628093 Y166.138435

G00 Z4.875000 (Fast pre-penetrate)
G01 Z-0.125000 F400.0(Penetrate)
G01 X114.806184 Y165.113763 Z-0.125000 F800.000000
G01 X113.434446 Y164.776621 Z-0.125000
G01 X111.664673 Y165.329959 Z-0.125000
G01 X109.689234 Y166.894910 Z-0.125000
G01 X107.713749 Y169.497967 Z-0.125000
G01 X108.547266 Y170.281169 Z-0.125000
G01 X110.667428 Y171.260580 Z-0.125000
G01 X112.619089 Y171.264324 Z-0.125000
G01 X114.223826 Y170.467409 Z-0.125000
G01 X115.323949 Y169.135410 Z-0.125000
G01 X115.808155 Y167.582955 Z-0.125000
G01 X115.628093 Y166.138435 Z-0.125000
G00 Z3.000000

(End cutting path id: polygon172)


(Start cutting path id: polygon174)
(Change tool to Default tool)

G00 Z3.000000
G00 X116.254168 Y166.520932

G00 Z4.875000 (Fast pre-penetrate)
G01 Z-0.125000 F400.0(Penetrate)
G01 X115.443913 Y165.477724 Z-0.125000 F800.000000
G01 X114.072035 Y165.107491 Z-0.125000
G01 X112.290185 Y165.618984 Z-0.125000
G01 X110.291531 Y167.140126 Z-0.125000
G01 X108.294094 Y169.690761 Z-0.125000
G01 X108.998334 Y170.377635 Z-0.125000
G01 X111.142460 Y171.442748 Z-0.125000
G01 X113.125013 Y171.522084 Z-0.125000
G01 X114.764199 Y170.786110 Z-0.125000
G01 X115.898397 Y169.496236 Z-0.125000
G01 X116.412324 Y167.964937 Z-0.125000
G01 X116.254168 Y166.520932 Z-0.125000
G00 Z3.000000

(End cutting path id: polygon174)


(Start cutting path id: polygon176)
(Change tool to Default tool)

G00 Z3.000000
G00 X117.258667 Y166.604340

G00 Z4.875000 (Fast pre-penetrate)
G01 Z-0.125000 F400.0(Penetrate)
G01 X115.886555 Y166.185334 Z-0.125000 F800.000000
G01 X114.069320 Y166.616650 Z-0.125000
G01 X112.002985 Y168.043852 Z-0.125000
G01 X110.112827 Y170.268718 Z-0.125000
G01 X112.482370 Y171.772635 Z-0.125000
G01 X114.555117 Y172.102710 Z-0.125000
G01 X116.294842 Y171.582604 Z-0.125000
G01 X117.528455 Y170.460809 Z-0.125000
G01 X118.129114 Y169.041471 Z-0.125000
G01 X118.035034 Y167.650262 Z-0.125000
G01 X117.258667 Y166.604340 Z-0.125000
G00 Z3.000000

(End cutting path id: polygon176)


(Start cutting path id: polygon180)
(Change tool to Default tool)

G00 Z3.000000
G00 X119.727157 Y169.996075

G00 Z4.875000 (Fast pre-penetrate)
G01 Z-0.125000 F400.0(Penetrate)
G01 X119.693317 Y168.731523 Z-0.125000 F800.000000
G01 X118.948964 Y167.758851 Z-0.125000
G01 X117.576525 Y167.364747 Z-0.125000
G01 X115.726058 Y167.782535 Z-0.125000
G01 X113.595973 Y169.171731 Z-0.125000
G01 X112.210007 Y170.707289 Z-0.125000
G01 X113.726093 Y171.784571 Z-0.125000
G01 X115.883606 Y172.394123 Z-0.125000
G01 X117.717925 Y172.133414 Z-0.125000
G01 X119.045010 Y171.236475 Z-0.125000
G01 X119.727157 Y169.996075 Z-0.125000
G00 Z3.000000

(End cutting path id: polygon180)


(Start cutting path id: polygon178)
(Change tool to Default tool)

G00 Z3.000000
G00 X118.044770 Y170.740942

G00 Z4.875000 (Fast pre-penetrate)
G01 Z-0.125000 F400.0(Penetrate)
G01 X118.673278 Y169.374166 Z-0.125000 F800.000000
G01 X118.599793 Y168.017360 Z-0.125000
G01 X117.834378 Y166.987679 Z-0.125000
G01 X116.462126 Y166.569001 Z-0.125000
G01 X114.633564 Y166.988522 Z-0.125000
G01 X112.545417 Y168.396908 Z-0.125000
G01 X110.766423 Y170.444193 Z-0.125000
G01 X112.905541 Y171.811156 Z-0.125000
G01 X115.007214 Y172.231660 Z-0.125000
G01 X116.779282 Y171.793651 Z-0.125000
G01 X118.044770 Y170.740942 Z-0.125000
G00 Z3.000000

(End cutting path id: polygon178)


(Start cutting path id: polygon182)
(Change tool to Default tool)

G00 Z3.000000
G00 X123.206044 Y171.663578

G00 Z4.875000 (Fast pre-penetrate)
G01 Z-0.125000 F400.0(Penetrate)
G01 X123.290716 Y170.929616 Z-0.125000 F800.000000
G01 X122.609177 Y170.378899 Z-0.125000
G01 X121.236176 Y170.292683 Z-0.125000
G01 X119.320368 Y170.910660 Z-0.125000
G01 X118.182285 Y171.666761 Z-0.125000
G01 X118.832043 Y172.035637 Z-0.125000
G01 X120.852509 Y172.491853 Z-0.125000
G01 X122.363447 Y172.281648 Z-0.125000
G01 X123.206044 Y171.663578 Z-0.125000
G00 Z3.000000

(End cutting path id: polygon182)


(Start cutting path id: polygon186)
(Change tool to Default tool)

G00 Z3.000000
G00 X123.793364 Y172.414670

G00 Z4.875000 (Fast pre-penetrate)
G01 Z-0.125000 F400.0(Penetrate)
G01 X124.688805 Y172.120075 Z-0.125000 F800.000000
G01 X124.812466 Y171.684453 Z-0.125000
G01 X124.151662 Y171.394585 Z-0.125000
G01 X122.778474 Y171.523441 Z-0.125000
G01 X121.526138 Y172.029833 Z-0.125000
G01 X122.221812 Y172.291477 Z-0.125000
G01 X123.793364 Y172.414670 Z-0.125000
G00 Z3.000000

(End cutting path id: polygon186)


(Start cutting path id: polygon184)
(Change tool to Default tool)

G00 Z3.000000
G00 X124.190511 Y171.985227

G00 Z4.875000 (Fast pre-penetrate)
G01 Z-0.125000 F400.0(Penetrate)
G01 X124.302049 Y171.447054 Z-0.125000 F800.000000
G01 X123.634832 Y171.066383 Z-0.125000
G01 X122.261691 Y171.119273 Z-0.125000
G01 X120.263084 Y171.890118 Z-0.125000
G01 X121.758856 Y172.378958 Z-0.125000
G01 X123.311545 Y172.389910 Z-0.125000
G01 X124.190511 Y171.985227 Z-0.125000
G00 Z3.000000

(End cutting path id: polygon184)


(Start cutting path id: line188)
(Change tool to Default tool)

G00 Z3.000000
G00 X157.612902 Y156.139122

G00 Z4.875000 (Fast pre-penetrate)
G01 Z-0.125000 F400.0(Penetrate)
G01 X157.380586 Y156.626192 Z-0.125000 F800.000000
G00 Z3.000000

(End cutting path id: line188)


(Start cutting path id: polyline190)
(Change tool to Default tool)

G00 Z3.000000
G00 X158.651836 Y153.922779

G00 Z4.875000 (Fast pre-penetrate)
G01 Z-0.125000 F400.0(Penetrate)
G01 X156.963692 Y156.453006 Z-0.125000 F800.000000
G01 X155.971362 Y159.284101 Z-0.125000
G00 Z3.000000

(End cutting path id: polyline190)


(Start cutting path id: polyline192)
(Change tool to Default tool)

G00 Z3.000000
G00 X159.161457 Y152.692442

G00 Z4.875000 (Fast pre-penetrate)
G01 Z-0.125000 F400.0(Penetrate)
G01 X157.655902 Y154.482763 Z-0.125000 F800.000000
G01 X156.423600 Y156.594079 Z-0.125000
G01 X155.540234 Y159.158709 Z-0.125000
G01 X155.367006 Y160.350478 Z-0.125000
G00 Z3.000000

(End cutting path id: polyline192)


(Start cutting path id: polyline194)
(Change tool to Default tool)

G00 Z3.000000
G00 X159.635366 Y151.548181

G00 Z4.875000 (Fast pre-penetrate)
G01 Z-0.125000 F400.0(Penetrate)
G01 X157.066103 Y154.567154 Z-0.125000 F800.000000
G01 X155.893524 Y156.713855 Z-0.125000
G01 X155.074235 Y159.303479 Z-0.125000
G01 X154.838381 Y161.213155 Z-0.125000
G00 Z3.000000

(End cutting path id: polyline194)


(Start cutting path id: polyline196)
(Change tool to Default tool)

G00 Z3.000000
G00 X160.141945 Y150.173588

G00 Z4.875000 (Fast pre-penetrate)
G01 Z-0.125000 F400.0(Penetrate)
G01 X157.834186 Y152.789096 Z-0.125000 F800.000000
G01 X156.482715 Y154.627346 Z-0.125000
G01 X155.373324 Y156.812522 Z-0.125000
G01 X154.621109 Y159.429855 Z-0.125000
G01 X154.362413 Y161.989851 Z-0.125000
G00 Z3.000000

(End cutting path id: polyline196)


(Start cutting path id: polyline198)
(Change tool to Default tool)

G00 Z3.000000
G00 X162.551414 Y116.265648

G00 Z4.875000 (Fast pre-penetrate)
G01 Z-0.125000 F400.0(Penetrate)
G01 X162.830470 Y122.300552 Z-0.125000 F800.000000
G01 X163.854627 Y127.897355 Z-0.125000
G00 Z3.000000

(End cutting path id: polyline198)


(Start cutting path id: polyline200)
(Change tool to Default tool)

G00 Z3.000000
G00 X161.719160 Y112.817933

G00 Z4.875000 (Fast pre-penetrate)
G01 Z-0.125000 F400.0(Penetrate)
G01 X161.452086 Y117.131087 Z-0.125000 F800.000000
G01 X161.782863 Y122.694517 Z-0.125000
G01 X162.735080 Y127.946735 Z-0.125000
G01 X163.820365 Y131.471305 Z-0.125000
G00 Z3.000000

(End cutting path id: polyline200)


(Start cutting path id: polyline202)
(Change tool to Default tool)

G00 Z3.000000
G00 X160.995496 Y110.374952

G00 Z4.875000 (Fast pre-penetrate)
G01 Z-0.125000 F400.0(Penetrate)
G01 X160.718827 Y111.896561 Z-0.125000 F800.000000
G01 X160.383135 Y117.525800 Z-0.125000
G01 X160.733898 Y123.078792 Z-0.125000
G01 X161.712841 Y128.318654 Z-0.125000
G01 X163.198270 Y133.023665 Z-0.125000
G01 X163.660383 Y134.036917 Z-0.125000
G00 Z3.000000

(End cutting path id: polyline202)


(Start cutting path id: polyline204)
(Change tool to Default tool)

G00 Z3.000000
G00 X160.336751 Y108.436490

G00 Z4.875000 (Fast pre-penetrate)
G01 Z-0.125000 F400.0(Penetrate)
G01 X159.639251 Y112.292959 Z-0.125000 F800.000000
G01 X159.315308 Y117.912135 Z-0.125000
G01 X159.684044 Y123.451647 Z-0.125000
G01 X160.687326 Y128.675782 Z-0.125000
G01 X162.203085 Y133.364037 Z-0.125000
G01 X163.469462 Y136.076620 Z-0.125000
G00 Z3.000000

(End cutting path id: polyline204)


(Start cutting path id: polyline206)
(Change tool to Default tool)

G00 Z3.000000
G00 X159.703937 Y106.677341

G00 Z4.875000 (Fast pre-penetrate)
G01 Z-0.125000 F400.0(Penetrate)
G01 X158.563326 Y112.681869 Z-0.125000 F800.000000
G01 X158.249353 Y118.288594 Z-0.125000
G01 X158.633722 Y123.811537 Z-0.125000
G01 X159.658816 Y129.016247 Z-0.125000
G01 X161.202284 Y133.683861 Z-0.125000
G01 X163.234263 Y137.862823 Z-0.125000
G00 Z3.000000

(End cutting path id: polyline206)


(Start cutting path id: polyline208)
(Change tool to Default tool)

G00 Z3.000000
G00 X159.141471 Y105.319365

G00 Z4.875000 (Fast pre-penetrate)
G01 Z-0.125000 F400.0(Penetrate)
G01 X158.476267 Y107.585607 Z-0.125000 F800.000000
G01 X157.491989 Y113.062072 Z-0.125000
G01 X157.186113 Y118.653820 Z-0.125000
G01 X157.583634 Y124.156917 Z-0.125000
G01 X158.627637 Y129.338271 Z-0.125000
G01 X160.195959 Y133.981218 Z-0.125000
G01 X162.118554 Y137.919411 Z-0.125000
G01 X163.017506 Y139.279493 Z-0.125000
G00 Z3.000000

(End cutting path id: polyline208)


(Start cutting path id: polyline210)
(Change tool to Default tool)

G00 Z3.000000
G00 X158.581908 Y103.968456

G00 Z4.875000 (Fast pre-penetrate)
G01 Z-0.125000 F400.0(Penetrate)
G01 X157.407972 Y107.966560 Z-0.125000 F800.000000
G01 X156.426408 Y113.432166 Z-0.125000
G01 X156.126430 Y119.006361 Z-0.125000
G01 X156.534436 Y124.486102 Z-0.125000
G01 X157.594353 Y129.640215 Z-0.125000
G01 X159.184439 Y134.254190 Z-0.125000
G01 X161.134509 Y138.164205 Z-0.125000
G01 X162.775005 Y140.588137 Z-0.125000
G00 Z3.000000

(End cutting path id: polyline210)


(Start cutting path id: polyline212)
(Change tool to Default tool)

G00 Z3.000000
G00 X158.012797 Y102.759322

G00 Z4.875000 (Fast pre-penetrate)
G01 Z-0.125000 F400.0(Penetrate)
G01 X156.347868 Y108.337823 Z-0.125000 F800.000000
G01 X155.367614 Y113.790932 Z-0.125000
G01 X155.071427 Y119.344907 Z-0.125000
G01 X155.487016 Y124.797782 Z-0.125000
G01 X156.559477 Y129.920442 Z-0.125000
G01 X158.168005 Y134.501090 Z-0.125000
G01 X160.142554 Y138.378763 Z-0.125000
G01 X162.556281 Y141.767970 Z-0.125000
G00 Z3.000000

(End cutting path id: polyline212)


(Start cutting path id: polyline214)
(Change tool to Default tool)

G00 Z3.000000
G00 X157.495967 Y101.675674

G00 Z4.875000 (Fast pre-penetrate)
G01 Z-0.125000 F400.0(Penetrate)
G01 X156.835350 Y103.471519 Z-0.125000 F800.000000
G01 X155.297125 Y108.698134 Z-0.125000
G01 X154.316777 Y114.137061 Z-0.125000
G01 X154.021994 Y119.668054 Z-0.125000
G01 X154.442123 Y125.090412 Z-0.125000
G01 X155.523758 Y130.177452 Z-0.125000
G01 X157.147123 Y134.720375 Z-0.125000
G01 X159.142876 Y138.561493 Z-0.125000
G01 X161.309188 Y141.616226 Z-0.125000
G01 X162.336341 Y142.715039 Z-0.125000
G00 Z3.000000

(End cutting path id: polyline214)


(Start cutting path id: polyline216)
(Change tool to Default tool)

G00 Z3.000000
G00 X156.974785 Y100.623948

G00 Z4.875000 (Fast pre-penetrate)
G01 Z-0.125000 F400.0(Penetrate)
G01 X155.796402 Y103.826307 Z-0.125000 F800.000000
G01 X154.257147 Y109.046229 Z-0.125000
G01 X153.275068 Y114.469195 Z-0.125000
G01 X152.979302 Y119.974492 Z-0.125000
G01 X153.400741 Y125.362681 Z-0.125000
G01 X154.487899 Y130.409843 Z-0.125000
G01 X156.122404 Y134.910688 Z-0.125000
G01 X158.135849 Y138.710990 Z-0.125000
G01 X160.326734 Y141.729636 Z-0.125000
G01 X162.123749 Y143.600557 Z-0.125000
G00 Z3.000000

(End cutting path id: polyline216)


(Start cutting path id: polyline218)
(Change tool to Default tool)

G00 Z3.000000
G00 X156.438343 Y99.636018

G00 Z4.875000 (Fast pre-penetrate)
G01 Z-0.125000 F400.0(Penetrate)
G01 X154.770045 Y104.168317 Z-0.125000 F800.000000
G01 X153.229011 Y109.380797 Z-0.125000
G01 X152.243702 Y114.786117 Z-0.125000
G01 X151.944332 Y120.262862 Z-0.125000
G01 X152.363899 Y125.613326 Z-0.125000
G01 X153.452742 Y130.616397 Z-0.125000
G01 X155.094409 Y135.070717 Z-0.125000
G01 X157.121942 Y138.826039 Z-0.125000
G01 X159.334405 Y141.804947 Z-0.125000
G01 X161.943219 Y144.352492 Z-0.125000
G00 Z3.000000

(End cutting path id: polyline218)


(Start cutting path id: polyline220)
(Change tool to Default tool)

G00 Z3.000000
G00 X155.911965 Y98.666483

G00 Z4.875000 (Fast pre-penetrate)
G01 Z-0.125000 F400.0(Penetrate)
G01 X153.757495 Y104.496332 Z-0.125000 F800.000000
G01 X152.214074 Y109.700574 Z-0.125000
G01 X151.223804 Y115.086563 Z-0.125000
G01 X150.918302 Y120.532042 Z-0.125000
G01 X151.332440 Y125.841083 Z-0.125000
G01 X152.419083 Y130.795991 Z-0.125000
G01 X154.063979 Y135.199386 Z-0.125000
G01 X156.101763 Y138.905562 Z-0.125000
G01 X158.332480 Y141.841221 Z-0.125000
G01 X160.538858 Y144.015725 Z-0.125000
G01 X161.793394 Y144.976507 Z-0.125000
G00 Z3.000000

(End cutting path id: polyline220)


(Start cutting path id: polyline222)
(Change tool to Default tool)

G00 Z3.000000
G00 X155.384558 Y97.738043

G00 Z4.875000 (Fast pre-penetrate)
G01 Z-0.125000 F400.0(Penetrate)
G01 X152.760063 Y104.809041 Z-0.125000 F800.000000
G01 X151.213413 Y110.004390 Z-0.125000
G01 X150.216590 Y115.369317 Z-0.125000
G01 X149.902242 Y120.780862 Z-0.125000
G01 X150.307534 Y126.044922 Z-0.125000
G01 X151.387952 Y130.947501 Z-0.125000
G01 X153.031771 Y135.295712 Z-0.125000
G01 X155.075874 Y138.948764 Z-0.125000
G01 X157.321522 Y141.837711 Z-0.125000
G01 X159.551911 Y143.975753 Z-0.125000
G01 X161.638748 Y145.513510 Z-0.125000
G00 Z3.000000

(End cutting path id: polyline222)


(Start cutting path id: polyline224)
(Change tool to Default tool)

G00 Z3.000000
G00 X154.847649 Y96.861933

G00 Z4.875000 (Fast pre-penetrate)
G01 Z-0.125000 F400.0(Penetrate)
G01 X151.778874 Y105.105275 Z-0.125000 F800.000000
G01 X150.228338 Y110.291029 Z-0.125000
G01 X149.223231 Y115.633255 Z-0.125000
G01 X148.897322 Y121.008198 Z-0.125000
G01 X149.290116 Y126.223814 Z-0.125000
G01 X150.360143 Y131.070039 Z-0.125000
G01 X151.998674 Y135.358994 Z-0.125000
G01 X154.044976 Y138.954942 Z-0.125000
G01 X156.302092 Y141.793947 Z-0.125000
G01 X158.553825 Y143.893047 Z-0.125000
G01 X161.518129 Y145.920814 Z-0.125000
G00 Z3.000000

(End cutting path id: polyline224)


(Start cutting path id: polyline226)
(Change tool to Default tool)

G00 Z3.000000
G00 X154.317479 Y95.996774

G00 Z4.875000 (Fast pre-penetrate)
G01 Z-0.125000 F400.0(Penetrate)
G01 X150.815049 Y105.383957 Z-0.125000 F800.000000
G01 X149.259926 Y110.559367 Z-0.125000
G01 X148.244802 Y115.877300 Z-0.125000
G01 X147.904524 Y121.213067 Z-0.125000
G01 X148.281264 Y126.376869 Z-0.125000
G01 X149.336688 Y131.162901 Z-0.125000
G01 X150.965483 Y135.388528 Z-0.125000
G01 X153.009866 Y138.923676 Z-0.125000
G01 X155.274845 Y141.709557 Z-0.125000
G01 X157.545207 Y143.767467 Z-0.125000
G01 X161.411599 Y146.280189 Z-0.125000
G00 Z3.000000

(End cutting path id: polyline226)


(Start cutting path id: polyline228)
(Change tool to Default tool)

G00 Z3.000000
G00 X153.788012 Y95.151743

G00 Z4.875000 (Fast pre-penetrate)
G01 Z-0.125000 F400.0(Penetrate)
G01 X149.869712 Y105.643916 Z-0.125000 F800.000000
G01 X148.309207 Y110.808373 Z-0.125000
G01 X147.282382 Y116.100376 Z-0.125000
G01 X146.925020 Y121.394486 Z-0.125000
G01 X147.281914 Y126.503244 Z-0.125000
G01 X148.318475 Y131.225340 Z-0.125000
G01 X149.933134 Y135.383941 Z-0.125000
G01 X151.971292 Y138.854731 Z-0.125000
G01 X154.240437 Y141.584445 Z-0.125000
G01 X156.526666 Y143.599106 Z-0.125000
G01 X161.307690 Y146.631139 Z-0.125000
G00 Z3.000000

(End cutting path id: polyline228)


(Start cutting path id: polyline230)
(Change tool to Default tool)

G00 Z3.000000
G00 X153.244316 Y94.360725

G00 Z4.875000 (Fast pre-penetrate)
G01 Z-0.125000 F400.0(Penetrate)
G01 X148.943941 Y105.884217 Z-0.125000 F800.000000
G01 X147.377304 Y111.037066 Z-0.125000
G01 X146.337045 Y116.301641 Z-0.125000
G01 X145.959697 Y121.551707 Z-0.125000
G01 X146.293141 Y126.602285 Z-0.125000
G01 X147.306580 Y131.256934 Z-0.125000
G01 X148.902517 Y135.344811 Z-0.125000
G01 X150.930144 Y138.747920 Z-0.125000
G01 X153.199663 Y141.418799 Z-0.125000
G01 X155.498764 Y143.388246 Z-0.125000
G01 X160.489338 Y146.457442 Z-0.125000
G01 X160.974948 Y147.215603 Z-0.125000
G01 X160.753229 Y148.184529 Z-0.125000
G01 X159.894764 Y149.477914 Z-0.125000
G01 X157.196410 Y152.775054 Z-0.125000
G01 X155.905693 Y154.663714 Z-0.125000
G01 X154.862767 Y156.890406 Z-0.125000
G01 X154.180526 Y159.538163 Z-0.125000
G01 X153.942799 Y162.674572 Z-0.125000
G00 Z3.000000

(End cutting path id: polyline230)


(Start cutting path id: polyline232)
(Change tool to Default tool)

G00 Z3.000000
G00 X152.708764 Y93.581408

G00 Z4.875000 (Fast pre-penetrate)
G01 Z-0.125000 F400.0(Penetrate)
G01 X148.038576 Y106.103783 Z-0.125000 F800.000000
G01 X146.465153 Y111.244416 Z-0.125000
G01 X145.409635 Y116.480205 Z-0.125000
G01 X145.009586 Y121.683933 Z-0.125000
G01 X145.315836 Y126.673430 Z-0.125000
G01 X146.301800 Y131.257309 Z-0.125000
G01 X147.874522 Y135.271046 Z-0.125000
G01 X149.887218 Y138.603337 Z-0.125000
G01 X152.153273 Y141.212807 Z-0.125000
G01 X154.462296 Y143.135355 Z-0.125000
G01 X159.560477 Y146.176795 Z-0.125000
G01 X160.101037 Y146.963179 Z-0.125000
G01 X159.938434 Y147.974746 Z-0.125000
G01 X159.140254 Y149.320833 Z-0.125000
G01 X156.561302 Y152.734567 Z-0.125000
G01 X155.334756 Y154.676867 Z-0.125000
G01 X154.361617 Y156.947978 Z-0.125000
G01 X153.752112 Y159.628639 Z-0.125000
G01 X153.618482 Y163.154893 Z-0.125000
G00 Z3.000000

(End cutting path id: polyline232)


(Start cutting path id: polyline234)
(Change tool to Default tool)

G00 Z3.000000
G00 X152.181357 Y92.814027

G00 Z4.875000 (Fast pre-penetrate)
G01 Z-0.125000 F400.0(Penetrate)
G01 X147.154602 Y106.301865 Z-0.125000 F800.000000
G01 X145.573643 Y111.429720 Z-0.125000
G01 X144.501182 Y116.635367 Z-0.125000
G01 X144.075623 Y121.790603 Z-0.125000
G01 X144.350982 Y126.716211 Z-0.125000
G01 X145.305212 Y131.226230 Z-0.125000
G01 X146.850130 Y135.162690 Z-0.125000
G01 X148.843448 Y138.421263 Z-0.125000
G01 X151.102156 Y140.967029 Z-0.125000
G01 X153.418012 Y142.841133 Z-0.125000
G01 X158.621225 Y145.855941 Z-0.125000
G01 X159.218046 Y146.672655 Z-0.125000
G01 X159.116898 Y147.729577 Z-0.125000
G01 X158.381860 Y149.131457 Z-0.125000
G01 X155.928909 Y152.668337 Z-0.125000
G01 X154.769811 Y154.667412 Z-0.125000
G01 X153.869454 Y156.985750 Z-0.125000
G01 X153.335400 Y159.701749 Z-0.125000
G01 X153.318129 Y163.591872 Z-0.125000
G00 Z3.000000

(End cutting path id: polyline234)


(Start cutting path id: polyline236)
(Change tool to Default tool)

G00 Z3.000000
G00 X151.647115 Y92.099350

G00 Z4.875000 (Fast pre-penetrate)
G01 Z-0.125000 F400.0(Penetrate)
G01 X146.292767 Y106.477667 Z-0.125000 F800.000000
G01 X144.703523 Y111.592136 Z-0.125000
G01 X143.612433 Y116.766376 Z-0.125000
G01 X143.158651 Y121.871156 Z-0.125000
G01 X143.399467 Y126.730346 Z-0.125000
G01 X144.317609 Y131.163557 Z-0.125000
G01 X145.830232 Y135.019839 Z-0.125000
G01 X147.799820 Y138.202118 Z-0.125000
G01 X150.047200 Y140.682169 Z-0.125000
G01 X152.366801 Y142.506472 Z-0.125000
G01 X157.672097 Y145.496145 Z-0.125000
G01 X158.326489 Y146.345249 Z-0.125000
G01 X158.288810 Y147.450193 Z-0.125000
G01 X157.619722 Y148.910862 Z-0.125000
G01 X155.299044 Y152.577253 Z-0.125000
G01 X154.210528 Y154.636099 Z-0.125000
G01 X153.385997 Y157.004378 Z-0.125000
G01 X152.929828 Y159.757963 Z-0.125000
G01 X152.907502 Y162.914452 Z-0.125000
G01 X153.040805 Y163.995432 Z-0.125000
G00 Z3.000000

(End cutting path id: polyline236)


(Start cutting path id: polyline238)
(Change tool to Default tool)

G00 Z3.000000
G00 X151.116993 Y91.408449

G00 Z4.875000 (Fast pre-penetrate)
G01 Z-0.125000 F400.0(Penetrate)
G01 X145.453726 Y106.630395 Z-0.125000 F800.000000
G01 X143.855543 Y111.731009 Z-0.125000
G01 X142.744139 Y116.872672 Z-0.125000
G01 X142.259371 Y121.925170 Z-0.125000
G01 X142.462041 Y126.715555 Z-0.125000
G01 X143.339930 Y131.069383 Z-0.125000
G01 X144.815670 Y134.842866 Z-0.125000
G01 X146.757080 Y137.946511 Z-0.125000
G01 X148.989295 Y140.358975 Z-0.125000
G01 X151.309365 Y142.132494 Z-0.125000
G01 X156.713608 Y145.098764 Z-0.125000
G01 X157.426601 Y145.982410 Z-0.125000
G01 X157.454450 Y147.137999 Z-0.125000
G01 X156.853979 Y148.660404 Z-0.125000
G01 X154.671659 Y152.462391 Z-0.125000
G01 X153.656769 Y154.583864 Z-0.125000
G01 X152.910825 Y157.004519 Z-0.125000
G01 X152.534834 Y159.797842 Z-0.125000
G01 X152.588754 Y162.980682 Z-0.125000
G01 X152.784964 Y164.367632 Z-0.125000
G00 Z3.000000

(End cutting path id: polyline238)


(Start cutting path id: polyline240)
(Change tool to Default tool)

G00 Z3.000000
G00 X150.590475 Y90.722277

G00 Z4.875000 (Fast pre-penetrate)
G01 Z-0.125000 F400.0(Penetrate)
G01 X144.638182 Y106.759579 Z-0.125000 F800.000000
G01 X143.030263 Y111.845870 Z-0.125000
G01 X141.896954 Y116.953833 Z-0.125000
G01 X141.378533 Y121.952411 Z-0.125000
G01 X141.539498 Y126.671886 Z-0.125000
G01 X142.372922 Y130.943897 Z-0.125000
G01 X143.807426 Y134.632240 Z-0.125000
G01 X145.716307 Y137.655192 Z-0.125000
G01 X147.929331 Y139.998571 Z-0.125000
G01 X150.246686 Y141.720415 Z-0.125000
G01 X155.746320 Y144.665483 Z-0.125000
G01 X156.518990 Y145.585731 Z-0.125000
G01 X156.614240 Y146.794444 Z-0.125000
G01 X156.084819 Y148.381488 Z-0.125000
G01 X154.046567 Y152.324782 Z-0.125000
G01 X153.108205 Y154.511642 Z-0.125000
G01 X152.443469 Y156.987107 Z-0.125000
G01 X152.149763 Y159.821994 Z-0.125000
G01 X152.281334 Y163.032730 Z-0.125000
G01 X152.549063 Y164.710858 Z-0.125000
G00 Z3.000000

(End cutting path id: polyline240)


(Start cutting path id: polyline242)
(Change tool to Default tool)

G00 Z3.000000
G00 X150.068590 Y90.044435

G00 Z4.875000 (Fast pre-penetrate)
G01 Z-0.125000 F400.0(Penetrate)
G01 X143.846509 Y106.864658 Z-0.125000 F800.000000
G01 X142.228292 Y111.936206 Z-0.125000
G01 X141.071487 Y117.009579 Z-0.125000
G01 X140.516839 Y121.952645 Z-0.125000
G01 X140.632589 Y126.599243 Z-0.125000
G01 X141.417476 Y130.787378 Z-0.125000
G01 X142.806250 Y134.388616 Z-0.125000
G01 X144.678295 Y137.329096 Z-0.125000
G01 X146.868244 Y139.602126 Z-0.125000
G01 X149.179654 Y141.271735 Z-0.125000
G01 X154.770981 Y144.198033 Z-0.125000
G01 X155.604124 Y145.156990 Z-0.125000
G01 X155.768412 Y146.421308 Z-0.125000
G01 X155.312383 Y148.075519 Z-0.125000
G01 X153.423723 Y152.165783 Z-0.125000
G01 X152.564556 Y154.420558 Z-0.125000
G01 X151.983462 Y156.952939 Z-0.125000
G01 X151.774053 Y159.831214 Z-0.125000
G01 X151.984398 Y163.071017 Z-0.125000
G01 X152.331603 Y165.027359 Z-0.125000
G00 Z3.000000

(End cutting path id: polyline242)


(Start cutting path id: polyline244)
(Change tool to Default tool)

G00 Z3.000000
G00 X149.538561 Y89.423837

G00 Z4.875000 (Fast pre-penetrate)
G01 Z-0.125000 F400.0(Penetrate)
G01 X143.079222 Y106.945257 Z-0.125000 F800.000000
G01 X141.450006 Y112.001734 Z-0.125000
G01 X140.268066 Y117.039581 Z-0.125000
G01 X139.674709 Y121.925825 Z-0.125000
G01 X139.741922 Y126.497955 Z-0.125000
G01 X140.474245 Y130.600389 Z-0.125000
G01 X141.813078 Y134.112649 Z-0.125000
G01 X143.643980 Y136.969300 Z-0.125000
G01 X145.806970 Y139.171044 Z-0.125000
G01 X148.109253 Y140.787951 Z-0.125000
G01 X153.788246 Y143.698381 Z-0.125000
G01 X154.682518 Y144.697966 Z-0.125000
G01 X154.917436 Y146.020323 Z-0.125000
G01 X154.536952 Y147.744274 Z-0.125000
G01 X152.802938 Y151.986610 Z-0.125000
G01 X152.025493 Y154.311641 Z-0.125000
G01 X151.530288 Y156.903091 Z-0.125000
G01 X151.406861 Y159.826206 Z-0.125000
G01 X151.697010 Y163.096246 Z-0.125000
G01 X152.131040 Y165.319146 Z-0.125000
G00 Z3.000000

(End cutting path id: polyline244)


(Start cutting path id: polyline246)
(Change tool to Default tool)

G00 Z3.000000
G00 X149.016958 Y88.813115

G00 Z4.875000 (Fast pre-penetrate)
G01 Z-0.125000 F400.0(Penetrate)
G01 X142.336461 Y107.001143 Z-0.125000 F800.000000
G01 X140.695637 Y112.042174 Z-0.125000
G01 X139.487205 Y117.043794 Z-0.125000
G01 X138.852659 Y121.872092 Z-0.125000
G01 X138.868011 Y126.368303 Z-0.125000
G01 X139.543933 Y130.383491 Z-0.125000
G01 X140.828612 Y133.805416 Z-0.125000
G01 X142.614253 Y136.576974 Z-0.125000
G01 X144.746397 Y138.706731 Z-0.125000
G01 X147.036324 Y140.270934 Z-0.125000
G01 X152.798819 Y143.168493 Z-0.125000
G01 X153.754780 Y144.210811 Z-0.125000
G01 X154.061639 Y145.593407 Z-0.125000
G01 X153.758712 Y147.389486 Z-0.125000
G01 X152.184118 Y151.788716 Z-0.125000
G01 X151.490644 Y154.186202 Z-0.125000
G01 X151.083386 Y156.838405 Z-0.125000
G01 X151.047486 Y159.807905 Z-0.125000
G01 X151.418235 Y163.108930 Z-0.125000
G01 X151.943022 Y165.575034 Z-0.125000
G00 Z3.000000

(End cutting path id: polyline246)


(Start cutting path id: polyline248)
(Change tool to Default tool)

G00 Z3.000000
G00 X148.503498 Y88.211988

G00 Z4.875000 (Fast pre-penetrate)
G01 Z-0.125000 F400.0(Penetrate)
G01 X141.618507 Y107.032176 Z-0.125000 F800.000000
G01 X139.965513 Y112.057433 Z-0.125000
G01 X138.729045 Y117.022170 Z-0.125000
G01 X138.050969 Y121.791586 Z-0.125000
G01 X138.011418 Y126.210661 Z-0.125000
G01 X138.627148 Y130.137386 Z-0.125000
G01 X139.853601 Y133.467852 Z-0.125000
G01 X141.589908 Y136.153616 Z-0.125000
G01 X143.687510 Y138.210964 Z-0.125000
G01 X145.961944 Y139.722463 Z-0.125000
G01 X150.217713 Y141.722943 Z-0.125000
G01 X151.803400 Y142.610662 Z-0.125000
G01 X152.821473 Y143.697633 Z-0.125000
G01 X153.201489 Y145.142527 Z-0.125000
G01 X152.977898 Y147.013027 Z-0.125000
G01 X151.567031 Y151.573549 Z-0.125000
G01 X150.959679 Y154.045550 Z-0.125000
G01 X150.642195 Y156.760193 Z-0.125000
G01 X150.695132 Y159.777107 Z-0.125000
G01 X151.147089 Y163.109913 Z-0.125000
G01 X151.767079 Y165.804335 Z-0.125000
G00 Z3.000000

(End cutting path id: polyline248)


(Start cutting path id: polyline250)
(Change tool to Default tool)

G00 Z3.000000
G00 X147.998183 Y87.620270

G00 Z4.875000 (Fast pre-penetrate)
G01 Z-0.125000 F400.0(Penetrate)
G01 X144.714382 Y96.932984 Z-0.125000 F800.000000
G01 X140.925360 Y107.038260 Z-0.125000
G01 X139.259588 Y112.047557 Z-0.125000
G01 X137.993772 Y116.974896 Z-0.125000
G01 X137.270015 Y121.684635 Z-0.125000
G01 X137.172471 Y126.025638 Z-0.125000
G01 X137.724452 Y129.863011 Z-0.125000
G01 X138.888746 Y133.101223 Z-0.125000
G01 X140.571835 Y135.700629 Z-0.125000
G01 X142.631197 Y137.685475 Z-0.125000
G01 X144.886908 Y139.144693 Z-0.125000
G01 X149.171417 Y141.115544 Z-0.125000
G01 X150.802832 Y142.027181 Z-0.125000
G01 X151.883204 Y143.160630 Z-0.125000
G01 X152.337407 Y144.669929 Z-0.125000
G01 X152.194696 Y146.616863 Z-0.125000
G01 X150.951534 Y151.342703 Z-0.125000
G01 X150.432224 Y153.890998 Z-0.125000
G01 X150.206059 Y156.669530 Z-0.125000
G01 X150.349004 Y159.734794 Z-0.125000
G01 X150.882590 Y163.099850 Z-0.125000
G01 X151.603586 Y166.017395 Z-0.125000
G00 Z3.000000

(End cutting path id: polyline250)


(Start cutting path id: polyline252)
(Change tool to Default tool)

G00 Z3.000000
G00 X147.486783 Y87.079335

G00 Z4.875000 (Fast pre-penetrate)
G01 Z-0.125000 F400.0(Penetrate)
G01 X144.046089 Y96.916508 Z-0.125000 F800.000000
G01 X140.256926 Y107.019491 Z-0.125000
G01 X138.577862 Y112.012686 Z-0.125000
G01 X137.281482 Y116.902253 Z-0.125000
G01 X136.509842 Y121.551660 Z-0.125000
G01 X136.351498 Y125.813982 Z-0.125000
G01 X136.836312 Y129.561301 Z-0.125000
G01 X137.934750 Y132.706837 Z-0.125000
G01 X139.560737 Y135.219700 Z-0.125000
G01 X141.578347 Y137.132231 Z-0.125000
G01 X143.812294 Y138.539681 Z-0.125000
G01 X148.121516 Y140.483292 Z-0.125000
G01 X149.797865 Y141.420390 Z-0.125000
G01 X150.940629 Y142.602190 Z-0.125000
G01 X151.469815 Y144.177766 Z-0.125000
G01 X151.409436 Y146.203053 Z-0.125000
G01 X150.337489 Y151.097815 Z-0.125000
G01 X149.907906 Y153.723995 Z-0.125000
G01 X149.774462 Y156.567587 Z-0.125000
G01 X150.008211 Y159.681997 Z-0.125000
G01 X150.623660 Y163.079583 Z-0.125000
G01 X151.451186 Y166.215992 Z-0.125000
G00 Z3.000000

(End cutting path id: polyline252)


(Start cutting path id: polyline254)
(Change tool to Default tool)

G00 Z3.000000
G00 X146.983059 Y86.548557

G00 Z4.875000 (Fast pre-penetrate)
G01 Z-0.125000 F400.0(Penetrate)
G01 X145.343639 Y91.450013 Z-0.125000 F800.000000
G01 X139.613066 Y106.976102 Z-0.125000
G01 X137.920241 Y111.953009 Z-0.125000
G01 X136.591986 Y116.804476 Z-0.125000
G01 X135.770591 Y121.393269 Z-0.125000
G01 X135.548732 Y125.576490 Z-0.125000
G01 X135.963103 Y129.233426 Z-0.125000
G01 X136.992129 Y132.286147 Z-0.125000
G01 X138.557455 Y134.712606 Z-0.125000
G01 X140.529851 Y136.553243 Z-0.125000
G01 X142.739037 Y137.909769 Z-0.125000
G01 X147.068854 Y139.828666 Z-0.125000
G01 X148.789294 Y140.792912 Z-0.125000
G01 X149.994450 Y142.024747 Z-0.125000
G01 X150.599227 Y143.668426 Z-0.125000
G01 X150.622349 Y145.773657 Z-0.125000
G01 X149.724755 Y150.840617 Z-0.125000
G01 X149.386255 Y153.545992 Z-0.125000
G01 X149.346704 Y156.455674 Z-0.125000
G01 X149.672005 Y159.619746 Z-0.125000
G01 X150.369270 Y163.049861 Z-0.125000
G01 X151.308616 Y166.401858 Z-0.125000
G00 Z3.000000

(End cutting path id: polyline254)


(Start cutting path id: polyline256)
(Change tool to Default tool)

G00 Z3.000000
G00 X146.487432 Y86.026252

G00 Z4.875000 (Fast pre-penetrate)
G01 Z-0.125000 F400.0(Penetrate)
G01 X142.782660 Y96.810259 Z-0.125000 F800.000000
G01 X138.993451 Y106.908374 Z-0.125000
G01 X137.286350 Y111.868946 Z-0.125000
G01 X135.925237 Y116.682219 Z-0.125000
G01 X135.052169 Y121.210118 Z-0.125000
G01 X134.764313 Y125.314096 Z-0.125000
G01 X135.105247 Y128.880698 Z-0.125000
G01 X136.061442 Y131.840696 Z-0.125000
G01 X137.562644 Y134.181220 Z-0.125000
G01 X139.486503 Y135.950712 Z-0.125000
G01 X141.668027 Y137.257343 Z-0.125000
G01 X146.014366 Y139.154335 Z-0.125000
G01 X147.777961 Y140.147320 Z-0.125000
G01 X149.045228 Y141.430828 Z-0.125000
G01 X149.726112 Y143.144154 Z-0.125000
G01 X149.833719 Y145.330921 Z-0.125000
G01 X149.113050 Y150.572701 Z-0.125000
G01 X148.866945 Y153.358488 Z-0.125000
G01 X148.922223 Y156.335056 Z-0.125000
G01 X149.339356 Y159.549209 Z-0.125000
G01 X150.118345 Y163.011715 Z-0.125000
G01 X151.174517 Y166.576537 Z-0.125000
G00 Z3.000000

(End cutting path id: polyline256)


(Start cutting path id: polyline258)
(Change tool to Default tool)

G00 Z3.000000
G00 X145.999716 Y85.512324

G00 Z4.875000 (Fast pre-penetrate)
G01 Z-0.125000 F400.0(Penetrate)
G01 X142.186776 Y96.721188 Z-0.125000 F800.000000
G01 X136.675862 Y111.760965 Z-0.125000
G01 X135.280815 Y116.535998 Z-0.125000
G01 X134.354435 Y121.003049 Z-0.125000
G01 X133.998196 Y125.027879 Z-0.125000
G01 X134.262883 Y128.504332 Z-0.125000
G01 X135.143113 Y131.372217 Z-0.125000
G01 X136.576914 Y133.627507 Z-0.125000
G01 X138.449193 Y135.326885 Z-0.125000
G01 X140.600153 Y136.584884 Z-0.125000
G01 X144.958989 Y138.462966 Z-0.125000
G01 X146.764710 Y139.486281 Z-0.125000
G01 X148.093760 Y140.823055 Z-0.125000
G01 X148.850937 Y142.607432 Z-0.125000
G01 X149.043777 Y144.877045 Z-0.125000
G01 X148.349507 Y153.163121 Z-0.125000
G01 X148.500222 Y156.207135 Z-0.125000
G01 X149.009515 Y159.471371 Z-0.125000
G01 X149.869806 Y162.965985 Z-0.125000
G01 X151.049639 Y166.739328 Z-0.125000
G00 Z3.000000

(End cutting path id: polyline258)


(Start cutting path id: polyline260)
(Change tool to Default tool)

G00 Z3.000000
G00 X145.505681 Y85.017306

G00 Z4.875000 (Fast pre-penetrate)
G01 Z-0.125000 F400.0(Penetrate)
G01 X141.614013 Y96.608900 Z-0.125000 F800.000000
G01 X136.088262 Y111.629721 Z-0.125000
G01 X134.658345 Y116.366561 Z-0.125000
G01 X133.677155 Y120.772999 Z-0.125000
G01 X133.250427 Y124.719008 Z-0.125000
G01 X133.436199 Y128.105968 Z-0.125000
G01 X134.237608 Y130.882488 Z-0.125000
G01 X135.601014 Y133.053668 Z-0.125000
G01 X137.418623 Y134.684195 Z-0.125000
G01 X139.536351 Y135.894967 Z-0.125000
G01 X143.903659 Y137.757369 Z-0.125000
G01 X145.750288 Y138.812559 Z-0.125000
G01 X147.140607 Y140.204048 Z-0.125000
G01 X147.974265 Y142.060787 Z-0.125000
G01 X148.252853 Y144.414323 Z-0.125000
G01 X147.833520 Y152.961435 Z-0.125000
G01 X148.080093 Y156.073177 Z-0.125000
G01 X148.681500 Y159.387495 Z-0.125000
G01 X149.622484 Y162.913610 Z-0.125000
G01 X150.933093 Y166.891213 Z-0.125000
G00 Z3.000000

(End cutting path id: polyline260)


(Start cutting path id: polyline262)
(Change tool to Default tool)

G00 Z3.000000
G00 X145.012629 Y84.549388

G00 Z4.875000 (Fast pre-penetrate)
G01 Z-0.125000 F400.0(Penetrate)
G01 X142.960475 Y91.053662 Z-0.125000 F800.000000
G01 X135.522895 Y111.475918 Z-0.125000
G01 X134.057359 Y116.174751 Z-0.125000
G01 X133.019862 Y120.520949 Z-0.125000
G01 X132.520818 Y124.388793 Z-0.125000
G01 X132.625335 Y127.687103 Z-0.125000
G01 X133.345209 Y130.373381 Z-0.125000
G01 X134.635363 Y132.461809 Z-0.125000
G01 X136.395589 Y134.025029 Z-0.125000
G01 X138.477464 Y135.190259 Z-0.125000
G01 X142.849218 Y137.040304 Z-0.125000
G01 X144.735632 Y138.128960 Z-0.125000
G01 X146.186565 Y139.576523 Z-0.125000
G01 X147.096469 Y141.506747 Z-0.125000
G01 X147.461180 Y143.945001 Z-0.125000
G01 X147.318516 Y152.755021 Z-0.125000
G01 X147.661181 Y155.934632 Z-0.125000
G01 X148.354468 Y159.298752 Z-0.125000
G01 X149.375396 Y162.855664 Z-0.125000
G01 X150.819776 Y167.038885 Z-0.125000
G00 Z3.000000

(End cutting path id: polyline262)


(Start cutting path id: polyline264)
(Change tool to Default tool)

G00 Z3.000000
G00 X144.526925 Y84.088445

G00 Z4.875000 (Fast pre-penetrate)
G01 Z-0.125000 F400.0(Penetrate)
G01 X142.419213 Y90.899015 Z-0.125000 F800.000000
G01 X134.979058 Y111.300443 Z-0.125000
G01 X133.477107 Y115.961597 Z-0.125000
G01 X132.382273 Y120.248072 Z-0.125000
G01 X131.809089 Y124.038592 Z-0.125000
G01 X131.830246 Y127.249469 Z-0.125000
G01 X132.466196 Y129.846956 Z-0.125000
G01 X133.680525 Y131.854223 Z-0.125000
G01 X135.380746 Y133.351915 Z-0.125000
G01 X137.424380 Y134.473522 Z-0.125000
G01 X141.796696 Y136.314721 Z-0.125000
G01 X143.721491 Y137.438341 Z-0.125000
G01 X145.232288 Y138.943147 Z-0.125000
G01 X146.218205 Y140.947792 Z-0.125000
G01 X146.669039 Y143.471561 Z-0.125000
G01 X146.804120 Y152.545472 Z-0.125000
G01 X147.242784 Y155.792904 Z-0.125000
G01 X148.027436 Y159.206263 Z-0.125000
G01 X149.127419 Y162.793038 Z-0.125000
G01 X150.708566 Y167.183842 Z-0.125000
G00 Z3.000000

(End cutting path id: polyline264)


(Start cutting path id: polyline266)
(Change tool to Default tool)

G00 Z3.000000
G00 X144.048382 Y83.634288

G00 Z4.875000 (Fast pre-penetrate)
G01 Z-0.125000 F400.0(Penetrate)
G01 X141.898265 Y90.723728 Z-0.125000 F800.000000
G01 X140.027671 Y96.139719 Z-0.125000
G01 X134.455910 Y111.104186 Z-0.125000
G01 X132.916982 Y115.728083 Z-0.125000
G01 X131.763641 Y119.955676 Z-0.125000
G01 X131.114913 Y123.669996 Z-0.125000
G01 X131.050882 Y126.794798 Z-0.125000
G01 X131.600710 Y129.305226 Z-0.125000
G01 X132.736920 Y131.233297 Z-0.125000
G01 X134.374749 Y132.667567 Z-0.125000
G01 X136.377849 Y133.747517 Z-0.125000
G01 X140.746842 Y135.583521 Z-0.125000
G01 X142.708801 Y136.743509 Z-0.125000
G01 X144.278480 Y138.306729 Z-0.125000
G01 X145.339895 Y140.386591 Z-0.125000
G01 X145.876804 Y142.996248 Z-0.125000
G01 X146.289865 Y152.334518 Z-0.125000
G01 X146.824247 Y155.649444 Z-0.125000
G01 X147.699515 Y159.111341 Z-0.125000
G01 X148.877429 Y162.726855 Z-0.125000
G01 X150.598385 Y167.327396 Z-0.125000
G00 Z3.000000

(End cutting path id: polyline266)


(Start cutting path id: polyline268)
(Change tool to Default tool)

G00 Z3.000000
G00 X143.576720 Y83.186731

G00 Z4.875000 (Fast pre-penetrate)
G01 Z-0.125000 F400.0(Penetrate)
G01 X141.396600 Y90.528828 Z-0.125000 F800.000000
G01 X139.539861 Y95.942292 Z-0.125000
G01 X133.952420 Y110.888224 Z-0.125000
G01 X132.376048 Y115.475472 Z-0.125000
G01 X131.163403 Y119.645073 Z-0.125000
G01 X130.437914 Y123.284551 Z-0.125000
G01 X130.287059 Y126.325055 Z-0.125000
G01 X130.748938 Y128.750437 Z-0.125000
G01 X131.804924 Y130.601466 Z-0.125000
G01 X133.378253 Y131.974514 Z-0.125000
G01 X135.338667 Y133.015006 Z-0.125000
G01 X139.700639 Y134.849653 Z-0.125000
G01 X141.698264 Y136.047413 Z-0.125000
G01 X143.325795 Y137.670076 Z-0.125000
G01 X144.462052 Y139.825670 Z-0.125000
G01 X145.084663 Y142.521497 Z-0.125000
G01 X145.775282 Y152.123751 Z-0.125000
G01 X146.404773 Y155.505657 Z-0.125000
G01 X147.369862 Y159.015155 Z-0.125000
G01 X150.488157 Y167.470996 Z-0.125000
G00 Z3.000000

(End cutting path id: polyline268)


(Start cutting path id: polyline270)
(Change tool to Default tool)

G00 Z3.000000
G00 X143.106041 Y82.767773

G00 Z4.875000 (Fast pre-penetrate)
G01 Z-0.125000 F400.0(Penetrate)
G01 X140.913237 Y90.315394 Z-0.125000 F800.000000
G01 X139.070774 Y95.726050 Z-0.125000
G01 X131.853414 Y115.204982 Z-0.125000
G01 X130.580765 Y119.317713 Z-0.125000
G01 X129.777531 Y122.883987 Z-0.125000
G01 X129.538540 Y125.842113 Z-0.125000
G01 X129.910880 Y128.184742 Z-0.125000
G01 X130.884862 Y129.961209 Z-0.125000
G01 X132.391775 Y131.275516 Z-0.125000
G01 X134.307536 Y132.278985 Z-0.125000
G01 X138.658930 Y134.116113 Z-0.125000
G01 X140.690722 Y135.353002 Z-0.125000
G01 X142.374982 Y137.035858 Z-0.125000
G01 X143.585192 Y139.267605 Z-0.125000
G01 X144.292943 Y142.049601 Z-0.125000
G01 X145.259950 Y151.914904 Z-0.125000
G01 X145.983849 Y155.362946 Z-0.125000
G01 X147.037541 Y158.919016 Z-0.125000
G01 X150.376947 Y167.616000 Z-0.125000
G00 Z3.000000

(End cutting path id: polyline270)


(Start cutting path id: polyline272)
(Change tool to Default tool)

G00 Z3.000000
G00 X142.638686 Y82.368613

G00 Z4.875000 (Fast pre-penetrate)
G01 Z-0.125000 F400.0(Penetrate)
G01 X140.446958 Y90.084641 Z-0.125000 F800.000000
G01 X138.619191 Y95.492302 Z-0.125000
G01 X133.000297 Y110.402099 Z-0.125000
G01 X130.014836 Y118.975188 Z-0.125000
G01 X129.133062 Y122.469989 Z-0.125000
G01 X128.805000 Y125.348077 Z-0.125000
G01 X129.086537 Y127.610435 Z-0.125000
G01 X129.977017 Y129.315055 Z-0.125000
G01 X131.415827 Y130.573336 Z-0.125000
G01 X133.285204 Y131.542215 Z-0.125000
G01 X137.622509 Y133.385802 Z-0.125000
G01 X139.687019 Y134.663085 Z-0.125000
G01 X141.426650 Y136.406882 Z-0.125000
G01 X142.709784 Y138.715016 Z-0.125000
G01 X143.501972 Y141.582947 Z-0.125000
G01 X144.743402 Y151.709520 Z-0.125000
G01 X145.560678 Y155.222856 Z-0.125000
G01 X146.701662 Y158.824141 Z-0.125000
G01 X150.263630 Y167.763672 Z-0.125000
G00 Z3.000000

(End cutting path id: polyline272)


(Start cutting path id: polyline274)
(Change tool to Default tool)

G00 Z3.000000
G00 X142.178023 Y81.975164

G00 Z4.875000 (Fast pre-penetrate)
G01 Z-0.125000 F400.0(Penetrate)
G01 X139.996545 Y89.837834 Z-0.125000 F800.000000
G01 X138.183804 Y95.242312 Z-0.125000
G01 X130.858651 Y114.616071 Z-0.125000
G01 X129.464728 Y118.619090 Z-0.125000
G01 X128.503945 Y122.044478 Z-0.125000
G01 X128.086063 Y124.844915 Z-0.125000
G01 X128.275767 Y127.029903 Z-0.125000
G01 X129.081529 Y128.665578 Z-0.125000
G01 X130.450832 Y129.870687 Z-0.125000
G01 X132.272279 Y130.807692 Z-0.125000
G01 X136.592267 Y132.661763 Z-0.125000
G01 X138.687902 Y133.980516 Z-0.125000
G01 X140.481500 Y135.785909 Z-0.125000
G01 X141.836388 Y138.170430 Z-0.125000
G01 X142.711937 Y141.123876 Z-0.125000
G01 X144.225261 Y151.509238 Z-0.125000
G01 X145.134651 Y155.086652 Z-0.125000
G01 X146.361431 Y158.731699 Z-0.125000
G01 X150.147317 Y167.915230 Z-0.125000
G00 Z3.000000

(End cutting path id: polyline274)


(Start cutting path id: polyline276)
(Change tool to Default tool)

G00 Z3.000000
G00 X141.723679 Y81.587144

G00 Z4.875000 (Fast pre-penetrate)
G01 Z-0.125000 F400.0(Penetrate)
G01 X139.560690 Y89.576424 Z-0.125000 F800.000000
G01 X137.763254 Y94.977438 Z-0.125000
G01 X128.929363 Y118.251196 Z-0.125000
G01 X127.889338 Y121.609371 Z-0.125000
G01 X127.381168 Y124.334919 Z-0.125000
G01 X127.478430 Y126.445486 Z-0.125000
G01 X128.198631 Y128.015352 Z-0.125000
G01 X129.497258 Y129.170426 Z-0.125000
G01 X131.269372 Y130.078271 Z-0.125000
G01 X135.568905 Y131.946851 Z-0.125000
G01 X137.694075 Y133.308245 Z-0.125000
G01 X139.540189 Y135.175609 Z-0.125000
G01 X140.965472 Y137.636376 Z-0.125000
G01 X141.923212 Y140.674681 Z-0.125000
G01 X143.705062 Y151.315790 Z-0.125000
G01 X144.705114 Y154.955829 Z-0.125000
G01 X146.015957 Y158.643002 Z-0.125000
G01 X150.024873 Y168.066740 Z-0.125000
G00 Z3.000000

(End cutting path id: polyline276)


(Start cutting path id: polyline278)
(Change tool to Default tool)

G00 Z3.000000
G00 X141.275327 Y81.204225

G00 Z4.875000 (Fast pre-penetrate)
G01 Z-0.125000 F400.0(Penetrate)
G01 X139.137940 Y89.301861 Z-0.125000 F800.000000
G01 X137.356044 Y94.699271 Z-0.125000
G01 X133.571702 Y104.768180 Z-0.125000
G01 X128.407666 Y117.873239 Z-0.125000
G01 X127.288399 Y121.166588 Z-0.125000
G01 X126.689846 Y123.820196 Z-0.125000
G01 X126.694527 Y125.859618 Z-0.125000
G01 X127.328465 Y127.367092 Z-0.125000
G01 X128.555525 Y128.475219 Z-0.125000
G01 X134.553453 Y131.244016 Z-0.125000
G01 X136.706566 Y132.649079 Z-0.125000
G01 X138.603512 Y134.578647 Z-0.125000
G01 X140.097646 Y137.115334 Z-0.125000
G01 X141.136220 Y140.237655 Z-0.125000
G01 X143.182616 Y151.130626 Z-0.125000
G01 X144.271599 Y154.831747 Z-0.125000
G01 X145.664586 Y158.559220 Z-0.125000
G01 X149.895221 Y168.218765 Z-0.125000
G00 Z3.000000

(End cutting path id: polyline278)


(Start cutting path id: polyline280)
(Change tool to Default tool)

G00 Z3.000000
G00 X140.830765 Y80.833383

G00 Z4.875000 (Fast pre-penetrate)
G01 Z-0.125000 F400.0(Penetrate)
G01 X140.295354 Y83.275382 Z-0.125000 F800.000000
G01 X138.726845 Y89.015597 Z-0.125000
G01 X136.960628 Y94.409309 Z-0.125000
G01 X133.177082 Y104.475597 Z-0.125000
G01 X126.700190 Y120.718236 Z-0.125000
G01 X126.011396 Y123.303039 Z-0.125000
G01 X125.923074 Y125.274780 Z-0.125000
G01 X126.470514 Y126.723372 Z-0.125000
G01 X127.625447 Y127.787970 Z-0.125000
G01 X133.546005 Y130.556158 Z-0.125000
G01 X135.725377 Y132.005733 Z-0.125000
G01 X137.671608 Y133.997694 Z-0.125000
G01 X139.232909 Y136.609691 Z-0.125000
G01 X140.350631 Y139.814999 Z-0.125000
G01 X141.787522 Y147.199033 Z-0.125000
G01 X142.656893 Y150.955338 Z-0.125000
G01 X143.832982 Y154.715856 Z-0.125000
G01 X145.306007 Y158.481569 Z-0.125000
G01 X149.759251 Y168.377764 Z-0.125000
G00 Z3.000000

(End cutting path id: polyline280)


(Start cutting path id: polyline282)
(Change tool to Default tool)

G00 Z3.000000
G00 X140.385923 Y80.492028

G00 Z4.875000 (Fast pre-penetrate)
G01 Z-0.125000 F400.0(Penetrate)
G01 X139.860013 Y82.987947 Z-0.125000 F800.000000
G01 X138.325766 Y88.719363 Z-0.125000
G01 X136.575370 Y94.109190 Z-0.125000
G01 X132.792619 Y104.172904 Z-0.125000
G01 X126.123730 Y120.266326 Z-0.125000
G01 X125.345163 Y122.785601 Z-0.125000
G01 X125.164305 Y124.693311 Z-0.125000
G01 X125.625249 Y126.086766 Z-0.125000
G01 X126.707773 Y127.111345 Z-0.125000
G01 X132.547778 Y129.885992 Z-0.125000
G01 X134.751863 Y131.380923 Z-0.125000
G01 X136.745509 Y133.435322 Z-0.125000
G01 X138.372197 Y136.121881 Z-0.125000
G01 X139.567290 Y139.408818 Z-0.125000
G01 X141.172494 Y146.960698 Z-0.125000
G01 X142.128128 Y150.791425 Z-0.125000
G01 X143.389170 Y154.609326 Z-0.125000
G01 X144.939986 Y158.411220 Z-0.125000
G01 X149.616680 Y168.544674 Z-0.125000
G00 Z3.000000

(End cutting path id: polyline282)


(Start cutting path id: polyline284)
(Change tool to Default tool)

G00 Z3.000000
G00 X139.945902 Y80.154418

G00 Z4.875000 (Fast pre-penetrate)
G01 Z-0.125000 F400.0(Penetrate)
G01 X139.432957 Y82.692369 Z-0.125000 F800.000000
G01 X137.933112 Y88.414751 Z-0.125000
G01 X136.198583 Y93.800600 Z-0.125000
G01 X132.416722 Y103.861785 Z-0.125000
G01 X130.487153 Y108.612199 Z-0.125000
G01 X125.557848 Y119.812965 Z-0.125000
G01 X124.690350 Y122.270269 Z-0.125000
G01 X124.417612 Y124.117787 Z-0.125000
G01 X124.792433 Y125.459896 Z-0.125000
G01 X125.802409 Y126.448107 Z-0.125000
G01 X131.559287 Y129.236328 Z-0.125000
G01 X133.786447 Y130.777315 Z-0.125000
G01 X135.825635 Y132.893873 Z-0.125000
G01 X137.515745 Y135.654151 Z-0.125000
G01 X138.786288 Y139.021219 Z-0.125000
G01 X140.555921 Y146.737201 Z-0.125000
G01 X141.595665 Y150.640382 Z-0.125000
G01 X142.939460 Y154.513562 Z-0.125000
G01 X144.565633 Y158.349296 Z-0.125000
G01 X149.466527 Y168.720476 Z-0.125000
G00 Z3.000000

(End cutting path id: polyline284)


(Start cutting path id: polyline286)
(Change tool to Default tool)

G00 Z3.000000
G00 X139.510046 Y79.819944

G00 Z4.875000 (Fast pre-penetrate)
G01 Z-0.125000 F400.0(Penetrate)
G01 X139.012688 Y82.390378 Z-0.125000 F800.000000
G01 X137.547292 Y88.103493 Z-0.125000
G01 X135.828583 Y93.485269 Z-0.125000
G01 X132.047565 Y103.544021 Z-0.125000
G01 X130.102410 Y108.282546 Z-0.125000
G01 X125.001561 Y119.360259 Z-0.125000
G01 X124.046162 Y121.759243 Z-0.125000
G01 X123.682481 Y123.550548 Z-0.125000
G01 X123.971834 Y124.845336 Z-0.125000
G01 X124.909588 Y125.800877 Z-0.125000
G01 X130.581093 Y128.609786 Z-0.125000
G01 X132.829736 Y130.197391 Z-0.125000
G01 X134.912594 Y132.375873 Z-0.125000
G01 X136.664020 Y135.208747 Z-0.125000
G01 X138.007814 Y138.654215 Z-0.125000
G01 X139.937617 Y146.530132 Z-0.125000
G01 X141.059271 Y150.503569 Z-0.125000
G01 X142.483244 Y154.429732 Z-0.125000
G01 X144.182200 Y158.297014 Z-0.125000
G01 X149.308136 Y168.905874 Z-0.125000
G00 Z3.000000

(End cutting path id: polyline286)


(Start cutting path id: polyline288)
(Change tool to Default tool)

G00 Z3.000000
G00 X139.077467 Y79.488044

G00 Z4.875000 (Fast pre-penetrate)
G01 Z-0.125000 F400.0(Penetrate)
G01 X138.597661 Y82.083659 Z-0.125000 F800.000000
G01 X137.166527 Y87.787366 Z-0.125000
G01 X135.463498 Y93.165024 Z-0.125000
G01 X133.597492 Y98.251128 Z-0.125000
G01 X129.723002 Y107.948633 Z-0.125000
G01 X127.770873 Y112.221393 Z-0.125000
G01 X124.453606 Y118.910315 Z-0.125000
G01 X123.411709 Y121.254817 Z-0.125000
G01 X122.958348 Y122.994027 Z-0.125000
G01 X123.163170 Y124.245614 Z-0.125000
G01 X124.029265 Y125.172275 Z-0.125000
G01 X129.613804 Y128.008893 Z-0.125000
G01 X131.882294 Y129.643632 Z-0.125000
G01 X134.006808 Y131.883570 Z-0.125000
G01 X135.817397 Y134.787682 Z-0.125000
G01 X137.232149 Y138.309771 Z-0.125000
G01 X139.317440 Y146.341036 Z-0.125000
G01 X140.518477 Y150.382389 Z-0.125000
G01 X142.020007 Y154.359102 Z-0.125000
G01 X143.789125 Y158.255310 Z-0.125000
G01 X149.140946 Y169.101710 Z-0.125000
G00 Z3.000000

(End cutting path id: polyline288)


(Start cutting path id: polyline290)
(Change tool to Default tool)

G00 Z3.000000
G00 X138.647322 Y79.157970

G00 Z4.875000 (Fast pre-penetrate)
G01 Z-0.125000 F400.0(Penetrate)
G01 X138.186285 Y81.773945 Z-0.125000 F800.000000
G01 X136.789038 Y87.468198 Z-0.125000
G01 X135.101596 Y92.841643 Z-0.125000
G01 X131.322496 Y102.895714 Z-0.125000
G01 X129.347105 Y107.612287 Z-0.125000
G01 X127.359871 Y111.860708 Z-0.125000
G01 X122.786009 Y120.759238 Z-0.125000
G01 X122.244607 Y122.450612 Z-0.125000
G01 X122.366255 Y123.663209 Z-0.125000
G01 X123.161485 Y124.564829 Z-0.125000
G01 X128.657843 Y127.436177 Z-0.125000
G01 X130.944633 Y129.118331 Z-0.125000
G01 X133.108839 Y131.419116 Z-0.125000
G01 X134.976203 Y134.393109 Z-0.125000
G01 X136.459525 Y137.989666 Z-0.125000
G01 X138.695251 Y146.171365 Z-0.125000
G01 X139.972955 Y150.278105 Z-0.125000
G01 X141.549281 Y154.302795 Z-0.125000
G01 X143.385706 Y158.225261 Z-0.125000
G01 X147.288701 Y165.757904 Z-0.125000
G01 X148.964207 Y169.308591 Z-0.125000
G00 Z3.000000

(End cutting path id: polyline290)


(Start cutting path id: polyline292)
(Change tool to Default tool)

G00 Z3.000000
G00 X138.216896 Y78.839269

G00 Z4.875000 (Fast pre-penetrate)
G01 Z-0.125000 F400.0(Penetrate)
G01 X137.776921 Y81.463015 Z-0.125000 F800.000000
G01 X136.413141 Y87.147718 Z-0.125000
G01 X134.741051 Y92.516998 Z-0.125000
G01 X132.881036 Y97.601511 Z-0.125000
G01 X128.972939 Y107.275379 Z-0.125000
G01 X126.951584 Y111.501099 Z-0.125000
G01 X122.168220 Y120.274704 Z-0.125000
G01 X121.540554 Y121.922596 Z-0.125000
G01 X121.580620 Y123.100463 Z-0.125000
G01 X122.306110 Y123.980927 Z-0.125000
G01 X127.713676 Y126.893885 Z-0.125000
G01 X130.017223 Y128.623734 Z-0.125000
G01 X132.219108 Y130.984571 Z-0.125000
G01 X134.140907 Y134.026807 Z-0.125000
G01 X135.690085 Y137.695632 Z-0.125000
G01 X138.070908 Y146.022476 Z-0.125000
G01 X139.422519 Y150.191889 Z-0.125000
G01 X141.070645 Y154.261840 Z-0.125000
G01 X142.971428 Y158.207896 Z-0.125000
G01 X146.956005 Y165.721349 Z-0.125000
G01 X148.762568 Y169.544726 Z-0.125000
G00 Z3.000000

(End cutting path id: polyline292)


(Start cutting path id: polyline294)
(Change tool to Default tool)

G00 Z3.000000
G00 X137.783755 Y78.541584

G00 Z4.875000 (Fast pre-penetrate)
G01 Z-0.125000 F400.0(Penetrate)
G01 X137.367932 Y81.152599 Z-0.125000 F800.000000
G01 X136.037056 Y86.827801 Z-0.125000
G01 X134.379991 Y92.192915 Z-0.125000
G01 X132.522878 Y97.276632 Z-0.125000
G01 X130.602764 Y102.242586 Z-0.125000
G01 X128.598727 Y106.939828 Z-0.125000
G01 X126.544280 Y111.144392 Z-0.125000
G01 X121.557217 Y119.803370 Z-0.125000
G01 X120.845582 Y121.412178 Z-0.125000
G01 X120.805937 Y122.559763 Z-0.125000
G01 X121.463044 Y123.423002 Z-0.125000
G01 X126.781773 Y126.384217 Z-0.125000
G01 X129.100579 Y128.161901 Z-0.125000
G01 X131.338036 Y130.581901 Z-0.125000
G01 X133.311696 Y133.690648 Z-0.125000
G01 X134.924061 Y137.429307 Z-0.125000
G01 X137.444226 Y145.895632 Z-0.125000
G01 X138.866747 Y150.124910 Z-0.125000
G01 X140.583584 Y154.237267 Z-0.125000
G01 X142.545729 Y158.204105 Z-0.125000
G01 X146.606974 Y165.692797 Z-0.125000
G01 X148.541223 Y169.803843 Z-0.125000
G00 Z3.000000

(End cutting path id: polyline294)


(Start cutting path id: polyline296)
(Change tool to Default tool)

G00 Z3.000000
G00 X137.350286 Y78.243665

G00 Z4.875000 (Fast pre-penetrate)
G01 Z-0.125000 F400.0(Penetrate)
G01 X136.957680 Y80.844476 Z-0.125000 F800.000000
G01 X135.658959 Y86.510223 Z-0.125000
G01 X134.016591 Y91.871172 Z-0.125000
G01 X130.240346 Y101.918877 Z-0.125000
G01 X128.222689 Y106.607460 Z-0.125000
G01 X126.136181 Y110.792600 Z-0.125000
G01 X124.109490 Y114.335517 Z-0.125000
G01 X120.951971 Y119.347388 Z-0.125000
G01 X120.158847 Y120.921607 Z-0.125000
G01 X120.041692 Y122.043214 Z-0.125000
G01 X120.632100 Y122.893207 Z-0.125000
G01 X125.862414 Y125.909279 Z-0.125000
G01 X128.195027 Y127.734752 Z-0.125000
G01 X130.465950 Y130.212884 Z-0.125000
G01 X132.488943 Y133.386130 Z-0.125000
G01 X134.161595 Y137.192096 Z-0.125000
G01 X136.815156 Y145.792098 Z-0.125000
G01 X138.305405 Y150.078198 Z-0.125000
G01 X140.087817 Y154.230059 Z-0.125000
G01 X142.108189 Y158.214729 Z-0.125000
G01 X146.241187 Y165.672951 Z-0.125000
G01 X148.305790 Y170.079483 Z-0.125000
G00 Z3.000000

(End cutting path id: polyline296)


(Start cutting path id: polyline298)
(Change tool to Default tool)

G00 Z3.000000
G00 X136.915367 Y77.944764

G00 Z4.875000 (Fast pre-penetrate)
G01 Z-0.125000 F400.0(Penetrate)
G01 X136.544618 Y80.540379 Z-0.125000 F800.000000
G01 X135.277118 Y86.196812 Z-0.125000
G01 X133.649072 Y91.553688 Z-0.125000
G01 X129.873763 Y101.599474 Z-0.125000
G01 X127.843047 Y106.280147 Z-0.125000
G01 X125.725741 Y110.447454 Z-0.125000
G01 X123.649576 Y113.963505 Z-0.125000
G01 X120.351547 Y118.908771 Z-0.125000
G01 X119.479601 Y120.452941 Z-0.125000
G01 X119.287417 Y121.552970 Z-0.125000
G01 X119.813093 Y122.393649 Z-0.125000
G01 X124.955926 Y125.470896 Z-0.125000
G01 X127.300943 Y127.344110 Z-0.125000
G01 X129.603179 Y129.879112 Z-0.125000
G01 X131.672884 Y133.114843 Z-0.125000
G01 X133.402873 Y136.985401 Z-0.125000
G01 X136.183559 Y145.712856 Z-0.125000
G01 X137.738353 Y150.052689 Z-0.125000
G01 X139.582923 Y154.240965 Z-0.125000
G01 X141.658385 Y158.240566 Z-0.125000
G01 X145.858222 Y165.662701 Z-0.125000
G01 X147.593547 Y169.134099 Z-0.125000
G01 X148.055988 Y170.371972 Z-0.125000
G00 Z3.000000

(End cutting path id: polyline298)


(Start cutting path id: polyline300)
(Change tool to Default tool)

G00 Z3.000000
G00 X136.477593 Y77.643896

G00 Z4.875000 (Fast pre-penetrate)
G01 Z-0.125000 F400.0(Penetrate)
G01 X136.127017 Y80.242039 Z-0.125000 F800.000000
G01 X134.889846 Y85.889345 Z-0.125000
G01 X133.275608 Y91.242195 Z-0.125000
G01 X129.501236 Y101.286156 Z-0.125000
G01 X127.458023 Y105.959668 Z-0.125000
G01 X125.311182 Y110.110920 Z-0.125000
G01 X123.187603 Y113.602819 Z-0.125000
G01 X118.807049 Y120.008145 Z-0.125000
G01 X118.542596 Y121.090997 Z-0.125000
G01 X119.005646 Y121.926293 Z-0.125000
G01 X124.062497 Y125.070800 Z-0.125000
G01 X126.418560 Y126.991476 Z-0.125000
G01 X128.750097 Y129.582129 Z-0.125000
G01 X130.863800 Y132.878146 Z-0.125000
G01 X132.648036 Y136.810441 Z-0.125000
G01 X135.549340 Y145.658842 Z-0.125000
G01 X137.165263 Y150.049272 Z-0.125000
G01 X139.068621 Y154.270920 Z-0.125000
G01 X141.195897 Y158.282317 Z-0.125000
G01 X145.457752 Y165.662701 Z-0.125000
G01 X147.194855 Y169.085983 Z-0.125000
G01 X147.785778 Y170.665538 Z-0.125000
G00 Z3.000000

(End cutting path id: polyline300)


(Start cutting path id: polyline302)
(Change tool to Default tool)

G00 Z3.000000
G00 X136.035746 Y77.340220

G00 Z4.875000 (Fast pre-penetrate)
G01 Z-0.125000 F400.0(Penetrate)
G01 X135.703425 Y79.951141 Z-0.125000 F800.000000
G01 X134.495414 Y85.589507 Z-0.125000
G01 X132.894469 Y90.938426 Z-0.125000
G01 X129.121033 Y100.980749 Z-0.125000
G01 X127.065884 Y105.647801 Z-0.125000
G01 X124.890959 Y109.784684 Z-0.125000
G01 X122.722166 Y113.255286 Z-0.125000
G01 X118.140394 Y119.588952 Z-0.125000
G01 X117.806622 Y120.659120 Z-0.125000
G01 X118.209526 Y121.492872 Z-0.125000
G01 X123.182314 Y124.710536 Z-0.125000
G01 X125.548206 Y126.678298 Z-0.125000
G01 X127.906891 Y129.323153 Z-0.125000
G01 X130.061829 Y132.677115 Z-0.125000
G01 X131.897225 Y136.668198 Z-0.125000
G01 X134.912407 Y145.630946 Z-0.125000
G01 X136.585995 Y150.068603 Z-0.125000
G01 X138.544630 Y154.320394 Z-0.125000
G01 X140.720491 Y158.340684 Z-0.125000
G01 X145.039589 Y165.673654 Z-0.125000
G01 X146.777441 Y169.046198 Z-0.125000
G01 X147.498297 Y170.968512 Z-0.125000
G00 Z3.000000

(End cutting path id: polyline302)


(Start cutting path id: polyline304)
(Change tool to Default tool)

G00 Z3.000000
G00 X135.587580 Y77.039821

G00 Z4.875000 (Fast pre-penetrate)
G01 Z-0.125000 F400.0(Penetrate)
G01 X135.272297 Y79.669276 Z-0.125000 F800.000000
G01 X134.092182 Y85.298983 Z-0.125000
G01 X132.504015 Y90.644158 Z-0.125000
G01 X128.731468 Y100.684889 Z-0.125000
G01 X126.664992 Y105.346184 Z-0.125000
G01 X124.463435 Y109.470523 Z-0.125000
G01 X122.251768 Y112.922591 Z-0.125000
G01 X117.478701 Y119.197188 Z-0.125000
G01 X117.078886 Y120.258977 Z-0.125000
G01 X117.424312 Y121.095022 Z-0.125000
G01 X122.315518 Y124.391414 Z-0.125000
G01 X124.689975 Y126.405795 Z-0.125000
G01 X127.073701 Y129.103306 Z-0.125000
G01 X129.267207 Y132.512780 Z-0.125000
G01 X131.150532 Y136.559609 Z-0.125000
G01 X134.272665 Y145.629916 Z-0.125000
G01 X136.000361 Y150.111430 Z-0.125000
G01 X138.010810 Y154.390135 Z-0.125000
G01 X140.231932 Y158.416275 Z-0.125000
G01 X144.603546 Y165.696214 Z-0.125000
G01 X146.341304 Y169.015447 Z-0.125000
G01 X147.196025 Y171.286978 Z-0.125000
G00 Z3.000000

(End cutting path id: polyline304)


(Start cutting path id: polyline306)
(Change tool to Default tool)

G00 Z3.000000
G00 X135.129960 Y76.759407

G00 Z4.875000 (Fast pre-penetrate)
G01 Z-0.125000 F400.0(Penetrate)
G01 X134.832135 Y79.397990 Z-0.125000 F800.000000
G01 X133.678653 Y85.019412 Z-0.125000
G01 X132.102562 Y90.360889 Z-0.125000
G01 X128.330857 Y100.400216 Z-0.125000
G01 X126.253757 Y105.056550 Z-0.125000
G01 X124.027112 Y109.170030 Z-0.125000
G01 X121.775004 Y112.606324 Z-0.125000
G01 X116.821173 Y118.834350 Z-0.125000
G01 X116.358732 Y119.892067 Z-0.125000
G01 X116.649536 Y120.734150 Z-0.125000
G01 X117.674302 Y121.576280 Z-0.125000
G01 X121.462108 Y124.114511 Z-0.125000
G01 X123.844007 Y126.174949 Z-0.125000
G01 X126.250808 Y128.923478 Z-0.125000
G01 X128.479981 Y132.385983 Z-0.125000
G01 X130.407958 Y136.485375 Z-0.125000
G01 X133.630115 Y145.656221 Z-0.125000
G01 X135.408314 Y150.178222 Z-0.125000
G01 X137.466927 Y154.480563 Z-0.125000
G01 X139.729987 Y158.509372 Z-0.125000
G01 X144.149577 Y165.730897 Z-0.125000
G01 X145.886446 Y168.994337 Z-0.125000
G01 X146.879384 Y171.620751 Z-0.125000
G00 Z3.000000

(End cutting path id: polyline306)


(Start cutting path id: polyline308)
(Change tool to Default tool)

G00 Z3.000000
G00 X134.664570 Y76.474173

G00 Z4.875000 (Fast pre-penetrate)
G01 Z-0.125000 F400.0(Penetrate)
G01 X134.381629 Y79.138733 Z-0.125000 F800.000000
G01 X133.253282 Y84.752198 Z-0.125000
G01 X131.688658 Y90.090211 Z-0.125000
G01 X127.917796 Y100.128275 Z-0.125000
G01 X125.830726 Y104.780349 Z-0.125000
G01 X123.580538 Y108.884655 Z-0.125000
G01 X121.290471 Y112.308031 Z-0.125000
G01 X116.166968 Y118.501794 Z-0.125000
G01 X115.645599 Y119.559652 Z-0.125000
G01 X115.884776 Y120.411424 Z-0.125000
G01 X116.869477 Y121.273587 Z-0.125000
G01 X120.622084 Y123.880716 Z-0.125000
G01 X123.010349 Y125.986602 Z-0.125000
G01 X125.438166 Y128.784325 Z-0.125000
G01 X127.700337 Y132.297240 Z-0.125000
G01 X129.669690 Y136.446058 Z-0.125000
G01 X132.984664 Y145.710328 Z-0.125000
G01 X134.809715 Y150.269306 Z-0.125000
G01 X136.912933 Y154.592055 Z-0.125000
G01 X139.214655 Y158.620536 Z-0.125000
G01 X143.677634 Y165.778171 Z-0.125000
G01 X145.412958 Y168.983431 Z-0.125000
G01 X146.548701 Y171.969173 Z-0.125000
G00 Z3.000000

(End cutting path id: polyline308)


(Start cutting path id: polyline310)
(Change tool to Default tool)

G00 Z3.000000
G00 X134.190053 Y76.183415

G00 Z4.875000 (Fast pre-penetrate)
G01 Z-0.125000 F400.0(Penetrate)
G01 X133.919469 Y78.892909 Z-0.125000 F800.000000
G01 X132.814759 Y84.498838 Z-0.125000
G01 X131.260853 Y89.833528 Z-0.125000
G01 X127.490787 Y99.870422 Z-0.125000
G01 X125.394449 Y104.518986 Z-0.125000
G01 X123.122356 Y108.615896 Z-0.125000
G01 X120.797044 Y112.029068 Z-0.125000
G01 X118.613601 Y114.722461 Z-0.125000
G01 X115.515245 Y118.200693 Z-0.125000
G01 X114.938691 Y119.262810 Z-0.125000
G01 X115.129518 Y120.127781 Z-0.125000
G01 X116.076493 Y121.012644 Z-0.125000
G01 X119.795306 Y123.690684 Z-0.125000
G01 X122.189048 Y125.841176 Z-0.125000
G01 X124.635868 Y128.686407 Z-0.125000
G01 X126.928228 Y132.247017 Z-0.125000
G01 X128.935729 Y136.441986 Z-0.125000
G01 X132.336310 Y145.792519 Z-0.125000
G01 X134.204563 Y150.384963 Z-0.125000
G01 X136.348689 Y154.724796 Z-0.125000
G01 X138.685796 Y158.749954 Z-0.125000
G01 X143.187905 Y165.838503 Z-0.125000
G01 X144.921170 Y168.983291 Z-0.125000
G01 X146.129836 Y172.410551 Z-0.125000
G00 Z3.000000

(End cutting path id: polyline310)


(Start cutting path id: polyline312)
(Change tool to Default tool)

G00 Z3.000000
G00 X133.705239 Y75.886339

G00 Z4.875000 (Fast pre-penetrate)
G01 Z-0.125000 F400.0(Penetrate)
G01 X133.444530 Y78.661688 Z-0.125000 F800.000000
G01 X132.361772 Y84.260597 Z-0.125000
G01 X130.817883 Y89.592151 Z-0.125000
G01 X127.048519 Y99.628061 Z-0.125000
G01 X124.943663 Y104.273770 Z-0.125000
G01 X122.651349 Y108.364924 Z-0.125000
G01 X120.293461 Y111.770607 Z-0.125000
G01 X118.066815 Y114.456885 Z-0.125000
G01 X114.865112 Y117.931981 Z-0.125000
G01 X114.237400 Y119.002429 Z-0.125000
G01 X114.383246 Y119.884016 Z-0.125000
G01 X115.295023 Y120.794155 Z-0.125000
G01 X118.981728 Y123.544838 Z-0.125000
G01 X121.380010 Y125.739093 Z-0.125000
G01 X123.843914 Y128.629819 Z-0.125000
G01 X126.163749 Y132.235456 Z-0.125000
G01 X128.206026 Y136.473252 Z-0.125000
G01 X131.685007 Y145.902934 Z-0.125000
G01 X133.592764 Y150.525334 Z-0.125000
G01 X135.774335 Y154.878974 Z-0.125000
G01 X138.143551 Y158.897813 Z-0.125000
G01 X142.680577 Y165.912176 Z-0.125000
G01 X144.411315 Y168.994290 Z-0.125000
G01 X145.534934 Y171.897232 Z-0.125000
G01 X145.675586 Y172.881464 Z-0.125000
G00 Z3.000000

(End cutting path id: polyline312)


(Start cutting path id: polyline314)
(Change tool to Default tool)

G00 Z3.000000
G00 X133.209004 Y75.582241

G00 Z4.875000 (Fast pre-penetrate)
G01 Z-0.125000 F400.0(Penetrate)
G01 X132.955691 Y78.446241 Z-0.125000 F800.000000
G01 X131.893199 Y84.038503 Z-0.125000
G01 X130.358578 Y89.367202 Z-0.125000
G01 X126.589916 Y99.402223 Z-0.125000
G01 X124.477243 Y104.045826 Z-0.125000
G01 X122.166441 Y108.132907 Z-0.125000
G01 X119.778644 Y111.533723 Z-0.125000
G01 X117.512448 Y114.216397 Z-0.125000
G01 X114.215822 Y117.696454 Z-0.125000
G01 X113.541023 Y118.779025 Z-0.125000
G01 X113.645400 Y119.680598 Z-0.125000
G01 X114.524553 Y120.618352 Z-0.125000
G01 X118.181022 Y123.443222 Z-0.125000
G01 X120.583048 Y125.680305 Z-0.125000
G01 X123.062210 Y128.614607 Z-0.125000
G01 X125.406806 Y132.262510 Z-0.125000
G01 X127.480630 Y136.539904 Z-0.125000
G01 X131.030849 Y146.041433 Z-0.125000
G01 X132.974366 Y150.690371 Z-0.125000
G01 X135.189778 Y155.054590 Z-0.125000
G01 X137.587919 Y159.064161 Z-0.125000
G01 X142.155884 Y165.999422 Z-0.125000
G01 X143.883860 Y169.016804 Z-0.125000
G01 X144.991004 Y171.844389 Z-0.125000
G01 X145.194656 Y173.337868 Z-0.125000
G00 Z3.000000

(End cutting path id: polyline314)


(Start cutting path id: polyline316)
(Change tool to Default tool)

G00 Z3.000000
G00 X132.699101 Y75.285633

G00 Z4.875000 (Fast pre-penetrate)
G01 Z-0.125000 F400.0(Penetrate)
G01 X132.452060 Y78.247457 Z-0.125000 F800.000000
G01 X131.408151 Y83.833634 Z-0.125000
G01 X129.881954 Y89.159618 Z-0.125000
G01 X126.113948 Y99.193938 Z-0.125000
G01 X123.994160 Y103.836136 Z-0.125000
G01 X121.666555 Y107.920784 Z-0.125000
G01 X119.251657 Y111.319305 Z-0.125000
G01 X116.949514 Y114.001652 Z-0.125000
G01 X113.566579 Y117.494534 Z-0.125000
G01 X112.848906 Y118.593066 Z-0.125000
G01 X112.915370 Y119.517667 Z-0.125000
G01 X113.764614 Y120.485330 Z-0.125000
G01 X117.392952 Y123.385698 Z-0.125000
G01 X119.797928 Y125.664578 Z-0.125000
G01 X122.290570 Y128.640490 Z-0.125000
G01 X124.657352 Y132.327851 Z-0.125000
G01 X126.759493 Y136.641519 Z-0.125000
G01 X130.373790 Y146.207874 Z-0.125000
G01 X132.349509 Y150.879841 Z-0.125000
G01 X134.595204 Y155.251502 Z-0.125000
G01 X137.019229 Y159.248950 Z-0.125000
G01 X141.614294 Y166.100382 Z-0.125000
G01 X143.339228 Y169.051113 Z-0.125000
G01 X144.431067 Y171.801608 Z-0.125000
G01 X144.693319 Y173.813602 Z-0.125000
G00 Z3.000000

(End cutting path id: polyline316)


(Start cutting path id: polyline318)
(Change tool to Default tool)

G00 Z3.000000
G00 X132.174549 Y75.000820

G00 Z4.875000 (Fast pre-penetrate)
G01 Z-0.125000 F400.0(Penetrate)
G01 X131.932891 Y78.066178 Z-0.125000 F800.000000
G01 X130.905784 Y83.646786 Z-0.125000
G01 X129.387264 Y88.970336 Z-0.125000
G01 X125.619819 Y99.004000 Z-0.125000
G01 X123.493666 Y103.645449 Z-0.125000
G01 X121.151036 Y107.729161 Z-0.125000
G01 X118.711799 Y111.127916 Z-0.125000
G01 X116.377267 Y113.813258 Z-0.125000
G01 X112.916727 Y117.326548 Z-0.125000
G01 X112.160346 Y118.444504 Z-0.125000
G01 X112.192595 Y119.395130 Z-0.125000
G01 X113.014739 Y120.394855 Z-0.125000
G01 X116.617146 Y123.371797 Z-0.125000
G01 X119.024462 Y125.691398 Z-0.125000
G01 X121.528899 Y128.706908 Z-0.125000
G01 X123.915199 Y132.431011 Z-0.125000
G01 X126.042522 Y136.777724 Z-0.125000
G01 X129.713875 Y146.401790 Z-0.125000
G01 X131.718239 Y151.093462 Z-0.125000
G01 X133.990801 Y155.469383 Z-0.125000
G01 X136.437620 Y159.451994 Z-0.125000
G01 X141.056182 Y166.215056 Z-0.125000
G01 X142.778026 Y169.097310 Z-0.125000
G01 X143.855777 Y171.769078 Z-0.125000
G01 X144.173073 Y174.307309 Z-0.125000
G00 Z3.000000

(End cutting path id: polyline318)


(Start cutting path id: polyline320)
(Change tool to Default tool)

G00 Z3.000000
G00 X131.636376 Y74.708611

G00 Z4.875000 (Fast pre-penetrate)
G01 Z-0.125000 F400.0(Penetrate)
G01 X131.397620 Y77.902872 Z-0.125000 F800.000000
G01 X130.385538 Y83.478472 Z-0.125000
G01 X128.873805 Y88.799822 Z-0.125000
G01 X125.106921 Y98.833065 Z-0.125000
G01 X122.975105 Y103.474421 Z-0.125000
G01 X120.619135 Y107.558694 Z-0.125000
G01 X118.158274 Y110.960071 Z-0.125000
G01 X115.795096 Y113.651497 Z-0.125000
G01 X112.265472 Y117.192309 Z-0.125000
G01 X111.474688 Y118.333153 Z-0.125000
G01 X111.476092 Y119.312611 Z-0.125000
G01 X112.273990 Y120.346317 Z-0.125000
G01 X115.852902 Y123.400722 Z-0.125000
G01 X118.261996 Y125.759922 Z-0.125000
G01 X120.776637 Y128.812970 Z-0.125000
G01 X123.180067 Y132.571100 Z-0.125000
G01 X125.329389 Y136.947676 Z-0.125000
G01 X129.050918 Y146.622620 Z-0.125000
G01 X131.080464 Y151.330674 Z-0.125000
G01 X133.376615 Y155.707858 Z-0.125000
G01 X135.843327 Y159.672917 Z-0.125000
G01 X140.482015 Y166.343444 Z-0.125000
G01 X142.200724 Y169.155583 Z-0.125000
G01 X143.265649 Y171.747079 Z-0.125000
G01 X143.565862 Y174.240658 Z-0.125000
G01 X143.412011 Y175.029289 Z-0.125000
G00 Z3.000000

(End cutting path id: polyline320)


(Start cutting path id: polyline322)
(Change tool to Default tool)

G00 Z3.000000
G00 X131.084068 Y74.408727

G00 Z4.875000 (Fast pre-penetrate)
G01 Z-0.125000 F400.0(Penetrate)
G01 X130.845826 Y77.757962 Z-0.125000 F800.000000
G01 X129.847037 Y83.329161 Z-0.125000
G01 X128.341248 Y88.648593 Z-0.125000
G01 X124.574833 Y98.681414 Z-0.125000
G01 X122.438102 Y103.323332 Z-0.125000
G01 X120.070478 Y107.409664 Z-0.125000
G01 X117.590707 Y110.815862 Z-0.125000
G01 X115.202441 Y113.516322 Z-0.125000
G01 X111.612390 Y117.091536 Z-0.125000
G01 X110.791323 Y118.258404 Z-0.125000
G01 X110.766095 Y119.269316 Z-0.125000
G01 X111.542556 Y120.338828 Z-0.125000
G01 X115.100452 Y123.471399 Z-0.125000
G01 X117.510856 Y125.869026 Z-0.125000
G01 X120.034110 Y128.957646 Z-0.125000
G01 X122.452284 Y132.747090 Z-0.125000
G01 X124.620750 Y137.150392 Z-0.125000
G01 X128.385761 Y146.869567 Z-0.125000
G01 X130.437071 Y151.590774 Z-0.125000
G01 X132.753630 Y155.966320 Z-0.125000
G01 X135.237473 Y159.911299 Z-0.125000
G01 X139.893105 Y166.485266 Z-0.125000
G01 X141.608818 Y169.225698 Z-0.125000
G01 X142.662229 Y171.735612 Z-0.125000
G01 X142.942923 Y174.143255 Z-0.125000
G01 X142.608309 Y175.717334 Z-0.125000
G00 Z3.000000

(End cutting path id: polyline322)


(Start cutting path id: polyline324)
(Change tool to Default tool)

G00 Z3.000000
G00 X130.517390 Y74.101072

G00 Z4.875000 (Fast pre-penetrate)
G01 Z-0.125000 F400.0(Penetrate)
G01 X130.277417 Y77.631633 Z-0.125000 F800.000000
G01 X129.290002 Y83.198948 Z-0.125000
G01 X127.789455 Y88.516647 Z-0.125000
G01 X124.023461 Y98.549328 Z-0.125000
G01 X121.882517 Y103.192275 Z-0.125000
G01 X119.504830 Y107.281978 Z-0.125000
G01 X117.008817 Y110.695291 Z-0.125000
G01 X114.598974 Y113.407546 Z-0.125000
G01 X110.956782 Y117.023480 Z-0.125000
G01 X110.109644 Y118.219368 Z-0.125000
G01 X110.061200 Y119.264167 Z-0.125000
G01 X110.819079 Y120.371124 Z-0.125000
G01 X114.358439 Y123.582329 Z-0.125000
G01 X116.769827 Y126.017260 Z-0.125000
G01 X119.300288 Y129.139440 Z-0.125000
G01 X121.730913 Y132.957623 Z-0.125000
G01 X123.915667 Y137.384608 Z-0.125000
G01 X127.717795 Y147.141603 Z-0.125000
G01 X129.787688 Y151.872919 Z-0.125000
G01 X132.121471 Y156.244065 Z-0.125000
G01 X134.619824 Y160.166578 Z-0.125000
G01 X139.289544 Y166.640240 Z-0.125000
G01 X141.002402 Y169.307562 Z-0.125000
G01 X142.045703 Y171.734723 Z-0.125000
G01 X142.309407 Y174.055260 Z-0.125000
G01 X141.746146 Y176.453636 Z-0.125000
G00 Z3.000000

(End cutting path id: polyline324)


(Start cutting path id: polyline136)
(Change tool to Default tool)

G00 Z3.000000
G00 X42.955690 Y147.736598

G00 Z4.875000 (Fast pre-penetrate)
G01 Z-0.125000 F400.0(Penetrate)
G01 X43.514598 Y148.662650 Z-0.125000 F800.000000
G01 X44.187666 Y150.779349 Z-0.125000
G01 X44.273648 Y151.483355 Z-0.125000
G00 Z3.000000

(End cutting path id: polyline136)


(Start cutting path id: polyline138)
(Change tool to Default tool)

G00 Z3.000000
G00 X42.229967 Y145.286689

G00 Z4.875000 (Fast pre-penetrate)
G01 Z-0.125000 F400.0(Penetrate)
G01 X43.832784 Y146.836101 Z-0.125000 F800.000000
G01 X44.836862 Y148.432740 Z-0.125000
G01 X45.523362 Y150.523134 Z-0.125000
G01 X45.858445 Y153.248541 Z-0.125000
G01 X45.848709 Y155.144738 Z-0.125000
G00 Z3.000000

(End cutting path id: polyline138)


(Start cutting path id: polyline140)
(Change tool to Default tool)

G00 Z3.000000
G00 X41.890250 Y143.925858

G00 Z4.875000 (Fast pre-penetrate)
G01 Z-0.125000 F400.0(Penetrate)
G01 X43.851553 Y145.402299 Z-0.125000 F800.000000
G01 X45.142597 Y146.658660 Z-0.125000
G01 X46.169189 Y148.227450 Z-0.125000
G01 X46.867578 Y150.289620 Z-0.125000
G01 X47.201303 Y152.991297 Z-0.125000
G01 X47.061120 Y157.620155 Z-0.125000
G00 Z3.000000

(End cutting path id: polyline140)


(Start cutting path id: polyline142)
(Change tool to Default tool)

G00 Z3.000000
G00 X41.601926 Y142.724915

G00 Z4.875000 (Fast pre-penetrate)
G01 Z-0.125000 F400.0(Penetrate)
G01 X45.143019 Y145.275409 Z-0.125000 F800.000000
G01 X46.461585 Y146.508039 Z-0.125000
G01 X47.508911 Y148.047810 Z-0.125000
G01 X48.217831 Y150.079743 Z-0.125000
G01 X48.549216 Y152.754881 Z-0.125000
G01 X48.498619 Y156.164917 Z-0.125000
G01 X48.164005 Y159.651386 Z-0.125000
G00 Z3.000000

(End cutting path id: polyline142)


(Start cutting path id: polyline144)
(Change tool to Default tool)

G00 Z3.000000
G00 X41.347677 Y141.595725

G00 Z4.875000 (Fast pre-penetrate)
G01 Z-0.125000 F400.0(Penetrate)
G01 X46.442862 Y145.176883 Z-0.125000 F800.000000
G01 X47.787078 Y146.385221 Z-0.125000
G01 X48.853360 Y147.894614 Z-0.125000
G01 X49.571502 Y149.894392 Z-0.125000
G01 X49.899797 Y152.540042 Z-0.125000
G01 X49.832538 Y155.927752 Z-0.125000
G01 X49.207493 Y161.392562 Z-0.125000
G00 Z3.000000

(End cutting path id: polyline144)


(Start cutting path id: polyline146)
(Change tool to Default tool)

G00 Z3.000000
G00 X41.165275 Y140.611446

G00 Z4.875000 (Fast pre-penetrate)
G01 Z-0.125000 F400.0(Penetrate)
G01 X47.748463 Y145.107563 Z-0.125000 F800.000000
G01 X49.116409 Y146.290814 Z-0.125000
G01 X50.199963 Y147.768613 Z-0.125000
G01 X50.926014 Y149.734082 Z-0.125000
G01 X51.250566 Y152.347343 Z-0.125000
G01 X51.166690 Y155.708747 Z-0.125000
G01 X50.211384 Y163.000575 Z-0.125000
G00 Z3.000000

(End cutting path id: polyline146)


(Start cutting path id: polyline148)
(Change tool to Default tool)

G00 Z3.000000
G00 X41.023641 Y139.847388

G00 Z4.875000 (Fast pre-penetrate)
G01 Z-0.125000 F400.0(Penetrate)
G01 X42.346934 Y140.582379 Z-0.125000 F800.000000
G01 X49.057059 Y145.068012 Z-0.125000
G01 X50.446864 Y146.225613 Z-0.125000
G01 X51.546098 Y147.670414 Z-0.125000
G01 X52.278842 Y149.599515 Z-0.125000
G01 X52.599134 Y152.177250 Z-0.125000
G01 X52.498876 Y155.508465 Z-0.125000
G01 X52.011394 Y159.621618 Z-0.125000
G01 X51.211296 Y164.455439 Z-0.125000
G00 Z3.000000

(End cutting path id: polyline148)


(Start cutting path id: polyline150)
(Change tool to Default tool)

G00 Z3.000000
G00 X40.913460 Y139.252767

G00 Z4.875000 (Fast pre-penetrate)
G01 Z-0.125000 F400.0(Penetrate)
G01 X43.561076 Y140.600072 Z-0.125000 F800.000000
G01 X50.366077 Y145.058698 Z-0.125000
G01 X51.775867 Y146.189947 Z-0.125000
G01 X52.889190 Y147.600440 Z-0.125000
G01 X53.627598 Y149.490973 Z-0.125000
G01 X53.943163 Y152.030140 Z-0.125000
G01 X53.826850 Y155.327046 Z-0.125000
G01 X53.312174 Y159.413941 Z-0.125000
G01 X52.170534 Y165.806535 Z-0.125000
G00 Z3.000000

(End cutting path id: polyline150)


(Start cutting path id: polyline152)
(Change tool to Default tool)

G00 Z3.000000
G00 X40.820738 Y138.752507

G00 Z4.875000 (Fast pre-penetrate)
G01 Z-0.125000 F400.0(Penetrate)
G01 X44.780508 Y140.648422 Z-0.125000 F800.000000
G01 X51.672988 Y145.080088 Z-0.125000
G01 X53.100892 Y146.184143 Z-0.125000
G01 X54.226806 Y147.559063 Z-0.125000
G01 X54.969848 Y149.408828 Z-0.125000
G01 X55.280404 Y151.906292 Z-0.125000
G01 X55.148552 Y155.164817 Z-0.125000
G01 X54.607992 Y159.220445 Z-0.125000
G01 X53.124857 Y167.050212 Z-0.125000
G00 Z3.000000

(End cutting path id: polyline152)


(Start cutting path id: polyline154)
(Change tool to Default tool)

G00 Z3.000000
G00 X40.729513 Y138.074572

G00 Z4.875000 (Fast pre-penetrate)
G01 Z-0.125000 F400.0(Penetrate)
G01 X41.530360 Y138.691660 Z-0.125000 F800.000000
G01 X46.002794 Y140.727524 Z-0.125000
G01 X52.975266 Y145.132136 Z-0.125000
G01 X54.419552 Y146.208389 Z-0.125000
G01 X55.556605 Y147.546285 Z-0.125000
G01 X56.303391 Y149.353129 Z-0.125000
G01 X56.608752 Y151.805800 Z-0.125000
G01 X56.462016 Y155.021826 Z-0.125000
G01 X55.897024 Y159.041179 Z-0.125000
G01 X54.064156 Y168.246006 Z-0.125000
G00 Z3.000000

(End cutting path id: polyline154)


(Start cutting path id: polyline346)
(Change tool to Default tool)

G00 Z3.000000
G00 X45.354347 Y103.967567

G00 Z4.875000 (Fast pre-penetrate)
G01 Z-0.125000 F400.0(Penetrate)
G01 X43.903227 Y109.430926 Z-0.125000 F800.000000
G01 X41.218447 Y117.161557 Z-0.125000
G00 Z3.000000

(End cutting path id: polyline346)


(Start cutting path id: polyline348)
(Change tool to Default tool)

G00 Z3.000000
G00 X46.645859 Y101.243891

G00 Z4.875000 (Fast pre-penetrate)
G01 Z-0.125000 F400.0(Penetrate)
G01 X45.993761 Y104.705834 Z-0.125000 F800.000000
G01 X44.632835 Y109.912089 Z-0.125000
G01 X42.953865 Y115.099762 Z-0.125000
G01 X40.535269 Y121.460669 Z-0.125000
G00 Z3.000000

(End cutting path id: polyline348)


(Start cutting path id: polyline350)
(Change tool to Default tool)

G00 Z3.000000
G00 X47.722439 Y99.221787

G00 Z4.875000 (Fast pre-penetrate)
G01 Z-0.125000 F400.0(Penetrate)
G01 X46.714149 Y105.140894 Z-0.125000 F800.000000
G01 X45.386081 Y110.374811 Z-0.125000
G01 X43.742449 Y115.573437 Z-0.125000
G01 X40.213152 Y124.815147 Z-0.125000
G00 Z3.000000

(End cutting path id: polyline350)


(Start cutting path id: polyline352)
(Change tool to Default tool)

G00 Z3.000000
G00 X48.632578 Y97.605583

G00 Z4.875000 (Fast pre-penetrate)
G01 Z-0.125000 F400.0(Penetrate)
G01 X48.350760 Y100.432746 Z-0.125000 F800.000000
G01 X47.459905 Y105.556717 Z-0.125000
G01 X46.163244 Y110.817360 Z-0.125000
G01 X44.553780 Y116.027406 Z-0.125000
G01 X42.781245 Y120.969208 Z-0.125000
G01 X40.086215 Y127.709102 Z-0.125000
G00 Z3.000000

(End cutting path id: polyline352)


(Start cutting path id: polyline354)
(Change tool to Default tool)

G00 Z3.000000
G00 X49.530734 Y96.139906

G00 Z4.875000 (Fast pre-penetrate)
G01 Z-0.125000 F400.0(Penetrate)
G01 X49.094878 Y100.791138 Z-0.125000 F800.000000
G01 X48.231311 Y105.951711 Z-0.125000
G01 X46.964560 Y111.238144 Z-0.125000
G01 X45.387719 Y116.460266 Z-0.125000
G01 X43.650429 Y121.398511 Z-0.125000
G01 X40.087806 Y130.411528 Z-0.125000
G00 Z3.000000

(End cutting path id: polyline354)


(Start cutting path id: polyline356)
(Change tool to Default tool)

G00 Z3.000000
G00 X50.353299 Y94.852934

G00 Z4.875000 (Fast pre-penetrate)
G01 Z-0.125000 F400.0(Penetrate)
G01 X49.866565 Y101.129404 Z-0.125000 F800.000000
G01 X49.028461 Y106.324332 Z-0.125000
G01 X47.789980 Y111.635712 Z-0.125000
G01 X46.244218 Y116.870566 Z-0.125000
G01 X44.540534 Y121.807641 Z-0.125000
G01 X40.194476 Y133.007190 Z-0.125000
G00 Z3.000000

(End cutting path id: polyline356)


(Start cutting path id: polyline358)
(Change tool to Default tool)

G00 Z3.000000
G00 X51.172962 Y93.660276

G00 Z4.875000 (Fast pre-penetrate)
G01 Z-0.125000 F400.0(Penetrate)
G01 X51.082767 Y96.441242 Z-0.125000 F800.000000
G01 X50.665868 Y101.446185 Z-0.125000
G01 X49.851494 Y106.673363 Z-0.125000
G01 X48.639458 Y112.008848 Z-0.125000
G01 X47.122997 Y117.257228 Z-0.125000
G01 X45.451188 Y122.195520 Z-0.125000
G01 X41.203469 Y133.342741 Z-0.125000
G01 X40.464359 Y136.060472 Z-0.125000
G00 Z3.000000

(End cutting path id: polyline358)


(Start cutting path id: polyline360)
(Change tool to Default tool)

G00 Z3.000000
G00 X52.010364 Y92.462141

G00 Z4.875000 (Fast pre-penetrate)
G01 Z-0.125000 F400.0(Penetrate)
G01 X51.889980 Y96.700967 Z-0.125000 F800.000000
G01 X51.492739 Y101.740266 Z-0.125000
G01 X50.700270 Y106.997633 Z-0.125000
G01 X49.512807 Y112.356522 Z-0.125000
G01 X48.023681 Y117.619224 Z-0.125000
G01 X46.381781 Y122.561261 Z-0.125000
G01 X42.233196 Y133.654982 Z-0.125000
G01 X41.585076 Y135.831639 Z-0.125000
G01 X41.445314 Y137.312106 Z-0.125000
G01 X41.824722 Y138.251311 Z-0.125000
G01 X42.684872 Y138.857539 Z-0.125000
G01 X45.498836 Y139.975168 Z-0.125000
G01 X47.225595 Y140.837331 Z-0.125000
G01 X54.270616 Y145.214889 Z-0.125000
G01 X55.729552 Y146.262637 Z-0.125000
G01 X56.876341 Y147.562153 Z-0.125000
G01 X57.626123 Y149.323876 Z-0.125000
G01 X57.926195 Y151.728523 Z-0.125000
G01 X57.765277 Y154.898024 Z-0.125000
G01 X57.177490 Y158.876095 Z-0.125000
G01 X55.000786 Y169.342619 Z-0.125000
G00 Z3.000000

(End cutting path id: polyline360)


(Start cutting path id: polyline362)
(Change tool to Default tool)

G00 Z3.000000
G00 X52.850669 Y91.367073

G00 Z4.875000 (Fast pre-penetrate)
G01 Z-0.125000 F400.0(Penetrate)
G01 X52.726352 Y96.940145 Z-0.125000 F800.000000
G01 X52.346945 Y102.010804 Z-0.125000
G01 X51.574415 Y107.296301 Z-0.125000
G01 X50.409559 Y112.677843 Z-0.125000
G01 X48.945755 Y117.955805 Z-0.125000
G01 X47.331611 Y122.904160 Z-0.125000
G01 X43.275561 Y133.960998 Z-0.125000
G01 X42.658801 Y136.110320 Z-0.125000
G01 X42.549276 Y137.559849 Z-0.125000
G01 X42.957141 Y138.467460 Z-0.125000
G01 X43.843409 Y139.044856 Z-0.125000
G01 X46.701464 Y140.123402 Z-0.125000
G01 X48.446665 Y140.977608 Z-0.125000
G01 X57.028788 Y146.346606 Z-0.125000
G01 X58.184048 Y147.606431 Z-0.125000
G01 X58.936077 Y149.320833 Z-0.125000
G01 X59.230953 Y151.674463 Z-0.125000
G01 X59.056742 Y154.793226 Z-0.125000
G01 X58.447799 Y158.725100 Z-0.125000
G01 X55.920614 Y170.419667 Z-0.125000
G00 Z3.000000

(End cutting path id: polyline362)


(Start cutting path id: polyline364)
(Change tool to Default tool)

G00 Z3.000000
G00 X53.700241 Y90.259835

G00 Z4.875000 (Fast pre-penetrate)
G01 Z-0.125000 F400.0(Penetrate)
G01 X53.591557 Y97.157979 Z-0.125000 F800.000000
G01 X53.228064 Y102.257049 Z-0.125000
G01 X52.473601 Y107.568664 Z-0.125000
G01 X51.329293 Y112.972252 Z-0.125000
G01 X49.888611 Y118.266361 Z-0.125000
G01 X48.300022 Y123.223797 Z-0.125000
G01 X44.329253 Y134.260368 Z-0.125000
G01 X43.741419 Y136.389751 Z-0.125000
G01 X43.659790 Y137.815689 Z-0.125000
G01 X44.093773 Y138.698727 Z-0.125000
G01 X45.003959 Y139.253235 Z-0.125000
G01 X47.902126 Y140.300141 Z-0.125000
G01 X49.663803 Y141.147934 Z-0.125000
G01 X58.315338 Y146.459923 Z-0.125000
G01 X59.477901 Y147.678699 Z-0.125000
G01 X60.231567 Y149.343675 Z-0.125000
G01 X60.521342 Y151.643150 Z-0.125000
G01 X60.334774 Y154.707244 Z-0.125000
G01 X59.706500 Y158.587959 Z-0.125000
G01 X56.841986 Y171.394585 Z-0.125000
G00 Z3.000000

(End cutting path id: polyline364)


(Start cutting path id: polyline366)
(Change tool to Default tool)

G00 Z3.000000
G00 X54.572607 Y89.218641

G00 Z4.875000 (Fast pre-penetrate)
G01 Z-0.125000 F400.0(Penetrate)
G01 X54.484893 Y97.353955 Z-0.125000 F800.000000
G01 X54.135534 Y102.478487 Z-0.125000
G01 X53.397126 Y107.814254 Z-0.125000
G01 X52.271307 Y113.239279 Z-0.125000
G01 X50.851546 Y118.550660 Z-0.125000
G01 X49.286080 Y123.519703 Z-0.125000
G01 X45.392961 Y134.552811 Z-0.125000
G01 X44.831432 Y136.669462 Z-0.125000
G01 X44.775172 Y138.079159 Z-0.125000
G01 X45.232932 Y138.944551 Z-0.125000
G01 X46.164695 Y139.482069 Z-0.125000
G01 X49.098857 Y140.504916 Z-0.125000
G01 X50.875183 Y141.347654 Z-0.125000
G01 X59.587567 Y146.601979 Z-0.125000
G01 X60.756307 Y147.778395 Z-0.125000
G01 X61.511097 Y149.391838 Z-0.125000
G01 X61.795957 Y151.634163 Z-0.125000
G01 X61.598156 Y154.639656 Z-0.125000
G01 X60.952423 Y158.464438 Z-0.125000
G01 X57.747631 Y172.348955 Z-0.125000
G00 Z3.000000

(End cutting path id: polyline366)


(Start cutting path id: polyline368)
(Change tool to Default tool)

G00 Z3.000000
G00 X55.468610 Y88.169536

G00 Z4.875000 (Fast pre-penetrate)
G01 Z-0.125000 F400.0(Penetrate)
G01 X55.405516 Y97.527745 Z-0.125000 F800.000000
G01 X55.068561 Y102.674884 Z-0.125000
G01 X54.344335 Y108.033024 Z-0.125000
G01 X53.234804 Y113.478971 Z-0.125000
G01 X51.833672 Y118.808560 Z-0.125000
G01 X50.288894 Y123.791972 Z-0.125000
G01 X46.465329 Y134.837998 Z-0.125000
G01 X45.927437 Y136.949127 Z-0.125000
G01 X45.893877 Y138.349930 Z-0.125000
G01 X46.372841 Y139.204370 Z-0.125000
G01 X47.323841 Y139.730701 Z-0.125000
G01 X50.289830 Y140.736839 Z-0.125000
G01 X52.078982 Y141.575926 Z-0.125000
G01 X60.844021 Y146.771930 Z-0.125000
G01 X62.017910 Y147.904771 Z-0.125000
G01 X62.773403 Y149.464574 Z-0.125000
G01 X63.053723 Y151.646847 Z-0.125000
G01 X62.845718 Y154.589855 Z-0.125000
G01 X62.184445 Y158.354117 Z-0.125000
G01 X58.646302 Y173.247767 Z-0.125000
G00 Z3.000000

(End cutting path id: polyline368)


(Start cutting path id: polyline370)
(Change tool to Default tool)

G00 Z3.000000
G00 X56.360588 Y87.172619

G00 Z4.875000 (Fast pre-penetrate)
G01 Z-0.125000 F400.0(Penetrate)
G01 X56.352491 Y97.679255 Z-0.125000 F800.000000
G01 X56.026161 Y102.846381 Z-0.125000
G01 X55.314151 Y108.225068 Z-0.125000
G01 X54.218895 Y113.691470 Z-0.125000
G01 X52.834006 Y119.040389 Z-0.125000
G01 X51.307341 Y124.040792 Z-0.125000
G01 X47.545139 Y135.115838 Z-0.125000
G01 X47.028028 Y137.228511 Z-0.125000
G01 X47.014455 Y138.627395 Z-0.125000
G01 X47.512047 Y139.477482 Z-0.125000
G01 X48.479944 Y139.998337 Z-0.125000
G01 X51.473549 Y140.994926 Z-0.125000
G01 X53.273793 Y141.831720 Z-0.125000
G01 X57.007116 Y144.121272 Z-0.125000
G01 X62.083626 Y146.968749 Z-0.125000
G01 X63.261681 Y148.056703 Z-0.125000
G01 X64.017547 Y149.560994 Z-0.125000
G01 X64.293702 Y151.680407 Z-0.125000
G01 X64.076710 Y154.557325 Z-0.125000
G01 X63.401817 Y158.256480 Z-0.125000
G01 X59.546799 Y174.102300 Z-0.125000
G00 Z3.000000

(End cutting path id: polyline370)


(Start cutting path id: polyline372)
(Change tool to Default tool)

G00 Z3.000000
G00 X57.252800 Y86.232478

G00 Z4.875000 (Fast pre-penetrate)
G01 Z-0.125000 F400.0(Penetrate)
G01 X57.388771 Y92.812764 Z-0.125000 F800.000000
G01 X57.324553 Y97.808720 Z-0.125000
G01 X57.007116 Y102.993210 Z-0.125000
G01 X56.305544 Y108.390854 Z-0.125000
G01 X55.222412 Y113.877335 Z-0.125000
G01 X53.851470 Y119.246568 Z-0.125000
G01 X52.340439 Y124.266583 Z-0.125000
G01 X48.631080 Y135.386281 Z-0.125000
G01 X48.131943 Y137.507239 Z-0.125000
G01 X48.135687 Y138.911038 Z-0.125000
G01 X48.649287 Y139.763138 Z-0.125000
G01 X49.631647 Y140.283946 Z-0.125000
G01 X52.648889 Y141.277867 Z-0.125000
G01 X54.458448 Y142.113678 Z-0.125000
G01 X58.208059 Y144.402153 Z-0.125000
G01 X63.305631 Y147.191076 Z-0.125000
G01 X64.487056 Y148.233067 Z-0.125000
G01 X65.243063 Y149.679974 Z-0.125000
G01 X65.515473 Y151.733859 Z-0.125000
G01 X65.290712 Y154.541130 Z-0.125000
G01 X64.604071 Y158.170966 Z-0.125000
G01 X60.444861 Y174.954493 Z-0.125000
G00 Z3.000000

(End cutting path id: polyline372)


(Start cutting path id: polyline374)
(Change tool to Default tool)

G00 Z3.000000
G00 X58.166121 Y85.270010

G00 Z4.875000 (Fast pre-penetrate)
G01 Z-0.125000 F400.0(Penetrate)
G01 X58.328538 Y87.930264 Z-0.125000 F800.000000
G01 X58.320159 Y97.916748 Z-0.125000
G01 X58.010118 Y103.116216 Z-0.125000
G01 X57.317158 Y108.531178 Z-0.125000
G01 X56.244135 Y114.037411 Z-0.125000
G01 X54.884848 Y119.428034 Z-0.125000
G01 X53.386876 Y124.470141 Z-0.125000
G01 X49.721982 Y135.649424 Z-0.125000
G01 X49.237964 Y137.785125 Z-0.125000
G01 X49.256124 Y139.200298 Z-0.125000
G01 X49.783204 Y140.060542 Z-0.125000
G01 X50.777687 Y140.586405 Z-0.125000
G01 X53.814493 Y141.584164 Z-0.125000
G01 X55.631775 Y142.420302 Z-0.125000
G01 X59.394727 Y144.707982 Z-0.125000
G01 X64.509336 Y147.437556 Z-0.125000
G01 X65.693429 Y148.432460 Z-0.125000
G01 X66.449342 Y149.820158 Z-0.125000
G01 X66.718522 Y151.806034 Z-0.125000
G01 X66.487161 Y154.540428 Z-0.125000
G01 X65.790832 Y158.096872 Z-0.125000
G01 X61.344047 Y175.731375 Z-0.125000
G00 Z3.000000

(End cutting path id: polyline374)


(Start cutting path id: polyline376)
(Change tool to Default tool)

G00 Z3.000000
G00 X59.105280 Y84.376628

G00 Z4.875000 (Fast pre-penetrate)
G01 Z-0.125000 F400.0(Penetrate)
G01 X59.334441 Y87.997711 Z-0.125000 F800.000000
G01 X59.337717 Y98.004134 Z-0.125000
G01 X59.033573 Y103.216334 Z-0.125000
G01 X58.347494 Y108.647256 Z-0.125000
G01 X57.282615 Y114.172914 Z-0.125000
G01 X55.932783 Y119.586004 Z-0.125000
G01 X54.445436 Y124.652543 Z-0.125000
G01 X50.816863 Y135.905498 Z-0.125000
G01 X50.345201 Y138.061981 Z-0.125000
G01 X50.375157 Y139.494660 Z-0.125000
G01 X50.913190 Y140.368617 Z-0.125000
G01 X51.917455 Y140.904450 Z-0.125000
G01 X54.970128 Y141.912179 Z-0.125000
G01 X56.793495 Y142.749722 Z-0.125000
G01 X60.567071 Y145.036887 Z-0.125000
G01 X65.695114 Y147.706314 Z-0.125000
G01 X66.881173 Y148.653102 Z-0.125000
G01 X67.636899 Y149.980046 Z-0.125000
G01 X67.903411 Y151.895526 Z-0.125000
G01 X67.666667 Y154.553955 Z-0.125000
G01 X66.962381 Y158.033263 Z-0.125000
G01 X62.232562 Y176.490144 Z-0.125000
G00 Z3.000000

(End cutting path id: polyline376)


(Start cutting path id: polyline378)
(Change tool to Default tool)

G00 Z3.000000
G00 X60.063675 Y83.467192

G00 Z4.875000 (Fast pre-penetrate)
G01 Z-0.125000 F400.0(Penetrate)
G01 X60.362717 Y88.050649 Z-0.125000 F800.000000
G01 X60.375121 Y98.072096 Z-0.125000
G01 X60.075470 Y103.295061 Z-0.125000
G01 X59.394727 Y108.740681 Z-0.125000
G01 X58.336167 Y114.285482 Z-0.125000
G01 X56.993730 Y119.721975 Z-0.125000
G01 X55.514667 Y124.815193 Z-0.125000
G01 X51.914506 Y136.154832 Z-0.125000
G01 X51.452533 Y138.337714 Z-0.125000
G01 X51.491709 Y139.793421 Z-0.125000
G01 X52.038307 Y140.686382 Z-0.125000
G01 X53.050248 Y141.236678 Z-0.125000
G01 X56.115185 Y142.259993 Z-0.125000
G01 X57.943279 Y143.100016 Z-0.125000
G01 X61.724953 Y145.386900 Z-0.125000
G01 X66.863152 Y147.995434 Z-0.125000
G01 X68.050662 Y148.893216 Z-0.125000
G01 X68.806201 Y150.157861 Z-0.125000
G01 X69.070467 Y152.000839 Z-0.125000
G01 X68.829510 Y154.580494 Z-0.125000
G01 X68.119045 Y157.979343 Z-0.125000
G01 X64.215208 Y172.608540 Z-0.125000
G01 X63.111013 Y177.231080 Z-0.125000
G00 Z3.000000

(End cutting path id: polyline378)


(Start cutting path id: polyline380)
(Change tool to Default tool)

G00 Z3.000000
G00 X61.006578 Y82.616871

G00 Z4.875000 (Fast pre-penetrate)
G01 Z-0.125000 F400.0(Penetrate)
G01 X61.410980 Y88.090106 Z-0.125000 F800.000000
G01 X61.430311 Y98.122319 Z-0.125000
G01 X61.133936 Y103.354177 Z-0.125000
G01 X60.457078 Y108.813417 Z-0.125000
G01 X59.403199 Y114.377221 Z-0.125000
G01 X58.066191 Y119.837959 Z-0.125000
G01 X53.014208 Y136.397942 Z-0.125000
G01 X52.559396 Y138.612230 Z-0.125000
G01 X52.605453 Y140.096067 Z-0.125000
G01 X53.158370 Y141.012665 Z-0.125000
G01 X54.176021 Y141.581309 Z-0.125000
G01 X57.249945 Y142.625312 Z-0.125000
G01 X59.081502 Y143.468752 Z-0.125000
G01 X64.734799 Y146.766220 Z-0.125000
G01 X68.014528 Y148.302620 Z-0.125000
G01 X69.203021 Y149.150601 Z-0.125000
G01 X69.958279 Y150.351637 Z-0.125000
G01 X70.220953 Y152.120194 Z-0.125000
G01 X69.976814 Y154.618641 Z-0.125000
G01 X69.261809 Y157.933988 Z-0.125000
G01 X65.338734 Y172.344415 Z-0.125000
G01 X63.991945 Y177.907002 Z-0.125000
G00 Z3.000000

(End cutting path id: polyline380)


(Start cutting path id: polyline382)
(Change tool to Default tool)

G00 Z3.000000
G00 X61.942600 Y81.817428

G00 Z4.875000 (Fast pre-penetrate)
G01 Z-0.125000 F400.0(Penetrate)
G01 X62.476467 Y88.117487 Z-0.125000 F800.000000
G01 X62.500712 Y98.156815 Z-0.125000
G01 X62.206538 Y103.396068 Z-0.125000
G01 X61.532347 Y108.867946 Z-0.125000
G01 X60.481651 Y114.450613 Z-0.125000
G01 X59.148388 Y119.936392 Z-0.125000
G01 X54.115174 Y136.635481 Z-0.125000
G01 X53.665277 Y138.885482 Z-0.125000
G01 X53.716108 Y140.401850 Z-0.125000
G01 X54.273377 Y141.346156 Z-0.125000
G01 X55.294867 Y141.936752 Z-0.125000
G01 X58.374922 Y143.005749 Z-0.125000
G01 X60.208867 Y143.853496 Z-0.125000
G01 X65.867968 Y147.143615 Z-0.125000
G01 X69.150645 Y148.625393 Z-0.125000
G01 X70.339793 Y149.422823 Z-0.125000
G01 X71.094864 Y150.559174 Z-0.125000
G01 X71.356274 Y152.251672 Z-0.125000
G01 X71.110029 Y154.666757 Z-0.125000
G01 X70.391888 Y157.895982 Z-0.125000
G01 X66.455755 Y172.078090 Z-0.125000
G01 X64.892722 Y178.598230 Z-0.125000
G00 Z3.000000

(End cutting path id: polyline382)


(Start cutting path id: polyline384)
(Change tool to Default tool)

G00 Z3.000000
G00 X62.888545 Y81.009466

G00 Z4.875000 (Fast pre-penetrate)
G01 Z-0.125000 F400.0(Penetrate)
G01 X63.208977 Y83.171847 Z-0.125000 F800.000000
G01 X63.555996 Y88.134618 Z-0.125000
G01 X63.583658 Y98.178018 Z-0.125000
G01 X63.290841 Y103.423356 Z-0.125000
G01 X62.618241 Y108.907122 Z-0.125000
G01 X61.569464 Y114.508558 Z-0.125000
G01 X60.238448 Y120.020081 Z-0.125000
G01 X55.216748 Y136.868246 Z-0.125000
G01 X54.769893 Y139.157705 Z-0.125000
G01 X54.823579 Y140.710159 Z-0.125000
G01 X55.383517 Y141.685545 Z-0.125000
G01 X56.407394 Y142.300901 Z-0.125000
G01 X59.491193 Y143.398637 Z-0.125000
G01 X61.326495 Y144.251298 Z-0.125000
G01 X66.989107 Y147.534256 Z-0.125000
G01 X70.273516 Y148.960944 Z-0.125000
G01 X71.463038 Y149.707262 Z-0.125000
G01 X72.217969 Y150.777898 Z-0.125000
G01 X72.478677 Y152.393072 Z-0.125000
G01 X72.231028 Y154.723064 Z-0.125000
G01 X71.511014 Y157.864014 Z-0.125000
G01 X67.566971 Y171.809940 Z-0.125000
G01 X65.796308 Y179.273778 Z-0.125000
G00 Z3.000000

(End cutting path id: polyline384)


(Start cutting path id: polyline386)
(Change tool to Default tool)

G00 Z3.000000
G00 X63.851106 Y80.260995

G00 Z4.875000 (Fast pre-penetrate)
G01 Z-0.125000 F400.0(Penetrate)
G01 X64.293234 Y83.185280 Z-0.125000 F800.000000
G01 X64.646290 Y88.143699 Z-0.125000
G01 X64.717715 Y93.145506 Z-0.125000
G01 X64.676152 Y98.188830 Z-0.125000
G01 X64.383990 Y103.439410 Z-0.125000
G01 X63.712140 Y108.934410 Z-0.125000
G01 X62.664345 Y114.554568 Z-0.125000
G01 X61.334452 Y120.092302 Z-0.125000
G01 X57.208241 Y133.946208 Z-0.125000
G01 X56.318510 Y137.097314 Z-0.125000
G01 X55.873153 Y139.428944 Z-0.125000
G01 X55.928290 Y141.020294 Z-0.125000
G01 X56.489585 Y142.029381 Z-0.125000
G01 X57.514632 Y142.671743 Z-0.125000
G01 X60.600303 Y143.800886 Z-0.125000
G01 X62.436307 Y144.659023 Z-0.125000
G01 X68.100604 Y147.934914 Z-0.125000
G01 X71.385855 Y149.306277 Z-0.125000
G01 X72.575565 Y150.001015 Z-0.125000
G01 X73.330402 Y151.005233 Z-0.125000
G01 X73.590736 Y152.542008 Z-0.125000
G01 X73.342431 Y154.785597 Z-0.125000
G01 X72.621435 Y157.836726 Z-0.125000
G01 X68.673460 Y171.540432 Z-0.125000
G01 X66.703264 Y179.897138 Z-0.125000
G00 Z3.000000

(End cutting path id: polyline386)


(Start cutting path id: polyline388)
(Change tool to Default tool)

G00 Z3.000000
G00 X64.818394 Y79.518749

G00 Z4.875000 (Fast pre-penetrate)
G01 Z-0.125000 F400.0(Penetrate)
G01 X65.384979 Y83.193986 Z-0.125000 F800.000000
G01 X65.743651 Y88.147303 Z-0.125000
G01 X65.816247 Y93.148455 Z-0.125000
G01 X65.774871 Y98.192715 Z-0.125000
G01 X65.482850 Y103.447788 Z-0.125000
G01 X64.811327 Y108.953787 Z-0.125000
G01 X63.763813 Y114.592528 Z-0.125000
G01 X62.434342 Y120.156941 Z-0.125000
G01 X58.309441 Y134.127767 Z-0.125000
G01 X57.420178 Y137.323854 Z-0.125000
G01 X56.975382 Y139.699482 Z-0.125000
G01 X57.030987 Y141.331600 Z-0.125000
G01 X57.592657 Y142.376071 Z-0.125000
G01 X58.618125 Y143.046892 Z-0.125000
G01 X61.704405 Y144.209313 Z-0.125000
G01 X63.540596 Y145.073302 Z-0.125000
G01 X69.205454 Y148.342124 Z-0.125000
G01 X72.490987 Y149.657929 Z-0.125000
G01 X73.680697 Y150.300853 Z-0.125000
G01 X74.435487 Y151.238186 Z-0.125000
G01 X74.695727 Y152.695952 Z-0.125000
G01 X74.447188 Y154.852201 Z-0.125000
G01 X73.725911 Y157.812340 Z-0.125000
G01 X69.776672 Y171.270035 Z-0.125000
G01 X68.373762 Y176.800560 Z-0.125000
G01 X67.605164 Y180.517034 Z-0.125000
G00 Z3.000000

(End cutting path id: polyline388)


(Start cutting path id: polyline390)
(Change tool to Default tool)

G00 Z3.000000
G00 X65.787368 Y78.792323

G00 Z4.875000 (Fast pre-penetrate)
G01 Z-0.125000 F400.0(Penetrate)
G01 X66.479906 Y83.200586 Z-0.125000 F800.000000
G01 X66.844009 Y88.148520 Z-0.125000
G01 X66.917634 Y93.148689 Z-0.125000
G01 X66.876211 Y98.193511 Z-0.125000
G01 X66.584283 Y103.452937 Z-0.125000
G01 X65.912714 Y108.969655 Z-0.125000
G01 X64.865247 Y114.627071 Z-0.125000
G01 X63.535775 Y120.218210 Z-0.125000
G01 X59.411015 Y134.307455 Z-0.125000
G01 X58.521799 Y137.549317 Z-0.125000
G01 X58.077003 Y139.969738 Z-0.125000
G01 X58.132655 Y141.643420 Z-0.125000
G01 X58.694418 Y142.724025 Z-0.125000
G01 X59.719886 Y143.423912 Z-0.125000
G01 X62.806167 Y144.620409 Z-0.125000
G01 X64.642452 Y145.490341 Z-0.125000
G01 X68.437793 Y147.778910 Z-0.125000
G01 X70.307310 Y148.752237 Z-0.125000
G01 X73.592842 Y150.012295 Z-0.125000
G01 X74.782599 Y150.603265 Z-0.125000
G01 X75.537389 Y151.473572 Z-0.125000
G01 X75.797582 Y152.851956 Z-0.125000
G01 X75.549043 Y154.920538 Z-0.125000
G01 X74.827719 Y157.789312 Z-0.125000
G01 X70.878387 Y170.999216 Z-0.125000
G01 X69.475477 Y176.470018 Z-0.125000
G01 X68.506878 Y181.117271 Z-0.125000
G00 Z3.000000

(End cutting path id: polyline390)


(Start cutting path id: polyline392)
(Change tool to Default tool)

G00 Z3.000000
G00 X66.738228 Y78.138774

G00 Z4.875000 (Fast pre-penetrate)
G01 Z-0.125000 F400.0(Penetrate)
G01 X67.575302 Y83.206952 Z-0.125000 F800.000000
G01 X67.944647 Y88.149503 Z-0.125000
G01 X68.019209 Y93.148689 Z-0.125000
G01 X67.977739 Y98.194072 Z-0.125000
G01 X67.685717 Y103.457711 Z-0.125000
G01 X67.014054 Y108.985194 Z-0.125000
G01 X65.966541 Y114.661192 Z-0.125000
G01 X64.636975 Y120.279104 Z-0.125000
G01 X60.512215 Y134.487002 Z-0.125000
G01 X59.623045 Y137.774641 Z-0.125000
G01 X59.178297 Y140.240089 Z-0.125000
G01 X59.233996 Y141.955474 Z-0.125000
G01 X59.795805 Y143.072494 Z-0.125000
G01 X60.821367 Y143.801682 Z-0.125000
G01 X65.743979 Y145.908832 Z-0.125000
