%
(Header)
(Generated by gcodetools from Inkscape.)
(Using default header. To add your own header create file "header" in the output dir.)
M3
(Header end.)
G21 (All units in mm)

(Start cutting path id: polyline31137)
(Change tool to Default tool)

G00 Z3.000000
G00 X12.157131 Y53.526668

G00 Z4.875000 (Fast pre-penetrate)
G01 Z-0.125000 F400.0(Penetrate)
G01 X14.749754 Y53.776196 Z-0.125000 F800.000000
G01 X20.034773 Y54.609871 Z-0.125000
G01 X22.527700 Y54.923402 Z-0.125000
G01 X25.490739 Y55.145413 Z-0.125000
G01 X28.681689 Y55.220528 Z-0.125000
G01 X31.644701 Y55.148244 Z-0.125000
G01 X34.194620 Y54.938615 Z-0.125000
G01 X36.587826 Y54.569072 Z-0.125000
G01 X40.975379 Y53.639328 Z-0.125000
G01 X42.129252 Y53.506745 Z-0.125000
G01 X43.154935 Y53.510661 Z-0.125000
G01 X44.066635 Y53.639275 Z-0.125000
G01 X45.063795 Y53.929231 Z-0.125000
G01 X46.160677 Y54.417043 Z-0.125000
G01 X48.853047 Y55.877276 Z-0.125000
G01 X49.750513 Y56.195887 Z-0.125000
G01 X50.548257 Y56.302064 Z-0.125000
G01 X51.445696 Y56.174641 Z-0.125000
G01 X52.398565 Y55.742709 Z-0.125000
G01 X53.320372 Y55.080670 Z-0.125000
G01 X54.995633 Y53.600963 Z-0.125000
G01 X55.334669 Y53.405092 Z-0.125000
G01 X58.924479 Y53.360483 Z-0.125000
G01 X59.223643 Y53.447849 Z-0.125000
G01 X59.513731 Y53.673961 Z-0.125000
G01 X61.471804 Y55.800336 Z-0.125000
G01 X62.414593 Y56.668380 Z-0.125000
G01 X63.312058 Y57.201911 Z-0.125000
G01 X64.109776 Y57.366455 Z-0.125000
G01 X64.907520 Y57.220855 Z-0.125000
G01 X65.765087 Y56.746405 Z-0.125000
G01 X66.838421 Y55.796235 Z-0.125000
G01 X68.723971 Y53.731535 Z-0.125000
G01 X69.195352 Y53.461766 Z-0.125000
G01 X69.822150 Y53.335639 Z-0.125000
G01 X78.169902 Y53.366542 Z-0.125000
G01 X79.964833 Y54.048346 Z-0.125000
G01 X81.161436 Y54.402279 Z-0.125000
G01 X82.358039 Y54.623629 Z-0.125000
G01 X83.611633 Y54.706470 Z-0.125000
G01 X84.850967 Y54.637096 Z-0.125000
G01 X86.047570 Y54.429240 Z-0.125000
G01 X87.343894 Y54.055993 Z-0.125000
G01 X88.739940 Y53.504364 Z-0.125000
G01 X89.537684 Y53.358579 Z-0.125000
G01 X98.113348 Y53.311906 Z-0.125000
G01 X98.392563 Y53.397261 Z-0.125000
G01 X98.711650 Y53.637740 Z-0.125000
G01 X100.705997 Y55.688629 Z-0.125000
G01 X101.858283 Y56.682561 Z-0.125000
G01 X102.800066 Y57.199927 Z-0.125000
G01 X103.697531 Y57.366244 Z-0.125000
G01 X104.495249 Y57.225538 Z-0.125000
G01 X105.403801 Y56.756512 Z-0.125000
G01 X106.435198 Y55.915905 Z-0.125000
G01 X108.603614 Y53.803131 Z-0.125000
G01 X109.181966 Y53.459305 Z-0.125000
G01 X109.680547 Y53.331485 Z-0.125000
G01 X113.469799 Y53.358579 Z-0.125000
G01 X115.951666 Y55.058471 Z-0.125000
G01 X117.059634 Y55.700297 Z-0.125000
G01 X118.256237 Y56.144849 Z-0.125000
G01 X119.509832 Y56.302276 Z-0.125000
G01 X120.450001 Y56.234225 Z-0.125000
G01 X121.546909 Y56.002001 Z-0.125000
G01 X125.535577 Y54.661994 Z-0.125000
G01 X127.430203 Y54.148412 Z-0.125000
G01 X129.424550 Y53.796807 Z-0.125000
G01 X131.703801 Y53.590327 Z-0.125000
G01 X136.946089 Y53.492034 Z-0.125000
G01 X168.513699 Y53.564715 Z-0.125000
G00 Z3.000000

(End cutting path id: polyline31137)


(Start cutting path id: polyline31135)
(Change tool to Default tool)

G00 Z3.000000
G00 X12.157131 Y54.916575

G00 Z4.875000 (Fast pre-penetrate)
G01 Z-0.125000 F400.0(Penetrate)
G01 X14.094488 Y54.815875 Z-0.125000 F800.000000
G01 X16.031844 Y54.874242 Z-0.125000
G01 X24.322631 Y55.843516 Z-0.125000
G01 X26.744333 Y56.009277 Z-0.125000
G01 X29.023583 Y56.057563 Z-0.125000
G01 X32.998017 Y55.865688 Z-0.125000
G01 X39.479639 Y54.916126 Z-0.125000
G01 X40.647746 Y54.822172 Z-0.125000
G01 X41.673402 Y54.834687 Z-0.125000
G01 X42.770311 Y54.979096 Z-0.125000
G01 X43.867192 Y55.279054 Z-0.125000
G01 X45.063795 Y55.775782 Z-0.125000
G01 X47.955608 Y57.236280 Z-0.125000
G01 X48.853047 Y57.527401 Z-0.125000
G01 X49.750513 Y57.624556 Z-0.125000
G01 X50.548257 Y57.511262 Z-0.125000
G01 X51.423550 Y57.159075 Z-0.125000
G01 X52.363085 Y56.546777 Z-0.125000
G01 X54.277660 Y54.957321 Z-0.125000
G01 X55.057677 Y54.399739 Z-0.125000
G01 X55.932971 Y53.990059 Z-0.125000
G01 X56.730715 Y53.887586 Z-0.125000
G01 X57.628154 Y54.119360 Z-0.125000
G01 X58.505670 Y54.681308 Z-0.125000
G01 X59.368687 Y55.480957 Z-0.125000
G01 X61.181715 Y57.397623 Z-0.125000
G01 X62.060052 Y58.135519 Z-0.125000
G01 X62.813452 Y58.540146 Z-0.125000
G01 X63.611196 Y58.688682 Z-0.125000
G01 X64.508661 Y58.496198 Z-0.125000
G01 X65.428273 Y57.942585 Z-0.125000
G01 X66.475810 Y56.991091 Z-0.125000
G01 X69.195352 Y54.155688 Z-0.125000
G01 X69.948779 Y53.576198 Z-0.125000
G01 X70.491677 Y53.336221 Z-0.125000
G01 X75.178394 Y53.372496 Z-0.125000
G01 X78.169902 Y54.777246 Z-0.125000
G01 X79.865112 Y55.425951 Z-0.125000
G01 X81.560295 Y55.835975 Z-0.125000
G01 X83.269739 Y55.973876 Z-0.125000
G01 X84.950688 Y55.832721 Z-0.125000
G01 X86.645871 Y55.420553 Z-0.125000
G01 X88.241360 Y54.815584 Z-0.125000
G01 X91.232867 Y53.435625 Z-0.125000
G01 X92.044846 Y53.353155 Z-0.125000
G01 X95.691647 Y53.339105 Z-0.125000
G01 X96.418165 Y53.486346 Z-0.125000
G01 X97.036416 Y53.850306 Z-0.125000
G01 X98.167747 Y54.892393 Z-0.125000
G01 X100.415908 Y57.230883 Z-0.125000
G01 X101.344198 Y58.015504 Z-0.125000
G01 X102.212850 Y58.503924 Z-0.125000
G01 X103.099203 Y58.689291 Z-0.125000
G01 X103.896947 Y58.562476 Z-0.125000
G01 X104.774463 Y58.118638 Z-0.125000
G01 X105.710003 Y57.363571 Z-0.125000
G01 X107.668075 Y55.410261 Z-0.125000
G01 X108.523843 Y54.676678 Z-0.125000
G01 X109.481104 Y54.111793 Z-0.125000
G01 X110.378570 Y53.890999 Z-0.125000
G01 X111.276035 Y53.980931 Z-0.125000
G01 X112.228878 Y54.374789 Z-0.125000
G01 X113.026622 Y54.875803 Z-0.125000
G01 X115.242558 Y56.501057 Z-0.125000
G01 X116.361611 Y57.143438 Z-0.125000
G01 X117.358772 Y57.496895 Z-0.125000
G01 X118.370193 Y57.625165 Z-0.125000
G01 X119.253398 Y57.562300 Z-0.125000
G01 X120.350279 Y57.304384 Z-0.125000
G01 X124.039836 Y55.895956 Z-0.125000
G01 X125.735020 Y55.370600 Z-0.125000
G01 X127.430203 Y55.032780 Z-0.125000
G01 X129.196639 Y54.859611 Z-0.125000
G01 X131.703801 Y54.820426 Z-0.125000
G01 X141.504590 Y55.037252 Z-0.125000
G01 X168.513699 Y54.910834 Z-0.125000
G00 Z3.000000

(End cutting path id: polyline31135)


(Start cutting path id: polyline31133)
(Change tool to Default tool)

G00 Z3.000000
G00 X12.157131 Y56.776118

G00 Z4.875000 (Fast pre-penetrate)
G01 Z-0.125000 F400.0(Penetrate)
G01 X14.650059 Y56.327306 Z-0.125000 F800.000000
G01 X17.057500 Y56.144479 Z-0.125000
G01 X19.450732 Y56.192633 Z-0.125000
G01 X25.718651 Y56.709707 Z-0.125000
G01 X29.137539 Y56.827870 Z-0.125000
G01 X32.556401 Y56.701955 Z-0.125000
G01 X38.140584 Y56.173345 Z-0.125000
G01 X40.077940 Y56.162603 Z-0.125000
G01 X41.374265 Y56.320665 Z-0.125000
G01 X42.570868 Y56.619326 Z-0.125000
G01 X43.966914 Y57.153466 Z-0.125000
G01 X47.058143 Y58.590549 Z-0.125000
G01 X48.055303 Y58.875425 Z-0.125000
G01 X48.952769 Y58.945487 Z-0.125000
G01 X49.750513 Y58.826213 Z-0.125000
G01 X50.625806 Y58.487705 Z-0.125000
G01 X51.600821 Y57.881757 Z-0.125000
G01 X54.348568 Y55.760648 Z-0.125000
G01 X55.234948 Y55.337712 Z-0.125000
G01 X56.132414 Y55.210739 Z-0.125000
G01 X57.007707 Y55.421400 Z-0.125000
G01 X57.947268 Y55.999858 Z-0.125000
G01 X58.715987 Y56.684810 Z-0.125000
G01 X60.674087 Y58.710193 Z-0.125000
G01 X61.537077 Y59.428536 Z-0.125000
G01 X62.314872 Y59.851419 Z-0.125000
G01 X63.112616 Y60.011941 Z-0.125000
G01 X63.611196 Y59.963364 Z-0.125000
G01 X64.098717 Y59.810038 Z-0.125000
G01 X65.126913 Y59.174960 Z-0.125000
G01 X66.040676 Y58.344698 Z-0.125000
G01 X68.433883 Y55.850527 Z-0.125000
G01 X69.682873 Y54.830798 Z-0.125000
G01 X70.890562 Y54.223262 Z-0.125000
G01 X72.101400 Y54.010379 Z-0.125000
G01 X73.084326 Y54.095548 Z-0.125000
G01 X74.181234 Y54.397543 Z-0.125000
G01 X78.070207 Y56.099658 Z-0.125000
G01 X79.665669 Y56.669941 Z-0.125000
G01 X81.261157 Y57.030752 Z-0.125000
G01 X82.813889 Y57.154154 Z-0.125000
G01 X84.551803 Y57.017947 Z-0.125000
G01 X86.346734 Y56.582919 Z-0.125000
G01 X87.942196 Y55.979987 Z-0.125000
G01 X90.933703 Y54.628021 Z-0.125000
G01 X92.130333 Y54.212097 Z-0.125000
G01 X93.326936 Y54.013686 Z-0.125000
G01 X94.324096 Y54.088801 Z-0.125000
G01 X95.476382 Y54.502450 Z-0.125000
G01 X96.628667 Y55.275509 Z-0.125000
G01 X97.660091 Y56.221658 Z-0.125000
G01 X99.835731 Y58.499532 Z-0.125000
G01 X100.794632 Y59.322200 Z-0.125000
G01 X101.703184 Y59.835994 Z-0.125000
G01 X102.500902 Y60.010089 Z-0.125000
G01 X103.298646 Y59.900155 Z-0.125000
G01 X104.162853 Y59.473303 Z-0.125000
G01 X105.093551 Y58.722232 Z-0.125000
G01 X107.015376 Y56.775668 Z-0.125000
G01 X107.885642 Y56.009806 Z-0.125000
G01 X108.882802 Y55.415262 Z-0.125000
G01 X109.780268 Y55.210474 Z-0.125000
G01 X110.578012 Y55.302708 Z-0.125000
G01 X111.519769 Y55.704583 Z-0.125000
G01 X112.317513 Y56.225970 Z-0.125000
G01 X114.356178 Y57.784523 Z-0.125000
G01 X115.464146 Y58.457834 Z-0.125000
G01 X116.461333 Y58.828223 Z-0.125000
G01 X117.358772 Y58.947127 Z-0.125000
G01 X118.256237 Y58.876722 Z-0.125000
G01 X119.253398 Y58.619229 Z-0.125000
G01 X122.743512 Y57.145423 Z-0.125000
G01 X124.239253 Y56.632555 Z-0.125000
G01 X125.735020 Y56.306324 Z-0.125000
G01 X127.373238 Y56.151781 Z-0.125000
G01 X129.538533 Y56.178742 Z-0.125000
G01 X136.262301 Y56.692695 Z-0.125000
G01 X141.048740 Y56.867796 Z-0.125000
G01 X168.513699 Y56.811757 Z-0.125000
G00 Z3.000000

(End cutting path id: polyline31133)


(Start cutting path id: polyline31131)
(Change tool to Default tool)

G00 Z3.000000
G00 X12.157131 Y58.905746

G00 Z4.875000 (Fast pre-penetrate)
G01 Z-0.125000 F400.0(Penetrate)
G01 X16.145800 Y57.909194 Z-0.125000 F800.000000
G01 X17.741288 Y57.656676 Z-0.125000
G01 X19.450732 Y57.504859 Z-0.125000
G01 X21.957894 Y57.468055 Z-0.125000
G01 X29.479433 Y57.700386 Z-0.125000
G01 X36.089246 Y57.474114 Z-0.125000
G01 X37.912646 Y57.477739 Z-0.125000
G01 X39.579360 Y57.627281 Z-0.125000
G01 X41.075101 Y57.937055 Z-0.125000
G01 X42.670589 Y58.471195 Z-0.125000
G01 X46.260398 Y59.975508 Z-0.125000
G01 X47.257585 Y60.216993 Z-0.125000
G01 X48.155024 Y60.266100 Z-0.125000
G01 X49.152211 Y60.091369 Z-0.125000
G01 X50.271265 Y59.595832 Z-0.125000
G01 X51.246253 Y58.949164 Z-0.125000
G01 X53.284918 Y57.383680 Z-0.125000
G01 X54.138066 Y56.872902 Z-0.125000
G01 X54.935810 Y56.589243 Z-0.125000
G01 X55.633833 Y56.536538 Z-0.125000
G01 X56.531272 Y56.762068 Z-0.125000
G01 X57.450884 Y57.318989 Z-0.125000
G01 X58.425898 Y58.183329 Z-0.125000
G01 X60.260702 Y60.039723 Z-0.125000
G01 X61.173672 Y60.777830 Z-0.125000
G01 X62.115429 Y61.236855 Z-0.125000
G01 X62.913173 Y61.330729 Z-0.125000
G01 X63.411753 Y61.247756 Z-0.125000
G01 X63.910360 Y61.058129 Z-0.125000
G01 X64.887571 Y60.423818 Z-0.125000
G01 X65.823110 Y59.571781 Z-0.125000
G01 X68.078521 Y57.255992 Z-0.125000
G01 X69.416967 Y56.170249 Z-0.125000
G01 X70.691120 Y55.542235 Z-0.125000
G01 X71.289421 Y55.393672 Z-0.125000
G01 X71.987444 Y55.332685 Z-0.125000
G01 X72.884909 Y55.409282 Z-0.125000
G01 X73.981791 Y55.689687 Z-0.125000
G01 X77.870764 Y57.288139 Z-0.125000
G01 X79.466226 Y57.822332 Z-0.125000
G01 X80.961993 Y58.139699 Z-0.125000
G01 X82.471995 Y58.254237 Z-0.125000
G01 X84.152944 Y58.129804 Z-0.125000
G01 X85.848127 Y57.744253 Z-0.125000
G01 X87.343894 Y57.217204 Z-0.125000
G01 X90.335402 Y55.938104 Z-0.125000
G01 X91.631726 Y55.509109 Z-0.125000
G01 X92.728634 Y55.338241 Z-0.125000
G01 X93.725795 Y55.403646 Z-0.125000
G01 X94.922398 Y55.818698 Z-0.125000
G01 X96.079128 Y56.583501 Z-0.125000
G01 X97.079914 Y57.492582 Z-0.125000
G01 X99.349851 Y59.857954 Z-0.125000
G01 X100.351456 Y60.705731 Z-0.125000
G01 X101.204577 Y61.171873 Z-0.125000
G01 X102.002322 Y61.334116 Z-0.125000
G01 X102.800066 Y61.208412 Z-0.125000
G01 X103.631042 Y60.783968 Z-0.125000
G01 X104.535148 Y60.045041 Z-0.125000
G01 X106.529495 Y58.006693 Z-0.125000
G01 X107.353804 Y57.284593 Z-0.125000
G01 X108.284501 Y56.731562 Z-0.125000
G01 X109.181966 Y56.532463 Z-0.125000
G01 X109.979711 Y56.641498 Z-0.125000
G01 X110.899322 Y57.059777 Z-0.125000
G01 X113.647069 Y59.145802 Z-0.125000
G01 X114.666402 Y59.784506 Z-0.125000
G01 X115.563867 Y60.138015 Z-0.125000
G01 X116.361611 Y60.265915 Z-0.125000
G01 X117.259050 Y60.209082 Z-0.125000
G01 X118.256237 Y59.940742 Z-0.125000
G01 X121.646604 Y58.392217 Z-0.125000
G01 X123.042650 Y57.883239 Z-0.125000
G01 X124.338974 Y57.591060 Z-0.125000
G01 X125.777750 Y57.464430 Z-0.125000
G01 X128.128226 Y57.583096 Z-0.125000
G01 X135.208150 Y58.468787 Z-0.125000
G01 X140.023084 Y58.755648 Z-0.125000
G01 X146.632896 Y58.855370 Z-0.125000
G01 X168.513699 Y58.887358 Z-0.125000
G00 Z3.000000

(End cutting path id: polyline31131)


(Start cutting path id: polyline31129)
(Change tool to Default tool)

G00 Z3.000000
G00 X12.157131 Y61.007673

G00 Z4.875000 (Fast pre-penetrate)
G01 Z-0.125000 F400.0(Penetrate)
G01 X17.741288 Y59.522436 Z-0.125000 F800.000000
G01 X19.536193 Y59.174430 Z-0.125000
G01 X21.231376 Y58.957155 Z-0.125000
G01 X24.692995 Y58.789436 Z-0.125000
G01 X34.721696 Y58.792769 Z-0.125000
G01 X37.285849 Y58.928156 Z-0.125000
G01 X39.379918 Y59.259494 Z-0.125000
G01 X41.274543 Y59.796200 Z-0.125000
G01 X45.362959 Y61.323532 Z-0.125000
G01 X46.459841 Y61.553905 Z-0.125000
G01 X47.457002 Y61.580363 Z-0.125000
G01 X48.354467 Y61.421190 Z-0.125000
G01 X49.251933 Y61.078158 Z-0.125000
G01 X50.359900 Y60.428686 Z-0.125000
G01 X53.284918 Y58.358827 Z-0.125000
G01 X54.237788 Y57.957719 Z-0.125000
G01 X55.035532 Y57.854055 Z-0.125000
G01 X56.032692 Y58.065298 Z-0.125000
G01 X56.989980 Y58.613805 Z-0.125000
G01 X57.845721 Y59.332677 Z-0.125000
G01 X59.876342 Y61.334565 Z-0.125000
G01 X60.907766 Y62.140829 Z-0.125000
G01 X61.816291 Y62.561463 Z-0.125000
G01 X62.614036 Y62.654782 Z-0.125000
G01 X63.511475 Y62.440681 Z-0.125000
G01 X64.541893 Y61.823568 Z-0.125000
G01 X65.605543 Y60.888293 Z-0.125000
G01 X67.926227 Y58.562370 Z-0.125000
G01 X69.328332 Y57.465012 Z-0.125000
G01 X70.591398 Y56.866473 Z-0.125000
G01 X71.289421 Y56.704786 Z-0.125000
G01 X71.987444 Y56.655521 Z-0.125000
G01 X72.884909 Y56.734393 Z-0.125000
G01 X73.981791 Y57.000272 Z-0.125000
G01 X77.571600 Y58.361552 Z-0.125000
G01 X79.167089 Y58.867884 Z-0.125000
G01 X80.662829 Y59.172287 Z-0.125000
G01 X82.130101 Y59.282327 Z-0.125000
G01 X83.754085 Y59.176203 Z-0.125000
G01 X85.449268 Y58.818884 Z-0.125000
G01 X86.945035 Y58.326018 Z-0.125000
G01 X89.936543 Y57.149259 Z-0.125000
G01 X91.033425 Y56.820409 Z-0.125000
G01 X92.158802 Y56.659860 Z-0.125000
G01 X93.227215 Y56.742913 Z-0.125000
G01 X94.224375 Y57.075414 Z-0.125000
G01 X95.201612 Y57.654586 Z-0.125000
G01 X96.318444 Y58.595470 Z-0.125000
G01 X98.675402 Y61.031962 Z-0.125000
G01 X99.509394 Y61.785230 Z-0.125000
G01 X100.528727 Y62.430891 Z-0.125000
G01 X101.404020 Y62.654332 Z-0.125000
G01 X102.201764 Y62.556013 Z-0.125000
G01 X103.099203 Y62.111381 Z-0.125000
G01 X104.041992 Y61.332846 Z-0.125000
G01 X106.000091 Y59.304605 Z-0.125000
G01 X106.768811 Y58.623277 Z-0.125000
G01 X107.686199 Y58.062891 Z-0.125000
G01 X108.583665 Y57.855034 Z-0.125000
G01 X109.381409 Y57.966530 Z-0.125000
G01 X110.278848 Y58.384306 Z-0.125000
G01 X113.026622 Y60.526449 Z-0.125000
G01 X113.913002 Y61.095753 Z-0.125000
G01 X114.766123 Y61.451273 Z-0.125000
G01 X115.563867 Y61.588697 Z-0.125000
G01 X116.461333 Y61.524774 Z-0.125000
G01 X117.458493 Y61.229764 Z-0.125000
G01 X120.549722 Y59.710370 Z-0.125000
G01 X121.846047 Y59.196999 Z-0.125000
G01 X123.042650 Y58.903365 Z-0.125000
G01 X124.296244 Y58.786261 Z-0.125000
G01 X126.532764 Y58.947206 Z-0.125000
G01 X131.020039 Y59.762016 Z-0.125000
G01 X133.413245 Y60.111504 Z-0.125000
G01 X138.313640 Y60.492080 Z-0.125000
G01 X147.316685 Y60.661149 Z-0.125000
G01 X168.513699 Y60.716261 Z-0.125000
G00 Z3.000000

(End cutting path id: polyline31129)


(Start cutting path id: polyline31127)
(Change tool to Default tool)

G00 Z3.000000
G00 X12.157131 Y62.820993

G00 Z4.875000 (Fast pre-penetrate)
G01 Z-0.125000 F400.0(Penetrate)
G01 X14.251174 Y62.463832 Z-0.125000 F800.000000
G01 X19.436471 Y61.127741 Z-0.125000
G01 X22.228563 Y60.591405 Z-0.125000
G01 X25.718651 Y60.259274 Z-0.125000
G01 X30.277151 Y60.166167 Z-0.125000
G01 X34.379802 Y60.271815 Z-0.125000
G01 X37.285849 Y60.583679 Z-0.125000
G01 X39.878498 Y61.174387 Z-0.125000
G01 X44.565215 Y62.696744 Z-0.125000
G01 X45.662097 Y62.887403 Z-0.125000
G01 X46.758979 Y62.893488 Z-0.125000
G01 X47.855887 Y62.670709 Z-0.125000
G01 X48.941683 Y62.213431 Z-0.125000
G01 X49.916697 Y61.629337 Z-0.125000
G01 X52.043998 Y60.130607 Z-0.125000
G01 X53.041184 Y59.557758 Z-0.125000
G01 X53.838902 Y59.267537 Z-0.125000
G01 X54.636646 Y59.178002 Z-0.125000
G01 X55.633833 Y59.385700 Z-0.125000
G01 X56.653166 Y59.954791 Z-0.125000
G01 X57.628154 Y60.762458 Z-0.125000
G01 X59.702273 Y62.745534 Z-0.125000
G01 X60.641834 Y63.454060 Z-0.125000
G01 X61.616849 Y63.891945 Z-0.125000
G01 X62.514314 Y63.970394 Z-0.125000
G01 X63.411753 Y63.729438 Z-0.125000
G01 X64.453258 Y63.096820 Z-0.125000
G01 X65.366228 Y62.315031 Z-0.125000
G01 X67.839206 Y59.905844 Z-0.125000
G01 X69.239670 Y58.830869 Z-0.125000
G01 X70.591398 Y58.197669 Z-0.125000
G01 X71.289421 Y58.036009 Z-0.125000
G01 X72.101400 Y57.978304 Z-0.125000
G01 X72.984604 Y58.051831 Z-0.125000
G01 X73.981791 Y58.266302 Z-0.125000
G01 X77.571600 Y59.475182 Z-0.125000
G01 X79.067368 Y59.898038 Z-0.125000
G01 X80.463413 Y60.154022 Z-0.125000
G01 X81.902189 Y60.251045 Z-0.125000
G01 X83.454921 Y60.155504 Z-0.125000
G01 X85.050409 Y59.849249 Z-0.125000
G01 X86.446429 Y59.436262 Z-0.125000
G01 X89.338241 Y58.415950 Z-0.125000
G01 X90.435123 Y58.121681 Z-0.125000
G01 X91.588996 Y57.979785 Z-0.125000
G01 X92.628913 Y58.068129 Z-0.125000
G01 X93.614988 Y58.386396 Z-0.125000
G01 X94.678638 Y59.004833 Z-0.125000
G01 X95.919585 Y60.052714 Z-0.125000
G01 X98.095224 Y62.291059 Z-0.125000
G01 X98.950992 Y63.069066 Z-0.125000
G01 X99.908253 Y63.698905 Z-0.125000
G01 X100.406860 Y63.891575 Z-0.125000
G01 X100.905440 Y63.976771 Z-0.125000
G01 X101.703184 Y63.878584 Z-0.125000
G01 X102.567391 Y63.454431 Z-0.125000
G01 X103.498089 Y62.690924 Z-0.125000
G01 X105.347392 Y60.762193 Z-0.125000
G01 X106.210382 Y59.972439 Z-0.125000
G01 X107.187619 Y59.371412 Z-0.125000
G01 X108.085085 Y59.176865 Z-0.125000
G01 X108.882802 Y59.307145 Z-0.125000
G01 X109.747036 Y59.732039 Z-0.125000
G01 X112.352967 Y61.818964 Z-0.125000
G01 X113.292528 Y62.439252 Z-0.125000
G01 X114.068100 Y62.769796 Z-0.125000
G01 X114.865844 Y62.912247 Z-0.125000
G01 X115.763310 Y62.838693 Z-0.125000
G01 X116.660749 Y62.557918 Z-0.125000
G01 X119.652283 Y61.007329 Z-0.125000
G01 X120.848886 Y60.505309 Z-0.125000
G01 X121.945768 Y60.219348 Z-0.125000
G01 X123.156632 Y60.106794 Z-0.125000
G01 X124.139558 Y60.151800 Z-0.125000
G01 X125.236440 Y60.308751 Z-0.125000
G01 X129.324829 Y61.224314 Z-0.125000
G01 X131.418898 Y61.602244 Z-0.125000
G01 X133.612688 Y61.860847 Z-0.125000
G01 X136.034389 Y62.016025 Z-0.125000
G01 X142.530246 Y62.119583 Z-0.125000
G01 X168.513699 Y62.079737 Z-0.125000
G00 Z3.000000

(End cutting path id: polyline31127)


(Start cutting path id: polyline31125)
(Change tool to Default tool)

G00 Z3.000000
G00 X12.157131 Y64.216298

G00 Z4.875000 (Fast pre-penetrate)
G01 Z-0.125000 F400.0(Penetrate)
G01 X13.852315 Y64.211747 Z-0.125000 F800.000000
G01 X15.647219 Y63.997143 Z-0.125000
G01 X21.630261 Y62.622397 Z-0.125000
G01 X24.422326 Y62.133791 Z-0.125000
G01 X27.314139 Y61.857170 Z-0.125000
G01 X30.391133 Y61.769857 Z-0.125000
G01 X33.582084 Y61.875479 Z-0.125000
G01 X36.288689 Y62.173135 Z-0.125000
G01 X38.781616 Y62.682166 Z-0.125000
G01 X43.667750 Y64.042916 Z-0.125000
G01 X44.864353 Y64.218388 Z-0.125000
G01 X45.961261 Y64.216536 Z-0.125000
G01 X47.058143 Y64.018204 Z-0.125000
G01 X48.055303 Y63.653212 Z-0.125000
G01 X49.207615 Y63.032421 Z-0.125000
G01 X52.343162 Y61.012092 Z-0.125000
G01 X53.340322 Y60.616514 Z-0.125000
G01 X54.237788 Y60.499568 Z-0.125000
G01 X55.234948 Y60.680463 Z-0.125000
G01 X56.298598 Y61.230849 Z-0.125000
G01 X57.229295 Y61.959378 Z-0.125000
G01 X59.542730 Y64.095436 Z-0.125000
G01 X60.553199 Y64.822325 Z-0.125000
G01 X61.517127 Y65.224782 Z-0.125000
G01 X62.414593 Y65.291933 Z-0.125000
G01 X63.312058 Y65.057063 Z-0.125000
G01 X64.364623 Y64.441775 Z-0.125000
G01 X65.286456 Y63.680834 Z-0.125000
G01 X67.918978 Y61.199178 Z-0.125000
G01 X69.328332 Y60.158838 Z-0.125000
G01 X70.691120 Y59.537756 Z-0.125000
G01 X71.389142 Y59.373159 Z-0.125000
G01 X72.215382 Y59.301510 Z-0.125000
G01 X73.084326 Y59.349346 Z-0.125000
G01 X74.181234 Y59.546857 Z-0.125000
G01 X79.067368 Y60.895093 Z-0.125000
G01 X80.363692 Y61.098663 Z-0.125000
G01 X81.674251 Y61.175683 Z-0.125000
G01 X83.155783 Y61.097367 Z-0.125000
G01 X84.651524 Y60.847680 Z-0.125000
G01 X88.640219 Y59.693780 Z-0.125000
G01 X89.936543 Y59.396495 Z-0.125000
G01 X91.019190 Y59.300927 Z-0.125000
G01 X92.030612 Y59.399802 Z-0.125000
G01 X93.227215 Y59.807948 Z-0.125000
G01 X94.483640 Y60.602967 Z-0.125000
G01 X95.556974 Y61.545332 Z-0.125000
G01 X97.913932 Y63.919726 Z-0.125000
G01 X98.844603 Y64.680932 Z-0.125000
G01 X99.708837 Y65.144534 Z-0.125000
G01 X100.506554 Y65.303257 Z-0.125000
G01 X101.304299 Y65.176125 Z-0.125000
G01 X102.124215 Y64.755650 Z-0.125000
G01 X103.099203 Y63.943486 Z-0.125000
G01 X105.057303 Y61.900350 Z-0.125000
G01 X105.846977 Y61.204708 Z-0.125000
G01 X106.788760 Y60.658080 Z-0.125000
G01 X107.586478 Y60.500441 Z-0.125000
G01 X108.384222 Y60.634135 Z-0.125000
G01 X109.215198 Y61.047652 Z-0.125000
G01 X111.794565 Y63.145768 Z-0.125000
G01 X112.672054 Y63.741106 Z-0.125000
G01 X113.469799 Y64.094351 Z-0.125000
G01 X114.267543 Y64.237041 Z-0.125000
G01 X115.065287 Y64.171583 Z-0.125000
G01 X115.962726 Y63.887421 Z-0.125000
G01 X118.876684 Y62.309395 Z-0.125000
G01 X119.951421 Y61.833251 Z-0.125000
G01 X120.948607 Y61.550544 Z-0.125000
G01 X122.016994 Y61.431958 Z-0.125000
G01 X123.042650 Y61.478313 Z-0.125000
G01 X124.039836 Y61.639047 Z-0.125000
G01 X127.928810 Y62.646262 Z-0.125000
G01 X129.823436 Y63.037289 Z-0.125000
G01 X131.718062 Y63.282928 Z-0.125000
G01 X133.755139 Y63.410378 Z-0.125000
G01 X137.629851 Y63.430036 Z-0.125000
G01 X157.459342 Y63.071764 Z-0.125000
G01 X168.513699 Y63.047026 Z-0.125000
G00 Z3.000000

(End cutting path id: polyline31125)


(Start cutting path id: polyline31123)
(Change tool to Default tool)

G00 Z3.000000
G00 X12.157131 Y65.214410

G00 Z4.875000 (Fast pre-penetrate)
G01 Z-0.125000 F400.0(Penetrate)
G01 X14.350895 Y65.535641 Z-0.125000 F800.000000
G01 X16.544685 Y65.501774 Z-0.125000
G01 X18.539032 Y65.222269 Z-0.125000
G01 X23.126002 Y64.268923 Z-0.125000
G01 X25.519234 Y63.872049 Z-0.125000
G01 X28.225839 Y63.604423 Z-0.125000
G01 X31.074895 Y63.529361 Z-0.125000
G01 X33.468101 Y63.628182 Z-0.125000
G01 X35.690387 Y63.868239 Z-0.125000
G01 X37.983872 Y64.280697 Z-0.125000
G01 X42.770311 Y65.390226 Z-0.125000
G01 X44.066635 Y65.547468 Z-0.125000
G01 X45.163517 Y65.540668 Z-0.125000
G01 X46.360120 Y65.343421 Z-0.125000
G01 X47.457002 Y64.969010 Z-0.125000
G01 X48.764412 Y64.299006 Z-0.125000
G01 X51.955362 Y62.341251 Z-0.125000
G01 X53.041184 Y61.932840 Z-0.125000
G01 X54.038345 Y61.825420 Z-0.125000
G01 X55.135227 Y62.059046 Z-0.125000
G01 X56.209963 Y62.637319 Z-0.125000
G01 X57.149523 Y63.369341 Z-0.125000
G01 X59.383186 Y65.376124 Z-0.125000
G01 X60.464563 Y66.138387 Z-0.125000
G01 X61.417432 Y66.534812 Z-0.125000
G01 X62.314872 Y66.620934 Z-0.125000
G01 X63.312058 Y66.382571 Z-0.125000
G01 X64.364623 Y65.792101 Z-0.125000
G01 X65.366228 Y64.993695 Z-0.125000
G01 X67.998749 Y62.591837 Z-0.125000
G01 X69.505602 Y61.508767 Z-0.125000
G01 X70.292261 Y61.110120 Z-0.125000
G01 X71.089978 Y60.831408 Z-0.125000
G01 X71.887723 Y60.673796 Z-0.125000
G01 X72.671232 Y60.624557 Z-0.125000
G01 X74.480371 Y60.813337 Z-0.125000
G01 X79.067368 Y61.856402 Z-0.125000
G01 X81.446339 Y62.077197 Z-0.125000
G01 X82.756898 Y62.029254 Z-0.125000
G01 X84.152944 Y61.847962 Z-0.125000
G01 X89.338241 Y60.687686 Z-0.125000
G01 X90.534845 Y60.629478 Z-0.125000
G01 X91.532031 Y60.759256 Z-0.125000
G01 X92.728634 Y61.186187 Z-0.125000
G01 X93.969555 Y61.967183 Z-0.125000
G01 X95.121841 Y62.962703 Z-0.125000
G01 X97.370002 Y65.189963 Z-0.125000
G01 X98.312791 Y65.961275 Z-0.125000
G01 X99.210257 Y66.451997 Z-0.125000
G01 X100.007974 Y66.624638 Z-0.125000
G01 X100.805718 Y66.517349 Z-0.125000
G01 X101.681012 Y66.082401 Z-0.125000
G01 X102.591574 Y65.334954 Z-0.125000
G01 X104.549647 Y63.292876 Z-0.125000
G01 X105.332892 Y62.585752 Z-0.125000
G01 X106.201518 Y62.041240 Z-0.125000
G01 X107.087898 Y61.823779 Z-0.125000
G01 X107.885642 Y61.939905 Z-0.125000
G01 X108.772022 Y62.378001 Z-0.125000
G01 X111.342498 Y64.498317 Z-0.125000
G01 X112.228878 Y65.099925 Z-0.125000
G01 X112.971218 Y65.424542 Z-0.125000
G01 X113.768963 Y65.561252 Z-0.125000
G01 X114.566707 Y65.480740 Z-0.125000
G01 X115.364425 Y65.214754 Z-0.125000
G01 X118.167602 Y63.641253 Z-0.125000
G01 X119.253398 Y63.139762 Z-0.125000
G01 X120.150863 Y62.874385 Z-0.125000
G01 X121.105294 Y62.756672 Z-0.125000
G01 X122.045489 Y62.793608 Z-0.125000
G01 X123.142371 Y62.986013 Z-0.125000
G01 X126.732207 Y64.027941 Z-0.125000
G01 X128.427390 Y64.417645 Z-0.125000
G01 X130.122573 Y64.654976 Z-0.125000
G01 X131.931739 Y64.758693 Z-0.125000
G01 X134.552883 Y64.729509 Z-0.125000
G01 X143.783840 Y64.284719 Z-0.125000
G01 X152.558947 Y64.003890 Z-0.125000
G01 X160.536336 Y63.876599 Z-0.125000
G01 X168.513699 Y63.877658 Z-0.125000
G00 Z3.000000

(End cutting path id: polyline31123)


(Start cutting path id: polyline31121)
(Change tool to Default tool)

G00 Z3.000000
G00 X12.157131 Y65.942093

G00 Z4.875000 (Fast pre-penetrate)
G01 Z-0.125000 F400.0(Penetrate)
G01 X13.652872 Y66.403499 Z-0.125000 F800.000000
G01 X15.048918 Y66.704304 Z-0.125000
G01 X16.373738 Y66.856360 Z-0.125000
G01 X17.741288 Y66.879484 Z-0.125000
G01 X20.134494 Y66.658769 Z-0.125000
G01 X24.821211 Y65.863036 Z-0.125000
G01 X27.114696 Y65.556093 Z-0.125000
G01 X29.593389 Y65.371970 Z-0.125000
G01 X32.100551 Y65.356227 Z-0.125000
G01 X33.995177 Y65.462325 Z-0.125000
G01 X35.989525 Y65.686215 Z-0.125000
G01 X42.271704 Y66.791034 Z-0.125000
G01 X44.365772 Y66.865541 Z-0.125000
G01 X45.662097 Y66.675782 Z-0.125000
G01 X46.858700 Y66.303037 Z-0.125000
G01 X48.232600 Y65.651740 Z-0.125000
G01 X51.744860 Y63.621806 Z-0.125000
G01 X52.841742 Y63.242500 Z-0.125000
G01 X53.838902 Y63.148784 Z-0.125000
G01 X54.935810 Y63.370796 Z-0.125000
G01 X56.032692 Y63.928907 Z-0.125000
G01 X57.069752 Y64.704771 Z-0.125000
G01 X59.312278 Y66.659219 Z-0.125000
G01 X60.464563 Y67.453497 Z-0.125000
G01 X61.417432 Y67.846297 Z-0.125000
G01 X62.414593 Y67.942288 Z-0.125000
G01 X63.411753 Y67.707973 Z-0.125000
G01 X64.541893 Y67.090198 Z-0.125000
G01 X65.685315 Y66.197125 Z-0.125000
G01 X68.317863 Y63.886839 Z-0.125000
G01 X69.860144 Y62.834354 Z-0.125000
G01 X70.691120 Y62.435416 Z-0.125000
G01 X71.488864 Y62.169298 Z-0.125000
G01 X72.286608 Y62.011395 Z-0.125000
G01 X73.241038 Y61.947392 Z-0.125000
G01 X74.978952 Y62.087807 Z-0.125000
G01 X79.266810 Y62.836735 Z-0.125000
G01 X81.332383 Y62.982335 Z-0.125000
G01 X83.853806 Y62.814854 Z-0.125000
G01 X88.640219 Y61.988958 Z-0.125000
G01 X89.879552 Y61.957976 Z-0.125000
G01 X90.933703 Y62.105481 Z-0.125000
G01 X92.230028 Y62.573369 Z-0.125000
G01 X93.526352 Y63.386645 Z-0.125000
G01 X94.563412 Y64.259795 Z-0.125000
G01 X96.956644 Y66.560556 Z-0.125000
G01 X97.958250 Y67.348167 Z-0.125000
G01 X98.811371 Y67.788750 Z-0.125000
G01 X99.609115 Y67.948294 Z-0.125000
G01 X100.506554 Y67.801159 Z-0.125000
G01 X101.326471 Y67.369571 Z-0.125000
G01 X102.301486 Y66.554709 Z-0.125000
G01 X104.187036 Y64.592667 Z-0.125000
G01 X104.960598 Y63.899115 Z-0.125000
G01 X105.891295 Y63.331955 Z-0.125000
G01 X106.689039 Y63.148123 Z-0.125000
G01 X107.486783 Y63.261761 Z-0.125000
G01 X108.328819 Y63.673506 Z-0.125000
G01 X109.082245 Y64.231273 Z-0.125000
G01 X110.917049 Y65.820888 Z-0.125000
G01 X111.785701 Y66.418951 Z-0.125000
G01 X112.572359 Y66.762644 Z-0.125000
G01 X113.370077 Y66.885411 Z-0.125000
G01 X114.167821 Y66.784234 Z-0.125000
G01 X114.965566 Y66.493722 Z-0.125000
G01 X117.657936 Y64.929428 Z-0.125000
G01 X118.655096 Y64.455877 Z-0.125000
G01 X119.552562 Y64.185394 Z-0.125000
G01 X120.450001 Y64.078159 Z-0.125000
G01 X121.347466 Y64.122662 Z-0.125000
G01 X122.344627 Y64.313479 Z-0.125000
G01 X125.735020 Y65.384511 Z-0.125000
G01 X127.230787 Y65.762573 Z-0.125000
G01 X128.726527 Y65.993660 Z-0.125000
G01 X130.336250 Y66.087217 Z-0.125000
G01 X132.957395 Y66.003053 Z-0.125000
G01 X141.618546 Y65.330483 Z-0.125000
G01 X147.886491 Y65.053200 Z-0.125000
G01 X157.117448 Y64.863547 Z-0.125000
G01 X168.513699 Y64.838279 Z-0.125000
G00 Z3.000000

(End cutting path id: polyline31121)


(Start cutting path id: polyline31119)
(Change tool to Default tool)

G00 Z3.000000
G00 X12.157131 Y66.562593

G00 Z4.875000 (Fast pre-penetrate)
G01 Z-0.125000 F400.0(Penetrate)
G01 X14.051757 Y67.287074 Z-0.125000 F800.000000
G01 X15.547498 Y67.741522 Z-0.125000
G01 X16.943544 Y68.031690 Z-0.125000
G01 X18.425050 Y68.186604 Z-0.125000
G01 X20.932238 Y68.137603 Z-0.125000
G01 X27.712998 Y67.313321 Z-0.125000
G01 X31.530745 Y67.129330 Z-0.125000
G01 X34.792921 Y67.276332 Z-0.125000
G01 X41.174822 Y68.108287 Z-0.125000
G01 X43.496803 Y68.194726 Z-0.125000
G01 X44.964074 Y68.014625 Z-0.125000
G01 X46.360120 Y67.619073 Z-0.125000
G01 X47.855887 Y66.952827 Z-0.125000
G01 X51.545417 Y64.936651 Z-0.125000
G01 X52.642299 Y64.571632 Z-0.125000
G01 X53.739207 Y64.472731 Z-0.125000
G01 X54.836089 Y64.687890 Z-0.125000
G01 X56.032692 Y65.278175 Z-0.125000
G01 X57.069752 Y66.031443 Z-0.125000
G01 X59.400913 Y67.994543 Z-0.125000
G01 X60.553199 Y68.764770 Z-0.125000
G01 X61.517127 Y69.158047 Z-0.125000
G01 X62.514314 Y69.269674 Z-0.125000
G01 X63.611196 Y69.034989 Z-0.125000
G01 X64.807799 Y68.405414 Z-0.125000
G01 X65.844859 Y67.633387 Z-0.125000
G01 X68.636950 Y65.284551 Z-0.125000
G01 X70.391982 Y64.144675 Z-0.125000
G01 X71.289421 Y63.746054 Z-0.125000
G01 X72.186887 Y63.475888 Z-0.125000
G01 X73.084326 Y63.323489 Z-0.125000
G01 X74.038782 Y63.270360 Z-0.125000
G01 X75.577253 Y63.353307 Z-0.125000
G01 X79.466226 Y63.829451 Z-0.125000
G01 X81.218401 Y63.919991 Z-0.125000
G01 X83.454921 Y63.823286 Z-0.125000
G01 X88.056152 Y63.283404 Z-0.125000
G01 X89.309746 Y63.299676 Z-0.125000
G01 X90.335402 Y63.462950 Z-0.125000
G01 X91.631726 Y63.921393 Z-0.125000
G01 X92.994540 Y64.742659 Z-0.125000
G01 X94.164553 Y65.700317 Z-0.125000
G01 X96.477987 Y67.859473 Z-0.125000
G01 X97.426411 Y68.600623 Z-0.125000
G01 X98.312791 Y69.076899 Z-0.125000
G01 X99.210257 Y69.271076 Z-0.125000
G01 X100.107696 Y69.132752 Z-0.125000
G01 X100.971903 Y68.686877 Z-0.125000
G01 X101.902600 Y67.919692 Z-0.125000
G01 X103.751903 Y66.007577 Z-0.125000
G01 X104.614920 Y65.227349 Z-0.125000
G01 X105.492436 Y64.682175 Z-0.125000
G01 X106.389875 Y64.468948 Z-0.125000
G01 X107.187619 Y64.594122 Z-0.125000
G01 X108.062913 Y65.038621 Z-0.125000
G01 X110.597962 Y67.164863 Z-0.125000
G01 X111.431134 Y67.741549 Z-0.125000
G01 X112.173474 Y68.074315 Z-0.125000
G01 X112.971218 Y68.207929 Z-0.125000
G01 X113.768963 Y68.110483 Z-0.125000
G01 X114.566707 Y67.816029 Z-0.125000
G01 X117.192587 Y66.250809 Z-0.125000
G01 X118.156516 Y65.779110 Z-0.125000
G01 X119.053982 Y65.501880 Z-0.125000
G01 X119.851699 Y65.402000 Z-0.125000
G01 X120.749165 Y65.445127 Z-0.125000
G01 X121.646604 Y65.623482 Z-0.125000
G01 X124.937276 Y66.730101 Z-0.125000
G01 X126.333321 Y67.108190 Z-0.125000
G01 X127.729367 Y67.334355 Z-0.125000
G01 X129.082683 Y67.411561 Z-0.125000
G01 X131.418898 Y67.304378 Z-0.125000
G01 X139.111384 Y66.494172 Z-0.125000
G01 X144.467602 Y66.206835 Z-0.125000
G01 X152.103097 Y66.071554 Z-0.125000
G01 X168.513699 Y66.062981 Z-0.125000
G00 Z3.000000

(End cutting path id: polyline31119)


(Start cutting path id: polyline31117)
(Change tool to Default tool)

G00 Z3.000000
G00 X12.157131 Y67.216642

G00 Z4.875000 (Fast pre-penetrate)
G01 Z-0.125000 F400.0(Penetrate)
G01 X14.749754 Y68.270529 Z-0.125000 F800.000000
G01 X16.444964 Y68.852665 Z-0.125000
G01 X18.140147 Y69.264330 Z-0.125000
G01 X19.835357 Y69.483193 Z-0.125000
G01 X22.527700 Y69.493697 Z-0.125000
G01 X28.681689 Y68.955773 Z-0.125000
G01 X31.986595 Y68.838351 Z-0.125000
G01 X34.721696 Y68.929367 Z-0.125000
G01 X40.419835 Y69.461603 Z-0.125000
G01 X42.585102 Y69.524044 Z-0.125000
G01 X44.266051 Y69.359130 Z-0.125000
G01 X45.861540 Y68.958419 Z-0.125000
G01 X47.556723 Y68.257141 Z-0.125000
G01 X51.445696 Y66.247316 Z-0.125000
G01 X52.642299 Y65.878223 Z-0.125000
G01 X53.739207 Y65.797340 Z-0.125000
G01 X54.935810 Y66.041418 Z-0.125000
G01 X56.121327 Y66.621225 Z-0.125000
G01 X57.149523 Y67.344727 Z-0.125000
G01 X59.578184 Y69.320606 Z-0.125000
G01 X60.641834 Y70.020931 Z-0.125000
G01 X61.616849 Y70.439607 Z-0.125000
G01 X62.614036 Y70.595473 Z-0.125000
G01 X63.710917 Y70.432014 Z-0.125000
G01 X64.985070 Y69.848000 Z-0.125000
G01 X66.137382 Y69.049276 Z-0.125000
G01 X69.239670 Y66.574473 Z-0.125000
G01 X70.990284 Y65.505425 Z-0.125000
G01 X71.887723 Y65.123129 Z-0.125000
G01 X72.785188 Y64.853969 Z-0.125000
G01 X73.782349 Y64.674608 Z-0.125000
G01 X74.836500 Y64.598223 Z-0.125000
G01 X80.990489 Y64.920485 Z-0.125000
G01 X83.041801 Y64.880242 Z-0.125000
G01 X87.372390 Y64.593910 Z-0.125000
G01 X88.640219 Y64.646827 Z-0.125000
G01 X89.737100 Y64.834707 Z-0.125000
G01 X91.133146 Y65.328948 Z-0.125000
G01 X92.462702 Y66.104997 Z-0.125000
G01 X93.685922 Y67.060591 Z-0.125000
G01 X96.158900 Y69.272637 Z-0.125000
G01 X97.160506 Y70.008072 Z-0.125000
G01 X98.113348 Y70.461912 Z-0.125000
G01 X98.911093 Y70.595526 Z-0.125000
G01 X99.808558 Y70.442253 Z-0.125000
G01 X100.705997 Y69.971480 Z-0.125000
G01 X101.648786 Y69.192971 Z-0.125000
G01 X103.606859 Y67.191586 Z-0.125000
G01 X104.375605 Y66.519307 Z-0.125000
G01 X105.292993 Y65.972943 Z-0.125000
G01 X106.090737 Y65.793345 Z-0.125000
G01 X106.788760 Y65.878725 Z-0.125000
G01 X107.531101 Y66.199956 Z-0.125000
G01 X108.284501 Y66.720602 Z-0.125000
G01 X110.119305 Y68.322705 Z-0.125000
G01 X110.899322 Y68.909788 Z-0.125000
G01 X111.774615 Y69.359288 Z-0.125000
G01 X112.672054 Y69.531188 Z-0.125000
G01 X113.469799 Y69.433107 Z-0.125000
G01 X114.267543 Y69.132911 Z-0.125000
G01 X116.749384 Y67.624127 Z-0.125000
G01 X117.757657 Y67.110201 Z-0.125000
G01 X118.555375 Y66.846491 Z-0.125000
G01 X119.395849 Y66.726291 Z-0.125000
G01 X120.250585 Y66.763756 Z-0.125000
G01 X121.148024 Y66.946847 Z-0.125000
G01 X124.338974 Y68.076246 Z-0.125000
G01 X125.635298 Y68.446054 Z-0.125000
G01 X126.831902 Y68.654783 Z-0.125000
G01 X128.057000 Y68.734396 Z-0.125000
G01 X130.322016 Y68.606682 Z-0.125000
G01 X137.202497 Y67.716810 Z-0.125000
G01 X141.960440 Y67.439792 Z-0.125000
G01 X147.202702 Y67.384652 Z-0.125000
G01 X160.650292 Y67.527951 Z-0.125000
G01 X168.513699 Y67.526099 Z-0.125000
G00 Z3.000000

(End cutting path id: polyline31117)


(Start cutting path id: polyline31115)
(Change tool to Default tool)

G00 Z3.000000
G00 X12.157131 Y67.992162

G00 Z4.875000 (Fast pre-penetrate)
G01 Z-0.125000 F400.0(Penetrate)
G01 X17.442124 Y70.025932 Z-0.125000 F800.000000
G01 X19.237029 Y70.494482 Z-0.125000
G01 X21.031960 Y70.763192 Z-0.125000
G01 X23.895250 Y70.843176 Z-0.125000
G01 X29.707345 Y70.511759 Z-0.125000
G01 X32.556401 Y70.447994 Z-0.125000
G01 X41.673402 Y70.851193 Z-0.125000
G01 X43.667750 Y70.693819 Z-0.125000
G01 X45.462654 Y70.290065 Z-0.125000
G01 X47.357307 Y69.560080 Z-0.125000
G01 X50.348814 Y68.043385 Z-0.125000
G01 X51.545417 Y67.521363 Z-0.125000
G01 X52.742020 Y67.187538 Z-0.125000
G01 X53.938624 Y67.129118 Z-0.125000
G01 X55.135227 Y67.393278 Z-0.125000
G01 X56.298598 Y67.954829 Z-0.125000
G01 X57.362248 Y68.680686 Z-0.125000
G01 X59.844116 Y70.633494 Z-0.125000
G01 X61.018547 Y71.373400 Z-0.125000
G01 X62.015734 Y71.775116 Z-0.125000
G01 X63.012894 Y71.918414 Z-0.125000
G01 X64.209497 Y71.735826 Z-0.125000
G01 X65.516908 Y71.143107 Z-0.125000
G01 X66.669193 Y70.377721 Z-0.125000
G01 X69.860144 Y67.962502 Z-0.125000
G01 X71.788001 Y66.855672 Z-0.125000
G01 X72.785188 Y66.463533 Z-0.125000
G01 X73.882070 Y66.170058 Z-0.125000
G01 X74.978952 Y66.001016 Z-0.125000
G01 X76.204050 Y65.923202 Z-0.125000
G01 X81.560295 Y66.022738 Z-0.125000
G01 X86.688601 Y65.922937 Z-0.125000
G01 X88.141638 Y66.034697 Z-0.125000
G01 X89.338241 Y66.276976 Z-0.125000
G01 X90.734287 Y66.797252 Z-0.125000
G01 X92.108161 Y67.593514 Z-0.125000
G01 X93.287037 Y68.485635 Z-0.125000
G01 X95.760041 Y70.600818 Z-0.125000
G01 X96.717303 Y71.284579 Z-0.125000
G01 X97.614768 Y71.729608 Z-0.125000
G01 X98.512234 Y71.915636 Z-0.125000
G01 X99.409673 Y71.799167 Z-0.125000
G01 X100.351456 Y71.346069 Z-0.125000
G01 X101.344198 Y70.556394 Z-0.125000
G01 X103.338545 Y68.553898 Z-0.125000
G01 X104.162853 Y67.837354 Z-0.125000
G01 X105.093551 Y67.291572 Z-0.125000
G01 X105.891295 Y67.116365 Z-0.125000
G01 X106.589318 Y67.201640 Z-0.125000
G01 X107.265168 Y67.483448 Z-0.125000
G01 X108.124957 Y68.071457 Z-0.125000
G01 X109.959761 Y69.674618 Z-0.125000
G01 X110.722051 Y70.244557 Z-0.125000
G01 X111.575173 Y70.681806 Z-0.125000
G01 X112.472638 Y70.853468 Z-0.125000
G01 X113.270382 Y70.751762 Z-0.125000
G01 X114.068100 Y70.445190 Z-0.125000
G01 X116.572114 Y68.901348 Z-0.125000
G01 X117.458493 Y68.444704 Z-0.125000
G01 X118.355959 Y68.148398 Z-0.125000
G01 X119.167937 Y68.045687 Z-0.125000
G01 X119.951421 Y68.090428 Z-0.125000
G01 X120.848886 Y68.285769 Z-0.125000
G01 X123.840394 Y69.396542 Z-0.125000
G01 X125.036997 Y69.760132 Z-0.125000
G01 X126.133879 Y69.970158 Z-0.125000
G01 X127.259282 Y70.056068 Z-0.125000
G01 X129.524272 Y69.911526 Z-0.125000
G01 X135.706730 Y68.982707 Z-0.125000
G01 X139.909102 Y68.726194 Z-0.125000
G01 X144.353646 Y68.733206 Z-0.125000
G01 X159.054804 Y69.089731 Z-0.125000
G01 X168.513699 Y69.105315 Z-0.125000
G00 Z3.000000

(End cutting path id: polyline31115)


(Start cutting path id: polyline31113)
(Change tool to Default tool)

G00 Z3.000000
G00 X12.157131 Y68.921351

G00 Z4.875000 (Fast pre-penetrate)
G01 Z-0.125000 F400.0(Penetrate)
G01 X13.652872 Y69.420301 Z-0.125000 F800.000000
G01 X18.439311 Y71.247062 Z-0.125000
G01 X20.234215 Y71.728788 Z-0.125000
G01 X22.029120 Y72.026417 Z-0.125000
G01 X25.148845 Y72.177097 Z-0.125000
G01 X33.468101 Y71.963896 Z-0.125000
G01 X40.761702 Y72.176568 Z-0.125000
G01 X43.069448 Y72.037239 Z-0.125000
G01 X45.163517 Y71.621790 Z-0.125000
G01 X47.257585 Y70.869846 Z-0.125000
G01 X50.348814 Y69.382545 Z-0.125000
G01 X51.645139 Y68.840176 Z-0.125000
G01 X52.941463 Y68.501219 Z-0.125000
G01 X54.138066 Y68.452986 Z-0.125000
G01 X55.334669 Y68.705424 Z-0.125000
G01 X56.564504 Y69.275204 Z-0.125000
G01 X57.716816 Y70.036012 Z-0.125000
G01 X60.287293 Y71.989296 Z-0.125000
G01 X61.439578 Y72.689859 Z-0.125000
G01 X62.514314 Y73.105096 Z-0.125000
G01 X63.554231 Y73.241409 Z-0.125000
G01 X64.807799 Y73.046835 Z-0.125000
G01 X66.048720 Y72.513303 Z-0.125000
G01 X67.289667 Y71.738286 Z-0.125000
G01 X70.657888 Y69.339048 Z-0.125000
G01 X71.721538 Y68.714023 Z-0.125000
G01 X72.785188 Y68.208802 Z-0.125000
G01 X73.981791 Y67.788274 Z-0.125000
G01 X75.178394 Y67.510303 Z-0.125000
G01 X76.474719 Y67.338906 Z-0.125000
G01 X78.027451 Y67.254345 Z-0.125000
G01 X85.776901 Y67.274216 Z-0.125000
G01 X87.543337 Y67.440823 Z-0.125000
G01 X88.939383 Y67.749301 Z-0.125000
G01 X90.335402 Y68.280187 Z-0.125000
G01 X91.664984 Y69.025146 Z-0.125000
G01 X92.888178 Y69.901234 Z-0.125000
G01 X95.476382 Y71.994879 Z-0.125000
G01 X96.451397 Y72.650542 Z-0.125000
G01 X97.315604 Y73.055725 Z-0.125000
G01 X98.213070 Y73.238287 Z-0.125000
G01 X99.110535 Y73.136581 Z-0.125000
G01 X100.085550 Y72.694780 Z-0.125000
G01 X101.104882 Y71.911138 Z-0.125000
G01 X103.099203 Y69.941583 Z-0.125000
G01 X103.985583 Y69.174213 Z-0.125000
G01 X104.894134 Y68.636077 Z-0.125000
G01 X105.791573 Y68.438010 Z-0.125000
G01 X106.489596 Y68.533287 Z-0.125000
G01 X107.265168 Y68.878594 Z-0.125000
G01 X108.045186 Y69.427815 Z-0.125000
G01 X109.879989 Y71.026452 Z-0.125000
G01 X110.633416 Y71.583902 Z-0.125000
G01 X111.475451 Y72.010013 Z-0.125000
G01 X112.273195 Y72.173393 Z-0.125000
G01 X112.971218 Y72.117963 Z-0.125000
G01 X113.669241 Y71.895766 Z-0.125000
G01 X114.444813 Y71.497198 Z-0.125000
G01 X117.159329 Y69.830114 Z-0.125000
G01 X118.056795 Y69.501264 Z-0.125000
G01 X118.954260 Y69.369766 Z-0.125000
G01 X119.851699 Y69.430514 Z-0.125000
G01 X120.749165 Y69.648689 Z-0.125000
G01 X123.541256 Y70.731178 Z-0.125000
G01 X124.638138 Y71.079290 Z-0.125000
G01 X125.635298 Y71.284553 Z-0.125000
G01 X126.689450 Y71.377051 Z-0.125000
G01 X128.826249 Y71.238383 Z-0.125000
G01 X134.609848 Y70.269004 Z-0.125000
G01 X138.313640 Y70.035668 Z-0.125000
G01 X141.732502 Y70.075620 Z-0.125000
G01 X155.635941 Y70.599601 Z-0.125000
G01 X168.513699 Y70.669636 Z-0.125000
G00 Z3.000000

(End cutting path id: polyline31113)


(Start cutting path id: polyline31109)
(Change tool to Default tool)

G00 Z3.000000
G00 X12.157131 Y71.180096

G00 Z4.875000 (Fast pre-penetrate)
G01 Z-0.125000 F400.0(Penetrate)
G01 X13.353734 Y71.407399 Z-0.125000 F800.000000
G01 X14.650059 Y71.775540 Z-0.125000
G01 X20.533353 Y73.878260 Z-0.125000
G01 X22.128841 Y74.281882 Z-0.125000
G01 X23.724303 Y74.560752 Z-0.125000
G01 X25.490739 Y74.738631 Z-0.125000
G01 X27.428095 Y74.815519 Z-0.125000
G01 X39.166240 Y74.823483 Z-0.125000
G01 X42.371425 Y74.701616 Z-0.125000
G01 X44.964074 Y74.287914 Z-0.125000
G01 X47.357307 Y73.538800 Z-0.125000
G01 X51.046837 Y71.925823 Z-0.125000
G01 X52.343162 Y71.442244 Z-0.125000
G01 X53.639486 Y71.140990 Z-0.125000
G01 X54.935810 Y71.103393 Z-0.125000
G01 X56.232135 Y71.375702 Z-0.125000
G01 X57.528459 Y71.953525 Z-0.125000
G01 X58.691804 Y72.678482 Z-0.125000
G01 X61.350943 Y74.576521 Z-0.125000
G01 X62.614036 Y75.304706 Z-0.125000
G01 X63.810639 Y75.745317 Z-0.125000
G01 X64.921781 Y75.887371 Z-0.125000
G01 X66.203845 Y75.724811 Z-0.125000
G01 X67.500169 Y75.251499 Z-0.125000
G01 X68.885129 Y74.501776 Z-0.125000
G01 X72.607918 Y72.201651 Z-0.125000
G01 X73.882070 Y71.563159 Z-0.125000
G01 X75.078673 Y71.083549 Z-0.125000
G01 X76.374997 Y70.694639 Z-0.125000
G01 X77.870764 Y70.393702 Z-0.125000
G01 X79.466226 Y70.208573 Z-0.125000
G01 X81.332383 Y70.115969 Z-0.125000
G01 X83.611633 Y70.134490 Z-0.125000
G01 X85.548990 Y70.279191 Z-0.125000
G01 X87.244173 Y70.560283 Z-0.125000
G01 X88.739940 Y70.985918 Z-0.125000
G01 X90.036264 Y71.525482 Z-0.125000
G01 X91.310417 Y72.221045 Z-0.125000
G01 X94.855935 Y74.675158 Z-0.125000
G01 X95.830950 Y75.267453 Z-0.125000
G01 X96.916745 Y75.727351 Z-0.125000
G01 X97.856941 Y75.885598 Z-0.125000
G01 X98.911093 Y75.739416 Z-0.125000
G01 X99.908253 Y75.273830 Z-0.125000
G01 X100.945312 Y74.496114 Z-0.125000
G01 X103.817176 Y71.861529 Z-0.125000
G01 X104.794413 Y71.289633 Z-0.125000
G01 X105.691852 Y71.084819 Z-0.125000
G01 X106.389875 Y71.161813 Z-0.125000
G01 X107.176533 Y71.485292 Z-0.125000
G01 X108.045186 Y72.077191 Z-0.125000
G01 X110.633416 Y74.211026 Z-0.125000
G01 X111.575173 Y74.678518 Z-0.125000
G01 X112.372917 Y74.821604 Z-0.125000
G01 X113.170661 Y74.725164 Z-0.125000
G01 X113.968379 Y74.419412 Z-0.125000
G01 X116.483478 Y72.841201 Z-0.125000
G01 X117.358772 Y72.385007 Z-0.125000
G01 X118.156516 Y72.117540 Z-0.125000
G01 X118.954260 Y72.014352 Z-0.125000
G01 X119.751978 Y72.071582 Z-0.125000
G01 X120.649443 Y72.295181 Z-0.125000
G01 X123.341814 Y73.390554 Z-0.125000
G01 X124.438695 Y73.754568 Z-0.125000
G01 X125.336161 Y73.942977 Z-0.125000
G01 X126.233600 Y74.023463 Z-0.125000
G01 X128.128226 Y73.885695 Z-0.125000
G01 X133.213802 Y72.884830 Z-0.125000
G01 X136.034389 Y72.677609 Z-0.125000
G01 X138.427595 Y72.732589 Z-0.125000
G01 X145.379302 Y73.232704 Z-0.125000
G01 X149.937803 Y73.425188 Z-0.125000
G01 X168.513699 Y73.498107 Z-0.125000
G00 Z3.000000

(End cutting path id: polyline31109)


(Start cutting path id: polyline31105)
(Change tool to Default tool)

G00 Z3.000000
G00 X12.157131 Y73.738772

G00 Z4.875000 (Fast pre-penetrate)
G01 Z-0.125000 F400.0(Penetrate)
G01 X13.553151 Y73.890246 Z-0.125000 F800.000000
G01 X15.048918 Y74.228277 Z-0.125000
G01 X20.832517 Y76.209501 Z-0.125000
G01 X23.624608 Y76.927526 Z-0.125000
G01 X25.220070 Y77.186765 Z-0.125000
G01 X26.858289 Y77.350647 Z-0.125000
G01 X31.074895 Y77.469234 Z-0.125000
G01 X40.647746 Y77.448914 Z-0.125000
G01 X42.670589 Y77.350965 Z-0.125000
G01 X44.365772 Y77.160889 Z-0.125000
G01 X46.060982 Y76.830954 Z-0.125000
G01 X47.756166 Y76.338803 Z-0.125000
G01 X52.243440 Y74.522520 Z-0.125000
G01 X53.539765 Y74.071538 Z-0.125000
G01 X54.935810 Y73.776158 Z-0.125000
G01 X56.232135 Y73.750546 Z-0.125000
G01 X57.528459 Y74.004678 Z-0.125000
G01 X58.924479 Y74.585570 Z-0.125000
G01 X60.198657 Y75.335583 Z-0.125000
G01 X62.946405 Y77.184595 Z-0.125000
G01 X64.309219 Y77.927677 Z-0.125000
G01 X65.605543 Y78.380616 Z-0.125000
G01 X66.859137 Y78.533016 Z-0.125000
G01 X68.198192 Y78.386940 Z-0.125000
G01 X69.594238 Y77.946462 Z-0.125000
G01 X70.890562 Y77.354484 Z-0.125000
G01 X74.779535 Y75.334419 Z-0.125000
G01 X77.172742 Y74.383376 Z-0.125000
G01 X78.469066 Y74.020182 Z-0.125000
G01 X79.765390 Y73.760256 Z-0.125000
G01 X82.471995 Y73.509167 Z-0.125000
G01 X84.067484 Y73.527661 Z-0.125000
G01 X85.648711 Y73.671885 Z-0.125000
G01 X87.144452 Y73.941998 Z-0.125000
G01 X88.540497 Y74.332972 Z-0.125000
G01 X89.737100 Y74.787394 Z-0.125000
G01 X91.033425 Y75.405010 Z-0.125000
G01 X95.520700 Y77.957707 Z-0.125000
G01 X96.617608 Y78.368445 Z-0.125000
G01 X97.629003 Y78.530106 Z-0.125000
G01 X98.811371 Y78.387681 Z-0.125000
G01 X99.908253 Y77.910373 Z-0.125000
G01 X101.025084 Y77.119217 Z-0.125000
G01 X103.258773 Y75.113492 Z-0.125000
G01 X104.162853 Y74.409860 Z-0.125000
G01 X105.093551 Y73.913476 Z-0.125000
G01 X105.991016 Y73.730014 Z-0.125000
G01 X106.788760 Y73.836006 Z-0.125000
G01 X107.531101 Y74.150490 Z-0.125000
G01 X108.417454 Y74.746542 Z-0.125000
G01 X110.987957 Y76.830557 Z-0.125000
G01 X111.874337 Y77.285772 Z-0.125000
G01 X112.771776 Y77.467646 Z-0.125000
G01 X113.569520 Y77.379804 Z-0.125000
G01 X114.356178 Y77.088446 Z-0.125000
G01 X117.015317 Y75.428108 Z-0.125000
G01 X117.857352 Y74.999722 Z-0.125000
G01 X118.655096 Y74.745008 Z-0.125000
G01 X119.395849 Y74.659441 Z-0.125000
G01 X120.150863 Y74.718682 Z-0.125000
G01 X120.948607 Y74.918362 Z-0.125000
G01 X124.638138 Y76.392831 Z-0.125000
G01 X125.535577 Y76.592194 Z-0.125000
G01 X126.347582 Y76.669082 Z-0.125000
G01 X127.230787 Y76.646222 Z-0.125000
G01 X128.227947 Y76.510755 Z-0.125000
G01 X132.715222 Y75.518093 Z-0.125000
G01 X135.008733 Y75.323412 Z-0.125000
G01 X137.401939 Y75.413186 Z-0.125000
G01 X143.327990 Y75.979287 Z-0.125000
G01 X146.632896 Y76.124914 Z-0.125000
G01 X168.513699 Y76.005587 Z-0.125000
G00 Z3.000000

(End cutting path id: polyline31105)


(Start cutting path id: polyline31101)
(Change tool to Default tool)

G00 Z3.000000
G00 X12.157131 Y76.380527

G00 Z4.875000 (Fast pre-penetrate)
G01 Z-0.125000 F400.0(Penetrate)
G01 X13.652872 Y76.525651 Z-0.125000 F800.000000
G01 X15.348082 Y76.894453 Z-0.125000
G01 X21.231376 Y78.848796 Z-0.125000
G01 X24.123189 Y79.575129 Z-0.125000
G01 X27.428095 Y79.999467 Z-0.125000
G01 X31.530745 Y80.115143 Z-0.125000
G01 X42.015296 Y80.100406 Z-0.125000
G01 X44.066635 Y80.010712 Z-0.125000
G01 X45.761818 Y79.832886 Z-0.125000
G01 X47.556723 Y79.498876 Z-0.125000
G01 X49.251933 Y79.023129 Z-0.125000
G01 X54.038345 Y77.135727 Z-0.125000
G01 X55.334669 Y76.704060 Z-0.125000
G01 X56.730715 Y76.421247 Z-0.125000
G01 X58.126761 Y76.401588 Z-0.125000
G01 X59.522807 Y76.684004 Z-0.125000
G01 X60.907766 Y77.251191 Z-0.125000
G01 X62.148687 Y77.949875 Z-0.125000
G01 X65.073731 Y79.811957 Z-0.125000
G01 X66.503009 Y80.548794 Z-0.125000
G01 X67.899028 Y81.012688 Z-0.125000
G01 X69.252344 Y81.177920 Z-0.125000
G01 X70.591398 Y81.074018 Z-0.125000
G01 X72.087165 Y80.698760 Z-0.125000
G01 X77.272463 Y78.595510 Z-0.125000
G01 X79.665669 Y77.818986 Z-0.125000
G01 X81.959154 Y77.365993 Z-0.125000
G01 X84.295395 Y77.212588 Z-0.125000
G01 X86.546150 Y77.364379 Z-0.125000
G01 X88.739940 Y77.815626 Z-0.125000
G01 X91.033425 Y78.619561 Z-0.125000
G01 X95.819864 Y80.781707 Z-0.125000
G01 X97.215909 Y81.131671 Z-0.125000
G01 X98.512234 Y81.137174 Z-0.125000
G01 X99.609115 Y80.844651 Z-0.125000
G01 X100.794632 Y80.215367 Z-0.125000
G01 X101.822828 Y79.449055 Z-0.125000
G01 X103.896947 Y77.673174 Z-0.125000
G01 X104.960598 Y76.920409 Z-0.125000
G01 X105.891295 Y76.500542 Z-0.125000
G01 X106.689039 Y76.375103 Z-0.125000
G01 X107.486783 Y76.485091 Z-0.125000
G01 X108.240183 Y76.795288 Z-0.125000
G01 X109.126563 Y77.371179 Z-0.125000
G01 X111.785701 Y79.476757 Z-0.125000
G01 X112.672054 Y79.926151 Z-0.125000
G01 X113.569520 Y80.112312 Z-0.125000
G01 X114.267543 Y80.056035 Z-0.125000
G01 X115.065287 Y79.794521 Z-0.125000
G01 X118.455654 Y77.757259 Z-0.125000
G01 X119.353119 Y77.424387 Z-0.125000
G01 X120.193593 Y77.306039 Z-0.125000
G01 X120.948607 Y77.360649 Z-0.125000
G01 X121.746325 Y77.561308 Z-0.125000
G01 X125.336161 Y79.039692 Z-0.125000
G01 X126.233600 Y79.244877 Z-0.125000
G01 X127.031344 Y79.316949 Z-0.125000
G01 X127.928810 Y79.279219 Z-0.125000
G01 X128.826249 Y79.137800 Z-0.125000
G01 X132.814943 Y78.166092 Z-0.125000
G01 X134.894751 Y77.968528 Z-0.125000
G01 X136.903359 Y78.059174 Z-0.125000
G01 X141.988936 Y78.648004 Z-0.125000
G01 X144.809496 Y78.783973 Z-0.125000
G01 X158.029148 Y78.499784 Z-0.125000
G01 X168.513699 Y78.474702 Z-0.125000
G00 Z3.000000

(End cutting path id: polyline31101)


(Start cutting path id: polyline31097)
(Change tool to Default tool)

G00 Z3.000000
G00 X12.157131 Y79.078269

G00 Z4.875000 (Fast pre-penetrate)
G01 Z-0.125000 F400.0(Penetrate)
G01 X13.553151 Y79.281283 Z-0.125000 F800.000000
G01 X15.148639 Y79.664505 Z-0.125000
G01 X20.134494 Y81.313016 Z-0.125000
G01 X22.128841 Y81.892717 Z-0.125000
G01 X23.824025 Y82.269563 Z-0.125000
G01 X25.618929 Y82.541395 Z-0.125000
G01 X29.251495 Y82.755787 Z-0.125000
G01 X37.114902 Y82.672470 Z-0.125000
G01 X43.838697 Y82.760999 Z-0.125000
G01 X47.058143 Y82.633920 Z-0.125000
G01 X49.650791 Y82.227521 Z-0.125000
G01 X52.143719 Y81.486926 Z-0.125000
G01 X55.932971 Y79.939248 Z-0.125000
G01 X57.428738 Y79.410770 Z-0.125000
G01 X59.024200 Y79.070358 Z-0.125000
G01 X60.420246 Y79.043026 Z-0.125000
G01 X61.816291 Y79.304937 Z-0.125000
G01 X63.212337 Y79.842940 Z-0.125000
G01 X64.453258 Y80.502466 Z-0.125000
G01 X67.644208 Y82.438420 Z-0.125000
G01 X69.195352 Y83.192217 Z-0.125000
G01 X70.691120 Y83.655078 Z-0.125000
G01 X72.215382 Y83.824332 Z-0.125000
G01 X73.582932 Y83.734321 Z-0.125000
G01 X74.978952 Y83.456165 Z-0.125000
G01 X79.964833 Y81.884753 Z-0.125000
G01 X82.058875 Y81.344898 Z-0.125000
G01 X83.953501 Y81.035177 Z-0.125000
G01 X85.890884 Y80.921433 Z-0.125000
G01 X87.742753 Y81.016233 Z-0.125000
G01 X89.637379 Y81.323890 Z-0.125000
G01 X91.731448 Y81.898247 Z-0.125000
G01 X96.517886 Y83.558400 Z-0.125000
G01 X97.913932 Y83.804012 Z-0.125000
G01 X99.110535 Y83.781708 Z-0.125000
G01 X100.207417 Y83.523237 Z-0.125000
G01 X101.237835 Y83.059449 Z-0.125000
G01 X102.461029 Y82.260355 Z-0.125000
G01 X104.694692 Y80.455767 Z-0.125000
G01 X105.758342 Y79.699139 Z-0.125000
G01 X106.788760 Y79.197490 Z-0.125000
G01 X107.686199 Y79.022944 Z-0.125000
G01 X108.483944 Y79.100150 Z-0.125000
G01 X109.381409 Y79.441885 Z-0.125000
G01 X110.358620 Y80.065084 Z-0.125000
G01 X112.352967 Y81.667848 Z-0.125000
G01 X113.115257 Y82.188786 Z-0.125000
G01 X114.068100 Y82.626644 Z-0.125000
G01 X114.865844 Y82.759518 Z-0.125000
G01 X115.563867 Y82.691123 Z-0.125000
G01 X116.261890 Y82.464878 Z-0.125000
G01 X117.015317 Y82.078851 Z-0.125000
G01 X119.674429 Y80.416820 Z-0.125000
G01 X120.549722 Y80.081303 Z-0.125000
G01 X121.447188 Y79.950890 Z-0.125000
G01 X122.244932 Y80.020475 Z-0.125000
G01 X123.042650 Y80.239947 Z-0.125000
G01 X126.433043 Y81.687004 Z-0.125000
G01 X127.230787 Y81.881420 Z-0.125000
G01 X128.057000 Y81.963070 Z-0.125000
G01 X128.826249 Y81.932061 Z-0.125000
G01 X129.723714 Y81.786090 Z-0.125000
G01 X133.413245 Y80.813325 Z-0.125000
G01 X135.236645 Y80.615549 Z-0.125000
G01 X137.102775 Y80.707121 Z-0.125000
G01 X141.590050 Y81.304126 Z-0.125000
G01 X144.011752 Y81.432899 Z-0.125000
G01 X155.635941 Y81.074865 Z-0.125000
G01 X168.513699 Y81.029383 Z-0.125000
G00 Z3.000000

(End cutting path id: polyline31097)


(Start cutting path id: polyline31095)
(Change tool to Default tool)

G00 Z3.000000
G00 X12.157131 Y80.492835

G00 Z4.875000 (Fast pre-penetrate)
G01 Z-0.125000 F400.0(Penetrate)
G01 X14.849475 Y81.095132 Z-0.125000 F800.000000
G01 X19.635914 Y82.671226 Z-0.125000
G01 X21.530540 Y83.220395 Z-0.125000
G01 X23.425166 Y83.638357 Z-0.125000
G01 X25.319792 Y83.910083 Z-0.125000
G01 X28.567733 Y84.081930 Z-0.125000
G01 X37.684734 Y83.902569 Z-0.125000
G01 X46.003991 Y84.083517 Z-0.125000
G01 X48.753326 Y83.951147 Z-0.125000
G01 X51.146559 Y83.548928 Z-0.125000
G01 X53.539765 Y82.812805 Z-0.125000
G01 X57.329017 Y81.240309 Z-0.125000
G01 X58.725062 Y80.744612 Z-0.125000
G01 X60.320524 Y80.397400 Z-0.125000
G01 X61.716570 Y80.363057 Z-0.125000
G01 X63.112616 Y80.615496 Z-0.125000
G01 X64.508661 Y81.139529 Z-0.125000
G01 X65.871449 Y81.852527 Z-0.125000
G01 X68.973764 Y83.703762 Z-0.125000
G01 X70.591398 Y84.482376 Z-0.125000
G01 X72.186887 Y84.970585 Z-0.125000
G01 X73.810844 Y85.147194 Z-0.125000
G01 X75.078673 Y85.079170 Z-0.125000
G01 X76.474719 Y84.841680 Z-0.125000
G01 X81.360852 Y83.489582 Z-0.125000
G01 X83.355200 Y83.035002 Z-0.125000
G01 X85.150104 Y82.776477 Z-0.125000
G01 X86.916540 Y82.687128 Z-0.125000
G01 X88.939383 Y82.800237 Z-0.125000
G01 X90.933703 Y83.137422 Z-0.125000
G01 X92.728634 Y83.610443 Z-0.125000
G01 X96.119001 Y84.686714 Z-0.125000
G01 X97.415325 Y85.002017 Z-0.125000
G01 X98.654685 Y85.144151 Z-0.125000
G01 X99.708837 Y85.090520 Z-0.125000
G01 X100.905440 Y84.790192 Z-0.125000
G01 X102.212850 Y84.155643 Z-0.125000
G01 X103.338545 Y83.387797 Z-0.125000
G01 X105.758342 Y81.483011 Z-0.125000
G01 X106.733357 Y80.857272 Z-0.125000
G01 X107.686199 Y80.461720 Z-0.125000
G01 X108.483944 Y80.343610 Z-0.125000
G01 X109.281688 Y80.439284 Z-0.125000
G01 X110.179127 Y80.794089 Z-0.125000
G01 X111.156364 Y81.422395 Z-0.125000
G01 X113.070940 Y82.953801 Z-0.125000
G01 X113.913002 Y83.528158 Z-0.125000
G01 X114.865844 Y83.956888 Z-0.125000
G01 X115.663589 Y84.082909 Z-0.125000
G01 X116.361611 Y84.009276 Z-0.125000
G01 X117.059634 Y83.778453 Z-0.125000
G01 X117.813034 Y83.388246 Z-0.125000
G01 X120.472173 Y81.722723 Z-0.125000
G01 X121.347466 Y81.393052 Z-0.125000
G01 X122.145211 Y81.275366 Z-0.125000
G01 X122.942928 Y81.336564 Z-0.125000
G01 X123.740672 Y81.553257 Z-0.125000
G01 X127.131066 Y83.020423 Z-0.125000
G01 X127.928810 Y83.213436 Z-0.125000
G01 X128.740788 Y83.287281 Z-0.125000
G01 X130.322016 Y83.104375 Z-0.125000
G01 X133.911825 Y82.125180 Z-0.125000
G01 X135.578539 Y81.939205 Z-0.125000
G01 X137.401939 Y82.032999 Z-0.125000
G01 X141.689772 Y82.634635 Z-0.125000
G01 X144.011752 Y82.757613 Z-0.125000
G01 X154.838197 Y82.380899 Z-0.125000
G01 X168.513699 Y82.335444 Z-0.125000
G00 Z3.000000

(End cutting path id: polyline31095)


(Start cutting path id: polyline31093)
(Change tool to Default tool)

G00 Z3.000000
G00 X12.157131 Y81.991857

G00 Z4.875000 (Fast pre-penetrate)
G01 Z-0.125000 F400.0(Penetrate)
G01 X14.450616 Y82.574706 Z-0.125000 F800.000000
G01 X20.732796 Y84.556486 Z-0.125000
G01 X22.826864 Y85.011410 Z-0.125000
G01 X24.821211 Y85.277872 Z-0.125000
G01 X28.453751 Y85.402067 Z-0.125000
G01 X35.405484 Y85.119122 Z-0.125000
G01 X38.596434 Y85.073481 Z-0.125000
G01 X48.055303 Y85.406380 Z-0.125000
G01 X50.548257 Y85.269722 Z-0.125000
G01 X52.742020 Y84.876049 Z-0.125000
G01 X54.935810 Y84.182789 Z-0.125000
G01 X58.725062 Y82.581189 Z-0.125000
G01 X60.121108 Y82.076391 Z-0.125000
G01 X61.616849 Y81.735687 Z-0.125000
G01 X63.098355 Y81.683538 Z-0.125000
G01 X64.508661 Y81.932511 Z-0.125000
G01 X65.904707 Y82.448527 Z-0.125000
G01 X67.289667 Y83.163324 Z-0.125000
G01 X70.491677 Y85.041599 Z-0.125000
G01 X72.186887 Y85.830718 Z-0.125000
G01 X73.882070 Y86.316016 Z-0.125000
G01 X75.520288 Y86.470638 Z-0.125000
G01 X76.773883 Y86.403381 Z-0.125000
G01 X78.169902 Y86.183777 Z-0.125000
G01 X82.756898 Y85.049669 Z-0.125000
G01 X84.651524 Y84.661790 Z-0.125000
G01 X86.346734 Y84.441075 Z-0.125000
G01 X87.942196 Y84.364399 Z-0.125000
G01 X89.836822 Y84.451314 Z-0.125000
G01 X91.731448 Y84.730661 Z-0.125000
G01 X93.526352 Y85.149681 Z-0.125000
G01 X96.717303 Y86.050454 Z-0.125000
G01 X98.113348 Y86.352211 Z-0.125000
G01 X99.338447 Y86.468998 Z-0.125000
G01 X100.406860 Y86.406980 Z-0.125000
G01 X101.503741 Y86.146683 Z-0.125000
G01 X102.656027 Y85.642255 Z-0.125000
G01 X103.985583 Y84.794717 Z-0.125000
G01 X106.210382 Y83.065958 Z-0.125000
G01 X107.265168 Y82.345128 Z-0.125000
G01 X108.284501 Y81.858004 Z-0.125000
G01 X109.281688 Y81.667504 Z-0.125000
G01 X110.179127 Y81.774343 Z-0.125000
G01 X111.076592 Y82.137880 Z-0.125000
G01 X112.033880 Y82.756078 Z-0.125000
G01 X114.710719 Y84.807099 Z-0.125000
G01 X115.663589 Y85.256890 Z-0.125000
G01 X116.461333 Y85.403681 Z-0.125000
G01 X117.159329 Y85.347351 Z-0.125000
G01 X117.857352 Y85.130525 Z-0.125000
G01 X118.699414 Y84.696424 Z-0.125000
G01 X121.269917 Y83.067519 Z-0.125000
G01 X122.145211 Y82.725281 Z-0.125000
G01 X122.942928 Y82.599207 Z-0.125000
G01 X123.541256 Y82.626485 Z-0.125000
G01 X124.239253 Y82.777271 Z-0.125000
G01 X127.629646 Y84.266106 Z-0.125000
G01 X128.527111 Y84.516349 Z-0.125000
G01 X129.424550 Y84.610064 Z-0.125000
G01 X130.222295 Y84.562704 Z-0.125000
G01 X131.020039 Y84.413029 Z-0.125000
G01 X134.410432 Y83.451217 Z-0.125000
G01 X136.034389 Y83.261643 Z-0.125000
G01 X137.701077 Y83.347659 Z-0.125000
G01 X141.889214 Y83.961280 Z-0.125000
G01 X144.011752 Y84.080131 Z-0.125000
G01 X154.382347 Y83.692120 Z-0.125000
G01 X168.513699 Y83.652882 Z-0.125000
G00 Z3.000000

(End cutting path id: polyline31093)


(Start cutting path id: polyline31091)
(Change tool to Default tool)

G00 Z3.000000
G00 X12.157131 Y83.606077

G00 Z4.875000 (Fast pre-penetrate)
G01 Z-0.125000 F400.0(Penetrate)
G01 X19.735635 Y85.902023 Z-0.125000 F800.000000
G01 X21.929399 Y86.370123 Z-0.125000
G01 X24.023467 Y86.633516 Z-0.125000
G01 X25.718651 Y86.721489 Z-0.125000
G01 X27.656033 Y86.711197 Z-0.125000
G01 X35.291502 Y86.253151 Z-0.125000
G01 X38.938302 Y86.168961 Z-0.125000
G01 X42.015296 Y86.253495 Z-0.125000
G01 X47.941347 Y86.663863 Z-0.125000
G01 X50.220597 Y86.728580 Z-0.125000
G01 X52.442883 Y86.585097 Z-0.125000
G01 X54.437204 Y86.200499 Z-0.125000
G01 X56.531272 Y85.511207 Z-0.125000
G01 X60.121108 Y83.953819 Z-0.125000
G01 X61.517127 Y83.430421 Z-0.125000
G01 X63.012894 Y83.070932 Z-0.125000
G01 X64.465931 Y82.999706 Z-0.125000
G01 X65.904707 Y83.234418 Z-0.125000
G01 X67.400448 Y83.780411 Z-0.125000
G01 X68.796494 Y84.499574 Z-0.125000
G01 X71.898809 Y86.304163 Z-0.125000
G01 X73.682627 Y87.132122 Z-0.125000
G01 X75.377837 Y87.620463 Z-0.125000
G01 X77.115750 Y87.793183 Z-0.125000
G01 X78.369345 Y87.736086 Z-0.125000
G01 X79.665669 Y87.555058 Z-0.125000
G01 X86.047570 Y86.195710 Z-0.125000
G01 X87.643058 Y86.007406 Z-0.125000
G01 X89.195790 Y85.941631 Z-0.125000
G01 X91.033425 Y86.025292 Z-0.125000
G01 X92.828329 Y86.273656 Z-0.125000
G01 X98.911093 Y87.683381 Z-0.125000
G01 X100.136191 Y87.791966 Z-0.125000
G01 X101.304299 Y87.720449 Z-0.125000
G01 X102.401207 Y87.457321 Z-0.125000
G01 X103.498089 Y86.988057 Z-0.125000
G01 X104.783327 Y86.196557 Z-0.125000
G01 X107.265168 Y84.303915 Z-0.125000
G01 X108.240183 Y83.651612 Z-0.125000
G01 X109.281688 Y83.166235 Z-0.125000
G01 X110.278848 Y82.989387 Z-0.125000
G01 X111.076592 Y83.079663 Z-0.125000
G01 X111.962972 Y83.417959 Z-0.125000
G01 X112.937987 Y84.031977 Z-0.125000
G01 X115.685734 Y86.136946 Z-0.125000
G01 X116.561028 Y86.558612 Z-0.125000
G01 X117.458493 Y86.728527 Z-0.125000
G01 X118.156516 Y86.661270 Z-0.125000
G01 X118.854539 Y86.431586 Z-0.125000
G01 X119.674429 Y85.997193 Z-0.125000
G01 X122.156270 Y84.402446 Z-0.125000
G01 X123.042650 Y84.048328 Z-0.125000
G01 X123.840394 Y83.921355 Z-0.125000
G01 X124.438695 Y83.952549 Z-0.125000
G01 X125.136718 Y84.111854 Z-0.125000
G01 X128.427390 Y85.593519 Z-0.125000
G01 X129.324829 Y85.846302 Z-0.125000
G01 X130.122573 Y85.931974 Z-0.125000
G01 X131.618340 Y85.757058 Z-0.125000
G01 X135.008733 Y84.768761 Z-0.125000
G01 X136.604195 Y84.583182 Z-0.125000
G01 X138.299379 Y84.688830 Z-0.125000
G01 X142.188352 Y85.285783 Z-0.125000
G01 X144.239690 Y85.403443 Z-0.125000
G01 X154.154435 Y85.007600 Z-0.125000
G01 X168.513699 Y84.976564 Z-0.125000
G00 Z3.000000

(End cutting path id: polyline31091)


(Start cutting path id: polyline31089)
(Change tool to Default tool)

G00 Z3.000000
G00 X12.157131 Y85.354283

G00 Z4.875000 (Fast pre-penetrate)
G01 Z-0.125000 F400.0(Penetrate)
G01 X18.738448 Y87.309155 Z-0.125000 F800.000000
G01 X20.932238 Y87.748362 Z-0.125000
G01 X23.097533 Y87.990747 Z-0.125000
G01 X24.806950 Y88.052077 Z-0.125000
G01 X26.744333 Y88.007389 Z-0.125000
G01 X35.063590 Y87.327146 Z-0.125000
G01 X39.280196 Y87.186812 Z-0.125000
G01 X42.926997 Y87.307938 Z-0.125000
G01 X49.878703 Y87.957648 Z-0.125000
G01 X52.499848 Y88.047712 Z-0.125000
G01 X54.437204 Y87.891105 Z-0.125000
G01 X56.232135 Y87.512831 Z-0.125000
G01 X58.126761 Y86.862988 Z-0.125000
G01 X61.616849 Y85.307558 Z-0.125000
G01 X63.012894 Y84.768999 Z-0.125000
G01 X64.508661 Y84.398292 Z-0.125000
G01 X65.947437 Y84.321034 Z-0.125000
G01 X67.400448 Y84.555269 Z-0.125000
G01 X68.896215 Y85.101421 Z-0.125000
G01 X70.214685 Y85.776214 Z-0.125000
G01 X73.405635 Y87.620860 Z-0.125000
G01 X75.178394 Y88.439480 Z-0.125000
G01 X76.973299 Y88.949887 Z-0.125000
G01 X78.711239 Y89.116124 Z-0.125000
G01 X79.964833 Y89.061250 Z-0.125000
G01 X81.261157 Y88.888080 Z-0.125000
G01 X87.443616 Y87.645757 Z-0.125000
G01 X88.967852 Y87.475736 Z-0.125000
G01 X90.449384 Y87.414909 Z-0.125000
G01 X92.130333 Y87.480552 Z-0.125000
G01 X93.925238 Y87.706611 Z-0.125000
G01 X99.908253 Y89.009841 Z-0.125000
G01 X101.161847 Y89.115648 Z-0.125000
G01 X102.301486 Y89.046909 Z-0.125000
G01 X103.498089 Y88.760472 Z-0.125000
G01 X104.594970 Y88.286762 Z-0.125000
G01 X105.846977 Y87.516879 Z-0.125000
G01 X108.328819 Y85.631910 Z-0.125000
G01 X109.303833 Y84.979448 Z-0.125000
G01 X110.278848 Y84.515793 Z-0.125000
G01 X111.276035 Y84.315160 Z-0.125000
G01 X112.173474 Y84.409140 Z-0.125000
G01 X113.026622 Y84.738784 Z-0.125000
G01 X114.001637 Y85.355527 Z-0.125000
G01 X116.660749 Y87.414459 Z-0.125000
G01 X117.558214 Y87.865573 Z-0.125000
G01 X118.455654 Y88.049828 Z-0.125000
G01 X119.153676 Y87.990482 Z-0.125000
G01 X119.940335 Y87.724206 Z-0.125000
G01 X120.738079 Y87.284522 Z-0.125000
G01 X123.142371 Y85.715386 Z-0.125000
G01 X123.940115 Y85.386430 Z-0.125000
G01 X124.737859 Y85.245831 Z-0.125000
G01 X125.435882 Y85.286285 Z-0.125000
G01 X126.034184 Y85.432653 Z-0.125000
G01 X129.225134 Y86.906433 Z-0.125000
G01 X130.122573 Y87.168820 Z-0.125000
G01 X130.920317 Y87.255312 Z-0.125000
G01 X131.618340 Y87.217053 Z-0.125000
G01 X132.416084 Y87.063833 Z-0.125000
G01 X135.607035 Y86.097682 Z-0.125000
G01 X137.174001 Y85.906547 Z-0.125000
G01 X138.698264 Y85.996320 Z-0.125000
G01 X142.587237 Y86.609597 Z-0.125000
G01 X144.581584 Y86.726755 Z-0.125000
G01 X154.040453 Y86.327340 Z-0.125000
G01 X168.513699 Y86.302760 Z-0.125000
G00 Z3.000000

(End cutting path id: polyline31089)


(Start cutting path id: polyline31087)
(Change tool to Default tool)

G00 Z3.000000
G00 X12.157131 Y87.230494

G00 Z4.875000 (Fast pre-penetrate)
G01 Z-0.125000 F400.0(Penetrate)
G01 X15.547498 Y88.228237 Z-0.125000 F800.000000
G01 X17.741288 Y88.772405 Z-0.125000
G01 X19.835357 Y89.142768 Z-0.125000
G01 X21.957894 Y89.341126 Z-0.125000
G01 X23.667339 Y89.373616 Z-0.125000
G01 X25.604695 Y89.294533 Z-0.125000
G01 X34.693200 Y88.351135 Z-0.125000
G01 X37.228884 Y88.190428 Z-0.125000
G01 X39.736046 Y88.136268 Z-0.125000
G01 X44.166356 Y88.321476 Z-0.125000
G01 X51.844581 Y89.249262 Z-0.125000
G01 X54.551186 Y89.369806 Z-0.125000
G01 X56.331830 Y89.211771 Z-0.125000
G01 X58.027039 Y88.831433 Z-0.125000
G01 X59.821944 Y88.187306 Z-0.125000
G01 X63.112616 Y86.674076 Z-0.125000
G01 X64.508661 Y86.115859 Z-0.125000
G01 X66.004402 Y85.728668 Z-0.125000
G01 X67.400448 Y85.640588 Z-0.125000
G01 X68.796494 Y85.848895 Z-0.125000
G01 X70.292261 Y86.379119 Z-0.125000
G01 X71.632903 Y87.058251 Z-0.125000
G01 X75.001124 Y89.002274 Z-0.125000
G01 X76.773883 Y89.803405 Z-0.125000
G01 X78.469066 Y90.274178 Z-0.125000
G01 X80.306701 Y90.439568 Z-0.125000
G01 X81.446339 Y90.385197 Z-0.125000
G01 X82.756898 Y90.211683 Z-0.125000
G01 X88.739940 Y89.019260 Z-0.125000
G01 X90.335402 Y88.840376 Z-0.125000
G01 X91.816934 Y88.781030 Z-0.125000
G01 X93.526352 Y88.851039 Z-0.125000
G01 X95.221562 Y89.064584 Z-0.125000
G01 X101.204577 Y90.344742 Z-0.125000
G01 X102.415441 Y90.438775 Z-0.125000
G01 X103.597810 Y90.357812 Z-0.125000
G01 X104.694692 Y90.089578 Z-0.125000
G01 X105.846977 Y89.588537 Z-0.125000
G01 X107.176533 Y88.754201 Z-0.125000
G01 X110.456119 Y86.325832 Z-0.125000
G01 X111.475451 Y85.833893 Z-0.125000
G01 X112.472638 Y85.636805 Z-0.125000
G01 X113.370077 Y85.740072 Z-0.125000
G01 X114.267543 Y86.105514 Z-0.125000
G01 X115.224831 Y86.733052 Z-0.125000
G01 X117.139406 Y88.288085 Z-0.125000
G01 X117.901670 Y88.815823 Z-0.125000
G01 X118.754818 Y89.222328 Z-0.125000
G01 X119.552562 Y89.372770 Z-0.125000
G01 X120.250585 Y89.307841 Z-0.125000
G01 X120.948607 Y89.071648 Z-0.125000
G01 X121.713094 Y88.654295 Z-0.125000
G01 X124.239253 Y86.989089 Z-0.125000
G01 X125.036997 Y86.677251 Z-0.125000
G01 X125.777750 Y86.566629 Z-0.125000
G01 X126.333321 Y86.600522 Z-0.125000
G01 X127.031344 Y86.774882 Z-0.125000
G01 X130.122573 Y88.246652 Z-0.125000
G01 X130.920317 Y88.485411 Z-0.125000
G01 X131.718062 Y88.578015 Z-0.125000
G01 X132.914665 Y88.451280 Z-0.125000
G01 X136.105615 Y87.462586 Z-0.125000
G01 X137.743834 Y87.231023 Z-0.125000
G01 X139.296565 Y87.319897 Z-0.125000
G01 X142.986096 Y87.923199 Z-0.125000
G01 X144.923452 Y88.048611 Z-0.125000
G01 X154.268391 Y87.645969 Z-0.125000
G01 X168.513699 Y87.629088 Z-0.125000
G00 Z3.000000

(End cutting path id: polyline31087)


(Start cutting path id: polyline31085)
(Change tool to Default tool)

G00 Z3.000000
G00 X12.157131 Y89.192642

G00 Z4.875000 (Fast pre-penetrate)
G01 Z-0.125000 F400.0(Penetrate)
G01 X14.650059 Y89.839230 Z-0.125000 F800.000000
G01 X16.744101 Y90.276294 Z-0.125000
G01 X18.638727 Y90.547069 Z-0.125000
G01 X20.590344 Y90.683937 Z-0.125000
G01 X22.641683 Y90.675285 Z-0.125000
G01 X24.821211 Y90.521960 Z-0.125000
G01 X32.100551 Y89.573430 Z-0.125000
G01 X35.092085 Y89.260428 Z-0.125000
G01 X37.684734 Y89.095990 Z-0.125000
G01 X40.191896 Y89.042570 Z-0.125000
G01 X42.813041 Y89.104906 Z-0.125000
G01 X45.462654 Y89.299877 Z-0.125000
G01 X48.155024 Y89.636136 Z-0.125000
G01 X53.838902 Y90.542994 Z-0.125000
G01 X55.348904 Y90.677587 Z-0.125000
G01 X56.716454 Y90.686715 Z-0.125000
G01 X58.326177 Y90.513466 Z-0.125000
G01 X59.821944 Y90.149400 Z-0.125000
G01 X61.517127 Y89.513184 Z-0.125000
G01 X64.708078 Y87.997997 Z-0.125000
G01 X66.004402 Y87.463274 Z-0.125000
G01 X67.500169 Y87.058198 Z-0.125000
G01 X68.796494 Y86.959561 Z-0.125000
G01 X70.092818 Y87.125111 Z-0.125000
G01 X71.389142 Y87.541353 Z-0.125000
G01 X72.873823 Y88.261918 Z-0.125000
G01 X75.887503 Y90.032799 Z-0.125000
G01 X77.272463 Y90.748840 Z-0.125000
G01 X78.768204 Y91.328567 Z-0.125000
G01 X80.263971 Y91.665673 Z-0.125000
G01 X81.674251 Y91.762563 Z-0.125000
G01 X83.255478 Y91.655539 Z-0.125000
G01 X84.850967 Y91.385347 Z-0.125000
G01 X89.836822 Y90.327332 Z-0.125000
G01 X91.631726 Y90.104606 Z-0.125000
G01 X93.298440 Y90.035974 Z-0.125000
G01 X94.822677 Y90.100294 Z-0.125000
G01 X96.418165 Y90.296535 Z-0.125000
G01 X101.902600 Y91.541636 Z-0.125000
G01 X103.896947 Y91.762431 Z-0.125000
G01 X105.392715 Y91.604607 Z-0.125000
G01 X106.888482 Y91.073615 Z-0.125000
G01 X108.328819 Y90.208164 Z-0.125000
G01 X110.837277 Y88.268136 Z-0.125000
G01 X111.785701 Y87.621363 Z-0.125000
G01 X112.771776 Y87.148103 Z-0.125000
G01 X113.669241 Y86.962921 Z-0.125000
G01 X114.566707 Y87.051530 Z-0.125000
G01 X115.419828 Y87.389270 Z-0.125000
G01 X116.394843 Y88.028397 Z-0.125000
G01 X118.965320 Y90.079048 Z-0.125000
G01 X119.851699 Y90.529236 Z-0.125000
G01 X120.649443 Y90.695076 Z-0.125000
G01 X121.347466 Y90.634513 Z-0.125000
G01 X122.045489 Y90.393531 Z-0.125000
G01 X122.865379 Y89.928500 Z-0.125000
G01 X125.169950 Y88.359470 Z-0.125000
G01 X125.934462 Y88.030964 Z-0.125000
G01 X126.732207 Y87.890708 Z-0.125000
G01 X127.330508 Y87.928358 Z-0.125000
G01 X127.928810 Y88.078139 Z-0.125000
G01 X130.920317 Y89.540357 Z-0.125000
G01 X131.718062 Y89.796738 Z-0.125000
G01 X132.515779 Y89.900110 Z-0.125000
G01 X133.712409 Y89.774142 Z-0.125000
G01 X136.803638 Y88.791111 Z-0.125000
G01 X138.427595 Y88.553727 Z-0.125000
G01 X139.994588 Y88.649532 Z-0.125000
G01 X143.584397 Y89.250294 Z-0.125000
G01 X145.493284 Y89.372373 Z-0.125000
G01 X154.496303 Y88.968646 Z-0.125000
G01 X168.513699 Y88.954226 Z-0.125000
G00 Z3.000000

(End cutting path id: polyline31085)


(Start cutting path id: polyline31083)
(Change tool to Default tool)

G00 Z3.000000
G00 X12.157131 Y91.158149

G00 Z4.875000 (Fast pre-penetrate)
G01 Z-0.125000 F400.0(Penetrate)
G01 X14.450616 Y91.603019 Z-0.125000 F800.000000
G01 X16.544685 Y91.881863 Z-0.125000
G01 X18.539032 Y92.009630 Z-0.125000
G01 X20.590344 Y91.995740 Z-0.125000
G01 X24.023467 Y91.691284 Z-0.125000
G01 X30.903948 Y90.652293 Z-0.125000
G01 X34.194620 Y90.258594 Z-0.125000
G01 X38.026602 Y89.998641 Z-0.125000
G01 X41.787385 Y89.957578 Z-0.125000
G01 X44.636441 Y90.076534 Z-0.125000
G01 X47.257585 Y90.321141 Z-0.125000
G01 X50.049650 Y90.740373 Z-0.125000
G01 X55.733528 Y91.827624 Z-0.125000
G01 X57.286286 Y91.995158 Z-0.125000
G01 X58.653837 Y92.009101 Z-0.125000
G01 X60.121108 Y91.843049 Z-0.125000
G01 X61.616849 Y91.459271 Z-0.125000
G01 X63.212337 Y90.830305 Z-0.125000
G01 X66.203845 Y89.358482 Z-0.125000
G01 X67.500169 Y88.802858 Z-0.125000
G01 X68.796494 Y88.421012 Z-0.125000
G01 X70.050088 Y88.281047 Z-0.125000
G01 X71.488864 Y88.435511 Z-0.125000
G01 X72.984604 Y88.936684 Z-0.125000
G01 X74.469285 Y89.696593 Z-0.125000
G01 X77.748871 Y91.646120 Z-0.125000
G01 X79.466226 Y92.449050 Z-0.125000
G01 X81.061715 Y92.913181 Z-0.125000
G01 X82.699933 Y93.084234 Z-0.125000
G01 X83.953501 Y93.028460 Z-0.125000
G01 X85.249826 Y92.839548 Z-0.125000
G01 X89.737100 Y91.783200 Z-0.125000
G01 X91.532031 Y91.433369 Z-0.125000
G01 X93.127493 Y91.237498 Z-0.125000
G01 X94.665991 Y91.172490 Z-0.125000
G01 X96.418165 Y91.257844 Z-0.125000
G01 X98.213070 Y91.518803 Z-0.125000
G01 X104.196111 Y92.976073 Z-0.125000
G01 X105.378454 Y93.084419 Z-0.125000
G01 X106.489596 Y93.011474 Z-0.125000
G01 X107.586478 Y92.733873 Z-0.125000
G01 X108.683386 Y92.233759 Z-0.125000
G01 X109.835672 Y91.487000 Z-0.125000
G01 X113.115257 Y88.962957 Z-0.125000
G01 X114.167821 Y88.449005 Z-0.125000
G01 X115.065287 Y88.281709 Z-0.125000
G01 X115.863005 Y88.374710 Z-0.125000
G01 X116.749384 Y88.741898 Z-0.125000
G01 X117.618037 Y89.327288 Z-0.125000
G01 X120.206267 Y91.433210 Z-0.125000
G01 X121.048302 Y91.861332 Z-0.125000
G01 X121.846047 Y92.018970 Z-0.125000
G01 X122.544069 Y91.942162 Z-0.125000
G01 X123.219920 Y91.689935 Z-0.125000
G01 X124.017664 Y91.214876 Z-0.125000
G01 X126.144965 Y89.715193 Z-0.125000
G01 X126.931623 Y89.358720 Z-0.125000
G01 X127.729367 Y89.212909 Z-0.125000
G01 X128.327669 Y89.255427 Z-0.125000
G01 X128.925970 Y89.413833 Z-0.125000
G01 X131.817783 Y90.867479 Z-0.125000
G01 X132.615501 Y91.126691 Z-0.125000
G01 X133.413245 Y91.224560 Z-0.125000
G01 X134.709569 Y91.052819 Z-0.125000
G01 X137.800798 Y90.055182 Z-0.125000
G01 X139.225340 Y89.874657 Z-0.125000
G01 X140.692611 Y89.972579 Z-0.125000
G01 X144.182699 Y90.569055 Z-0.125000
G01 X146.063090 Y90.694732 Z-0.125000
G01 X154.952153 Y90.290767 Z-0.125000
G01 X168.513699 Y90.277591 Z-0.125000
G00 Z3.000000

(End cutting path id: polyline31083)


(Start cutting path id: polyline31081)
(Change tool to Default tool)

G00 Z3.000000
G00 X12.157131 Y93.012638

G00 Z4.875000 (Fast pre-penetrate)
G01 Z-0.125000 F400.0(Penetrate)
G01 X15.689949 Y93.323126 Z-0.125000 F800.000000
G01 X19.222794 Y93.258912 Z-0.125000
G01 X22.427979 Y92.906726 Z-0.125000
G01 X29.408208 Y91.762245 Z-0.125000
G01 X32.898295 Y91.309200 Z-0.125000
G01 X37.114902 Y90.993605 Z-0.125000
G01 X41.673402 Y90.905790 Z-0.125000
G01 X45.434185 Y91.023080 Z-0.125000
G01 X48.753326 Y91.325869 Z-0.125000
G01 X51.844581 Y91.836752 Z-0.125000
G01 X57.628154 Y93.118260 Z-0.125000
G01 X59.223643 Y93.316379 Z-0.125000
G01 X60.591193 Y93.328630 Z-0.125000
G01 X61.916013 Y93.163741 Z-0.125000
G01 X63.312058 Y92.787134 Z-0.125000
G01 X64.807799 Y92.174598 Z-0.125000
G01 X67.799333 Y90.652108 Z-0.125000
G01 X68.995936 Y90.126170 Z-0.125000
G01 X70.292261 Y89.736280 Z-0.125000
G01 X71.531594 Y89.603618 Z-0.125000
G01 X72.984604 Y89.783456 Z-0.125000
G01 X74.480371 Y90.324501 Z-0.125000
G01 X75.798868 Y91.028054 Z-0.125000
G01 X78.989818 Y92.977925 Z-0.125000
G01 X80.662829 Y93.782733 Z-0.125000
G01 X82.158597 Y94.233451 Z-0.125000
G01 X83.725589 Y94.406805 Z-0.125000
G01 X84.950688 Y94.348809 Z-0.125000
G01 X86.346734 Y94.120341 Z-0.125000
G01 X90.933703 Y92.895983 Z-0.125000
G01 X92.728634 Y92.499850 Z-0.125000
G01 X94.423818 Y92.262096 Z-0.125000
G01 X96.033541 Y92.182774 Z-0.125000
G01 X97.814211 Y92.273711 Z-0.125000
G01 X99.708837 Y92.575917 Z-0.125000
G01 X101.404020 Y93.004198 Z-0.125000
G01 X104.594970 Y93.980721 Z-0.125000
G01 X105.891295 Y94.282954 Z-0.125000
G01 X106.988177 Y94.404398 Z-0.125000
G01 X108.085085 Y94.344126 Z-0.125000
G01 X109.181966 Y94.060678 Z-0.125000
G01 X110.179127 Y93.593054 Z-0.125000
G01 X111.315908 Y92.836796 Z-0.125000
G01 X114.533449 Y90.277882 Z-0.125000
G01 X115.464146 Y89.799966 Z-0.125000
G01 X116.361611 Y89.606979 Z-0.125000
G01 X117.159329 Y89.691936 Z-0.125000
G01 X117.957073 Y90.017400 Z-0.125000
G01 X118.876684 Y90.643615 Z-0.125000
G01 X121.358552 Y92.727815 Z-0.125000
G01 X122.244932 Y93.193375 Z-0.125000
G01 X123.042650 Y93.344028 Z-0.125000
G01 X123.640951 Y93.273226 Z-0.125000
G01 X124.239253 Y93.057353 Z-0.125000
G01 X124.992679 Y92.617457 Z-0.125000
G01 X127.230787 Y91.011359 Z-0.125000
G01 X128.028505 Y90.656606 Z-0.125000
G01 X128.726527 Y90.535374 Z-0.125000
G01 X129.324829 Y90.581411 Z-0.125000
G01 X129.923157 Y90.750797 Z-0.125000
G01 X132.715222 Y92.190023 Z-0.125000
G01 X133.413245 Y92.429735 Z-0.125000
G01 X134.210989 Y92.545676 Z-0.125000
G01 X135.307871 Y92.435583 Z-0.125000
G01 X138.299379 Y91.450805 Z-0.125000
G01 X139.909102 Y91.199768 Z-0.125000
G01 X141.390634 Y91.289700 Z-0.125000
G01 X144.980443 Y91.904697 Z-0.125000
G01 X146.746852 Y92.017859 Z-0.125000
G01 X155.408003 Y91.616037 Z-0.125000
G01 X168.513699 Y91.599156 Z-0.125000
G00 Z3.000000

(End cutting path id: polyline31081)


(Start cutting path id: polyline31079)
(Change tool to Default tool)

G00 Z3.000000
G00 X12.157131 Y94.634664

G00 Z4.875000 (Fast pre-penetrate)
G01 Z-0.125000 F400.0(Penetrate)
G01 X15.348082 Y94.635193 Z-0.125000 F800.000000
G01 X18.539032 Y94.381273 Z-0.125000
G01 X21.331097 Y93.987944 Z-0.125000
G01 X28.311299 Y92.802665 Z-0.125000
G01 X32.399715 Y92.309403 Z-0.125000
G01 X36.545096 Y92.051540 Z-0.125000
G01 X41.559446 Y91.966662 Z-0.125000
G01 X46.687753 Y92.073660 Z-0.125000
G01 X50.448536 Y92.393038 Z-0.125000
G01 X53.739207 Y92.974591 Z-0.125000
G01 X59.622501 Y94.440884 Z-0.125000
G01 X61.047043 Y94.634955 Z-0.125000
G01 X62.414593 Y94.649587 Z-0.125000
G01 X63.710917 Y94.470676 Z-0.125000
G01 X65.007242 Y94.094068 Z-0.125000
G01 X66.503009 Y93.444226 Z-0.125000
G01 X70.292261 Y91.504753 Z-0.125000
G01 X71.588585 Y91.081447 Z-0.125000
G01 X72.785188 Y90.927592 Z-0.125000
G01 X74.181234 Y91.078087 Z-0.125000
G01 X75.676975 Y91.614185 Z-0.125000
G01 X76.951153 Y92.305328 Z-0.125000
G01 X80.142104 Y94.321848 Z-0.125000
G01 X81.759738 Y95.125968 Z-0.125000
G01 X83.155783 Y95.560916 Z-0.125000
G01 X84.637289 Y95.730064 Z-0.125000
G01 X85.848127 Y95.661802 Z-0.125000
G01 X87.244173 Y95.399415 Z-0.125000
G01 X91.930890 Y93.949394 Z-0.125000
G01 X93.925238 Y93.441448 Z-0.125000
G01 X95.720142 Y93.156889 Z-0.125000
G01 X97.401091 Y93.064152 Z-0.125000
G01 X99.110535 Y93.153370 Z-0.125000
G01 X100.805718 Y93.427372 Z-0.125000
G01 X102.700344 Y93.937858 Z-0.125000
G01 X107.187619 Y95.475006 Z-0.125000
G01 X108.483944 Y95.708660 Z-0.125000
G01 X109.680547 Y95.685270 Z-0.125000
G01 X110.777428 Y95.406585 Z-0.125000
G01 X111.785701 Y94.914381 Z-0.125000
G01 X112.911396 Y94.123807 Z-0.125000
G01 X115.863005 Y91.659508 Z-0.125000
G01 X116.860192 Y91.118832 Z-0.125000
G01 X117.757657 Y90.928465 Z-0.125000
G01 X118.555375 Y91.034801 Z-0.125000
G01 X119.319887 Y91.376377 Z-0.125000
G01 X120.091015 Y91.920228 Z-0.125000
G01 X122.599473 Y94.083379 Z-0.125000
G01 X123.441535 Y94.527032 Z-0.125000
G01 X124.139558 Y94.664721 Z-0.125000
G01 X124.737859 Y94.604211 Z-0.125000
G01 X125.435882 Y94.335606 Z-0.125000
G01 X128.272265 Y92.323399 Z-0.125000
G01 X129.025691 Y91.982034 Z-0.125000
G01 X129.723714 Y91.858897 Z-0.125000
G01 X130.322016 Y91.907369 Z-0.125000
G01 X130.920317 Y92.087656 Z-0.125000
G01 X133.612688 Y93.508943 Z-0.125000
G01 X134.410432 Y93.777204 Z-0.125000
G01 X135.122689 Y93.869702 Z-0.125000
G01 X136.205336 Y93.749819 Z-0.125000
G01 X139.097123 Y92.779593 Z-0.125000
G01 X140.706846 Y92.522683 Z-0.125000
G01 X142.188352 Y92.615129 Z-0.125000
G01 X145.678466 Y93.222267 Z-0.125000
G01 X147.430641 Y93.340165 Z-0.125000
G01 X155.977836 Y92.942233 Z-0.125000
G01 X168.513699 Y92.919320 Z-0.125000
G00 Z3.000000

(End cutting path id: polyline31079)


(Start cutting path id: polyline31077)
(Change tool to Default tool)

G00 Z3.000000
G00 X12.157131 Y95.933793

G00 Z4.875000 (Fast pre-penetrate)
G01 Z-0.125000 F400.0(Penetrate)
G01 X14.550338 Y95.766815 Z-0.125000 F800.000000
G01 X17.043265 Y95.481065 Z-0.125000
G01 X26.017815 Y94.013503 Z-0.125000
G01 X30.205925 Y93.505689 Z-0.125000
G01 X35.177546 Y93.233697 Z-0.125000
G01 X42.813041 Y93.181177 Z-0.125000
G01 X48.739091 Y93.254917 Z-0.125000
G01 X52.442883 Y93.548472 Z-0.125000
G01 X55.633833 Y94.145000 Z-0.125000
G01 X61.417432 Y95.745304 Z-0.125000
G01 X62.813452 Y95.955992 Z-0.125000
G01 X64.109776 Y95.973295 Z-0.125000
G01 X65.306379 Y95.803539 Z-0.125000
G01 X66.503009 Y95.448019 Z-0.125000
G01 X67.899028 Y94.826513 Z-0.125000
G01 X70.591398 Y93.345431 Z-0.125000
G01 X71.788001 Y92.774461 Z-0.125000
G01 X72.984604 Y92.387693 Z-0.125000
G01 X74.152738 Y92.249422 Z-0.125000
G01 X75.477558 Y92.416189 Z-0.125000
G01 X76.862518 Y92.938158 Z-0.125000
G01 X78.103439 Y93.639435 Z-0.125000
G01 X81.205754 Y95.679846 Z-0.125000
G01 X82.657177 Y96.435125 Z-0.125000
G01 X83.953501 Y96.870338 Z-0.125000
G01 X85.321051 Y97.051048 Z-0.125000
G01 X86.645871 Y96.968577 Z-0.125000
G01 X88.041917 Y96.659571 Z-0.125000
G01 X92.928051 Y94.890833 Z-0.125000
G01 X94.922398 Y94.303750 Z-0.125000
G01 X96.817024 Y93.952596 Z-0.125000
G01 X98.768641 Y93.828242 Z-0.125000
G01 X100.606276 Y93.942833 Z-0.125000
G01 X102.401207 Y94.279118 Z-0.125000
G01 X104.495249 Y94.943009 Z-0.125000
G01 X108.982524 Y96.756937 Z-0.125000
G01 X110.179127 Y97.017922 Z-0.125000
G01 X111.375756 Y97.013609 Z-0.125000
G01 X112.372917 Y96.755879 Z-0.125000
G01 X113.381163 Y96.242641 Z-0.125000
G01 X114.427086 Y95.470879 Z-0.125000
G01 X117.298950 Y92.961997 Z-0.125000
G01 X118.167602 Y92.465004 Z-0.125000
G01 X119.053982 Y92.252094 Z-0.125000
G01 X119.851699 Y92.354938 Z-0.125000
G01 X120.649443 Y92.732603 Z-0.125000
G01 X121.526959 Y93.403216 Z-0.125000
G01 X123.760622 Y95.404495 Z-0.125000
G01 X124.549503 Y95.839152 Z-0.125000
G01 X125.236440 Y95.986921 Z-0.125000
G01 X125.834741 Y95.926914 Z-0.125000
G01 X126.410871 Y95.715195 Z-0.125000
G01 X127.190888 Y95.231167 Z-0.125000
G01 X129.335915 Y93.614750 Z-0.125000
G01 X130.022852 Y93.303415 Z-0.125000
G01 X130.720875 Y93.181733 Z-0.125000
G01 X131.319176 Y93.236952 Z-0.125000
G01 X132.017199 Y93.465975 Z-0.125000
G01 X134.809291 Y94.948724 Z-0.125000
G01 X135.407592 Y95.120968 Z-0.125000
G01 X136.034389 Y95.192802 Z-0.125000
G01 X136.703917 Y95.147770 Z-0.125000
G01 X137.401939 Y94.988174 Z-0.125000
G01 X140.194004 Y94.035225 Z-0.125000
G01 X141.618546 Y93.843191 Z-0.125000
G01 X143.085817 Y93.950320 Z-0.125000
G01 X146.376489 Y94.534096 Z-0.125000
G01 X148.228385 Y94.663345 Z-0.125000
G01 X156.661597 Y94.269275 Z-0.125000
G01 X168.513699 Y94.238980 Z-0.125000
G00 Z3.000000

(End cutting path id: polyline31077)


(Start cutting path id: polyline31075)
(Change tool to Default tool)

G00 Z3.000000
G00 X12.157131 Y96.890261

G00 Z4.875000 (Fast pre-penetrate)
G01 Z-0.125000 F400.0(Penetrate)
G01 X15.846662 Y96.424383 Z-0.125000 F800.000000
G01 X24.322631 Y95.118666 Z-0.125000
G01 X29.023583 Y94.650301 Z-0.125000
G01 X33.468101 Y94.504833 Z-0.125000
G01 X42.243235 Y94.569180 Z-0.125000
G01 X50.106642 Y94.504278 Z-0.125000
G01 X53.140879 Y94.620377 Z-0.125000
G01 X55.733528 Y94.953010 Z-0.125000
G01 X58.126761 Y95.517842 Z-0.125000
G01 X63.012894 Y97.024828 Z-0.125000
G01 X64.408940 Y97.269117 Z-0.125000
G01 X65.605543 Y97.303778 Z-0.125000
G01 X66.802146 Y97.141138 Z-0.125000
G01 X67.998749 Y96.773791 Z-0.125000
G01 X69.295074 Y96.173532 Z-0.125000
G01 X72.984604 Y94.137354 Z-0.125000
G01 X74.181234 Y93.720953 Z-0.125000
G01 X75.292350 Y93.573078 Z-0.125000
G01 X76.374997 Y93.679281 Z-0.125000
G01 X77.571600 Y94.077452 Z-0.125000
G01 X78.901183 Y94.803997 Z-0.125000
G01 X81.737566 Y96.760747 Z-0.125000
G01 X83.067148 Y97.553967 Z-0.125000
G01 X84.551803 Y98.150628 Z-0.125000
G01 X86.004840 Y98.374280 Z-0.125000
G01 X87.343894 Y98.271490 Z-0.125000
G01 X88.739940 Y97.905836 Z-0.125000
G01 X93.626074 Y95.836718 Z-0.125000
G01 X95.819864 Y95.091017 Z-0.125000
G01 X97.913932 Y94.656016 Z-0.125000
G01 X100.022235 Y94.508908 Z-0.125000
G01 X102.102043 Y94.657286 Z-0.125000
G01 X104.096390 Y95.092128 Z-0.125000
G01 X106.290154 Y95.910669 Z-0.125000
G01 X109.481104 Y97.494171 Z-0.125000
G01 X110.677734 Y98.009156 Z-0.125000
G01 X111.874337 Y98.326946 Z-0.125000
G01 X113.070940 Y98.337133 Z-0.125000
G01 X113.968379 Y98.093187 Z-0.125000
G01 X114.888016 Y97.606487 Z-0.125000
G01 X115.942803 Y96.789269 Z-0.125000
G01 X117.937124 Y94.894882 Z-0.125000
G01 X118.699414 Y94.264909 Z-0.125000
G01 X119.552562 Y93.767097 Z-0.125000
G01 X120.350279 Y93.575935 Z-0.125000
G01 X121.048302 Y93.657374 Z-0.125000
G01 X121.801729 Y94.001041 Z-0.125000
G01 X122.564019 Y94.574683 Z-0.125000
G01 X124.904044 Y96.729050 Z-0.125000
G01 X125.635298 Y97.148785 Z-0.125000
G01 X126.333321 Y97.310577 Z-0.125000
G01 X126.931623 Y97.245437 Z-0.125000
G01 X127.529924 Y97.006545 Z-0.125000
G01 X128.183630 Y96.590859 Z-0.125000
G01 X130.222295 Y95.007382 Z-0.125000
G01 X131.020039 Y94.622705 Z-0.125000
G01 X131.718062 Y94.503272 Z-0.125000
G01 X132.316363 Y94.568492 Z-0.125000
G01 X132.914665 Y94.765527 Z-0.125000
G01 X135.706730 Y96.266004 Z-0.125000
G01 X136.305058 Y96.442375 Z-0.125000
G01 X136.946089 Y96.515532 Z-0.125000
G01 X137.601382 Y96.469441 Z-0.125000
G01 X138.299379 Y96.307543 Z-0.125000
G01 X141.091470 Y95.347689 Z-0.125000
G01 X142.416290 Y95.167349 Z-0.125000
G01 X143.883561 Y95.267573 Z-0.125000
G01 X147.273928 Y95.866060 Z-0.125000
G01 X149.026103 Y95.985784 Z-0.125000
G01 X157.459342 Y95.597111 Z-0.125000
G01 X168.513699 Y95.559382 Z-0.125000
G00 Z3.000000

(End cutting path id: polyline31075)


(Start cutting path id: polyline31073)
(Change tool to Default tool)

G00 Z3.000000
G00 X12.157131 Y97.579394

G00 Z4.875000 (Fast pre-penetrate)
G01 Z-0.125000 F400.0(Penetrate)
G01 X21.729982 Y96.316142 Z-0.125000 F800.000000
G01 X27.086201 Y95.886142 Z-0.125000
G01 X31.416789 Y95.834998 Z-0.125000
G01 X42.926997 Y96.123790 Z-0.125000
G01 X53.867398 Y95.830738 Z-0.125000
G01 X56.132414 Y95.964829 Z-0.125000
G01 X58.126761 Y96.282381 Z-0.125000
G01 X60.121108 Y96.813029 Z-0.125000
G01 X64.608383 Y98.323745 Z-0.125000
G01 X65.904707 Y98.579147 Z-0.125000
G01 X67.087049 Y98.629576 Z-0.125000
G01 X68.397635 Y98.435558 Z-0.125000
G01 X69.693959 Y97.980528 Z-0.125000
G01 X70.835159 Y97.398128 Z-0.125000
G01 X73.494271 Y95.813461 Z-0.125000
G01 X74.679814 Y95.256884 Z-0.125000
G01 X75.676975 Y94.971320 Z-0.125000
G01 X76.659900 Y94.898348 Z-0.125000
G01 X77.870764 Y95.115015 Z-0.125000
G01 X79.067368 Y95.638333 Z-0.125000
G01 X80.230739 Y96.369694 Z-0.125000
G01 X82.978486 Y98.357268 Z-0.125000
G01 X84.352386 Y99.135750 Z-0.125000
G01 X85.648711 Y99.579112 Z-0.125000
G01 X86.916540 Y99.697566 Z-0.125000
G01 X88.141638 Y99.530826 Z-0.125000
G01 X89.437963 Y99.108472 Z-0.125000
G01 X94.224375 Y96.754900 Z-0.125000
G01 X96.517886 Y95.871563 Z-0.125000
G01 X97.714489 Y95.551947 Z-0.125000
G01 X99.010814 Y95.316071 Z-0.125000
G01 X101.503741 Y95.167693 Z-0.125000
G01 X103.896947 Y95.404654 Z-0.125000
G01 X106.090737 Y95.997796 Z-0.125000
G01 X108.062913 Y96.873116 Z-0.125000
G01 X112.173474 Y99.190281 Z-0.125000
G01 X113.270382 Y99.583927 Z-0.125000
G01 X114.167821 Y99.700212 Z-0.125000
G01 X115.165008 Y99.552521 Z-0.125000
G01 X116.217572 Y99.050660 Z-0.125000
G01 X117.298950 Y98.197883 Z-0.125000
G01 X119.293297 Y96.216421 Z-0.125000
G01 X120.028970 Y95.581078 Z-0.125000
G01 X120.848886 Y95.085434 Z-0.125000
G01 X121.646604 Y94.897025 Z-0.125000
G01 X122.344627 Y95.001270 Z-0.125000
G01 X123.042650 Y95.351102 Z-0.125000
G01 X123.840394 Y95.992769 Z-0.125000
G01 X125.994285 Y98.045933 Z-0.125000
G01 X126.732207 Y98.478182 Z-0.125000
G01 X127.430203 Y98.633175 Z-0.125000
G01 X128.028505 Y98.557319 Z-0.125000
G01 X128.626833 Y98.300118 Z-0.125000
G01 X131.285945 Y96.286112 Z-0.125000
G01 X131.917478 Y95.973798 Z-0.125000
G01 X132.615501 Y95.827934 Z-0.125000
G01 X133.213802 Y95.878469 Z-0.125000
G01 X133.812104 Y96.067937 Z-0.125000
G01 X136.604195 Y97.582145 Z-0.125000
G01 X137.202497 Y97.763570 Z-0.125000
G01 X137.857790 Y97.838288 Z-0.125000
G01 X139.097123 Y97.656890 Z-0.125000
G01 X141.889214 Y96.687802 Z-0.125000
G01 X143.214034 Y96.492460 Z-0.125000
G01 X144.681279 Y96.582127 Z-0.125000
G01 X148.171394 Y97.194028 Z-0.125000
G01 X149.937803 Y97.309360 Z-0.125000
G01 X158.257086 Y96.928440 Z-0.125000
G01 X168.513699 Y96.882191 Z-0.125000
G00 Z3.000000

(End cutting path id: polyline31073)


(Start cutting path id: polyline31071)
(Change tool to Default tool)

G00 Z3.000000
G00 X12.157131 Y98.164492

G00 Z4.875000 (Fast pre-penetrate)
G01 Z-0.125000 F400.0(Penetrate)
G01 X19.536193 Y97.438318 Z-0.125000 F800.000000
G01 X24.579039 Y97.167015 Z-0.125000
G01 X29.137539 Y97.199743 Z-0.125000
G01 X38.482452 Y97.699911 Z-0.125000
G01 X43.040952 Y97.806274 Z-0.125000
G01 X46.915691 Y97.715098 Z-0.125000
G01 X54.209292 Y97.205511 Z-0.125000
G01 X56.830436 Y97.160030 Z-0.125000
G01 X58.525620 Y97.291924 Z-0.125000
G01 X60.220803 Y97.600587 Z-0.125000
G01 X62.015734 Y98.128483 Z-0.125000
G01 X66.104123 Y99.619884 Z-0.125000
G01 X67.300727 Y99.885367 Z-0.125000
G01 X68.454599 Y99.955666 Z-0.125000
G01 X69.693959 Y99.782232 Z-0.125000
G01 X70.990284 Y99.317281 Z-0.125000
G01 X72.164715 Y98.690536 Z-0.125000
G01 X74.646582 Y97.144472 Z-0.125000
G01 X75.776696 Y96.586652 Z-0.125000
G01 X76.773883 Y96.290028 Z-0.125000
G01 X77.671322 Y96.220469 Z-0.125000
G01 X78.867925 Y96.442745 Z-0.125000
G01 X80.053468 Y96.991543 Z-0.125000
G01 X81.117118 Y97.697292 Z-0.125000
G01 X83.687595 Y99.652798 Z-0.125000
G01 X84.950688 Y100.420248 Z-0.125000
G01 X86.147291 Y100.877262 Z-0.125000
G01 X87.258434 Y101.022783 Z-0.125000
G01 X88.440776 Y100.886337 Z-0.125000
G01 X89.836822 Y100.402150 Z-0.125000
G01 X91.133146 Y99.737438 Z-0.125000
G01 X94.523539 Y97.782170 Z-0.125000
G01 X96.717303 Y96.805224 Z-0.125000
G01 X97.913932 Y96.427981 Z-0.125000
G01 X99.110535 Y96.156757 Z-0.125000
G01 X101.617697 Y95.885136 Z-0.125000
G01 X103.213186 Y95.895508 Z-0.125000
G01 X104.694692 Y96.035975 Z-0.125000
G01 X106.090737 Y96.305374 Z-0.125000
G01 X107.387062 Y96.700899 Z-0.125000
G01 X108.483944 Y97.160585 Z-0.125000
G01 X109.658401 Y97.783943 Z-0.125000
G01 X113.868684 Y100.493617 Z-0.125000
G01 X114.865844 Y100.894592 Z-0.125000
G01 X115.663589 Y101.021539 Z-0.125000
G01 X116.660749 Y100.878664 Z-0.125000
G01 X117.635764 Y100.389927 Z-0.125000
G01 X118.618848 Y99.581361 Z-0.125000
G01 X120.504399 Y97.612149 Z-0.125000
G01 X121.287644 Y96.899018 Z-0.125000
G01 X122.067635 Y96.408693 Z-0.125000
G01 X122.843233 Y96.219596 Z-0.125000
G01 X123.441535 Y96.302013 Z-0.125000
G01 X124.106300 Y96.617714 Z-0.125000
G01 X124.855705 Y97.211200 Z-0.125000
G01 X127.031344 Y99.342813 Z-0.125000
G01 X127.740453 Y99.783079 Z-0.125000
G01 X128.427390 Y99.954820 Z-0.125000
G01 X129.025691 Y99.886901 Z-0.125000
G01 X129.601821 Y99.647533 Z-0.125000
G01 X132.260959 Y97.606513 Z-0.125000
G01 X132.914665 Y97.285812 Z-0.125000
G01 X133.612688 Y97.149684 Z-0.125000
G01 X134.210989 Y97.210671 Z-0.125000
G01 X134.809291 Y97.417098 Z-0.125000
G01 X137.501661 Y98.899319 Z-0.125000
G01 X138.099962 Y99.085427 Z-0.125000
G01 X138.698264 Y99.159748 Z-0.125000
G01 X139.795146 Y99.030473 Z-0.125000
G01 X142.587237 Y98.057892 Z-0.125000
G01 X144.125734 Y97.814079 Z-0.125000
G01 X145.578745 Y97.909223 Z-0.125000
G01 X148.969138 Y98.506757 Z-0.125000
G01 X150.849503 Y98.632434 Z-0.125000
G01 X159.168786 Y98.261118 Z-0.125000
G01 X168.513699 Y98.209472 Z-0.125000
G00 Z3.000000

(End cutting path id: polyline31071)


(Start cutting path id: polyline31069)
(Change tool to Default tool)

G00 Z3.000000
G00 X12.157131 Y98.853176

G00 Z4.875000 (Fast pre-penetrate)
G01 Z-0.125000 F400.0(Penetrate)
G01 X18.880900 Y98.519775 Z-0.125000 F800.000000
G01 X24.009233 Y98.493554 Z-0.125000
G01 X28.225839 Y98.681673 Z-0.125000
G01 X38.254540 Y99.409911 Z-0.125000
G01 X43.952653 Y99.548579 Z-0.125000
G01 X48.625135 Y99.370859 Z-0.125000
G01 X56.431551 Y98.567532 Z-0.125000
G01 X59.223643 Y98.486464 Z-0.125000
G01 X60.719410 Y98.628915 Z-0.125000
G01 X62.115429 Y98.915961 Z-0.125000
G01 X63.710917 Y99.423749 Z-0.125000
G01 X67.599891 Y100.942296 Z-0.125000
G01 X68.696772 Y101.203281 Z-0.125000
G01 X69.793654 Y101.279402 Z-0.125000
G01 X70.990284 Y101.108746 Z-0.125000
G01 X72.186887 Y100.667077 Z-0.125000
G01 X73.317000 Y100.041788 Z-0.125000
G01 X75.710233 Y98.484585 Z-0.125000
G01 X76.773883 Y97.931077 Z-0.125000
G01 X77.771043 Y97.615139 Z-0.125000
G01 X78.668509 Y97.544813 Z-0.125000
G01 X79.765390 Y97.758860 Z-0.125000
G01 X80.939821 Y98.326920 Z-0.125000
G01 X81.959154 Y99.038701 Z-0.125000
G01 X84.396704 Y100.985185 Z-0.125000
G01 X85.548990 Y101.726494 Z-0.125000
G01 X86.645871 Y102.181656 Z-0.125000
G01 X87.742753 Y102.345221 Z-0.125000
G01 X88.939383 Y102.189805 Z-0.125000
G01 X90.235707 Y101.685113 Z-0.125000
G01 X91.399052 Y101.025905 Z-0.125000
G01 X94.855935 Y98.795496 Z-0.125000
G01 X96.019280 Y98.175790 Z-0.125000
G01 X97.116188 Y97.701657 Z-0.125000
G01 X98.312791 Y97.308170 Z-0.125000
G01 X99.509394 Y97.031786 Z-0.125000
G01 X100.905440 Y96.830888 Z-0.125000
G01 X102.415441 Y96.727569 Z-0.125000
G01 X104.352798 Y96.732966 Z-0.125000
G01 X106.090737 Y96.878963 Z-0.125000
G01 X107.586478 Y97.155796 Z-0.125000
G01 X108.982524 Y97.592649 Z-0.125000
G01 X110.079432 Y98.083583 Z-0.125000
G01 X110.899322 Y98.573035 Z-0.125000
G01 X115.331193 Y101.736045 Z-0.125000
G01 X116.261890 Y102.175200 Z-0.125000
G01 X117.159329 Y102.344798 Z-0.125000
G01 X118.056795 Y102.205072 Z-0.125000
G01 X118.965320 Y101.728584 Z-0.125000
G01 X119.924221 Y100.904117 Z-0.125000
G01 X122.422202 Y98.273898 Z-0.125000
G01 X123.242092 Y97.729915 Z-0.125000
G01 X123.940115 Y97.544389 Z-0.125000
G01 X124.638138 Y97.647815 Z-0.125000
G01 X125.258585 Y97.974892 Z-0.125000
G01 X125.914513 Y98.512287 Z-0.125000
G01 X128.094994 Y100.682793 Z-0.125000
G01 X128.726527 Y101.086097 Z-0.125000
G01 X129.424550 Y101.277973 Z-0.125000
G01 X130.022852 Y101.210848 Z-0.125000
G01 X130.576836 Y100.978412 Z-0.125000
G01 X131.179582 Y100.577304 Z-0.125000
G01 X133.235974 Y98.915035 Z-0.125000
G01 X133.911825 Y98.590577 Z-0.125000
G01 X134.510127 Y98.475060 Z-0.125000
G01 X135.108428 Y98.525066 Z-0.125000
G01 X135.607035 Y98.685695 Z-0.125000
G01 X138.199684 Y100.136826 Z-0.125000
G01 X138.897707 Y100.385191 Z-0.125000
G01 X139.595703 Y100.482980 Z-0.125000
G01 X140.792332 Y100.324733 Z-0.125000
G01 X143.684119 Y99.321276 Z-0.125000
G01 X145.037434 Y99.136015 Z-0.125000
G01 X146.376489 Y99.221025 Z-0.125000
G01 X149.866577 Y99.829249 Z-0.125000
G01 X151.761203 Y99.955190 Z-0.125000
G01 X160.080486 Y99.598294 Z-0.125000
G01 X168.513699 Y99.543367 Z-0.125000
G00 Z3.000000

(End cutting path id: polyline31069)


(Start cutting path id: polyline31067)
(Change tool to Default tool)

G00 Z3.000000
G00 X12.157131 Y99.828296

G00 Z4.875000 (Fast pre-penetrate)
G01 Z-0.125000 F400.0(Penetrate)
G01 X17.627332 Y99.800859 Z-0.125000 F800.000000
G01 X22.185833 Y99.922303 Z-0.125000
G01 X26.217257 Y100.173524 Z-0.125000
G01 X36.773034 Y101.056199 Z-0.125000
G01 X40.305852 Y101.225453 Z-0.125000
G01 X43.724741 Y101.280698 Z-0.125000
G01 X47.029647 Y101.218574 Z-0.125000
G01 X50.049650 Y101.037361 Z-0.125000
G01 X53.041184 Y100.714755 Z-0.125000
G01 X58.525620 Y99.923176 Z-0.125000
G01 X60.021387 Y99.805912 Z-0.125000
G01 X61.274955 Y99.809828 Z-0.125000
G01 X62.614036 Y99.952571 Z-0.125000
G01 X63.910360 Y100.246417 Z-0.125000
G01 X65.306379 Y100.726555 Z-0.125000
G01 X68.896215 Y102.229043 Z-0.125000
G01 X69.993097 Y102.516883 Z-0.125000
G01 X70.961788 Y102.604645 Z-0.125000
G01 X71.987444 Y102.490716 Z-0.125000
G01 X72.984604 Y102.167157 Z-0.125000
G01 X74.203379 Y101.520781 Z-0.125000
G01 X76.507950 Y99.956936 Z-0.125000
G01 X77.482965 Y99.386204 Z-0.125000
G01 X78.568787 Y98.971894 Z-0.125000
G01 X79.565948 Y98.867278 Z-0.125000
G01 X80.662829 Y99.094158 Z-0.125000
G01 X81.737566 Y99.640284 Z-0.125000
G01 X82.677126 Y100.321320 Z-0.125000
G01 X85.105787 Y102.349243 Z-0.125000
G01 X86.258098 Y103.111401 Z-0.125000
G01 X87.244173 Y103.521822 Z-0.125000
G01 X88.284090 Y103.668401 Z-0.125000
G01 X89.437963 Y103.484886 Z-0.125000
G01 X90.601334 Y102.983766 Z-0.125000
G01 X91.753620 Y102.263598 Z-0.125000
G01 X95.033205 Y99.924393 Z-0.125000
G01 X96.119001 Y99.284843 Z-0.125000
G01 X97.215909 Y98.765440 Z-0.125000
G01 X98.412512 Y98.346631 Z-0.125000
G01 X99.609115 Y98.065697 Z-0.125000
G01 X101.005161 Y97.872578 Z-0.125000
G01 X102.643353 Y97.769232 Z-0.125000
G01 X105.264498 Y97.752669 Z-0.125000
G01 X107.387062 Y97.867842 Z-0.125000
G01 X108.982524 Y98.112237 Z-0.125000
G01 X110.378570 Y98.521336 Z-0.125000
G01 X111.431134 Y98.990944 Z-0.125000
G01 X112.317513 Y99.531222 Z-0.125000
G01 X116.749384 Y103.021204 Z-0.125000
G01 X117.657936 Y103.491025 Z-0.125000
G01 X118.455654 Y103.664512 Z-0.125000
G01 X119.353119 Y103.532194 Z-0.125000
G01 X120.206267 Y103.068724 Z-0.125000
G01 X121.084577 Y102.289103 Z-0.125000
G01 X122.897605 Y100.241019 Z-0.125000
G01 X123.601079 Y99.554612 Z-0.125000
G01 X124.372232 Y99.041850 Z-0.125000
G01 X125.036997 Y98.868336 Z-0.125000
G01 X125.635298 Y98.944695 Z-0.125000
G01 X126.313372 Y99.290161 Z-0.125000
G01 X127.103866 Y99.971197 Z-0.125000
G01 X129.105463 Y102.012349 Z-0.125000
G01 X129.823436 Y102.454468 Z-0.125000
G01 X130.421737 Y102.600676 Z-0.125000
G01 X131.020039 Y102.529451 Z-0.125000
G01 X131.518619 Y102.313339 Z-0.125000
G01 X132.136870 Y101.899346 Z-0.125000
G01 X134.122354 Y100.267239 Z-0.125000
G01 X134.809291 Y99.922250 Z-0.125000
G01 X135.407592 Y99.799695 Z-0.125000
G01 X135.906172 Y99.825465 Z-0.125000
G01 X136.504474 Y100.003635 Z-0.125000
G01 X139.097123 Y101.462969 Z-0.125000
G01 X139.795146 Y101.711598 Z-0.125000
G01 X140.493168 Y101.806848 Z-0.125000
G01 X141.689772 Y101.640716 Z-0.125000
G01 X144.481863 Y100.662315 Z-0.125000
G01 X145.835152 Y100.461364 Z-0.125000
G01 X147.273928 Y100.546824 Z-0.125000
G01 X150.764042 Y101.149862 Z-0.125000
G01 X152.672903 Y101.277470 Z-0.125000
G01 X160.992186 Y100.940683 Z-0.125000
G01 X168.513699 Y100.885834 Z-0.125000
G00 Z3.000000

(End cutting path id: polyline31067)


(Start cutting path id: polyline31065)
(Change tool to Default tool)

G00 Z3.000000
G00 X12.157131 Y101.180977

G00 Z4.875000 (Fast pre-penetrate)
G01 Z-0.125000 F400.0(Penetrate)
G01 X16.943544 Y101.301600 Z-0.125000 F800.000000
G01 X21.274132 Y101.516865 Z-0.125000
G01 X36.317184 Y102.720585 Z-0.125000
G01 X40.191896 Y102.874599 Z-0.125000
G01 X44.180591 Y102.922938 Z-0.125000
G01 X48.511153 Y102.841156 Z-0.125000
G01 X52.043998 Y102.608270 Z-0.125000
G01 X55.035532 Y102.228911 Z-0.125000
G01 X60.519967 Y101.265749 Z-0.125000
G01 X61.844787 Y101.136527 Z-0.125000
G01 X62.984399 Y101.125917 Z-0.125000
G01 X64.209497 Y101.251462 Z-0.125000
G01 X65.505822 Y101.557690 Z-0.125000
G01 X66.802146 Y102.032034 Z-0.125000
G01 X70.192539 Y103.541401 Z-0.125000
G01 X71.189700 Y103.825008 Z-0.125000
G01 X72.215382 Y103.926978 Z-0.125000
G01 X73.184047 Y103.809265 Z-0.125000
G01 X74.181234 Y103.461629 Z-0.125000
G01 X75.267030 Y102.857269 Z-0.125000
G01 X77.482965 Y101.287868 Z-0.125000
G01 X78.469066 Y100.690149 Z-0.125000
G01 X79.466226 Y100.296344 Z-0.125000
G01 X80.463413 Y100.191913 Z-0.125000
G01 X81.460574 Y100.409559 Z-0.125000
G01 X82.535310 Y100.979761 Z-0.125000
G01 X83.474871 Y101.698342 Z-0.125000
G01 X85.628761 Y103.588947 Z-0.125000
G01 X86.789910 Y104.411112 Z-0.125000
G01 X87.742753 Y104.837567 Z-0.125000
G01 X88.739940 Y104.991607 Z-0.125000
G01 X89.836822 Y104.809918 Z-0.125000
G01 X91.044511 Y104.240773 Z-0.125000
G01 X92.170206 Y103.466815 Z-0.125000
G01 X95.121841 Y101.162059 Z-0.125000
G01 X96.096855 Y100.524732 Z-0.125000
G01 X97.116188 Y99.984585 Z-0.125000
G01 X98.113348 Y99.587896 Z-0.125000
G01 X99.210257 Y99.290584 Z-0.125000
G01 X100.406860 Y99.103524 Z-0.125000
G01 X101.731653 Y99.012243 Z-0.125000
G01 X108.683386 Y99.023091 Z-0.125000
G01 X110.179127 Y99.169220 Z-0.125000
G01 X111.575173 Y99.503521 Z-0.125000
G01 X112.672054 Y99.960561 Z-0.125000
G01 X113.735704 Y100.606408 Z-0.125000
G01 X115.703461 Y102.242378 Z-0.125000
G01 X117.298950 Y103.716873 Z-0.125000
G01 X118.167602 Y104.391348 Z-0.125000
G01 X118.954260 Y104.814971 Z-0.125000
G01 X119.751978 Y104.990443 Z-0.125000
G01 X120.649443 Y104.824840 Z-0.125000
G01 X121.447188 Y104.346845 Z-0.125000
G01 X122.311395 Y103.532061 Z-0.125000
G01 X124.565616 Y100.977883 Z-0.125000
G01 X125.347220 Y100.405167 Z-0.125000
G01 X126.133879 Y100.187521 Z-0.125000
G01 X126.732207 Y100.292401 Z-0.125000
G01 X127.297250 Y100.590586 Z-0.125000
G01 X127.974133 Y101.161054 Z-0.125000
G01 X130.062751 Y103.327010 Z-0.125000
G01 X130.754133 Y103.766085 Z-0.125000
G01 X131.418898 Y103.924464 Z-0.125000
G01 X131.917478 Y103.866071 Z-0.125000
G01 X132.515779 Y103.601885 Z-0.125000
G01 X135.008733 Y101.604759 Z-0.125000
G01 X135.706730 Y101.245482 Z-0.125000
G01 X136.305058 Y101.122504 Z-0.125000
G01 X136.803638 Y101.150021 Z-0.125000
G01 X137.401939 Y101.329778 Z-0.125000
G01 X139.994588 Y102.798373 Z-0.125000
G01 X140.692611 Y103.041948 Z-0.125000
G01 X141.390634 Y103.131059 Z-0.125000
G01 X142.587237 Y102.952016 Z-0.125000
G01 X145.379302 Y101.975863 Z-0.125000
G01 X146.746852 Y101.782691 Z-0.125000
G01 X148.171394 Y101.873099 Z-0.125000
G01 X151.661508 Y102.469099 Z-0.125000
G01 X153.584603 Y102.599168 Z-0.125000
G01 X161.903886 Y102.288945 Z-0.125000
G01 X168.513699 Y102.238224 Z-0.125000
G00 Z3.000000

(End cutting path id: polyline31065)


(Start cutting path id: polyline31063)
(Change tool to Default tool)

G00 Z3.000000
G00 X12.157131 Y102.874969

G00 Z4.875000 (Fast pre-penetrate)
G01 Z-0.125000 F400.0(Penetrate)
G01 X19.792600 Y103.195803 Z-0.125000 F800.000000
G01 X30.505089 Y104.004554 Z-0.125000
G01 X34.721696 Y104.251357 Z-0.125000
G01 X39.963984 Y104.397936 Z-0.125000
G01 X46.801735 Y104.415927 Z-0.125000
G01 X51.132298 Y104.317661 Z-0.125000
G01 X54.437204 Y104.070646 Z-0.125000
G01 X57.229295 Y103.657156 Z-0.125000
G01 X62.314872 Y102.610783 Z-0.125000
G01 X63.554231 Y102.465871 Z-0.125000
G01 X64.693843 Y102.448753 Z-0.125000
