%
(Header)
(Generated by gcodetools from Inkscape.)
(Using default header. To add your own header create file "header" in the output dir.)
M3
(Header end.)
G21 (All units in mm)

(Start cutting path id: path140)
(Change tool to Default tool)

G00 Z3.000000
G00 X125.621663 Y199.149687

G00 Z4.875000 (Fast pre-penetrate)
G01 Z-0.125000 F400.0(Penetrate)
G02 X123.120316 Y195.727113 Z-0.125000 I-14.966702 J8.312909 F800.000000
G02 X119.844613 Y193.017654 Z-0.125000 I-12.464961 J11.735112
G02 X116.003220 Y191.196919 Z-0.125000 I-9.226186 J14.502780
G02 X111.827603 Y190.374294 Z-0.125000 I-5.384522 J16.322693
G02 X107.577853 Y190.602666 Z-0.125000 I-1.209307 J17.151915
G02 X103.517393 Y191.866464 Z-0.125000 I3.040413 J16.923378
G02 X99.892226 Y194.089660 Z-0.125000 I7.077312 J15.607556
G02 X96.932554 Y197.128497 Z-0.125000 I10.702514 J13.384404
G02 X94.812827 Y200.802866 Z-0.125000 I13.577288 J10.281293
G02 X93.669224 Y204.871757 Z-0.125000 I15.697266 J6.607030
G02 X93.566874 Y209.097085 Z-0.125000 I16.712093 J2.518721
G02 X94.510344 Y213.200127 Z-0.125000 I16.816143 J-1.706779
G02 X96.442069 Y216.940925 Z-0.125000 I15.757253 J-5.767784
G02 X99.233964 Y220.074227 Z-0.125000 I13.825473 J-9.508544
G02 X102.717504 Y222.414553 Z-0.125000 I10.978786 J-12.579000
G02 X106.667573 Y223.810767 Z-0.125000 I7.495303 J-14.919439
G02 X110.840931 Y224.178875 Z-0.125000 I3.539869 J-16.291248
G02 X114.975183 Y223.494627 Z-0.125000 I-0.633489 J-16.659347
G02 X118.808719 Y221.802190 Z-0.125000 I-4.778907 J-16.012578
G02 X122.106843 Y219.202947 Z-0.125000 I-8.612665 J-14.320509
G02 X124.655223 Y215.865369 Z-0.125000 I-11.977360 J-11.786902
G02 X126.300523 Y211.986227 Z-0.125000 I-14.526464 J-8.449745
G02 X126.933037 Y207.820350 Z-0.125000 I-16.292013 J-4.604607
G02 X126.513533 Y203.611127 Z-0.125000 I-16.924824 J-0.438738
G02 X125.067385 Y199.635940 Z-0.125000 I-16.628408 J3.798667
G02 X122.677803 Y196.127924 Z-0.125000 I-15.181735 J7.773585
G02 X119.497984 Y193.316339 Z-0.125000 I-12.864706 J11.345667
G02 X115.716563 Y191.368544 Z-0.125000 I-9.684152 J14.156176
G02 X111.572406 Y190.409871 Z-0.125000 I-5.917765 J16.144818
G02 X107.318293 Y190.498024 Z-0.125000 I-1.773562 J17.103052
G02 X103.216239 Y191.628730 Z-0.125000 I2.477567 J16.994497
G02 X99.523314 Y193.729294 Z-0.125000 I6.579747 J15.864094
G02 X96.460725 Y196.673897 Z-0.125000 I10.224967 J13.699622
G02 X94.224274 Y200.271027 Z-0.125000 I13.287987 J10.755367
G02 X92.944370 Y204.308723 Z-0.125000 I15.416732 J7.108637
G02 X92.702724 Y208.521387 Z-0.125000 I16.697183 J3.071041
G02 X93.511430 Y212.662760 Z-0.125000 I16.810616 J-1.133044
G02 X95.315404 Y216.460217 Z-0.125000 I16.001621 J-5.274322
G02 X98.005975 Y219.690663 Z-0.125000 I14.107482 J-9.014144
G02 X101.406823 Y222.143637 Z-0.125000 I11.416789 J-12.244460
G02 X105.311246 Y223.672795 Z-0.125000 I7.987321 J-14.644964
G02 X109.469833 Y224.179997 Z-0.125000 I4.082905 J-16.174147
G02 X113.623642 Y223.635137 Z-0.125000 I-0.075819 J-16.683971
G02 X117.514563 Y222.070557 Z-0.125000 I-4.229538 J-16.138770
G02 X120.893588 Y219.586736 Z-0.125000 I-8.151185 J-14.629336
G02 X123.555643 Y216.331647 Z-0.125000 I-11.530719 J-12.146051
G02 X125.326082 Y212.517497 Z-0.125000 I-14.284601 J-8.948548
G02 X126.098293 Y208.368207 Z-0.125000 I-16.055466 J-5.134534
G02 X125.819581 Y204.156899 Z-0.125000 I-16.955509 J-0.992729
G02 X124.504263 Y200.129847 Z-0.125000 I-16.676250 J3.218474
G02 X122.236271 Y196.551665 Z-0.125000 I-15.465928 J7.295051
G02 X119.148143 Y193.633474 Z-0.125000 I-13.197125 J10.872565
G02 X115.437010 Y191.564728 Z-0.125000 I-10.153682 J13.851651
G02 X111.325633 Y190.469524 Z-0.125000 I-6.442390 J15.920004
G02 X107.071212 Y190.418151 Z-0.125000 I-2.333178 J17.031415
G02 X102.936303 Y191.412544 Z-0.125000 I1.921307 J17.083361
G02 X99.172714 Y193.392874 Z-0.125000 I6.039836 J16.045112
G02 X96.018504 Y196.231554 Z-0.125000 I9.803660 J14.065119
G02 X93.660642 Y199.759674 Z-0.125000 I12.884163 J11.162502
G02 X92.250354 Y203.746607 Z-0.125000 I15.242286 J7.634513
G02 X91.868760 Y207.958384 Z-0.125000 I16.530702 J3.620885
G02 X92.538804 Y212.117687 Z-0.125000 I16.912477 J-0.590898
G02 X94.219015 Y215.981070 Z-0.125000 I16.125775 J-4.716147
G02 X96.797664 Y219.295187 Z-0.125000 I14.445434 J-8.579452
G02 X100.119306 Y221.864133 Z-0.125000 I11.804227 J-11.830932
G02 X103.968633 Y223.521747 Z-0.125000 I8.482298 J-14.399392
G02 X108.109500 Y224.168461 Z-0.125000 I4.623569 J-16.024203
G02 X112.280473 Y223.762517 Z-0.125000 I0.482708 J-16.671126
G02 X116.218880 Y222.330515 Z-0.125000 I-3.694428 J-16.292573
G02 X119.682603 Y219.958507 Z-0.125000 I-7.633301 J-14.861476
G02 X122.447650 Y216.799680 Z-0.125000 I-11.152396 J-12.551727
G02 X124.347213 Y213.041027 Z-0.125000 I-13.917937 J-9.393233
G02 X125.255422 Y208.928752 Z-0.125000 I-15.929099 J-5.674420
G02 X125.116753 Y204.703707 Z-0.125000 I-16.837637 J-1.562175
G02 X123.938237 Y200.644003 Z-0.125000 I-16.822305 J2.682537
G02 X121.787313 Y196.987797 Z-0.125000 I-15.643063 J6.741929
G02 X118.801912 Y193.974229 Z-0.125000 I-13.571962 J10.459575
G02 X115.158603 Y191.782404 Z-0.125000 I-10.586040 J13.472480
G02 X111.088240 Y190.553637 Z-0.125000 I-6.963631 J15.711397
G02 X106.838103 Y190.361994 Z-0.125000 I-2.893228 J16.939930
G02 X102.671200 Y191.220638 Z-0.125000 I1.356166 J17.121395
G02 X98.847544 Y193.074354 Z-0.125000 I5.523129 J16.262929
G02 X95.597383 Y195.811738 Z-0.125000 I9.309142 J14.351155
G02 X93.127854 Y199.255417 Z-0.125000 I12.559601 J11.614047
G02 X91.583812 Y203.201744 Z-0.125000 I14.931768 J8.117438
G02 X91.064034 Y207.391857 Z-0.125000 I16.475700 J4.171083
G02 X91.597066 Y211.580317 Z-0.125000 I16.869531 J-0.018702
G02 X93.145984 Y215.491637 Z-0.125000 I16.337308 J-4.207371
G02 X95.617279 Y218.896104 Z-0.125000 I14.692210 J-8.065855
G02 X98.848614 Y221.571687 Z-0.125000 I12.220995 J-11.470396
G02 X102.644086 Y223.359082 Z-0.125000 I8.953781 J-14.089577
G02 X106.760373 Y224.143457 Z-0.125000 I5.158284 J-15.876897
G02 X110.942299 Y223.877794 Z-0.125000 I1.041487 J-16.653101
G02 X114.928853 Y222.577337 Z-0.125000 I-3.140539 J-16.387960
G02 X118.466186 Y220.325453 Z-0.125000 I-7.149537 J-15.134953
G02 X121.338803 Y217.256837 Z-0.125000 I-10.687172 J-12.883432
G02 X123.359160 Y213.570864 Z-0.125000 I-13.640982 J-9.873585
G02 X124.405553 Y209.484677 Z-0.125000 I-15.661533 J-6.187690
G02 X124.407522 Y205.266642 Z-0.125000 I-16.830155 J-2.116876
G02 X123.362973 Y201.163837 Z-0.125000 I-16.833453 J2.101325
G02 X121.338148 Y197.445760 Z-0.125000 I-15.896142 J6.246482
G02 X118.451063 Y194.331634 Z-0.125000 I-13.870920 J9.964275
G02 X114.886304 Y192.023957 Z-0.125000 I-11.035978 J13.140560
G02 X110.857183 Y190.660944 Z-0.125000 I-7.470825 J15.447423
G02 X106.616635 Y190.330034 Z-0.125000 I-3.446970 J16.835914
G02 X102.425333 Y191.050564 Z-0.125000 I0.793578 J17.166833
G02 X98.539757 Y192.779297 Z-0.125000 I4.974617 J16.412227
G02 X95.204724 Y195.405234 Z-0.125000 I8.860291 J14.683658
G02 X92.618980 Y198.771527 Z-0.125000 I12.132617 J11.995640
G02 X90.948014 Y202.658897 Z-0.125000 I14.718865 J8.629643
G02 X90.288725 Y206.838507 Z-0.125000 I16.275204 J4.709043
G02 X90.682214 Y211.035727 Z-0.125000 I16.934603 J0.529437
G02 X92.103313 Y215.004614 Z-0.125000 I16.423281 J-3.641655
G02 X94.457234 Y218.484927 Z-0.125000 I15.001979 J-7.610439
G02 X97.602158 Y221.271161 Z-0.125000 I12.578128 J-11.029378
G02 X101.333663 Y223.182817 Z-0.125000 I9.433120 J-13.815490
G02 X105.423624 Y224.105281 Z-0.125000 I5.687129 J-15.687085
G02 X109.612803 Y223.979347 Z-0.125000 I1.597168 J-16.609553
G02 X113.638612 Y222.814077 Z-0.125000 I-2.594721 J-16.501194
G02 X117.252493 Y220.679657 Z-0.125000 I-6.620869 J-15.336708
G02 X120.221916 Y217.713452 Z-0.125000 I-10.280003 J-13.260582
G02 X122.367183 Y214.091797 Z-0.125000 I-13.249648 J-10.294549
G02 X123.546938 Y210.051153 Z-0.125000 I-15.497873 J-6.717494
G02 X123.689543 Y205.828867 Z-0.125000 I-16.677457 J-2.676823
G02 X122.783667 Y201.702452 Z-0.125000 I-16.942156 J1.556687
G02 X120.880743 Y197.914127 Z-0.125000 I-16.036070 J5.683028
G02 X118.102693 Y194.711797 Z-0.125000 I-14.218928 J9.528890
G02 X114.613423 Y192.285554 Z-0.125000 I-11.440308 J12.730586
G02 X110.634581 Y190.792094 Z-0.125000 I-7.978429 J15.209044
G02 X106.407013 Y190.321424 Z-0.125000 I-3.999483 J16.702071
G02 X102.193448 Y190.904211 Z-0.125000 I0.228013 J17.172040
G02 X98.255724 Y192.502834 Z-0.125000 I4.441762 J16.589939
G02 X94.832188 Y195.020907 Z-0.125000 I8.350714 J14.939840
G02 X92.140264 Y198.295907 Z-0.125000 I11.774434 J12.421962
G02 X90.338750 Y202.133452 Z-0.125000 I14.379438 J9.091976
G02 X89.542934 Y206.282527 Z-0.125000 I16.181136 J5.254490
G02 X89.797805 Y210.499541 Z-0.125000 I16.855308 J1.097495
G02 X91.084684 Y214.507497 Z-0.125000 I16.600491 J-3.119530
G02 X93.325618 Y218.070932 Z-0.125000 I15.213093 J-7.080700
G02 X96.373094 Y220.957317 Z-0.125000 I12.972009 J-10.644011
G02 X100.042695 Y222.995055 Z-0.125000 I9.881345 J-13.471518
G02 X104.098443 Y224.053067 Z-0.125000 I6.211713 J-15.509177
G02 X108.289887 Y224.067779 Z-0.125000 I2.153839 J-16.550319
G02 X112.354373 Y223.037067 Z-0.125000 I-2.037430 J-16.563614
G02 X116.034330 Y221.027021 Z-0.125000 I-6.117506 J-15.573442
G02 X119.104663 Y218.158327 Z-0.125000 I-9.797937 J-13.564052
G02 X121.365926 Y214.616707 Z-0.125000 I-12.938653 J-10.753805
G02 X122.681703 Y210.611577 Z-0.125000 I-15.200141 J-7.212291
G02 X122.964226 Y206.405337 Z-0.125000 I-16.632296 J-3.229760
G02 X122.194853 Y202.244817 Z-0.125000 I-16.914415 J0.976457
G02 X120.421908 Y198.403139 Z-0.125000 I-16.256290 J5.172373
G02 X117.748453 Y195.106784 Z-0.125000 I-14.482696 J9.013647
G02 X114.345579 Y192.570306 Z-0.125000 I-11.868822 J12.372064
G02 X110.416313 Y190.945404 Z-0.125000 I-8.465644 J14.908009
G02 X106.208157 Y190.336431 Z-0.125000 I-4.545511 J16.566422
G02 X101.978773 Y190.779834 Z-0.125000 I-0.337344 J17.174862
G02 X97.988179 Y192.249347 Z-0.125000 I3.886287 J16.706722
G02 X94.486834 Y194.650904 Z-0.125000 I7.876967 J15.237376
G02 X91.684464 Y197.840509 Z-0.125000 I11.325856 J12.776714
G02 X89.760004 Y201.611137 Z-0.125000 I14.128809 J9.587505
G02 X88.825776 Y205.740113 Z-0.125000 I15.946974 J5.778361
G02 X88.940794 Y209.956747 Z-0.125000 I16.881444 J1.649409
G02 X90.096347 Y214.013588 Z-0.125000 I16.648450 J-2.549161
G02 X92.215034 Y217.644757 Z-0.125000 I15.492942 J-6.606022
G02 X95.169192 Y220.635952 Z-0.125000 I13.297671 J-10.178632
G02 X98.766344 Y222.793197 Z-0.125000 I10.343462 J-13.169762
G02 X102.787200 Y223.987334 Z-0.125000 I6.725958 J-15.280903
G02 X106.976003 Y224.141887 Z-0.125000 I2.705136 J-16.475251
G02 X111.071333 Y223.248479 Z-0.125000 I-1.484423 J-16.637584
G02 X114.819303 Y221.360957 Z-0.125000 I-5.579929 J-15.744673
G02 X117.979896 Y218.600416 Z-0.125000 I-9.363632 J-13.910174
G02 X120.361233 Y215.131627 Z-0.125000 I-12.524656 J-11.150016
G02 X121.807211 Y211.180365 Z-0.125000 I-14.999172 J-7.729211
G02 X122.230283 Y206.979397 Z-0.125000 I-16.445148 J-3.777948
G02 X121.600889 Y202.804368 Z-0.125000 I-16.986041 J0.425723
G02 X119.954163 Y198.900587 Z-0.125000 I-16.358500 J4.601273
G02 X117.395523 Y195.523561 Z-0.125000 I-14.802562 J8.557514
G02 X114.075533 Y192.873534 Z-0.125000 I-12.243425 J11.934056
G02 X110.205549 Y191.121939 Z-0.125000 I-8.957470 J14.639708
G02 X106.019043 Y190.374244 Z-0.125000 I-5.087401 J16.391028
G02 X101.777209 Y190.678629 Z-0.125000 I-0.901327 J17.148089
G02 X97.742614 Y192.015014 Z-0.125000 I3.340454 J16.843440
G02 X94.160634 Y194.302683 Z-0.125000 I7.353980 J15.462816
G02 X91.257994 Y197.394507 Z-0.125000 I10.936290 J13.175545
G02 X89.206814 Y201.106303 Z-0.125000 I13.762290 J10.027846
G02 X88.138284 Y205.196027 Z-0.125000 I15.813588 J6.316097
G02 X88.113721 Y209.422978 Z-0.125000 I16.765344 J2.210973
G02 X89.132734 Y213.509887 Z-0.125000 I16.791009 J-2.016110
G02 X91.133253 Y217.216543 Z-0.125000 I15.667211 J-6.062573
G02 X93.983324 Y220.300977 Z-0.125000 I13.666418 J-9.769033
G02 X97.510703 Y222.580067 Z-0.125000 I10.766131 J-12.793658
G02 X101.487933 Y223.907017 Z-0.125000 I7.238897 J-15.073049
G02 X105.670287 Y224.202003 Z-0.125000 I3.256459 J-16.374069
G02 X109.794663 Y223.445527 Z-0.125000 I-0.925935 J-16.669762
G02 X113.600878 Y221.686152 Z-0.125000 I-5.060048 J-15.943712
G02 X116.855243 Y219.029917 Z-0.125000 I-8.866628 J-14.184920
G02 X119.347320 Y215.648225 Z-0.125000 I-12.180826 J-11.585532
G02 X120.926513 Y211.741727 Z-0.125000 I-14.673480 J-8.204163
G02 X121.488182 Y207.565738 Z-0.125000 I-16.361386 J-4.326366
G02 X120.997213 Y203.365797 Z-0.125000 I-16.923086 J-0.150376
G02 X119.483792 Y199.417379 Z-0.125000 I-16.544326 J4.077154
G02 X117.035603 Y195.953274 Z-0.125000 I-15.030502 J8.025357
G02 X113.809411 Y193.199149 Z-0.125000 I-12.648760 J11.550155
G02 X109.997183 Y191.319464 Z-0.125000 I-9.422270 J14.303828
G02 X105.839775 Y190.435097 Z-0.125000 I-5.623804 J16.223332
G02 X101.590793 Y190.599334 Z-0.125000 I-1.466397 J17.107708
G02 X97.512603 Y191.803161 Z-0.125000 I2.780058 J16.927698
G02 X93.860204 Y193.969664 Z-0.125000 I6.858344 J15.724090
G02 X90.853429 Y196.968512 Z-0.125000 I10.468009 J13.502465
G02 X88.683754 Y200.605747 Z-0.125000 I13.475174 J10.503921
G02 X87.478573 Y204.665851 Z-0.125000 I15.547343 J6.823917
G02 X87.314454 Y208.883297 Z-0.125000 I16.752650 J2.763835
G02 X88.199210 Y213.010159 Z-0.125000 I16.800355 J-1.443546
G02 X90.073194 Y216.776177 Z-0.125000 I15.915648 J-5.570426
G02 X92.823376 Y219.959123 Z-0.125000 I13.959182 J-9.281642
G02 X96.270214 Y222.352407 Z-0.125000 I11.208922 J-12.464501
G02 X100.204079 Y223.812958 Z-0.125000 I7.735567 J-14.807028
G02 X104.373943 Y224.247227 Z-0.125000 I3.801744 J-16.267757
G02 X108.520613 Y223.629623 Z-0.125000 I-0.368096 J-16.700865
G02 X112.386003 Y221.997227 Z-0.125000 I-4.514799 J-16.083376
G02 X115.723717 Y219.454494 Z-0.125000 I-8.407653 J-14.498279
G02 X118.330473 Y216.153767 Z-0.125000 I-11.745768 J-11.955955
G02 X120.036174 Y212.309244 Z-0.125000 I-14.435560 J-8.705277
G02 X120.737663 Y208.148057 Z-0.125000 I-16.141607 J-4.860858
G02 X120.387330 Y203.942722 Z-0.125000 I-16.958809 J-0.704475
G02 X119.003953 Y199.940667 Z-0.125000 I-16.608365 J3.500837
G02 X116.675796 Y196.403753 Z-0.125000 I-15.320251 J7.549774
G02 X113.539583 Y193.541594 Z-0.125000 I-12.991767 J11.086409
G02 X109.795303 Y191.539552 Z-0.125000 I-9.896601 J14.006573
G02 X105.668193 Y190.518054 Z-0.125000 I-6.152126 J16.008107
G02 X101.416610 Y190.542689 Z-0.125000 I-2.027085 J17.047598
G02 X97.302754 Y191.610874 Z-0.125000 I2.224498 J17.022963
G02 X93.577985 Y193.658049 Z-0.125000 I6.323720 J15.917942
G02 X90.477234 Y196.553017 Z-0.125000 I10.048694 J13.871050
G02 X88.185291 Y200.122681 Z-0.125000 I13.082758 J10.920547
G02 X86.848574 Y204.135007 Z-0.125000 I15.375167 J7.351107
G02 X86.544520 Y208.353200 Z-0.125000 I16.601414 J3.316710
G02 X87.291034 Y212.501067 Z-0.125000 I16.905671 J-0.901493
G02 X89.042166 Y216.334555 Z-0.125000 I16.052890 J-5.016236
G02 X91.682144 Y219.603437 Z-0.125000 I14.301618 J-8.849638
G02 X95.051586 Y222.113814 Z-0.125000 I11.604318 J-12.058952
G02 X98.932674 Y223.703777 Z-0.125000 I8.234720 J-14.569052
G02 X103.087348 Y224.277767 Z-0.125000 I4.344945 J-16.126475
G02 X107.253313 Y223.798777 Z-0.125000 I0.190279 J-16.701080
G02 X111.168910 Y222.297826 Z-0.125000 I-3.981182 J-16.243749
G02 X114.592793 Y219.865677 Z-0.125000 I-7.896900 J-14.743024
G02 X117.304614 Y216.658762 Z-0.125000 I-11.370716 J-12.365306
G02 X119.140063 Y212.868057 Z-0.125000 I-14.082824 J-9.158577
G02 X119.978278 Y208.740633 Z-0.125000 I-16.019813 J-5.402197
G02 X119.767723 Y204.519757 Z-0.125000 I-16.857786 J-1.274754
G02 X118.520319 Y200.481919 Z-0.125000 I-16.759681 J2.965948
G02 X116.308053 Y196.865307 Z-0.125000 I-15.511756 J7.003551
G02 X113.272551 Y193.905603 Z-0.125000 I-13.372349 J10.678341
G02 X109.594053 Y191.779374 Z-0.125000 I-10.336429 J13.637493
G02 X105.505505 Y190.623496 Z-0.125000 I-6.677081 J15.809128
G02 X101.255523 Y190.507774 Z-0.125000 I-2.588496 J16.964762
G02 X97.107572 Y191.440608 Z-0.125000 I1.660936 J17.074117
G02 X93.320034 Y193.362444 Z-0.125000 I5.808846 J16.141168
G02 X90.121960 Y196.157316 Z-0.125000 I9.562505 J14.169195
G02 X87.716454 Y199.645057 Z-0.125000 I12.761090 J11.374779
G02 X86.245501 Y203.618357 Z-0.125000 I15.078295 J7.841057
G02 X85.802784 Y207.818017 Z-0.125000 I16.549144 J3.867732
G02 X86.412713 Y211.996682 Z-0.125000 I16.879903 J-0.329990
G02 X88.033574 Y215.880927 Z-0.125000 I16.267463 J-4.507959
G02 X90.567495 Y219.241569 Z-0.125000 I14.559799 J-8.342468
G02 X93.848724 Y221.860317 Z-0.125000 I12.025865 J-11.703098
G02 X97.678099 Y223.580834 Z-0.125000 I8.711817 J-14.268196
G02 X101.810543 Y224.292847 Z-0.125000 I4.882324 J-15.988325
G02 X105.990145 Y223.953763 Z-0.125000 I0.749494 J-16.690372
G02 X109.955783 Y222.583587 Z-0.125000 I-3.430209 J-16.351768
G02 X113.455811 Y220.269835 Z-0.125000 I-7.415901 J-15.022215
G02 X116.276303 Y217.151657 Z-0.125000 I-10.916110 J-12.708675
G02 X118.234104 Y213.430740 Z-0.125000 I-13.809994 J-9.641799
G02 X119.210753 Y209.327617 Z-0.125000 I-15.768176 J-5.921025
G02 X119.140899 Y205.110460 Z-0.125000 I-16.855766 J-1.829953
G02 X118.026793 Y201.027717 Z-0.125000 I-16.786043 J2.387222
G02 X115.939188 Y197.346441 Z-0.125000 I-15.770474 J6.510671
G02 X113.000443 Y194.284714 Z-0.125000 I-13.682406 J10.191602
G02 X109.398194 Y192.041030 Z-0.125000 I-10.791327 J13.311989
G02 X105.348503 Y190.750174 Z-0.125000 I-7.188879 J15.555243
G02 X101.105743 Y190.494934 Z-0.125000 I-3.144042 J16.871745
G02 X96.930614 Y191.290134 Z-0.125000 I1.098710 J17.126873
G02 X93.079317 Y193.087804 Z-0.125000 I5.264639 J16.303182
G02 X89.793944 Y195.773074 Z-0.125000 I9.116151 J14.505853
G02 X87.271220 Y199.184863 Z-0.125000 I12.344709 J11.766412
G02 X85.672024 Y203.102067 Z-0.125000 I14.867654 J8.354746
G02 X85.089686 Y207.292880 Z-0.125000 I16.362999 J4.409603
G02 X85.560254 Y211.483407 Z-0.125000 I16.945700 J0.218794
G02 X87.054111 Y215.426801 Z-0.125000 I16.367723 J-3.945854
G02 X89.472254 Y218.865707 Z-0.125000 I14.873859 J-7.889244
G02 X92.668736 Y221.596286 Z-0.125000 I12.392007 J-11.270152
G02 X96.436464 Y223.442227 Z-0.125000 I9.195437 J-14.000598
G02 X100.545003 Y224.292670 Z-0.125000 I5.414354 J-15.807547
G02 X104.734093 Y224.093147 Z-0.125000 I1.305863 J-16.658597
G02 X108.741682 Y222.857224 Z-0.125000 I-2.885599 J-16.472258
G02 X112.319863 Y220.659787 Z-0.125000 I-6.893372 J-15.236741
G02 X115.239348 Y217.641743 Z-0.125000 I-10.512224 J-13.090025
G02 X117.322813 Y213.983467 Z-0.125000 I-13.432182 J-10.072337
G02 X118.433742 Y209.922737 Z-0.125000 I-15.608562 J-6.452496
G02 X118.504363 Y205.699477 Z-0.125000 I-16.719786 J-2.391808
G02 X117.528311 Y201.589949 Z-0.125000 I-16.901252 J1.843535
G02 X115.561563 Y197.836717 Z-0.125000 I-15.924856 J5.952935
G02 X112.729957 Y194.684445 Z-0.125000 I-14.036462 J9.760684
G02 X109.201253 Y192.320984 Z-0.125000 I-11.204234 J12.912238
G02 X105.199405 Y190.898679 Z-0.125000 I-7.700594 J15.325644
G02 X100.967013 Y190.503444 Z-0.125000 I-3.698547 J16.747047
G02 X96.767399 Y191.161170 Z-0.125000 I0.533867 J17.145002
G02 X92.861254 Y192.829794 Z-0.125000 I4.733345 J16.486801
G02 X89.485865 Y195.408348 Z-0.125000 I8.613696 J14.774044
G02 X86.854944 Y198.731197 Z-0.125000 I11.989217 J12.195624
G02 X85.124571 Y202.600154 Z-0.125000 I14.541169 J8.824899
G02 X84.405034 Y206.763497 Z-0.125000 I16.272030 J4.956091
G02 X84.737263 Y210.975484 Z-0.125000 I16.880883 J0.787584
G02 X86.097764 Y214.960847 Z-0.125000 I16.548771 J-3.424427
G02 X88.404089 Y218.484338 Z-0.125000 I15.096850 J-7.365190
G02 X91.505144 Y221.316987 Z-0.125000 I12.790396 J-10.888571
G02 X95.212978 Y223.289874 Z-0.125000 I9.650131 J-13.665720
G02 X99.289694 Y224.276437 Z-0.125000 I5.942209 J-15.638375
G02 X103.483663 Y224.217366 Z-0.125000 I1.863495 J-16.607129
G02 X107.531953 Y223.115367 Z-0.125000 I-2.330477 J-16.548077
G02 X111.178763 Y221.040776 Z-0.125000 I-6.392563 J-15.479700
G02 X114.200423 Y218.118807 Z-0.125000 I-10.039853 J-13.405749
G02 X116.401578 Y214.537844 Z-0.125000 I-13.125041 J-10.534720
G02 X117.648903 Y210.510817 Z-0.125000 I-15.326468 J-6.953881
G02 X117.859694 Y206.300319 Z-0.125000 I-16.679278 J-2.945545
G02 X117.019613 Y202.154867 Z-0.125000 I-16.890121 J1.264957
G02 X115.181597 Y198.345384 Z-0.125000 I-16.150889 J5.444405
G02 X112.453143 Y195.097534 Z-0.125000 I-14.312443 J9.253610
G02 X109.008584 Y192.622061 Z-0.125000 I-11.638099 J12.559876
G02 X105.054063 Y191.067474 Z-0.125000 I-8.193281 J15.034874
G02 X100.838620 Y190.533490 Z-0.125000 I-4.247093 J16.621890
G02 X96.620484 Y191.052074 Z-0.125000 I-0.031651 J17.156884
G02 X92.659491 Y192.592308 Z-0.125000 I4.181372 J16.616480
G02 X89.203804 Y195.055994 Z-0.125000 I8.142453 J15.076410
G02 X86.461286 Y198.294850 Z-0.125000 I11.550661 J12.561133
G02 X84.606474 Y202.099637 Z-0.125000 I14.293555 J9.322523
G02 X83.748298 Y206.244553 Z-0.125000 I16.052050 J5.484762
G02 X83.940684 Y210.459257 Z-0.125000 I16.910275 J1.339850
G02 X85.170525 Y214.495130 Z-0.125000 I16.610724 J-2.856425
G02 X87.356054 Y218.088907 Z-0.125000 I15.380730 J-6.892230
G02 X90.365323 Y221.027619 Z-0.125000 I13.125643 J-10.430668
G02 X94.003004 Y223.121357 Z-0.125000 I10.116453 J-13.369484
G02 X98.047139 Y224.244517 Z-0.125000 I6.460364 J-15.419285
G02 X102.240783 Y224.325287 Z-0.125000 I2.416206 J-16.542292
G02 X106.322587 Y223.359844 Z-0.125000 I-1.777956 J-16.628492
G02 X110.039153 Y221.406727 Z-0.125000 I-5.859884 J-15.663381
G02 X113.153328 Y218.590814 Z-0.125000 I-9.609138 J-13.756911
G02 X115.475463 Y215.081017 Z-0.125000 I-12.723397 J-10.941070
G02 X116.854099 Y211.104808 Z-0.125000 I-15.129821 J-7.472936
G02 X117.205413 Y206.897727 Z-0.125000 I-16.508661 J-3.496771
G02 X116.504861 Y202.734546 Z-0.125000 I-16.968564 J0.714823
G02 X114.792153 Y198.861217 Z-0.125000 I-16.267615 J4.877885
G02 X112.176736 Y195.530210 Z-0.125000 I-14.637938 J8.801036
G02 X108.813253 Y192.939884 Z-0.125000 I-12.022269 J12.131789
G02 X104.915567 Y191.257406 Z-0.125000 I-8.689578 J14.774576
G02 X100.719284 Y190.584314 Z-0.125000 I-4.791835 J16.456861
G02 X96.486359 Y190.964068 Z-0.125000 I-0.595644 J17.141646
G02 X92.478674 Y192.372034 Z-0.125000 I3.636823 J16.759780
G02 X88.940698 Y194.722918 Z-0.125000 I7.625676 J15.313997
G02 X86.095784 Y197.866157 Z-0.125000 I11.163907 J12.963409
G02 X84.113488 Y201.613694 Z-0.125000 I13.938858 J9.771139
G02 X83.120134 Y205.722357 Z-0.125000 I15.921735 J6.023821
G02 X83.173086 Y209.949068 Z-0.125000 I16.809150 J1.903102
G02 X84.267074 Y214.017977 Z-0.125000 I16.756001 J-2.323582
G02 X86.335478 Y217.688750 Z-0.125000 I15.567683 J-6.353927
G02 X89.242574 Y220.722787 Z-0.125000 I13.499141 J-10.024598
G02 X92.812386 Y222.939340 Z-0.125000 I10.546677 J-13.002764
G02 X96.815304 Y224.196047 Z-0.125000 I6.976652 J-15.218854
G02 X101.005027 Y224.417249 Z-0.125000 I2.969234 J-16.450627
G02 X105.118013 Y223.588207 Z-0.125000 I-1.220515 J-16.672186
G02 X108.895400 Y221.761910 Z-0.125000 I-5.342254 J-15.869143
G02 X112.104763 Y219.048927 Z-0.125000 I-9.120028 J-14.043444
G02 X114.539463 Y215.623654 Z-0.125000 I-12.383773 J-11.380379
G02 X116.051813 Y211.690417 Z-0.125000 I-14.818770 J-7.955265
G02 X116.542193 Y207.505072 Z-0.125000 I-16.430433 J-4.046487
G02 X115.979713 Y203.315137 Z-0.125000 I-16.921121 J0.138860
G02 X114.399213 Y199.394161 Z-0.125000 I-16.459864 J4.355753
G02 X111.892943 Y195.974484 Z-0.125000 I-14.879085 J8.276574
G02 X108.621087 Y193.278083 Z-0.125000 I-12.432868 J11.752979
G02 X104.779023 Y191.466554 Z-0.125000 I-9.160830 J14.449093
G02 X100.609320 Y190.656191 Z-0.125000 I-5.331234 J16.298995
G02 X96.366604 Y190.895904 Z-0.125000 I-1.161488 J17.108717
G02 X92.313235 Y192.171925 Z-0.125000 I3.079073 J16.856800
G02 X88.702294 Y194.403094 Z-0.125000 I7.132434 J15.580760
G02 X85.751947 Y197.454736 Z-0.125000 I10.704725 J13.301424
G02 X83.649534 Y201.130297 Z-0.125000 I13.654837 J10.249607
G02 X82.519159 Y205.211028 Z-0.125000 I15.669146 J6.537324
G02 X82.432364 Y209.431317 Z-0.125000 I16.799094 J2.456531
G02 X83.392628 Y213.541835 Z-0.125000 I16.780452 J-1.752683
G02 X85.335774 Y217.274637 Z-0.125000 I15.820273 J-5.863232
G02 X88.144420 Y220.408513 Z-0.125000 I13.802323 J-9.544412
G02 X91.635914 Y222.740787 Z-0.125000 I10.993556 J-12.678149
G02 X95.597670 Y224.131703 Z-0.125000 I7.478212 J-14.962641
G02 X99.777294 Y224.492357 Z-0.125000 I3.516528 J-16.353890
G02 X103.915198 Y223.801626 Z-0.125000 I-0.663047 J-16.711725
G02 X107.753633 Y222.101347 Z-0.125000 I-4.801083 J-16.021434
G02 X111.048693 Y219.499954 Z-0.125000 I-8.664307 J-14.362206
G02 X113.599093 Y216.154037 Z-0.125000 I-11.959799 J-11.761238
G02 X115.239240 Y212.279813 Z-0.125000 I-14.585784 J-8.459157
G02 X115.869543 Y208.107407 Z-0.125000 I-16.226272 J-4.585029
G02 X115.447440 Y203.908844 Z-0.125000 I-16.961146 J-0.415310
G02 X113.996183 Y199.932447 Z-0.125000 I-16.539504 J3.783358
G02 X111.608289 Y196.437324 Z-0.125000 I-15.175027 J7.804416
G02 X108.424733 Y193.631524 Z-0.125000 I-12.786375 J11.298870
G02 X104.648188 Y191.696247 Z-0.125000 I-9.639843 J14.158958
G02 X100.506384 Y190.748214 Z-0.125000 I-5.863225 J16.094038
G02 X96.258645 Y190.848285 Z-0.125000 I-1.723144 J17.059749
G02 X92.166934 Y191.989344 Z-0.125000 I2.524588 J16.959632
G02 X88.481831 Y194.102193 Z-0.125000 I6.603023 J15.786681
G02 X85.435294 Y197.051927 Z-0.125000 I10.288299 J13.674063
G02 X83.209695 Y200.661504 Z-0.125000 I13.274043 J10.675452
G02 X81.946734 Y204.697347 Z-0.125000 I15.500045 J7.066058
G02 X81.720036 Y208.920111 Z-0.125000 I16.662521 J3.011988
G02 X82.542534 Y213.054627 Z-0.125000 I16.889205 J-1.210774
G02 X84.363764 Y216.856463 Z-0.125000 I15.970387 J-5.313308
G02 X87.063994 Y220.078517 Z-0.125000 I14.149059 J-9.115081
G02 X90.479873 Y222.528949 Z-0.125000 I11.396933 J-12.281149
G02 X94.391264 Y224.050217 Z-0.125000 I7.981310 J-14.732054
G02 X98.558122 Y224.550720 Z-0.125000 I4.061983 J-16.221878
G02 X102.717573 Y223.998217 Z-0.125000 I-0.104878 J-16.722765
G02 X106.608793 Y222.428253 Z-0.125000 I-4.269256 J-16.188777
G02 X109.991573 Y219.936137 Z-0.125000 I-8.160699 J-14.619215
G02 X112.648993 Y216.681615 Z-0.125000 I-11.588957 J-12.174940
G02 X114.419543 Y212.859427 Z-0.125000 I-14.247021 J-8.920822
G02 X115.187211 Y208.717624 Z-0.125000 I-16.109842 J-5.127943
G02 X114.904593 Y204.501617 Z-0.125000 I-16.877207 J-0.986122
G02 X113.588421 Y200.486376 Z-0.125000 I-16.696458 J3.249662
G02 X111.315233 Y196.909897 Z-0.125000 I-15.379915 J7.264727
G02 X108.230312 Y194.004418 Z-0.125000 I-13.172373 J10.895438
G02 X104.517513 Y191.943884 Z-0.125000 I-10.087368 J13.800803
G02 X100.411758 Y190.860681 Z-0.125000 I-6.391584 J15.903766
G02 X96.163044 Y190.820354 Z-0.125000 I-2.285779 J16.986603
G02 X92.034994 Y191.826537 Z-0.125000 I1.962388 J17.022190
G02 X88.284574 Y193.815294 Z-0.125000 I6.090542 J16.016282
G02 X85.139271 Y196.666255 Z-0.125000 I9.810033 J13.983347
G02 X82.798334 Y200.196357 Z-0.125000 I12.955294 J11.132350
G02 X81.400635 Y204.194871 Z-0.125000 I15.215945 J7.562346
G02 X81.034874 Y208.402147 Z-0.125000 I16.613786 J3.563863
G02 X81.721194 Y212.569156 Z-0.125000 I16.875843 J-0.639484
G02 X83.413284 Y216.424507 Z-0.125000 I16.189598 J-4.806515
G02 X86.008755 Y219.739707 Z-0.125000 I14.418362 J-8.614541
G02 X89.338594 Y222.300227 Z-0.125000 I11.822970 J-11.929820
G02 X93.200357 Y223.952752 Z-0.125000 I8.463764 J-14.440343
G02 X97.347434 Y224.591627 Z-0.125000 I4.601838 J-16.092299
G02 X101.523067 Y224.178684 Z-0.125000 I0.454713 J-16.720239
G02 X105.466353 Y222.738627 Z-0.125000 I-3.721279 J-16.308868
G02 X108.927646 Y220.363209 Z-0.125000 I-7.682840 J-14.904383
G02 X111.694943 Y217.195827 Z-0.125000 I-11.144415 J-12.529282
G02 X113.589271 Y213.440616 Z-0.125000 I-13.978601 J-9.406956
G02 X114.495633 Y209.321227 Z-0.125000 I-15.873479 J-5.651940
G02 X114.353679 Y205.105703 Z-0.125000 I-16.880759 J-1.541706
G02 X113.170123 Y201.043727 Z-0.125000 I-16.738627 J2.673789
G02 X111.020123 Y197.399842 Z-0.125000 I-15.644479 J6.774481
G02 X108.030393 Y194.390884 Z-0.125000 I-13.494083 J10.418061
G02 X104.391466 Y192.211323 Z-0.125000 I-10.547236 J13.481834
G02 X100.322264 Y190.992474 Z-0.125000 I-6.907974 J15.660634
G02 X96.078262 Y190.812425 Z-0.125000 I-2.842957 J16.903936
G02 X91.920424 Y191.681474 Z-0.125000 I1.401035 J17.083867
G02 X88.104290 Y193.546978 Z-0.125000 I5.550452 J16.190132
G02 X84.869404 Y196.290134 Z-0.125000 I9.366425 J14.324383
G02 X82.410184 Y199.745839 Z-0.125000 I12.549639 J11.533725
G02 X80.883024 Y203.691037 Z-0.125000 I15.008763 J8.077969
G02 X80.377546 Y207.891202 Z-0.125000 I16.441122 J4.109140
G02 X80.924824 Y212.073107 Z-0.125000 I16.946764 J-0.091027
G02 X82.490693 Y215.989208 Z-0.125000 I16.302683 J-4.247584
G02 X84.972044 Y219.385067 Z-0.125000 I14.736805 J-8.163680
G02 X88.218787 Y222.058549 Z-0.125000 I12.197964 J-11.505310
G02 X92.021324 Y223.837627 Z-0.125000 I8.951260 J-14.178854
G02 X96.146826 Y224.615219 Z-0.125000 I5.137010 J-15.921627
G02 X100.334314 Y224.341597 Z-0.125000 I1.011508 J-16.699232
G02 X104.322090 Y223.034876 Z-0.125000 I-3.178124 J-16.437015
G02 X107.863243 Y220.774527 Z-0.125000 I-7.166115 J-15.130749
G02 X110.731565 Y217.705058 Z-0.125000 I-10.744578 J-12.915384
G02 X112.752353 Y214.010707 Z-0.125000 I-13.613541 J-9.846379
G02 X113.793825 Y209.930616 Z-0.125000 I-15.719052 J-6.185366
G02 X113.792203 Y205.707087 Z-0.125000 I-16.760947 J-2.105328
G02 X112.746004 Y201.615206 Z-0.125000 I-16.859764 J2.130966
G02 X110.715783 Y197.897647 Z-0.125000 I-15.813201 J6.222703
G02 X107.831219 Y194.795848 Z-0.125000 I-13.853487 J9.991081
G02 X104.263943 Y192.495354 Z-0.125000 I-10.968646 J13.092550
G02 X100.240033 Y191.144068 Z-0.125000 I-7.423441 J15.438878
G02 X96.003924 Y190.823814 Z-0.125000 I-3.399501 J16.790016
G02 X91.819248 Y191.555722 Z-0.125000 I0.836737 J17.112903
G02 X87.945714 Y193.293244 Z-0.125000 I5.021359 J16.380819
G02 X84.619199 Y195.930950 Z-0.125000 I8.870882 J14.603872
G02 X82.049894 Y199.299987 Z-0.125000 I12.197729 J11.966492
G02 X80.390909 Y203.198641 Z-0.125000 I14.694820 J8.555349
G02 X79.747644 Y207.374327 Z-0.125000 I16.353833 J4.656703
G02 X80.156857 Y211.579427 Z-0.125000 I16.896787 J0.478176
G02 X81.590294 Y215.540347 Z-0.125000 I16.487500 J-3.726907
G02 X83.961012 Y219.022228 Z-0.125000 I14.971653 J-7.645773
G02 X87.114414 Y221.799677 Z-0.125000 I12.600594 J-11.127352
G02 X90.859021 Y223.706520 Z-0.125000 I9.412216 J-13.853260
G02 X94.955194 Y224.620757 Z-0.125000 I5.667737 J-15.760458
G02 X99.150033 Y224.487379 Z-0.125000 I1.569898 J-16.657683
G02 X103.180673 Y223.313847 Z-0.125000 I-2.624941 J-16.524306
G02 X106.792850 Y221.174843 Z-0.125000 I-6.668466 J-15.380643
G02 X109.764693 Y218.199887 Z-0.125000 I-10.280960 J-13.242048
G02 X111.904749 Y214.580183 Z-0.125000 I-13.311192 J-10.312375
G02 X113.083013 Y210.531907 Z-0.125000 I-15.451759 J-6.692893
G02 X113.221724 Y206.317948 Z-0.125000 I-16.726047 J-2.659834
G02 X112.310943 Y202.188257 Z-0.125000 I-16.864555 J1.554106
G02 X110.408146 Y198.411596 Z-0.125000 I-16.045076 J5.716325
G02 X107.625293 Y195.212704 Z-0.125000 I-14.141884 J9.492721
G02 X104.139836 Y192.798424 Z-0.125000 I-11.407466 J12.745681
G02 X100.161054 Y191.314074 Z-0.125000 I-7.921775 J15.159514
G02 X95.939336 Y190.854700 Z-0.125000 I-3.950161 J16.673798
G02 X91.733554 Y191.447844 Z-0.125000 I0.271554 J17.132965
G02 X87.803081 Y193.057772 Z-0.125000 I4.472324 J16.521602
G02 X84.393924 Y195.582224 Z-0.125000 I8.403037 J14.912100
G02 X81.711821 Y198.868779 Z-0.125000 I11.768328 J12.341628
G02 X79.927014 Y202.705927 Z-0.125000 I14.450729 J9.055260
G02 X79.144868 Y206.864962 Z-0.125000 I16.147639 J5.189779
G02 X79.414314 Y211.075797 Z-0.125000 I16.929619 J1.030734
G02 X80.717789 Y215.088885 Z-0.125000 I16.563105 J-3.161561
G02 X82.969204 Y218.643557 Z-0.125000 I15.259691 J-7.174677
G02 X86.032364 Y221.528294 Z-0.125000 I12.945757 J-10.677784
G02 X89.709194 Y223.557317 Z-0.125000 I9.882646 J-13.562587
G02 X93.775010 Y224.608558 Z-0.125000 I6.189656 J-15.551167
G02 X97.971974 Y224.614967 Z-0.125000 I2.123840 J-16.602411
G02 X102.038632 Y223.577240 Z-0.125000 I-2.073587 J-16.613099
G02 X105.722433 Y221.558547 Z-0.125000 I-6.140457 J-15.575909
G02 X108.788919 Y218.687618 Z-0.125000 I-9.854333 J-13.598719
G02 X111.050893 Y215.137317 Z-0.125000 I-12.921196 J-10.728103
G02 X112.361462 Y211.136864 Z-0.125000 I-15.260444 J-7.214303
G02 X112.640683 Y206.924387 Z-0.125000 I-16.571310 J-3.213908
G02 X111.868926 Y202.773809 Z-0.125000 I-16.949135 J1.004475
G02 X110.090503 Y198.931547 Z-0.125000 I-16.176874 J5.154892
G02 X107.418840 Y195.647036 Z-0.125000 I-14.473081 J9.043749
G02 X104.012673 Y193.116664 Z-0.125000 I-11.801236 J12.328071
G02 X100.088190 Y191.503242 Z-0.125000 I-8.422351 J14.906841
G02 X95.883214 Y190.904414 Z-0.125000 I-4.497657 J16.519487
G02 X91.660193 Y191.358849 Z-0.125000 I-0.292628 J17.129935
G02 X87.680494 Y192.837374 Z-0.125000 I3.929805 J16.673003
G02 X84.187293 Y195.250208 Z-0.125000 I7.891967 J15.160732
G02 X81.400794 Y198.443277 Z-0.125000 I11.385146 J12.747874
G02 X79.487710 Y202.224863 Z-0.125000 I14.107760 J9.511745
G02 X78.569614 Y206.350547 Z-0.125000 I16.020708 J5.730110
G02 X78.699791 Y210.575155 Z-0.125000 I16.842660 J1.595319
G02 X79.868144 Y214.624187 Z-0.125000 I16.712204 J-2.629245
G02 X82.003508 Y218.257360 Z-0.125000 I15.458874 J-6.641705
G02 X84.966474 Y221.239487 Z-0.125000 I13.323525 J-10.274889
G02 X88.577277 Y223.392230 Z-0.125000 I10.320015 J-13.205217
G02 X92.604414 Y224.577747 Z-0.125000 I6.709096 J-15.357696
G02 X96.799845 Y224.724532 Z-0.125000 I2.678284 J-16.520481
G02 X100.899964 Y223.822617 Z-0.125000 I-1.517188 J-16.667712
G02 X104.647004 Y221.929432 Z-0.125000 I-5.625778 J-15.789391
G02 X107.810163 Y219.159937 Z-0.125000 I-9.372906 J-13.896336
G02 X110.186421 Y215.691652 Z-0.125000 I-12.586287 J-11.171536
G02 X111.631243 Y211.732277 Z-0.125000 I-14.962935 J-7.703452
G02 X112.049879 Y207.538374 Z-0.125000 I-16.498554 J-3.764733
G02 X111.415743 Y203.359127 Z-0.125000 I-16.917056 J0.429167
G02 X109.768377 Y199.466276 Z-0.125000 I-16.375117 J4.634588
G02 X107.204543 Y196.091514 Z-0.125000 I-14.727261 J8.527156
G02 X103.887745 Y193.453117 Z-0.125000 I-12.217005 J11.954300
G02 X100.016814 Y191.709754 Z-0.125000 I-8.900195 J14.592678
G02 X95.835810 Y190.973068 Z-0.125000 I-5.039866 J16.370547
G02 X91.600484 Y191.287624 Z-0.125000 I-0.858836 J17.106714
G02 X87.572864 Y192.634890 Z-0.125000 I3.374172 J16.780880
G02 X84.004324 Y194.929434 Z-0.125000 I7.401947 J15.433937
G02 X81.111025 Y198.032378 Z-0.125000 I10.934418 J13.096032
G02 X79.076294 Y201.744517 Z-0.125000 I13.827731 J9.993099
G02 X78.020800 Y205.844056 Z-0.125000 I15.781335 J6.248812
G02 X78.011114 Y210.065257 Z-0.125000 I16.836615 J2.149245
G02 X79.046307 Y214.157581 Z-0.125000 I16.750443 J-2.060096
G02 X81.057764 Y217.855417 Z-0.125000 I15.715380 J-6.152471
G02 X83.923681 Y220.938660 Z-0.125000 I13.636908 J-9.802119
G02 X87.458514 Y223.208647 Z-0.125000 I10.770862 J-12.885209
G02 X91.446597 Y224.528908 Z-0.125000 I7.215339 J-15.111731
G02 X95.634454 Y224.815267 Z-0.125000 I3.227344 J-16.432440
G02 X99.761948 Y224.051090 Z-0.125000 I-0.960437 J-16.716397
G02 X103.572053 Y222.282857 Z-0.125000 I-5.087978 J-15.952367
G02 X106.823080 Y219.623111 Z-0.125000 I-8.921511 J-14.221580
G02 X109.316133 Y216.232427 Z-0.125000 I-12.172922 J-11.562199
G02 X110.889923 Y212.329202 Z-0.125000 I-14.735469 J-8.210270
G02 X111.448603 Y208.146287 Z-0.125000 I-16.309442 J-4.307093
G02 X110.954558 Y203.955238 Z-0.125000 I-16.964702 J-0.124826
G02 X109.435633 Y200.005157 Z-0.125000 I-16.469486 J4.065934
G02 X106.988478 Y196.552358 Z-0.125000 I-15.028847 J8.058018
G02 X103.758323 Y193.803224 Z-0.125000 I-12.581383 J11.510534
G02 X99.950380 Y191.934743 Z-0.125000 I-9.383667 J14.309295
G02 X95.794974 Y191.059924 Z-0.125000 I-5.575466 J16.177026
G02 X91.552071 Y191.234834 Z-0.125000 I-1.421449 J17.067839
G02 X87.483594 Y192.447834 Z-0.125000 I2.821402 J16.892620
G02 X83.838981 Y194.625162 Z-0.125000 I6.877335 J15.650930
G02 X80.847404 Y197.628137 Z-0.125000 I10.521972 J13.473632
G02 X78.688548 Y201.275970 Z-0.125000 I13.457295 J10.427023
G02 X77.499514 Y205.333447 Z-0.125000 I15.616478 J6.779332
G02 X77.349961 Y209.558917 Z-0.125000 I16.713783 J2.706935
G02 X78.247934 Y213.678197 Z-0.125000 I16.863078 J-1.518511
G02 X80.138410 Y217.446618 Z-0.125000 I15.878658 J-5.607326
G02 X82.897784 Y220.620257 Z-0.125000 I13.987660 J-9.375398
G02 X86.358737 Y223.009400 Z-0.125000 I11.182736 J-12.498128
G02 X90.298974 Y224.460927 Z-0.125000 I7.721621 J-14.886959
G02 X94.476388 Y224.887224 Z-0.125000 I3.774933 J-16.310677
G02 X98.627824 Y224.260817 Z-0.125000 I-0.402486 J-16.737189
G02 X102.493108 Y222.621789 Z-0.125000 I-4.558892 J-16.128357
G02 X105.833523 Y220.069887 Z-0.125000 I-8.424350 J-14.489629
G02 X108.435401 Y216.768258 Z-0.125000 I-11.807267 J-11.980853
G02 X110.140273 Y212.915167 Z-0.125000 I-14.409715 J-8.679568
G02 X110.836884 Y208.759740 Z-0.125000 I-16.198901 J-4.851667
G02 X110.482033 Y204.549327 Z-0.125000 I-16.895332 J-0.696232
G02 X109.097226 Y200.557374 Z-0.125000 I-16.632735 J3.533718
G02 X106.763583 Y197.021577 Z-0.125000 I-15.247750 J7.525582
G02 X103.629893 Y194.170645 Z-0.125000 I-12.972625 J11.111550
G02 X99.883744 Y192.175904 Z-0.125000 I-9.838639 J13.962061
G02 X95.761731 Y191.165148 Z-0.125000 I-6.107133 J15.995325
G02 X91.515414 Y191.199664 Z-0.125000 I-1.985068 J17.005641
G02 X87.408246 Y192.278329 Z-0.125000 I2.260582 J16.966123
G02 X83.695914 Y194.332804 Z-0.125000 I6.367718 J15.887378
G02 X80.604049 Y197.238429 Z-0.125000 I10.050811 J13.792865
G02 X78.328194 Y200.809177 Z-0.125000 I13.142845 J10.887380
G02 X77.003901 Y204.831103 Z-0.125000 I15.344444 J7.281425
G02 X76.714974 Y209.044067 Z-0.125000 I16.669069 J3.259563
G02 X77.477209 Y213.197568 Z-0.125000 I16.863914 J-0.948111
G02 X79.239714 Y217.022247 Z-0.125000 I16.101740 J-5.101631
G02 X81.895634 Y220.290385 Z-0.125000 I14.268222 J-8.882104
G02 X85.272794 Y222.791307 Z-0.125000 I11.612459 J-12.150406
G02 X89.165427 Y224.374746 Z-0.125000 I8.209659 J-14.605713
G02 X93.325634 Y224.939727 Z-0.125000 I4.317076 J-16.189342
G02 X97.495658 Y224.452479 Z-0.125000 I0.156849 J-16.745468
G02 X101.415153 Y222.942437 Z-0.125000 I-4.013334 J-16.258867
G02 X104.836316 Y220.505552 Z-0.125000 I-7.950684 J-14.781973
G02 X107.549323 Y217.289367 Z-0.125000 I-11.371770 J-12.345004
G02 X109.379296 Y213.500503 Z-0.125000 I-14.146814 J-9.169090
G02 X110.214843 Y209.365527 Z-0.125000 I-15.977383 J-5.380427
G02 X110.000565 Y205.152435 Z-0.125000 I-16.904940 J-1.252209
G02 X108.747673 Y201.111887 Z-0.125000 I-16.690441 J2.960844
G02 X106.535672 Y197.505964 Z-0.125000 I-15.517666 J7.037665
G02 X103.495633 Y194.550154 Z-0.125000 I-13.305677 J10.643597
G02 X99.820863 Y192.434816 Z-0.125000 I-10.303202 J13.649171
G02 X95.733204 Y191.287794 Z-0.125000 I-6.628271 J15.764126
G02 X91.488974 Y191.182427 Z-0.125000 I-2.543783 J16.932255
G02 X87.349514 Y192.124484 Z-0.125000 I1.700412 J17.037272
G02 X83.569430 Y194.056692 Z-0.125000 I5.831403 J16.071985
G02 X80.385814 Y196.856297 Z-0.125000 I9.611595 J14.139936
G02 X77.990585 Y200.354281 Z-0.125000 I12.746482 J11.297152
G02 X76.535704 Y204.325637 Z-0.125000 I15.142190 J7.799414
G02 X76.106963 Y208.533305 Z-0.125000 I16.510308 J3.807999
G02 X76.730474 Y212.704677 Z-0.125000 I16.939118 J-0.399671
G02 X78.367590 Y216.591701 Z-0.125000 I16.228036 J-4.546571
G02 X80.911114 Y219.942857 Z-0.125000 I14.590626 J-8.433425
G02 X84.206809 Y222.557838 Z-0.125000 I11.996393 J-11.734915
G02 X88.042724 Y224.268947 Z-0.125000 I8.700854 J-14.350152
G02 X92.183572 Y224.972870 Z-0.125000 I4.855100 J-16.028984
G02 X96.367934 Y224.624667 Z-0.125000 I0.714246 J-16.732785
G02 X100.334316 Y223.247009 Z-0.125000 I-3.472522 J-16.396237
G02 X103.837143 Y220.923857 Z-0.125000 I-7.439048 J-15.018871
G02 X106.653095 Y217.803402 Z-0.125000 I-10.977129 J-12.736759
G02 X108.610353 Y214.073517 Z-0.125000 I-13.793646 J-9.616697
G02 X109.581759 Y209.974819 Z-0.125000 I-15.829107 J-5.916017
G02 X109.507633 Y205.751747 Z-0.125000 I-16.800313 J-1.817297
G02 X108.391340 Y201.678214 Z-0.125000 I-16.817747 J2.418944
G02 X106.298043 Y197.996937 Z-0.125000 I-15.700845 J6.492226
G02 X103.361126 Y194.945991 Z-0.125000 I-13.670440 J10.220461
G02 X99.756154 Y192.708624 Z-0.125000 I-10.733261 J13.271083
G02 X95.711130 Y191.428216 Z-0.125000 I-7.147252 J15.549713
G02 X91.472414 Y191.182484 Z-0.125000 I-3.102154 J16.829725
G02 X87.303651 Y191.987795 Z-0.125000 I1.136632 J17.076519
G02 X83.463744 Y193.793074 Z-0.125000 I5.305458 J16.271402
G02 X80.186830 Y196.488587 Z-0.125000 I9.122264 J14.429482
G02 X77.679744 Y199.902147 Z-0.125000 I12.399358 J11.734139
G02 X76.092368 Y203.828736 Z-0.125000 I14.839335 J8.283155
G02 X75.525334 Y208.014857 Z-0.125000 I16.426622 J4.356542
G02 X76.011108 Y212.211198 Z-0.125000 I16.901032 J0.169804
G02 X77.516794 Y216.145847 Z-0.125000 I16.417209 J-4.027016
G02 X79.950874 Y219.584447 Z-0.125000 I14.837284 J-7.922056
G02 X83.155394 Y222.305267 Z-0.125000 I12.403052 J-11.360517
G02 X86.935290 Y224.144891 Z-0.125000 I9.168217 J-14.034929
G02 X91.049424 Y224.985957 Z-0.125000 I5.388333 J-15.874589
G02 X95.243489 Y224.777752 Z-0.125000 I1.273079 J-16.701779
G02 X99.255014 Y223.532477 Z-0.125000 I-2.921015 J-16.493740
G02 X102.831111 Y221.329198 Z-0.125000 I-6.945226 J-15.276435
G02 X105.751993 Y218.301597 Z-0.125000 I-10.521567 J-13.073460
G02 X107.829985 Y214.643753 Z-0.125000 I-13.497079 J-10.086748
G02 X108.938573 Y210.574887 Z-0.125000 I-15.575625 J-6.429132
G02 X109.004874 Y206.358226 Z-0.125000 I-16.771552 J-2.372559
G02 X108.023433 Y202.245007 Z-0.125000 I-16.839241 J1.844253
G02 X106.056173 Y198.501788 Z-0.125000 I-15.938573 J5.988006
G02 X103.219543 Y195.352284 Z-0.125000 I-13.971326 J9.731234
G02 X99.693971 Y192.999369 Z-0.125000 I-11.176896 J12.929504
G02 X95.691974 Y191.585164 Z-0.125000 I-7.651225 J15.282221
G02 X91.464952 Y191.199976 Z-0.125000 I-3.654894 J16.722414
G02 X87.272644 Y191.866854 Z-0.125000 I0.572124 J17.107484
G02 X83.373599 Y193.545445 Z-0.125000 I4.759429 J16.422908
G02 X80.011844 Y196.129264 Z-0.125000 I8.658256 J14.743944
G02 X77.390682 Y199.461984 Z-0.125000 I11.978874 J12.118428
G02 X75.676224 Y203.329677 Z-0.125000 I14.599930 J8.785644
G02 X74.970069 Y207.500983 Z-0.125000 I16.233557 J4.893585
G02 X75.316244 Y211.706037 Z-0.125000 I16.939382 J0.722264
G02 X76.692656 Y215.694507 Z-0.125000 I16.505803 J-3.464382
G02 X79.009004 Y219.208397 Z-0.125000 I15.129410 J-7.452862
G02 X82.124798 Y222.037669 Z-0.125000 I12.757903 J-10.919602
G02 X85.839384 Y224.000777 Z-0.125000 I9.642171 J-13.748964
G02 X89.925293 Y224.979207 Z-0.125000 I5.914049 J-15.676419
G02 X94.124064 Y224.910687 Z-0.125000 I1.828151 J-16.654950
G02 X98.173958 Y223.800452 Z-0.125000 I-2.371458 J-16.592237
G02 X101.823653 Y221.716217 Z-0.125000 I-6.421358 J-15.482014
G02 X104.841161 Y218.790660 Z-0.125000 I-10.100067 J-13.436467
G02 X107.042053 Y215.200347 Z-0.125000 I-13.117644 J-10.510965
G02 X108.283867 Y211.176394 Z-0.125000 I-15.390201 J-6.953092
G02 X108.490653 Y206.959217 Z-0.125000 I-16.632469 J-2.929219
G02 X107.647664 Y202.821992 Z-0.125000 I-16.928797 J1.294870
G02 X105.803813 Y199.011407 Z-0.125000 I-16.085457 J5.431976
G02 X103.076463 Y195.773853 Z-0.125000 I-14.307842 J9.285525
G02 X99.628434 Y193.303664 Z-0.125000 I-11.580312 J12.522885
G02 X95.678071 Y191.759232 Z-0.125000 I-8.155525 J15.035930
G02 X91.465514 Y191.234284 Z-0.125000 I-4.205139 J16.580269
G02 X87.253394 Y191.762608 Z-0.125000 I0.006286 J17.105068
G02 X83.302714 Y193.310754 Z-0.125000 I4.220596 J16.585347
G02 X79.855065 Y195.784263 Z-0.125000 I8.152656 J15.002883
G02 X77.127644 Y199.025537 Z-0.125000 I11.600455 J12.529536
G02 X75.284081 Y202.839455 Z-0.125000 I14.267855 J9.249290
G02 X74.441294 Y206.980277 Z-0.125000 I16.111304 J5.435334
G02 X74.648380 Y211.200916 Z-0.125000 I16.866104 J1.287861
G02 X75.890474 Y215.228197 Z-0.125000 I16.658943 J-2.932765
G02 X78.091850 Y218.822060 Z-0.125000 I15.340874 J-6.925718
G02 X81.109514 Y221.750767 Z-0.125000 I13.139494 J-10.519578
G02 X84.759877 Y223.838454 Z-0.125000 I10.086599 J-13.401414
G02 X88.809724 Y224.951847 Z-0.125000 I6.436338 J-15.489346
G02 X93.009240 Y225.023593 Z-0.125000 I2.383684 J-16.583270
G02 X97.095004 Y224.048527 Z-0.125000 I-1.816129 J-16.657734
G02 X100.810194 Y222.088516 Z-0.125000 I-5.910284 J-15.703973
G02 X103.925953 Y219.262777 Z-0.125000 I-9.625688 J-13.744267
G02 X106.242717 Y215.752030 Z-0.125000 I-12.788723 J-10.959156
G02 X107.619323 Y211.767147 Z-0.125000 I-15.106219 J-7.448771
G02 X107.965825 Y207.565458 Z-0.125000 I-16.565862 J-3.481275
G02 X107.260003 Y203.397627 Z-0.125000 I-16.912255 J0.720410
G02 X105.546021 Y199.533551 Z-0.125000 I-16.289339 J4.913266
G02 X102.925173 Y196.204184 Z-0.125000 I-14.575306 J8.777311
G02 X99.564181 Y193.624043 Z-0.125000 I-12.001256 J12.154155
G02 X95.665354 Y191.948824 Z-0.125000 I-8.640155 J14.734110
G02 X91.474036 Y191.285493 Z-0.125000 I-4.749834 J16.438983
G02 X87.247224 Y191.674214 Z-0.125000 I-0.558501 J17.101847
G02 X83.246280 Y193.091765 Z-0.125000 I3.665505 J16.700624
G02 X79.721064 Y195.448374 Z-0.125000 I7.666475 J15.283127
G02 X76.885406 Y198.601118 Z-0.125000 I11.156967 J12.886461
G02 X74.918774 Y202.348067 Z-0.125000 I13.993004 J9.733981
G02 X73.938216 Y206.464585 Z-0.125000 I15.884217 J5.958677
G02 X74.005394 Y210.684787 Z-0.125000 I16.864940 J1.842177
G02 X75.114917 Y214.757077 Z-0.125000 I16.710670 J-2.365642
G02 X77.193784 Y218.418207 Z-0.125000 I15.601462 J-6.438062
G02 X80.115810 Y221.449278 Z-0.125000 I13.463342 J-10.055002
G02 X83.692624 Y223.655697 Z-0.125000 I10.541289 J-13.086038
G02 X87.705455 Y224.904310 Z-0.125000 I6.947186 J-15.254495
G02 X91.900034 Y225.115717 Z-0.125000 I2.934384 J-16.503268
G02 X96.015490 Y224.277785 Z-0.125000 I-1.260213 J-16.714842
G02 X99.795864 Y222.441587 Z-0.125000 I-5.375864 J-15.877484
G02 X103.001540 Y219.723779 Z-0.125000 I-9.179213 J-14.076417
G02 X105.436243 Y216.288787 Z-0.125000 I-12.385266 J-11.358955
G02 X106.942894 Y212.357250 Z-0.125000 I-14.884892 J-7.958677
G02 X107.429543 Y208.164517 Z-0.125000 I-16.391768 J-4.027195
G02 X106.863468 Y203.981765 Z-0.125000 I-16.964309 J0.166192
G02 X105.277053 Y200.058637 Z-0.125000 I-16.399843 J4.349370
G02 X102.771122 Y196.648665 Z-0.125000 I-14.882179 J8.310893
G02 X99.495134 Y193.956514 Z-0.125000 I-12.375947 J11.720579
G02 X95.656686 Y192.154832 Z-0.125000 I-9.127693 J14.456662
G02 X91.488754 Y191.352924 Z-0.125000 I-5.289154 J16.258066
G02 X87.251692 Y191.602074 Z-0.125000 I-1.121992 J17.071752
G02 X83.207514 Y192.886064 Z-0.125000 I3.115020 J16.822330
G02 X79.604212 Y195.126646 Z-0.125000 I7.146116 J15.510084
G02 X76.668334 Y198.181317 Z-0.125000 I10.749667 J13.269810
G02 X74.576597 Y201.865738 Z-0.125000 I13.632440 J10.175452
G02 X73.461634 Y205.942967 Z-0.125000 I15.724036 J6.490973
G02 X73.389000 Y210.169275 Z-0.125000 I16.754660 J2.401725
G02 X74.361914 Y214.271427 Z-0.125000 I16.827891 J-1.824648
G02 X76.320754 Y218.004687 Z-0.125000 I15.776815 J-5.897558
G02 X79.138164 Y221.128347 Z-0.125000 I13.818019 J-9.630849
G02 X82.642791 Y223.454872 Z-0.125000 I10.961029 J-12.708546
G02 X86.610434 Y224.835647 Z-0.125000 I7.456461 J-15.035190
G02 X90.796747 Y225.187046 Z-0.125000 I3.483929 J-16.392961
G02 X94.938674 Y224.486377 Z-0.125000 I-0.702402 J-16.744775
G02 X98.776481 Y222.778265 Z-0.125000 I-4.849897 J-16.062282
G02 X102.073283 Y220.166767 Z-0.125000 I-8.687869 J-14.354440
G02 X104.618504 Y216.818548 Z-0.125000 I-12.025502 J-11.782956
G02 X106.256923 Y212.935137 Z-0.125000 I-14.570810 J-8.434787
G02 X106.881985 Y208.766867 Z-0.125000 I-16.287445 J-4.573418
G02 X106.454773 Y204.562767 Z-0.125000 I-16.912471 J-0.405148
G02 X105.001485 Y200.594781 Z-0.125000 I-16.568347 J3.818085
G02 X102.607853 Y197.100207 Z-0.125000 I-15.114858 J7.785968
G02 X99.426109 Y194.304145 Z-0.125000 I-12.772342 J11.325782
G02 X95.647534 Y192.375254 Z-0.125000 I-9.590413 J14.121572
G02 X91.510234 Y191.436681 Z-0.125000 I-5.823679 J16.083166
G02 X87.267434 Y191.545464 Z-0.125000 I-1.686369 J17.021641
G02 X83.182096 Y192.695737 Z-0.125000 I2.555323 J16.905470
G02 X79.508814 Y194.814684 Z-0.125000 I6.640714 J15.755322
G02 X76.471044 Y197.773548 Z-0.125000 I10.285196 J13.598299
G02 X74.260784 Y201.383197 Z-0.125000 I13.322976 J10.639443
G02 X73.010023 Y205.426771 Z-0.125000 I15.464293 J6.998655
G02 X72.797774 Y209.643487 Z-0.125000 I16.714843 J2.955044
G02 X73.635407 Y213.781623 Z-0.125000 I16.841903 J-1.255260
G02 X75.467524 Y217.573837 Z-0.125000 I16.004249 J-5.393389
G02 X78.182770 Y220.793311 Z-0.125000 I14.109722 J-9.145152
G02 X81.605954 Y223.233307 Z-0.125000 I11.394650 J-12.364815
G02 X85.527924 Y224.746586 Z-0.125000 I7.950010 J-14.765140
G02 X89.699734 Y225.236927 Z-0.125000 I4.028032 J-16.278385
G02 X93.862517 Y224.674966 Z-0.125000 I-0.143869 J-16.764821
G02 X97.756804 Y223.094827 Z-0.125000 I-4.306517 J-16.202351
G02 X101.136426 Y220.596731 Z-0.125000 I-8.218834 J-14.654249
G02 X103.794093 Y217.332117 Z-0.125000 I-11.598626 J-12.156331
G02 X105.558843 Y213.510278 Z-0.125000 I-14.314989 J-8.928365
G02 X106.323073 Y209.360397 Z-0.125000 I-16.079601 J-5.106482
G02 X106.036269 Y205.150494 Z-0.125000 I-16.928302 J-0.961461
G02 X104.714183 Y201.132067 Z-0.125000 I-16.641449 J3.248433
G02 X102.440583 Y197.564660 Z-0.125000 I-15.390859 J7.300774
G02 X99.350954 Y194.662354 Z-0.125000 I-13.117133 J10.868077
G02 X95.641189 Y192.611330 Z-0.125000 I-10.059315 J13.814159
G02 X91.536124 Y191.535944 Z-0.125000 I-6.349475 J15.864996
G02 X87.292665 Y191.504727 Z-0.125000 I-2.246587 J16.956816
G02 X83.172684 Y192.518914 Z-0.125000 I1.996748 J16.986976
G02 X79.429485 Y194.516703 Z-0.125000 I6.107701 J15.949479
G02 X76.297964 Y197.371247 Z-0.125000 I9.850902 J13.951694
G02 X73.967160 Y200.909915 Z-0.125000 I12.935902 J11.057400
G02 X72.584794 Y204.905557 Z-0.125000 I15.266793 J7.518775
G02 X72.232648 Y209.118872 Z-0.125000 I16.569120 J3.506209
G02 X72.931974 Y213.277807 Z-0.125000 I16.921694 J-0.707124
G02 X74.639545 Y217.133973 Z-0.125000 I16.143631 J-4.842503
G02 X77.244194 Y220.438807 Z-0.125000 I14.435827 J-8.698528
G02 X80.587503 Y222.993885 Z-0.125000 I11.787445 J-11.958931
G02 X84.455364 Y224.635917 Z-0.125000 I8.444166 J-14.514061
G02 X88.609925 Y225.265388 Z-0.125000 I4.568832 J-16.129708
G02 X92.789664 Y224.842157 Z-0.125000 I0.414276 J-16.759415
G02 X96.733085 Y223.393445 Z-0.125000 I-3.768641 J-16.349703
G02 X100.196284 Y221.007627 Z-0.125000 I-7.712312 J-14.901475
G02 X102.958667 Y217.836647 Z-0.125000 I-11.209864 J-12.554122
G02 X104.851563 Y214.071767 Z-0.125000 I-13.972717 J-9.383458
G02 X105.752314 Y209.955231 Z-0.125000 I-15.938162 J-5.644292
G02 X105.605463 Y205.733327 Z-0.125000 I-16.839217 J-1.527784
G02 X104.419159 Y201.678868 Z-0.125000 I-16.774522 J2.707317
G02 X102.263173 Y198.034427 Z-0.125000 I-15.588269 J6.761798
G02 X99.274541 Y195.034724 Z-0.125000 I-13.486888 J10.448459
G02 X95.632764 Y192.860624 Z-0.125000 I-10.498216 J13.448112
G02 X91.567570 Y191.650914 Z-0.125000 I-6.871731 J15.656911
G02 X87.327364 Y191.479224 Z-0.125000 I-2.806520 J16.866519
G02 X83.175496 Y192.357137 Z-0.125000 I1.433499 J17.035934
G02 X79.370224 Y194.229024 Z-0.125000 I5.585295 J16.157811
G02 X76.143623 Y196.980966 Z-0.125000 I9.367559 J14.250827
G02 X73.699324 Y200.437357 Z-0.125000 I12.593971 J11.498712
G02 X72.183773 Y204.390145 Z-0.125000 I14.975213 J8.008628
G02 X71.692904 Y208.584767 Z-0.125000 I16.490756 J4.055838
G02 X72.254838 Y212.770479 Z-0.125000 I16.897871 J-0.137974
G02 X73.832024 Y216.677047 Z-0.125000 I16.336608 J-4.323863
G02 X76.328414 Y220.070708 Z-0.125000 I14.694315 J-8.194187
G02 X79.582804 Y222.733487 Z-0.125000 I12.197649 J-11.587586
G02 X83.396482 Y224.504736 Z-0.125000 I8.918005 J-14.210126
G02 X87.527074 Y225.271807 Z-0.125000 I5.104356 J-15.981465
G02 X91.718716 Y224.988293 Z-0.125000 I0.973181 J-16.739573
G02 X95.709664 Y223.671087 Z-0.125000 I-3.218473 J-16.456118
G02 X99.248257 Y221.403677 Z-0.125000 I-7.223027 J-15.167415
G02 X102.117053 Y218.323777 Z-0.125000 I-10.761686 J-12.900084
G02 X104.132038 Y214.628419 Z-0.125000 I-13.682665 J-9.857849
G02 X105.170363 Y210.539627 Z-0.125000 I-15.698170 J-6.162694
G02 X105.164008 Y206.321064 Z-0.125000 I-16.817583 J-2.083950
G02 X104.111923 Y202.224997 Z-0.125000 I-16.809357 J2.134375
G02 X102.080532 Y198.515804 Z-0.125000 I-15.831717 J6.259601
G02 X99.190764 Y195.416114 Z-0.125000 I-13.800089 J9.968623
G02 X95.625879 Y193.124738 Z-0.125000 I-10.946496 J13.111598
G02 X91.601674 Y191.780554 Z-0.125000 I-7.381485 J15.402710
G02 X87.370370 Y191.469107 Z-0.125000 I-3.361257 J16.766985
G02 X83.192644 Y192.208954 Z-0.125000 I0.870024 J17.077986
G02 X79.325911 Y193.955133 Z-0.125000 I5.041599 J16.318434
G02 X76.012424 Y196.596917 Z-0.125000 I8.908328 J14.572248
G02 X73.452714 Y199.974223 Z-0.125000 I12.181601 J11.891290
G02 X71.808914 Y203.870627 Z-0.125000 I14.741088 J8.513854
G02 X71.178696 Y208.052359 Z-0.125000 I16.309887 J4.596377
G02 X71.601234 Y212.249717 Z-0.125000 I16.939951 J0.414641
G02 X73.049886 Y216.211763 Z-0.125000 I16.438942 J-3.764746
G02 X75.430194 Y219.683187 Z-0.125000 I14.989915 J-7.726598
G02 X78.597342 Y222.455532 Z-0.125000 I12.562325 J-11.156033
G02 X82.348294 Y224.351547 Z-0.125000 I9.394973 J-13.928076
G02 X86.452686 Y225.256291 Z-0.125000 I5.633712 J-15.795252
G02 X90.651734 Y225.112297 Z-0.125000 I1.529316 J-16.699946
G02 X94.683276 Y223.929361 Z-0.125000 I-2.671218 J-16.565103
G02 X98.297514 Y221.779657 Z-0.125000 I-6.702941 J-15.382583
G02 X101.264792 Y218.799857 Z-0.125000 I-10.345943 J-13.269772
G02 X103.403703 Y215.170037 Z-0.125000 I-13.313687 J-10.290333
G02 X104.576086 Y211.123299 Z-0.125000 I-15.519752 J-6.689430
G02 X104.710123 Y206.902157 Z-0.125000 I-16.692494 J-2.642750
G02 X103.795898 Y202.779019 Z-0.125000 I-16.907512 J1.585983
G02 X101.886943 Y199.000737 Z-0.125000 I-15.993216 J5.709096
G02 X99.104454 Y195.810555 Z-0.125000 I-14.142178 J9.526322
G02 X95.615424 Y193.400774 Z-0.125000 I-11.359541 J12.716339
G02 X91.640097 Y191.925240 Z-0.125000 I-7.889426 J15.162534
G02 X87.421074 Y191.473774 Z-0.125000 I-3.914029 J16.637771
G02 X83.220830 Y192.075434 Z-0.125000 I0.304817 J17.089935
G02 X79.300214 Y193.691974 Z-0.125000 I4.505499 J16.489875
G02 X75.898885 Y196.224838 Z-0.125000 I8.407492 J14.840464
G02 X73.231184 Y199.512707 Z-0.125000 I11.808783 J12.307561
G02 X71.457428 Y203.357248 Z-0.125000 I14.419408 J8.984130
G02 X70.689974 Y207.511267 Z-0.125000 I16.193159 J5.139587
G02 X70.973637 Y211.726071 Z-0.125000 I16.880120 J0.980887
G02 X72.288824 Y215.729767 Z-0.125000 I16.596135 J-3.233854
G02 X74.555233 Y219.282624 Z-0.125000 I15.213798 J-7.205745
G02 X77.626394 Y222.156427 Z-0.125000 I12.947345 J-10.758566
G02 X81.314866 Y224.177815 Z-0.125000 I9.847047 J-13.592212
G02 X85.385964 Y225.218187 Z-0.125000 I6.158501 J-15.613413
G02 X89.587885 Y225.214347 Z-0.125000 I2.085754 J-16.641061
G02 X93.657824 Y224.165807 Z-0.125000 I-2.116120 J-16.636852
G02 X97.339679 Y222.139062 Z-0.125000 I-6.196022 J-15.613573
G02 X100.406874 Y219.257357 Z-0.125000 I-9.877984 J-13.586977
G02 X102.663112 Y215.704732 Z-0.125000 I-12.991418 J-10.743492
G02 X103.970833 Y211.694977 Z-0.125000 I-15.248015 J-7.191036
G02 X104.244815 Y207.486270 Z-0.125000 I-16.632571 J-3.196034
G02 X103.467273 Y203.330567 Z-0.125000 I-16.906609 J1.012676
G02 X101.686931 Y199.495899 Z-0.125000 I-16.202932 J5.192006
G02 X99.009644 Y196.212414 Z-0.125000 I-14.422772 J9.026788
G02 X95.605202 Y193.690743 Z-0.125000 I-11.785181 J12.351903
G02 X91.679494 Y192.083644 Z-0.125000 I-8.380689 J14.873487
G02 X87.478846 Y191.493303 Z-0.125000 I-4.461161 J16.503680
G02 X83.261664 Y191.955494 Z-0.125000 I-0.260507 J17.093630
G02 X79.288323 Y193.442363 Z-0.125000 I3.952965 J16.615846
G02 X75.807334 Y195.859684 Z-0.125000 I7.926445 J15.129242
G02 X73.029908 Y199.060729 Z-0.125000 I11.372930 J12.673318
G02 X71.131774 Y202.840687 Z-0.125000 I14.150327 J9.472254
G02 X70.226171 Y206.972373 Z-0.125000 I15.977893 J5.667203
G02 X70.369934 Y211.189637 Z-0.125000 I16.883665 J1.535532
G02 X71.553173 Y215.240067 Z-0.125000 I16.661538 J-2.669240
G02 X73.698554 Y218.862757 Z-0.125000 I15.477799 J-6.719453
G02 X76.675460 Y221.840121 Z-0.125000 I13.281716 J-10.302765
G02 X80.292904 Y223.981737 Z-0.125000 I10.304888 J-13.280229
G02 X84.328916 Y225.157745 Z-0.125000 I6.673828 J-15.390590
G02 X88.528684 Y225.293567 Z-0.125000 I2.637858 J-16.566865
G02 X92.630493 Y224.381594 Z-0.125000 I-1.562356 J-16.707468
G02 X96.379754 Y222.477397 Z-0.125000 I-5.664266 J-15.795774
G02 X99.538752 Y219.701878 Z-0.125000 I-9.437306 J-13.926698
G02 X101.914133 Y216.223027 Z-0.125000 I-12.596521 J-11.151371
G02 X103.352887 Y212.263892 Z-0.125000 I-15.033653 J-7.704234
G02 X103.767103 Y208.062037 Z-0.125000 I-16.473068 J-3.745249
G02 X103.128899 Y203.888345 Z-0.125000 I-16.964670 J0.458449
G02 X101.475253 Y199.992817 Z-0.125000 I-16.328816 J4.632807
G02 X98.911035 Y196.626166 Z-0.125000 I-14.734979 J8.563086
G02 X95.590004 Y193.991274 Z-0.125000 I-12.170828 J11.929804
G02 X91.721923 Y192.256372 Z-0.125000 I-8.872166 J14.601572
G02 X87.542564 Y191.527074 Z-0.125000 I-5.003950 J16.336031
G02 X83.312339 Y191.849835 Z-0.125000 I-0.824890 J17.071529
G02 X79.293544 Y193.203814 Z-0.125000 I3.405276 J16.748477
G02 X75.732358 Y195.506431 Z-0.125000 I7.409869 J15.365112
G02 X72.852894 Y198.611227 Z-0.125000 I10.970946 J13.062365
G02 X70.828633 Y202.330565 Z-0.125000 I13.799281 J9.920824
G02 X69.787844 Y206.425647 Z-0.125000 I15.823269 J6.201379
G02 X69.791867 Y210.650933 Z-0.125000 I16.786983 J2.096663
G02 X70.839174 Y214.734077 Z-0.125000 I16.781106 J-2.128388
G02 X72.865499 Y218.430439 Z-0.125000 I15.666293 J-6.184583
G02 X75.739814 Y221.502577 Z-0.125000 I13.639846 J-9.880856
G02 X79.286709 Y223.765167 Z-0.125000 I10.732787 J-12.913598
G02 X83.280284 Y225.074207 Z-0.125000 I7.185850 J-15.176098
G02 X87.473865 Y225.350036 Z-0.125000 I3.189097 J-16.469051
G02 X91.604774 Y224.574737 Z-0.125000 I-1.004472 J-16.744684
G02 X95.413589 Y222.797544 Z-0.125000 I-5.142242 J-15.990721
G02 X98.665534 Y220.126667 Z-0.125000 I-8.951179 J-14.213721
G02 X101.153008 Y216.732382 Z-0.125000 I-12.243488 J-11.581146
G02 X102.724243 Y212.819267 Z-0.125000 I-14.731455 J-8.187134
G02 X103.277269 Y208.638912 Z-0.125000 I-16.375434 J-4.293091
G02 X102.777543 Y204.441837 Z-0.125000 I-16.928141 J-0.112733
G02 X101.255963 Y200.498508 Z-0.125000 I-16.503321 J4.102776
G02 X98.802844 Y197.045667 Z-0.125000 I-14.981533 J8.045993
G02 X95.573716 Y194.304766 Z-0.125000 I-12.571849 J11.538620
G02 X91.763684 Y192.441784 Z-0.125000 I-9.342672 J14.279445
G02 X87.612068 Y191.575123 Z-0.125000 I-5.541342 J16.167818
G02 X83.373924 Y191.757564 Z-0.125000 I-1.389715 J17.034341
G02 X79.311355 Y192.978553 Z-0.125000 I2.846522 J16.840312
G02 X75.678094 Y195.160704 Z-0.125000 I6.909087 J15.619313
G02 X72.695064 Y198.171363 Z-0.125000 I10.513093 J13.399769
G02 X70.550844 Y201.818167 Z-0.125000 I13.496181 J10.389156
G02 X69.373738 Y205.881572 Z-0.125000 I15.574589 J6.713918
G02 X69.237984 Y210.100127 Z-0.125000 I16.751854 J2.650538
G02 X70.150485 Y214.221043 Z-0.125000 I16.810281 J-1.560843
G02 X72.051384 Y217.979027 Z-0.125000 I15.897459 J-5.681644
G02 X74.824816 Y221.148248 Z-0.125000 I13.942948 J-9.403533
G02 X78.292724 Y223.525987 Z-0.125000 I11.169373 J-12.572593
G02 X82.242462 Y224.968057 Z-0.125000 I7.684796 J-14.918096
G02 X86.424374 Y225.383047 Z-0.125000 I3.735026 J-16.360027
G02 X90.578268 Y224.746035 Z-0.125000 I-0.446772 J-16.775439
G02 X94.445924 Y223.095667 Z-0.125000 I-4.601022 J-16.139677
G02 X97.782647 Y220.536613 Z-0.125000 I-8.487671 J-14.521867
G02 X100.383924 Y217.223997 Z-0.125000 I-11.824868 J-11.963293
G02 X102.082611 Y213.369846 Z-0.125000 I-14.482517 J-8.684474
G02 X102.775053 Y209.205747 Z-0.125000 I-16.181564 J-4.830431
G02 X102.415536 Y204.999809 Z-0.125000 I-16.951122 J-0.669379
G02 X101.024413 Y201.004167 Z-0.125000 I-16.591697 J3.536579
G02 X98.689640 Y197.475817 Z-0.125000 I-15.263187 J7.563272
G02 X95.551134 Y194.627374 Z-0.125000 I-12.928236 J11.091470
G02 X91.807217 Y192.640721 Z-0.125000 I-9.815676 J13.976884
G02 X87.685834 Y191.636744 Z-0.125000 I-6.071665 J15.963289
G02 X83.444136 Y191.679147 Z-0.125000 I-1.951352 J16.976639
G02 X79.344744 Y192.764554 Z-0.125000 I2.290359 J16.934324
G02 X75.639285 Y194.826764 Z-0.125000 I6.378920 J15.822053
G02 X72.560624 Y197.734757 Z-0.125000 I10.084537 J13.760060
G02 X70.294683 Y201.312468 Z-0.125000 I13.117096 J10.814126
G02 X68.985034 Y205.330527 Z-0.125000 I15.383082 J7.236436
G02 X68.709317 Y209.547629 Z-0.125000 I16.618710 J3.204106
G02 X69.483984 Y213.692237 Z-0.125000 I16.894166 J-1.012981
G02 X71.261190 Y217.515753 Z-0.125000 I16.049928 J-5.135368
G02 X73.925904 Y220.772677 Z-0.125000 I14.272419 J-8.958695
G02 X77.315475 Y223.266464 Z-0.125000 I11.571436 J-12.177515
G02 X81.213854 Y224.838357 Z-0.125000 I8.181695 J-14.670998
G02 X85.380502 Y225.392606 Z-0.125000 I4.278282 J-16.223798
G02 X89.554094 Y224.893857 Z-0.125000 I0.111632 J-16.777795
G02 X93.472987 Y223.374036 Z-0.125000 I-4.066296 J-16.297423
G02 X96.895274 Y220.925687 Z-0.125000 I-7.985292 J-14.777793
G02 X99.602928 Y217.704643 Z-0.125000 I-11.442675 J-12.367438
G02 X101.430633 Y213.905347 Z-0.125000 I-14.150876 J-9.146748
G02 X102.260182 Y209.771711 Z-0.125000 I-16.046771 J-5.370362
G02 X102.040403 Y205.551697 Z-0.125000 I-16.876990 J-1.236775
G02 X100.784179 Y201.517023 Z-0.125000 I-16.731312 J2.996510
G02 X98.565934 Y197.909997 Z-0.125000 I-15.474672 J7.030994
G02 X95.526213 Y194.961888 Z-0.125000 I-13.303094 J10.675341
G02 X91.848554 Y192.851184 Z-0.125000 I-10.263384 J13.623465
G02 X87.764128 Y191.711982 Z-0.125000 I-6.597080 J15.761148
G02 X83.523574 Y191.613814 Z-0.125000 I-2.512654 J16.900348
G02 X79.389565 Y192.563517 Z-0.125000 I1.727166 J16.990680
G02 X75.619914 Y194.500834 Z-0.125000 I5.861087 J16.040735
G02 X72.444336 Y197.307807 Z-0.125000 I9.606276 J14.067533
G02 X70.063364 Y200.805347 Z-0.125000 I12.781673 J11.260401
G02 X68.619831 Y204.782555 Z-0.125000 I15.102118 J7.731903
G02 X68.205034 Y208.983757 Z-0.125000 I16.545531 J3.754668
G02 X68.842677 Y213.156974 Z-0.125000 I16.884053 J-0.444462
G02 X70.490624 Y217.033657 Z-0.125000 I16.246879 J-4.617812
G02 X73.048243 Y220.380733 Z-0.125000 I14.542388 J-8.461631
G02 X76.351254 Y222.984077 Z-0.125000 I11.984692 J-11.808631
G02 X80.197206 Y224.685823 Z-0.125000 I8.661927 J-14.379182
G02 X84.342754 Y225.378097 Z-0.125000 I4.815955 J-16.080861
G02 X88.530325 Y225.018816 Z-0.125000 I0.670313 J-16.770794
G02 X92.499264 Y223.629487 Z-0.125000 I-3.517318 J-16.411794
G02 X95.998903 Y221.298156 Z-0.125000 I-7.501399 J-15.052975
G02 X98.814514 Y218.166297 Z-0.125000 I-11.001483 J-12.722159
G02 X100.765565 Y214.434064 Z-0.125000 I-13.868222 J-9.625788
G02 X101.733073 Y210.326007 Z-0.125000 I-15.819849 J-5.893769
G02 X101.653737 Y206.106304 Z-0.125000 I-16.861826 J-1.793571
G02 X100.531124 Y202.028087 Z-0.125000 I-16.782702 J2.426163
G02 X98.435963 Y198.353525 Z-0.125000 I-15.724101 J6.530973
G02 X95.493724 Y195.304044 Z-0.125000 I-13.628990 J10.205572
G02 X91.890317 Y193.074337 Z-0.125000 I-10.715915 J13.291313
G02 X87.844964 Y191.800054 Z-0.125000 I-7.112431 J15.520852
G02 X83.610358 Y191.561881 Z-0.125000 I-3.069323 J16.807430
G02 X79.448334 Y192.373874 Z-0.125000 I1.165272 J17.045452
G02 X75.614814 Y194.186573 Z-0.125000 I5.319754 J16.210223
G02 X72.350404 Y196.884887 Z-0.125000 I9.152907 J14.396946
G02 X69.852666 Y200.305205 Z-0.125000 I12.376927 J11.660598
G02 X68.279804 Y204.228477 Z-0.125000 I14.874528 J8.240205
G02 X67.725455 Y208.418791 Z-0.125000 I16.376588 J4.298332
G02 X68.224004 Y212.606537 Z-0.125000 I16.930229 J0.108014
G02 X69.744164 Y216.540353 Z-0.125000 I16.362297 J-4.062318
G02 X72.187434 Y219.967657 Z-0.125000 I14.841844 J-7.995976
G02 X75.404639 Y222.681621 Z-0.125000 I12.358971 J-11.386793
G02 X79.190564 Y224.509397 Z-0.125000 I9.141752 J-14.100734
G02 X83.311819 Y225.339608 Z-0.125000 I5.348740 J-15.907434
G02 X87.509634 Y225.119607 Z-0.125000 I1.227482 J-16.737595
G02 X91.521228 Y223.863811 Z-0.125000 I-2.972904 J-16.532171
G02 X95.098684 Y221.648697 Z-0.125000 I-6.984724 J-15.276870
G02 X98.014497 Y218.615062 Z-0.125000 I-10.592328 J-13.099038
G02 X100.090524 Y214.946257 Z-0.125000 I-13.508558 J-10.065714
G02 X101.192832 Y210.877489 Z-0.125000 I-15.648833 J-6.423274
G02 X101.253833 Y206.653077 Z-0.125000 I-16.751370 J-2.354539
G02 X100.268384 Y202.544770 Z-0.125000 I-16.886047 J1.878069
G02 X98.294674 Y198.799397 Z-0.125000 I-15.900081 J5.986181
G02 X95.457631 Y195.657019 Z-0.125000 I-13.976052 J9.766164
G02 X91.928444 Y193.307834 Z-0.125000 I-11.138781 J12.908278
G02 X87.929076 Y191.901085 Z-0.125000 I-7.623767 J15.285817
G02 X83.704694 Y191.522684 Z-0.125000 I-3.624372 J16.692441
G02 X79.517336 Y192.196892 Z-0.125000 I0.599921 J17.066475
G02 X75.627814 Y193.880764 Z-0.125000 I4.787090 J16.391619
G02 X72.273555 Y196.471681 Z-0.125000 I8.656639 J14.673783
G02 X69.666194 Y199.804487 Z-0.125000 I12.010716 J12.082684
G02 X67.962514 Y203.677911 Z-0.125000 I14.562374 J8.716473
G02 X67.270384 Y207.843247 Z-0.125000 I16.265741 J4.842956
G02 X67.630264 Y212.050323 Z-0.125000 I16.883799 J0.674663
G02 X69.017894 Y216.028587 Z-0.125000 I16.523622 J-3.532349
G02 X71.348332 Y219.538746 Z-0.125000 I15.077737 J-7.481614
G02 X74.471794 Y222.356187 Z-0.125000 I12.747248 J-10.991729
G02 X78.196892 Y224.310071 Z-0.125000 I9.600973 J-13.776436
G02 X82.287744 Y225.276527 Z-0.125000 I5.875795 J-15.730107
G02 X86.490444 Y225.196536 Z-0.125000 I1.784414 J-16.691606
G02 X90.543084 Y224.074297 Z-0.125000 I-2.418260 J-16.611438
G02 X94.190129 Y221.980915 Z-0.125000 I-6.482827 J-15.517834
G02 X97.207574 Y219.043547 Z-0.125000 I-10.130245 J-13.424947
G02 X99.402297 Y215.449631 Z-0.125000 I-13.193805 J-10.524251
G02 X100.640494 Y211.415637 Z-0.125000 I-15.388894 J-6.930500
G02 X100.841595 Y207.200694 Z-0.125000 I-16.698793 J-2.908990
G02 X99.992334 Y203.057827 Z-0.125000 I-16.900406 J1.305992
G02 X98.145903 Y199.253195 Z-0.125000 I-16.116317 J5.471067
G02 X95.412774 Y196.016054 Z-0.125000 I-14.269630 J9.275533
G02 X91.965632 Y193.553072 Z-0.125000 I-11.569078 J12.548091
G02 X88.014044 Y192.014044 Z-0.125000 I-8.121704 J15.010644
G02 X83.805053 Y191.496308 Z-0.125000 I-4.173864 J16.564298
G02 X79.598634 Y192.031244 Z-0.125000 I0.035127 J17.082080
G02 X75.653828 Y193.586416 Z-0.125000 I4.236331 J16.526493
G02 X72.217944 Y196.063104 Z-0.125000 I8.180937 J14.970955
G02 X69.499308 Y199.310920 Z-0.125000 I11.581075 J12.455868
G02 X67.670054 Y203.122087 Z-0.125000 I14.299662 J9.208020
G02 X66.839405 Y207.267110 Z-0.125000 I16.061904 J5.374493
G02 X67.059464 Y211.479507 Z-0.125000 I16.892532 J1.229468
G02 X68.315768 Y215.506230 Z-0.125000 I16.602280 J-2.970433
G02 X70.526744 Y219.088787 Z-0.125000 I15.345433 J-6.996907
G02 X73.557297 Y222.010936 Z-0.125000 I13.092159 J-10.545283
G02 X77.214004 Y224.086507 Z-0.125000 I10.061633 J-13.467468
G02 X81.271607 Y225.188975 Z-0.125000 I6.395576 J-15.520561
G02 X85.475054 Y225.248607 Z-0.125000 I2.337969 J-16.622999
G02 X89.561592 Y224.262336 Z-0.125000 I-1.866748 J-16.693983
G02 X93.278364 Y222.290147 Z-0.125000 I-5.953553 J-15.708415
G02 X96.389396 Y219.457247 Z-0.125000 I-9.696001 J-13.772636
G02 X98.704484 Y215.935027 Z-0.125000 I-12.807138 J-10.939826
G02 X100.074613 Y211.948994 Z-0.125000 I-15.182582 J-7.447243
G02 X100.416014 Y207.738737 Z-0.125000 I-16.552588 J-3.461184
G02 X99.705581 Y203.574833 Z-0.125000 I-16.966562 J0.752228
G02 X97.984994 Y199.707557 Z-0.125000 I-16.256275 J4.916176
G02 X95.363012 Y196.384704 Z-0.125000 I-14.587268 J8.814558
G02 X91.997734 Y193.807334 Z-0.125000 I-11.965344 J12.137469
G02 X88.100925 Y192.139190 Z-0.125000 I-8.616808 J14.743422
G02 X83.911244 Y191.482164 Z-0.125000 I-4.720051 J16.411745
G02 X79.688855 Y191.877886 Z-0.125000 I-0.530195 J17.067259
G02 X75.696484 Y193.300844 Z-0.125000 I3.692043 J16.670852
G02 X72.178219 Y195.664250 Z-0.125000 I7.667996 J15.215317
G02 X69.355854 Y198.817587 Z-0.125000 I11.186196 J12.851837
G02 X67.399428 Y202.570134 Z-0.125000 I13.957254 J9.663022
G02 X66.432904 Y206.681187 Z-0.125000 I15.913919 J5.910564
G02 X66.513338 Y210.903562 Z-0.125000 I16.808351 J1.791763
G02 X67.634424 Y214.965847 Z-0.125000 I16.727732 J-2.430585
G02 X69.727308 Y218.623564 Z-0.125000 I15.546616 J-6.467896
G02 X72.657384 Y221.642657 Z-0.125000 I13.453486 J-10.125428
G02 X76.245121 Y223.840035 Z-0.125000 I10.497594 J-13.112197
G02 X80.263164 Y225.076357 Z-0.125000 I6.909896 J-15.309660
G02 X84.462369 Y225.275979 Z-0.125000 I2.890536 J-16.538093
G02 X88.580774 Y224.425707 Z-0.125000 I-1.308687 J-16.737955
G02 X92.359071 Y222.579465 Z-0.125000 I-5.436006 J-15.913899
G02 X95.564954 Y219.849437 Z-0.125000 I-9.214573 J-14.068068
G02 X97.993591 Y216.409635 Z-0.125000 I-12.461839 J-11.375811
G02 X99.496914 Y212.467417 Z-0.125000 I-14.890895 J-7.936233
G02 X99.977474 Y208.275750 Z-0.125000 I-16.463278 J-4.010839
G02 X99.405214 Y204.086417 Z-0.125000 I-16.944328 J0.180833
G02 X97.815530 Y200.168401 Z-0.125000 I-16.437772 J4.387910
G02 X95.303454 Y196.757827 Z-0.125000 I-14.847634 J8.305671
G02 X92.027653 Y194.072363 Z-0.125000 I-12.371141 J11.749964
G02 X88.187134 Y192.275304 Z-0.125000 I-9.095339 J14.435427
G02 X84.022181 Y191.480266 Z-0.125000 I-5.260071 J16.248900
G02 X79.789804 Y191.735744 Z-0.125000 I-1.095099 J17.043643
G02 X75.750966 Y193.026507 Z-0.125000 I3.133835 J16.770074
G02 X72.158644 Y195.270594 Z-0.125000 I7.172658 J15.479279
G02 X69.230994 Y198.331563 Z-0.125000 I10.733786 J13.196831
G02 X67.153284 Y202.013777 Z-0.125000 I13.661263 J10.135734
G02 X66.049911 Y206.095213 Z-0.125000 I15.675581 J6.427590
G02 X65.990444 Y210.313677 Z-0.125000 I16.779161 J2.346182
G02 X66.977251 Y214.415512 Z-0.125000 I16.768516 J-1.864500
G02 X68.946084 Y218.137517 Z-0.125000 I15.781691 J-5.966328
G02 X71.776529 Y221.254912 Z-0.125000 I13.767728 J-9.656785
G02 X75.287844 Y223.569087 Z-0.125000 I10.937049 J-12.773907
G02 X79.263790 Y224.938921 Z-0.125000 I7.414195 J-15.064700
G02 X83.454294 Y225.277867 Z-0.125000 I3.438258 J-16.434574
G02 X87.597676 Y224.565433 Z-0.125000 I-0.752706 J-16.782370
G02 X91.437294 Y222.844787 Z-0.125000 I-4.896135 J-16.070090
G02 X94.729749 Y220.225056 Z-0.125000 I-8.757538 J-14.385230
G02 X97.273614 Y216.864857 Z-0.125000 I-12.050302 J-11.765799
G02 X98.905426 Y212.979079 Z-0.125000 I-14.649890 J-8.437668
G02 X99.525614 Y208.801457 Z-0.125000 I-16.282106 J-4.552003
G02 X99.093206 Y204.600251 Z-0.125000 I-16.974744 J-0.375735
G02 X97.633234 Y200.628057 Z-0.125000 I-16.540651 J3.825081
G02 X95.237740 Y197.139300 Z-0.125000 I-15.134825 J7.825271
G02 X92.051114 Y194.345054 Z-0.125000 I-12.739171 J11.313886
G02 X88.273897 Y192.422813 Z-0.125000 I-9.572131 J14.137059
G02 X84.137274 Y191.489994 Z-0.125000 I-5.794883 J16.059214
G02 X79.898338 Y191.605441 Z-0.125000 I-1.658246 J16.992595
G02 X75.820614 Y192.761154 Z-0.125000 I2.580679 J16.877078
G02 X72.153744 Y194.886609 Z-0.125000 I6.645228 J15.690259
G02 X69.128694 Y197.846517 Z-0.125000 I10.312135 J13.564851
G02 X66.928043 Y201.461649 Z-0.125000 I13.290592 J10.567798
G02 X65.691284 Y205.500247 Z-0.125000 I15.490940 J6.952530
G02 X65.491807 Y209.719266 Z-0.125000 I16.657767 J2.901812
G02 X66.341314 Y213.847637 Z-0.125000 I16.857473 J-1.317225
G02 X68.187326 Y217.636752 Z-0.125000 I15.946742 J-5.424830
G02 X70.911024 Y220.844157 Z-0.125000 I14.100284 J-9.213654
G02 X74.345477 Y223.275304 Z-0.125000 I11.348022 J-12.389742
G02 X78.272934 Y224.776007 Z-0.125000 I7.913634 J-14.821011
G02 X82.450037 Y225.254314 Z-0.125000 I3.983786 J-16.312114
G02 X86.615984 Y224.679707 Z-0.125000 I-0.193320 J-16.790610
G02 X90.508797 Y223.088703 Z-0.125000 I-4.365730 J-16.239816
G02 X93.888894 Y220.577987 Z-0.125000 I-8.258591 J-14.648895
G02 X96.540670 Y217.307379 Z-0.125000 I-11.675783 J-12.176930
G02 X98.302394 Y213.474237 Z-0.125000 I-14.328090 J-8.906651
G02 X99.060198 Y209.324254 Z-0.125000 I-16.155648 J-5.094268
G02 X98.767314 Y205.106857 Z-0.125000 I-16.913459 J-0.944286
G02 X97.441283 Y201.092665 Z-0.125000 I-16.687045 J3.286214
G02 X95.161224 Y197.523607 Z-0.125000 I-15.360971 J7.300385
G02 X92.071071 Y194.627445 Z-0.125000 I-13.118951 J10.901035
G02 X88.358444 Y192.580224 Z-0.125000 I-10.028889 J13.797324
G02 X84.255749 Y191.511334 Z-0.125000 I-6.323206 J15.862121
G02 X80.015964 Y191.486154 Z-0.125000 I-2.220519 J16.931066
G02 X75.900781 Y192.506798 Z-0.125000 I2.017378 J16.940384
G02 X72.167754 Y194.508334 Z-0.125000 I6.132491 J15.919561
G02 X69.043872 Y197.368948 Z-0.125000 I9.838455 J13.879907
G02 X66.726754 Y200.905927 Z-0.125000 I12.962157 J11.019140
G02 X65.355421 Y204.905752 Z-0.125000 I15.219841 J7.453087
G02 X65.016574 Y209.111637 Z-0.125000 I16.591160 J3.453259
G02 X65.729453 Y213.270487 Z-0.125000 I16.860692 J-0.749610
G02 X67.447384 Y217.115477 Z-0.125000 I16.147380 J-4.908328
G02 X70.065152 Y220.414363 Z-0.125000 I14.382091 J-8.724551
G02 X73.415504 Y222.956887 Z-0.125000 I11.764190 J-12.023302
G02 X77.292199 Y224.588021 Z-0.125000 I8.400006 J-14.541772
G02 X81.451204 Y225.204717 Z-0.125000 I4.523367 J-16.173103
G02 X85.633064 Y224.769205 Z-0.125000 I0.364173 J-16.798356
G02 X89.578544 Y223.307637 Z-0.125000 I-3.817127 J-16.360441
G02 X93.037827 Y220.912571 Z-0.125000 I-7.780988 J-14.934091
G02 X95.799154 Y217.729127 Z-0.125000 I-11.240774 J-12.539586
G02 X97.685375 Y213.960664 Z-0.125000 I-14.053685 J-9.390548
G02 X98.581514 Y209.834007 Z-0.125000 I-15.940146 J-5.622169
G02 X98.428975 Y205.613939 Z-0.125000 I-16.906009 J-1.501706
G02 X97.235914 Y201.554267 Z-0.125000 I-16.753301 J2.718335
G02 X95.077355 Y197.914914 Z-0.125000 I-15.615659 J6.802085
G02 X92.083314 Y194.916044 Z-0.125000 I-13.457334 J10.441619
G02 X88.442221 Y192.748125 Z-0.125000 I-10.485296 J13.468778
G02 X84.376774 Y191.543574 Z-0.125000 I-6.844089 J15.636435
G02 X80.139862 Y191.378198 Z-0.125000 I-2.779138 J16.843933
G02 X75.994644 Y192.261504 Z-0.125000 I1.457757 J17.009118
G02 X72.195209 Y194.139617 Z-0.125000 I5.592736 J16.096343
G02 X68.980714 Y196.893007 Z-0.125000 I9.391977 J14.217937
G02 X66.545429 Y200.354733 Z-0.125000 I12.564171 J11.426214
G02 X65.043764 Y204.303047 Z-0.125000 I14.999366 J7.964440
G02 X64.565172 Y208.500081 Z-0.125000 I16.433835 J3.999771
G02 X65.139264 Y212.676307 Z-0.125000 I16.911941 J-0.197257
G02 X66.730161 Y216.580078 Z-0.125000 I16.276018 J-4.356886
G02 X69.235384 Y219.961617 Z-0.125000 I14.684642 J-8.260387
G02 X72.501330 Y222.615776 Z-0.125000 I12.148358 J-11.612114
G02 X76.320814 Y224.374187 Z-0.125000 I8.882385 J-14.266230
G02 X80.457320 Y225.129033 Z-0.125000 I5.059353 J-16.013608
G02 X84.652384 Y224.832527 Z-0.125000 I0.922836 J-16.768249
G02 X88.642461 Y223.503716 Z-0.125000 I-3.276612 J-16.493808
G02 X92.181804 Y221.223287 Z-0.125000 I-7.266906 J-15.165449
G02 X95.044935 Y218.136257 Z-0.125000 I-10.839149 J-12.924250
G02 X97.057204 Y214.429007 Z-0.125000 I-13.702429 J-9.837327
G02 X98.088819 Y210.338933 Z-0.125000 I-15.777686 J-6.154647
G02 X98.076514 Y206.111987 Z-0.125000 I-16.809177 J-2.064558
G02 X97.019867 Y202.019216 Z-0.125000 I-16.863706 J2.170984
G02 X94.981774 Y198.307347 Z-0.125000 I-15.806831 J6.263665
G02 X92.090770 Y195.213184 Z-0.125000 I-13.809430 J10.005047
G02 X88.522304 Y192.924774 Z-0.125000 I-10.918084 J13.098800
G02 X84.499829 Y191.586685 Z-0.125000 I-7.358638 J15.405963
G02 X80.271214 Y191.280894 Z-0.125000 I-3.336230 J16.744389
G02 X76.097712 Y192.026882 Z-0.125000 I0.891728 J17.036382
G02 X72.240304 Y193.776994 Z-0.125000 I5.065170 J16.290200
G02 X68.933860 Y196.424618 Z-0.125000 I8.899325 J14.502196
G02 X66.387444 Y199.800707 Z-0.125000 I12.205749 J11.854552
G02 X64.754092 Y203.701271 Z-0.125000 I14.695976 J8.446170
G02 X64.137264 Y207.875987 Z-0.125000 I16.329577 J4.545675
G02 X64.572967 Y212.073487 Z-0.125000 I16.877149 J0.369504
G02 X66.032344 Y216.024487 Z-0.125000 I16.441891 J-3.828100
G02 X68.425792 Y219.490262 Z-0.125000 I14.933050 J-7.753355
G02 X71.600344 Y222.249907 Z-0.125000 I12.539472 J-11.219013
G02 X75.360594 Y224.135090 Z-0.125000 I9.348821 J-13.954721
G02 X79.469704 Y225.026767 Z-0.125000 I5.588546 J-15.839833
G02 X83.671533 Y224.870095 Z-0.125000 I1.479812 J-16.735829
G02 X87.705404 Y223.673927 Z-0.125000 I-2.722103 J-16.579679
G02 X91.316186 Y221.514035 Z-0.125000 I-6.770896 J-15.417284
G02 X94.282724 Y218.521297 Z-0.125000 I-10.381857 J-13.257622
G02 X96.414962 Y214.886690 Z-0.125000 I-13.395985 J-10.301480
G02 X97.583004 Y210.829117 Z-0.125000 I-15.528926 J-6.667175
G02 X97.710890 Y206.608712 Z-0.125000 I-16.764825 J-2.620145
G02 X96.789914 Y202.479387 Z-0.125000 I-16.892666 J1.600256
G02 X94.877687 Y198.705409 Z-0.125000 I-16.028653 J5.750078
G02 X92.089324 Y195.515064 Z-0.125000 I-14.116345 J9.524002
G02 X88.600274 Y193.110958 Z-0.125000 I-11.352498 J12.741884
G02 X84.623824 Y191.639914 Z-0.125000 I-7.863341 J15.145784
G02 X80.407481 Y191.194405 Z-0.125000 I-3.887956 J16.621320
G02 X76.212944 Y191.801354 Z-0.125000 I0.328386 J17.066831
G02 X72.297576 Y193.423813 Z-0.125000 I4.515216 J16.431835
G02 X68.907674 Y195.958474 Z-0.125000 I8.430656 J14.809500
G02 X66.248403 Y199.251516 Z-0.125000 I11.782294 J12.234961
G02 X64.488344 Y203.092087 Z-0.125000 I14.441287 J8.941747
G02 X63.732652 Y207.248602 Z-0.125000 I16.136483 J5.080710
G02 X64.028694 Y211.454227 Z-0.125000 I16.891909 J0.924180
G02 X65.357382 Y215.455411 Z-0.125000 I16.533306 J-3.269075
G02 X67.633004 Y218.996147 Z-0.125000 I15.204179 J-7.270049
G02 X70.715957 Y221.861573 Z-0.125000 I12.894802 J-10.782496
G02 X74.410564 Y223.869887 Z-0.125000 I9.811985 J-13.648112
G02 X78.488151 Y224.897910 Z-0.125000 I6.112437 J-15.643844
G02 X82.693764 Y224.880757 Z-0.125000 I2.034846 J-16.671830
G02 X86.763433 Y223.819963 Z-0.125000 I-2.173438 J-16.675168
G02 X90.446344 Y221.779797 Z-0.125000 I-6.243068 J-15.614278
G02 X93.508132 Y218.889889 Z-0.125000 I-9.955110 J-13.614097
G02 X95.761984 Y215.324777 Z-0.125000 I-13.017143 J-10.724391
G02 X97.062780 Y211.312566 Z-0.125000 I-15.330655 J-7.187311
G02 X97.331014 Y207.094617 Z-0.125000 I-16.631879 J-3.175182
G02 X96.548314 Y202.941255 Z-0.125000 I-16.966212 J1.046845
G02 X94.761064 Y199.102867 Z-0.125000 I-16.183811 J5.200304
G02 X92.081826 Y195.824262 Z-0.125000 I-14.438984 J9.065350
G02 X88.673134 Y193.304674 Z-0.125000 I-11.759863 J12.344078
G02 X84.748489 Y191.703233 Z-0.125000 I-8.361898 J14.882695
G02 X80.549594 Y191.118124 Z-0.125000 I-4.437250 J16.484121
G02 X76.336032 Y191.586136 Z-0.125000 I-0.237962 J17.059184
G02 X72.371154 Y193.077024 Z-0.125000 I3.975020 J16.588751
G02 X68.896604 Y195.499947 Z-0.125000 I7.920341 J15.060795
G02 X66.132014 Y198.700227 Z-0.125000 I11.394699 J12.637658
G02 X64.243742 Y202.484299 Z-0.125000 I14.107173 J9.402718
G02 X63.351544 Y206.609407 Z-0.125000 I15.995182 J5.618554
G02 X63.508067 Y210.827001 Z-0.125000 I16.819932 J1.487481
G02 X64.702344 Y214.866567 Z-0.125000 I16.663305 J-2.730096
G02 X66.860846 Y218.483911 Z-0.125000 I15.417803 J-6.747272
G02 X69.845534 Y221.448457 Z-0.125000 I13.259230 J-10.364560
G02 X73.472669 Y223.579351 Z-0.125000 I10.256042 J-13.305045
G02 X77.513714 Y224.742017 Z-0.125000 I6.628942 J-15.436020
G02 X81.716893 Y224.864802 Z-0.125000 I2.588357 J-16.601634
G02 X85.821304 Y223.939247 Z-0.125000 I-1.614812 J-16.724314
G02 X89.567588 Y222.024005 Z-0.125000 I-5.731166 J-15.831923
G02 X92.726184 Y219.235077 Z-0.125000 I-9.477714 J-13.917069
G02 X95.094946 Y215.750294 Z-0.125000 I-12.680377 J-11.166886
G02 X96.529654 Y211.779597 Z-0.125000 I-15.049516 J-7.682295
G02 X96.937311 Y207.577390 Z-0.125000 I-16.550400 J-3.726436
G02 X96.292374 Y203.396527 Z-0.125000 I-16.958117 J0.475773
G02 X94.634807 Y199.504475 Z-0.125000 I-16.371208 J4.673263
G02 X92.064314 Y196.136654 Z-0.125000 I-14.713590 J8.565285
G02 X88.742565 Y193.506895 Z-0.125000 I-12.169870 J11.959434
G02 X84.872544 Y191.775774 Z-0.125000 I-8.848289 J14.589469
G02 X80.695217 Y191.052044 Z-0.125000 I-4.979908 J16.326239
G02 X76.469744 Y191.379894 Z-0.125000 I-0.802576 J17.049864
G02 X72.455583 Y192.739508 Z-0.125000 I3.417448 J16.695332
G02 X68.905134 Y195.044214 Z-0.125000 I7.431531 J15.335557
G02 X66.033469 Y198.154029 Z-0.125000 I10.947525 J12.989945
G02 X64.022684 Y201.869867 Z-0.125000 I13.818899 J9.879923
G02 X62.993118 Y205.967521 Z-0.125000 I15.767502 J6.139871
G02 X63.009704 Y210.183957 Z-0.125000 I16.796759 J2.042180
G02 X64.070240 Y214.264872 Z-0.125000 I16.717244 J-2.166165
G02 X66.106144 Y217.949147 Z-0.125000 I15.656355 J-6.246940
G02 X68.992427 Y221.013168 Z-0.125000 I13.584273 J-9.904836
G02 X72.545804 Y223.262487 Z-0.125000 I10.698064 J-12.968946
G02 X76.546409 Y224.559100 Z-0.125000 I7.138417 J-15.204974
G02 X80.743974 Y224.821317 Z-0.125000 I3.137806 J-16.501550
G02 X84.875212 Y224.033153 Z-0.125000 I-1.061014 J-16.782623
G02 X88.685394 Y222.242167 Z-0.125000 I-5.192331 J-15.994705
G02 X91.932253 Y219.562055 Z-0.125000 I-9.027852 J-14.243696
G02 X94.417674 Y216.154707 Z-0.125000 I-12.275183 J-11.564030
G02 X95.981823 Y212.237986 Z-0.125000 I-14.817190 J-8.187951
G02 X96.529314 Y208.047537 Z-0.125000 I-16.381474 J-4.271266
G02 X96.023901 Y203.851814 Z-0.125000 I-16.996242 J-0.080950
G02 X94.495274 Y199.903747 Z-0.125000 I-16.489069 J4.114334
G02 X92.039512 Y196.455086 Z-0.125000 I-15.005809 J8.086816
G02 X88.805524 Y193.715344 Z-0.125000 I-12.550004 J11.535439
G02 X84.995880 Y191.857554 Z-0.125000 I-9.328633 J14.294609
G02 X80.845094 Y190.995634 Z-0.125000 I-5.518925 J16.152211
G02 X76.609926 Y191.183528 Z-0.125000 I-1.367373 J17.003832
G02 X72.554964 Y192.408594 Z-0.125000 I2.867770 J16.815788
G02 X68.927502 Y194.596110 Z-0.125000 I6.905994 J15.553296
G02 X65.956814 Y197.606407 Z-0.125000 I10.533559 J13.365909
G02 X63.821852 Y201.257262 Z-0.125000 I13.455180 J10.318049
G02 X62.658124 Y205.314537 Z-0.125000 I15.590003 J6.667134
G02 X62.534687 Y209.533601 Z-0.125000 I16.687666 J2.599568
G02 X63.458514 Y213.643867 Z-0.125000 I16.810881 J-1.619475
G02 X65.372466 Y217.396808 Z-0.125000 I15.834322 J-5.710785
G02 X68.154044 Y220.553137 Z-0.125000 I13.920102 J-9.463544
G02 X71.632001 Y222.920290 Z-0.125000 I11.118003 J-12.596623
G02 X75.587094 Y224.348767 Z-0.125000 I7.640017 J-14.963720
G02 X79.773011 Y224.750421 Z-0.125000 I3.685254 J-16.393600
G02 X83.929814 Y224.099497 Z-0.125000 I-0.500668 J-16.795410
G02 X87.795001 Y222.437269 Z-0.125000 I-4.666900 J-16.176955
G02 X91.131654 Y219.864367 Z-0.125000 I-8.532253 J-14.515010
G02 X93.726426 Y216.544693 Z-0.125000 I-11.909372 J-11.982697
G02 X95.421374 Y212.678297 Z-0.125000 I-14.504175 J-8.663042
G02 X96.106924 Y208.512731 Z-0.125000 I-16.263479 J-4.815765
G02 X95.740764 Y204.298677 Z-0.125000 I-16.949284 J-0.650208
G02 X94.345066 Y200.305632 Z-0.125000 I-16.642097 J3.576506
G02 X92.003664 Y196.775107 Z-0.125000 I-15.246266 J7.569485
G02 X88.863743 Y193.931204 Z-0.125000 I-12.934181 J11.125156
G02 X85.117094 Y191.947574 Z-0.125000 I-9.794126 J13.968868
G02 X80.997088 Y190.948745 Z-0.125000 I-6.050172 J15.959378
G02 X76.759214 Y190.995984 Z-0.125000 I-1.930169 J16.958239
G02 X72.663822 Y192.086716 Z-0.125000 I2.304236 J16.885642
G02 X68.968364 Y194.151244 Z-0.125000 I6.399535 J15.794680
G02 X65.896866 Y197.064087 Z-0.125000 I10.063944 J13.687923
G02 X63.644114 Y200.638767 Z-0.125000 I13.135492 J10.775121
G02 X62.345122 Y204.659449 Z-0.125000 I15.328413 J7.172445
G02 X62.082094 Y208.868067 Z-0.125000 I16.626899 J3.151667
G02 X62.869705 Y213.010688 Z-0.125000 I16.826838 J-1.053003
G02 X64.656834 Y216.822217 Z-0.125000 I16.039055 J-5.195568
G02 X67.333627 Y220.071269 Z-0.125000 I14.213709 J-8.983046
G02 X70.730054 Y222.551637 Z-0.125000 I11.536642 J-12.231809
G02 X74.635949 Y224.111072 Z-0.125000 I8.132567 J-14.698291
G02 X78.806894 Y224.651427 Z-0.125000 I4.226725 J-16.257928
G02 X82.981417 Y224.139342 Z-0.125000 I0.056143 J-16.813742
G02 X86.901994 Y222.605327 Z-0.125000 I-4.119079 J-16.304424
G02 X90.319537 Y220.146762 Z-0.125000 I-8.061551 J-14.810581
G02 X93.025494 Y216.912117 Z-0.125000 I-11.479225 J-12.352158
G02 X94.846018 Y213.108068 Z-0.125000 I-14.238910 J-9.152046
G02 X95.670264 Y208.963507 Z-0.125000 I-16.059796 J-5.348118
G02 X95.444297 Y204.743838 Z-0.125000 I-16.949469 J-1.208225
G02 X94.180914 Y200.703397 Z-0.125000 I-16.723553 J3.011453
G02 X91.959339 Y197.099810 Z-0.125000 I-15.506727 J7.073159
G02 X88.914204 Y194.151934 Z-0.125000 I-13.285235 J10.676812
G02 X85.236237 Y192.045899 Z-0.125000 I-10.254439 J13.643684
G02 X81.151764 Y190.910894 Z-0.125000 I-6.576591 J15.750005
G02 X76.913531 Y190.817831 Z-0.125000 I-2.490699 J16.875880
G02 X72.786244 Y191.771574 Z-0.125000 I1.747655 J16.970121
G02 X69.021762 Y193.713993 Z-0.125000 I5.860986 J15.977880
G02 X65.857974 Y196.520977 Z-0.125000 I9.625445 J14.035428
G02 X63.485618 Y200.022507 Z-0.125000 I12.743628 J11.188483
G02 X62.055384 Y203.993997 Z-0.125000 I15.115801 J7.686861
G02 X61.652434 Y208.195896 Z-0.125000 I16.480889 J3.700742
G02 X62.301664 Y212.358687 Z-0.125000 I16.883598 J-0.501150
G02 X63.962532 Y216.230630 Z-0.125000 I16.180163 J-4.648288
G02 X66.528664 Y219.564787 Z-0.125000 I14.519596 J-8.520408
G02 X69.842029 Y222.157719 Z-0.125000 I11.930624 J-11.832037
G02 X73.693664 Y223.845647 Z-0.125000 I8.617133 J-14.424758
G02 X77.843792 Y224.524339 Z-0.125000 I4.765617 J-16.113091
G02 X82.034594 Y224.150837 Z-0.125000 I0.615489 J-16.791785
G02 X86.001573 Y222.748904 Z-0.125000 I-3.582202 J-16.449922
G02 X89.501494 Y220.403277 Z-0.125000 I-7.549417 J-15.048460
G02 X92.310754 Y217.263285 Z-0.125000 I-11.086354 J-12.745315
G02 X94.258404 Y213.518127 Z-0.125000 I-13.895801 J-9.605453
G02 X95.218730 Y209.407486 Z-0.125000 I-15.905846 J-5.883413
G02 X95.132864 Y205.178727 Z-0.125000 I-16.866219 J-1.772777
G02 X94.005090 Y201.102224 Z-0.125000 I-16.840099 J2.464601
G02 X91.902994 Y197.424457 Z-0.125000 I-15.712729 J6.541272
G02 X88.958631 Y194.378882 Z-0.125000 I-13.641902 J10.242502
G02 X85.351784 Y192.151404 Z-0.125000 I-10.697552 J13.288094
G02 X81.307131 Y190.881825 Z-0.125000 I-7.094185 J15.523249
G02 X77.075414 Y190.648174 Z-0.125000 I-3.049502 J16.792664
G02 X72.916752 Y191.465165 Z-0.125000 I1.180519 J17.001835
G02 X69.092464 Y193.280364 Z-0.125000 I5.339135 J16.184703
G02 X65.834567 Y195.983345 Z-0.125000 I9.135784 J14.326198
G02 X63.349674 Y199.401047 Z-0.125000 I12.393635 J11.623174
G02 X61.786884 Y203.326990 Z-0.125000 I14.821189 J8.173850
G02 X61.245304 Y207.509187 Z-0.125000 I16.383423 J4.247763
G02 X61.756419 Y211.695208 Z-0.125000 I16.860791 J0.065505
G02 X63.286834 Y215.617137 Z-0.125000 I16.350468 J-4.120716
G02 X65.742257 Y219.036868 Z-0.125000 I14.779705 J-8.020686
G02 X68.966664 Y221.737277 Z-0.125000 I12.324008 J-11.440164
G02 X72.760565 Y223.552611 Z-0.125000 I9.090736 J-14.126761
G02 X76.886444 Y224.368657 Z-0.125000 I5.296708 J-15.941713
G02 X81.085749 Y224.134810 Z-0.125000 I1.172049 J-16.774333
G02 X85.099394 Y222.864487 Z-0.125000 I-3.027293 J-16.540688
G02 X88.672464 Y220.638242 Z-0.125000 I-7.060158 J-15.311851
G02 X91.586954 Y217.590457 Z-0.125000 I-10.633167 J-13.085531
G02 X93.655754 Y213.915781 Z-0.125000 I-13.598295 J-10.075374
G02 X94.753034 Y209.835287 Z-0.125000 I-15.667820 J-6.400994
G02 X94.807387 Y205.610183 Z-0.125000 I-16.829398 J-2.329400
G02 X93.814734 Y201.495107 Z-0.125000 I-16.885381 J1.895887
G02 X91.837044 Y197.752385 Z-0.125000 I-15.939978 J6.028959
G02 X88.994084 Y194.609274 Z-0.125000 I-13.962343 J9.771719
G02 X85.463886 Y192.264219 Z-0.125000 I-11.135692 J12.933774
G02 X81.463624 Y190.861064 Z-0.125000 I-7.605553 J15.278946
G02 X77.240907 Y190.487357 Z-0.125000 I-3.603576 J16.674522
G02 X73.059374 Y191.165534 Z-0.125000 I0.619127 J17.047873
G02 X69.174346 Y192.854248 Z-0.125000 I4.789756 J16.332513
G02 X65.831304 Y195.445474 Z-0.125000 I8.674746 J14.643734
G02 X63.231913 Y198.782204 Z-0.125000 I11.975387 J12.009965
G02 X61.541394 Y202.650347 Z-0.125000 I14.574481 J8.673058
G02 X60.860609 Y206.816517 Z-0.125000 I16.201064 J4.786090
G02 X61.232284 Y211.013447 Z-0.125000 I16.881570 J0.619911
G02 X62.632664 Y214.987264 Z-0.125000 I16.454743 J-3.565022
G02 X64.971974 Y218.484497 Z-0.125000 I15.053944 J-7.538629
G02 X68.106050 Y221.291723 Z-0.125000 I12.690019 J-11.014435
G02 X71.837184 Y223.231607 Z-0.125000 I9.556126 J-13.821927
G02 X75.933155 Y224.184288 Z-0.125000 I5.824649 J-15.761113
G02 X80.139414 Y224.089777 Z-0.125000 I1.728654 J-16.713558
G02 X84.190607 Y222.954257 Z-0.125000 I-2.482160 J-16.650086
G02 X87.838314 Y220.846147 Z-0.125000 I-6.533565 J-15.515067
G02 X90.849591 Y217.899615 Z-0.125000 I-10.214967 J-13.451410
G02 X93.041284 Y214.292107 Z-0.125000 I-13.226622 J-10.505179
G02 X94.272055 Y210.254438 Z-0.125000 I-15.479014 J-6.924763
G02 X94.466784 Y206.029527 Z-0.125000 I-16.709912 J-2.887116
G02 X93.611798 Y201.887440 Z-0.125000 I-16.965244 J1.342586
G02 X91.758184 Y198.078557 Z-0.125000 I-16.110299 J5.484688
G02 X89.022241 Y194.844650 Z-0.125000 I-14.290136 J9.315427
G02 X85.570984 Y192.383074 Z-0.125000 I-11.554076 J12.549207
G02 X81.619403 Y190.848266 Z-0.125000 I-8.107204 J15.018790
G02 X77.412404 Y190.334684 Z-0.125000 I-4.155729 J16.554019
G02 X73.208661 Y190.874210 Z-0.125000 I0.050176 J17.037555
G02 X69.272324 Y192.432064 Z-0.125000 I4.255896 J16.505698
G02 X65.842266 Y194.913225 Z-0.125000 I8.166818 J14.901646
G02 X63.136094 Y198.158817 Z-0.125000 I11.596791 J12.420394
G02 X61.316293 Y201.972688 Z-0.125000 I14.248122 J9.139636
G02 X60.498454 Y206.109967 Z-0.125000 I16.067498 J5.325624
G02 X60.730761 Y210.320894 Z-0.125000 I16.822081 J1.183835
G02 X61.997604 Y214.335877 Z-0.125000 I16.588980 J-3.026947
G02 X64.220751 Y217.911150 Z-0.125000 I15.280102 J-7.022520
G02 X67.258874 Y220.819657 Z-0.125000 I13.056825 J-10.597687
G02 X70.923960 Y222.882818 Z-0.125000 I10.008327 J-13.492230
G02 X74.986524 Y223.970897 Z-0.125000 I6.343131 J-15.555121
G02 X79.192002 Y224.016337 Z-0.125000 I2.282998 J-16.660485
G02 X83.280974 Y223.015127 Z-0.125000 I-1.921588 J-16.698182
G02 X86.993753 Y221.030958 Z-0.125000 I-6.027738 J-15.744871
G02 X90.103864 Y218.183387 Z-0.125000 I-9.740782 J-13.761076
G02 X92.411724 Y214.654191 Z-0.125000 I-12.899203 J-10.954416
G02 X93.777114 Y210.655657 Z-0.125000 I-15.206812 J-7.425098
G02 X94.111483 Y206.443665 Z-0.125000 I-16.636884 J-3.439987
G02 X93.393834 Y202.271987 Z-0.125000 I-16.971461 J0.772014
G02 X91.668629 Y198.406553 Z-0.125000 I-16.303969 J4.959011
G02 X89.040274 Y195.081984 Z-0.125000 I-14.578452 J8.824256
G02 X85.673301 Y192.508164 Z-0.125000 I-11.968280 J12.167265
G02 X81.774774 Y190.842964 Z-0.125000 I-8.601435 J14.741306
G02 X77.586062 Y190.190199 Z-0.125000 I-4.700900 J16.399498
G02 X73.368634 Y190.589744 Z-0.125000 I-0.512183 J17.052099
G02 X69.380061 Y192.017246 Z-0.125000 I3.696933 J16.615543
G02 X65.872404 Y194.381234 Z-0.125000 I7.685358 J15.187748
G02 X63.057331 Y197.538397 Z-0.125000 I11.153918 J12.778957
G02 X61.113874 Y201.286087 Z-0.125000 I13.968570 J9.621504
G02 X60.158171 Y205.398123 Z-0.125000 I15.849681 J5.850800
G02 X60.250564 Y209.610617 Z-0.125000 I16.804593 J1.738682
G02 X61.384209 Y213.668770 Z-0.125000 I16.655891 J-2.465406
G02 X63.486294 Y217.313587 Z-0.125000 I15.521941 J-6.523430
G02 X66.427195 Y220.322686 Z-0.125000 I13.393280 J-10.148063
G02 X70.021314 Y222.505907 Z-0.125000 I10.452352 J-13.157129
G02 X74.044978 Y223.728310 Z-0.125000 I6.857539 J-15.338938
G02 X78.248104 Y223.913137 Z-0.125000 I2.833895 J-16.561455
G02 X82.365576 Y223.048959 Z-0.125000 I-1.371741 J-16.776979
G02 X86.144924 Y221.187587 Z-0.125000 I-5.489268 J-15.912962
G02 X89.344861 Y218.447414 Z-0.125000 I-9.299292 J-14.098095
G02 X91.770854 Y214.993367 Z-0.125000 I-12.499494 J-11.358162
G02 X93.266569 Y211.046393 Z-0.125000 I-14.984254 J-7.935208
G02 X93.740944 Y206.843837 Z-0.125000 I-16.480272 J-3.988307
G02 X93.162401 Y202.654345 Z-0.125000 I-17.017813 J0.215361
G02 X91.565354 Y198.731047 Z-0.125000 I-16.436828 J4.404198
G02 X89.049806 Y195.322996 Z-0.125000 I-14.875975 J8.347832
G02 X85.769234 Y192.638064 Z-0.125000 I-12.360404 J11.755860
G02 X81.928037 Y190.844725 Z-0.125000 I-9.085197 J14.449362
G02 X77.764194 Y190.053394 Z-0.125000 I-5.244035 J16.242811
G02 X73.533791 Y190.313150 Z-0.125000 I-1.078663 J17.011012
G02 X69.502644 Y191.606584 Z-0.125000 I3.151755 J16.751335
G02 X65.915436 Y193.854942 Z-0.125000 I7.161531 J15.411909
G02 X62.999814 Y196.914057 Z-0.125000 I10.748690 J13.163491
G02 X60.930927 Y200.599001 Z-0.125000 I13.611764 J10.065486
G02 X59.840354 Y204.673057 Z-0.125000 I15.680387 J6.380435
G02 X59.792714 Y208.890282 Z-0.125000 I16.707722 J2.297620
G02 X60.790334 Y212.980567 Z-0.125000 I16.753644 J-1.919408
G02 X62.771334 Y216.695565 Z-0.125000 I15.712977 J-5.993173
G02 X65.609694 Y219.799277 Z-0.125000 I13.731569 J-9.707884
G02 X69.129741 Y222.101120 Z-0.125000 I10.881283 J-12.797579
G02 X73.111014 Y223.456367 Z-0.125000 I7.361210 J-15.099370
G02 X77.304113 Y223.780681 Z-0.125000 I3.382880 J-16.469005
G02 X81.450264 Y223.053067 Z-0.125000 I-0.810241 J-16.793772
G02 X85.286302 Y221.319630 Z-0.125000 I-4.969424 J-16.108402
G02 X88.578244 Y218.684727 Z-0.125000 I-8.805684 J-14.375328
G02 X91.114918 Y215.316507 Z-0.125000 I-12.142706 J-11.784236
G02 X92.742334 Y211.417437 Z-0.125000 I-14.680094 J-8.416425
G02 X93.355142 Y207.237050 Z-0.125000 I-16.371085 J-4.534966
G02 X92.915574 Y203.027057 Z-0.125000 I-16.984423 J-0.354590
G02 X91.450371 Y199.055868 Z-0.125000 I-16.596460 J3.867505
G02 X89.048104 Y195.564384 Z-0.125000 I-15.131294 J7.838713
G02 X85.859090 Y192.773070 Z-0.125000 I-12.748782 J11.347854
G02 X82.079384 Y190.853084 Z-0.125000 I-9.559934 J14.139414
G02 X77.943028 Y189.924073 Z-0.125000 I-5.778000 J16.053209
G02 X73.708184 Y190.043134 Z-0.125000 I-1.641646 J16.982235
G02 X69.633542 Y191.203080 Z-0.125000 I2.587431 J16.825731
G02 X65.976624 Y193.329354 Z-0.125000 I6.662040 J15.665707
G02 X62.958173 Y196.292974 Z-0.125000 I10.282571 J13.491772
G02 X60.770264 Y199.903617 Z-0.125000 I13.300824 J10.527996
G02 X59.543748 Y203.943361 Z-0.125000 I15.427530 J6.890053
G02 X59.356364 Y208.152787 Z-0.125000 I16.653527 J2.850221
G02 X60.218186 Y212.277318 Z-0.125000 I16.783145 J-1.354538
G02 X62.073714 Y216.053617 Z-0.125000 I15.921055 J-5.478977
G02 X64.808391 Y219.251248 Z-0.125000 I14.036782 J-9.236340
G02 X68.249584 Y221.668107 Z-0.125000 I11.302021 J-12.433878
G02 X72.183147 Y223.154791 Z-0.125000 I7.859744 J-14.848635
G02 X76.364534 Y223.618067 Z-0.125000 I3.926267 J-16.335679
G02 X80.530056 Y223.028985 Z-0.125000 I-0.255303 J-16.827474
G02 X84.424324 Y221.422447 Z-0.125000 I-4.421539 J-16.241014
G02 X87.798741 Y218.900632 Z-0.125000 I-8.343036 J-14.682284
G02 X90.448264 Y215.615177 Z-0.125000 I-11.717555 J-12.160576
G02 X92.202246 Y211.776200 Z-0.125000 I-14.424274 J-8.910453
G02 X92.954094 Y207.614427 Z-0.125000 I-16.178379 J-5.071514
G02 X92.654493 Y203.395920 Z-0.125000 I-16.992390 J-0.913081
G02 X91.320924 Y199.375397 Z-0.125000 I-16.692907 J3.305449
G02 X89.036748 Y195.808122 Z-0.125000 I-15.396890 J7.343913
G02 X85.941234 Y192.911594 Z-0.125000 I-13.112742 J10.911211
G02 X82.227232 Y190.867538 Z-0.125000 I-10.023523 J13.816354
G02 X78.124794 Y189.801874 Z-0.125000 I-6.309710 J15.860886
G02 X73.886272 Y189.780557 Z-0.125000 I-2.204331 J16.904409
G02 X69.777984 Y190.803884 Z-0.125000 I2.033990 J16.924050
G02 X66.049330 Y192.809470 Z-0.125000 I6.124287 J15.854700
G02 X62.937024 Y195.668554 Z-0.125000 I9.852935 J13.849106
G02 X60.628060 Y199.208269 Z-0.125000 I12.914962 J10.947386
G02 X59.269474 Y203.201077 Z-0.125000 I15.223483 J7.407456
G02 X58.942022 Y207.405965 Z-0.125000 I16.518515 J3.401561
G02 X59.665924 Y211.553447 Z-0.125000 I16.845529 J-0.803306
G02 X61.395956 Y215.391755 Z-0.125000 I16.075422 J-4.936599
G02 X64.021974 Y218.676917 Z-0.125000 I14.345186 J-8.774783
G02 X67.381396 Y221.207235 Z-0.125000 I11.705695 J-12.046018
G02 X71.263754 Y222.823597 Z-0.125000 I8.346346 J-14.576464
G02 X75.425880 Y223.425363 Z-0.125000 I4.467709 J-16.206383
G02 X79.610914 Y222.974397 Z-0.125000 I0.305588 J-16.808443
G02 X83.553227 Y221.499253 Z-0.125000 I-3.889677 J-16.400615
G02 X87.012434 Y219.088537 Z-0.125000 I-7.832195 J-14.925862
G02 X89.766644 Y215.896057 Z-0.125000 I-11.333916 J-12.562267
G02 X91.648834 Y212.113537 Z-0.125000 I-14.088395 J-9.369966
G02 X92.537289 Y207.983088 Z-0.125000 I-16.034133 J-5.609701
G02 X92.377654 Y203.753247 Z-0.125000 I-16.922752 J-1.479266
G02 X91.178811 Y199.693708 Z-0.125000 I-16.816558 J2.759397
G02 X89.013124 Y196.050614 Z-0.125000 I-15.617910 J6.819020
G02 X86.016032 Y193.054015 Z-0.125000 I-13.473683 J10.478805
G02 X82.371704 Y190.887614 Z-0.125000 I-10.476822 J13.475701
G02 X78.305816 Y189.686372 Z-0.125000 I-6.830221 J15.636900
G02 X74.072124 Y189.524354 Z-0.125000 I-2.764316 J16.838038
G02 X69.929268 Y190.411559 Z-0.125000 I1.466119 J16.962382
G02 X66.139114 Y192.290664 Z-0.125000 I5.609033 J16.075342
G02 X62.930481 Y195.047629 Z-0.125000 I9.365710 J14.145706
G02 X60.507664 Y198.505247 Z-0.125000 I12.574337 J11.388737
G02 X59.015651 Y202.454824 Z-0.125000 I14.936988 J7.899277
G02 X58.549244 Y206.642567 Z-0.125000 I16.428344 J3.949542
G02 X59.135371 Y210.815251 Z-0.125000 I16.837199 J-0.237576
G02 X60.736054 Y214.706297 Z-0.125000 I16.249110 J-4.409727
G02 X63.252391 Y218.078321 Z-0.125000 I14.618042 J-8.283652
G02 X66.525424 Y220.718107 Z-0.125000 I12.101465 J-11.655446
G02 X70.351439 Y222.462430 Z-0.125000 I8.826818 J-14.292656
G02 X74.492614 Y223.202037 Z-0.125000 I5.000822 J-16.037043
G02 X78.687745 Y222.890537 Z-0.125000 I0.861189 J-16.806660
G02 X82.679714 Y221.545857 Z-0.125000 I-3.334047 J-16.495678
G02 X86.213653 Y219.253434 Z-0.125000 I-7.350532 J-15.201507
G02 X89.074964 Y216.150947 Z-0.125000 I-10.884306 J-12.908889
G02 X91.079389 Y212.436817 Z-0.125000 I-13.801208 J-9.846106
G02 X92.105324 Y208.334067 Z-0.125000 I-15.805892 J-6.132076
G02 X92.085880 Y204.105037 Z-0.125000 I-16.895066 J-2.036881
G02 X91.021584 Y200.004907 Z-0.125000 I-16.874373 J2.191987
G02 X88.978751 Y196.294042 Z-0.125000 I-15.850715 J6.308102
G02 X86.081844 Y193.198584 Z-0.125000 I-13.808034 J10.019077
G02 X82.511293 Y190.912734 Z-0.125000 I-10.918533 J13.123437
G02 X78.488264 Y189.577354 Z-0.125000 I-7.348072 J15.409475
G02 X74.260174 Y189.275006 Z-0.125000 I-3.320718 J16.723137
G02 X70.092764 Y190.023614 Z-0.125000 I0.907355 J17.025161
G02 X66.238978 Y191.777515 Z-0.125000 I5.059548 J16.228010
G02 X62.943614 Y194.423894 Z-0.125000 I8.913415 J14.474242
G02 X60.404651 Y197.802719 Z-0.125000 I12.160800 J11.781381
G02 X58.783944 Y201.696617 Z-0.125000 I14.699556 J8.402438
G02 X58.178026 Y205.870586 Z-0.125000 I16.256425 J4.490841
G02 X58.624954 Y210.056907 Z-0.125000 I16.861840 J0.316863
G02 X60.096315 Y214.001550 Z-0.125000 I16.366646 J-3.858066
G02 X62.498334 Y217.453607 Z-0.125000 I14.895006 J-7.802563
G02 X65.682248 Y220.201178 Z-0.125000 I12.477951 J-11.241017
G02 X69.448524 Y222.071457 Z-0.125000 I9.294080 J-13.988655
G02 X73.561255 Y222.947943 Z-0.125000 I5.532277 J-15.871763
G02 X77.766654 Y222.775527 Z-0.125000 I1.419568 J-16.748506
G02 X81.797777 Y221.565100 Z-0.125000 I-2.793219 J-16.620049
G02 X85.408944 Y219.389097 Z-0.125000 I-6.824505 J-15.409990
G02 X88.368469 Y216.386340 Z-0.125000 I-10.475509 J-13.284523
G02 X90.497074 Y212.736957 Z-0.125000 I-13.435432 J-10.282070
G02 X91.657172 Y208.674555 Z-0.125000 I-15.627062 J-6.659456
G02 X91.778094 Y204.443387 Z-0.125000 I-16.787292 J-2.597074
G02 X90.850807 Y200.313305 Z-0.125000 I-16.963397 J1.639489
G02 X88.931154 Y196.534557 Z-0.125000 I-16.036108 J5.769571
G02 X86.139072 Y193.345785 Z-0.125000 I-14.140178 J9.564352
G02 X82.646094 Y190.942424 Z-0.125000 I-11.348383 J12.753446
G02 X78.668495 Y189.474161 Z-0.125000 I-7.852847 J15.151872
G02 X74.454514 Y189.031704 Z-0.125000 I-3.875325 J16.620468
G02 X70.261577 Y189.642184 Z-0.125000 I0.337979 J17.025662
G02 X66.354814 Y191.265744 Z-0.125000 I4.530689 J16.414363
G02 X62.970022 Y193.803845 Z-0.125000 I8.407255 J14.737866
G02 X60.322894 Y197.093127 Z-0.125000 I11.791944 J12.199659
G02 X58.571861 Y200.935073 Z-0.125000 I14.380020 J8.873947
G02 X57.828394 Y205.082607 Z-0.125000 I16.130862 J5.031942
G02 X58.136134 Y209.284990 Z-0.125000 I16.813898 J0.881181
G02 X59.474884 Y213.273557 Z-0.125000 I16.505539 J-3.321077
G02 X61.761699 Y216.805050 Z-0.125000 I15.133785 J-7.293708
