%
(Header)
(Generated by gcodetools from Inkscape.)
(Using default header. To add your own header create file "header" in the output dir.)
M3
(Header end.)
G21 (All units in mm)

(Start cutting path id: polyline204)
(Change tool to Default tool)

G00 Z5.000000
G00 X52.097984 Y243.969889

G00 Z4.875000 (Fast pre-penetrate)
G01 Z-0.125000 F100.0(Penetrate)
G01 X51.795444 Y217.655822 Z-0.125000 F800.000000
G01 X61.223252 Y202.062138 Z-0.125000
G01 X52.681548 Y178.396744 Z-0.125000
G01 X51.160329 Y157.778170 Z-0.125000
G01 X59.961443 Y132.789925 Z-0.125000
G01 X51.457076 Y117.218778 Z-0.125000
G01 X57.319439 Y94.442410 Z-0.125000
G01 X51.106246 Y71.369586 Z-0.125000
G01 X67.976295 Y52.523073 Z-0.125000
G00 Z5.000000

(End cutting path id: polyline204)


(Start cutting path id: polyline14)
(Change tool to Default tool)

G00 Z5.000000
G00 X67.699457 Y51.571252

G00 Z4.875000 (Fast pre-penetrate)
G01 Z-0.125000 F100.0(Penetrate)
G01 X48.361238 Y71.721876 Z-0.125000 F800.000000
G01 X55.928486 Y94.544295 Z-0.125000
G01 X48.977124 Y117.746994 Z-0.125000
G01 X58.374265 Y132.221403 Z-0.125000
G01 X48.222356 Y157.745409 Z-0.125000
G01 X49.712615 Y178.061395 Z-0.125000
G01 X59.908919 Y202.306068 Z-0.125000
G01 X49.488302 Y217.593611 Z-0.125000
G01 X50.313752 Y244.756298 Z-0.125000
G00 Z5.000000

(End cutting path id: polyline14)


(Start cutting path id: polyline16)
(Change tool to Default tool)

G00 Z5.000000
G00 X48.782749 Y243.913810

G00 Z4.875000 (Fast pre-penetrate)
G01 Z-0.125000 F100.0(Penetrate)
G01 X48.260083 Y218.275652 Z-0.125000 F800.000000
G01 X57.331852 Y201.170095 Z-0.125000
G01 X48.458109 Y178.065435 Z-0.125000
G01 X46.438076 Y157.926641 Z-0.125000
G01 X55.934765 Y133.012485 Z-0.125000
G01 X47.178046 Y117.086128 Z-0.125000
G01 X54.857791 Y94.669789 Z-0.125000
G01 X47.012148 Y72.388876 Z-0.125000
G01 X64.190237 Y51.925051 Z-0.125000
G00 Z5.000000

(End cutting path id: polyline16)


(Start cutting path id: polyline18)
(Change tool to Default tool)

G00 Z5.000000
G00 X70.744572 Y62.041327

G00 Z4.875000 (Fast pre-penetrate)
G01 Z-0.125000 F100.0(Penetrate)
G01 X78.555994 Y67.846443 Z-0.125000 F800.000000
G01 X71.229171 Y93.423363 Z-0.125000
G01 X76.256739 Y111.936669 Z-0.125000
G01 X75.833377 Y138.475243 Z-0.125000
G01 X80.540247 Y158.105828 Z-0.125000
G01 X82.371259 Y181.749997 Z-0.125000
G01 X74.366679 Y199.622541 Z-0.125000
G01 X74.866466 Y218.278037 Z-0.125000
G01 X69.940200 Y236.105358 Z-0.125000
G00 Z5.000000

(End cutting path id: polyline18)


(Start cutting path id: polyline20)
(Change tool to Default tool)

G00 Z5.000000
G00 X68.155969 Y236.891816

G00 Z4.875000 (Fast pre-penetrate)
G01 Z-0.125000 F100.0(Penetrate)
G01 X72.559374 Y218.215826 Z-0.125000 F800.000000
G01 X73.052346 Y199.866520 Z-0.125000
G01 X79.402327 Y181.414648 Z-0.125000
G01 X77.602275 Y158.073018 Z-0.125000
G01 X74.246199 Y137.906672 Z-0.125000
G01 X73.776787 Y112.464885 Z-0.125000
G01 X69.838169 Y93.525249 Z-0.125000
G01 X75.811034 Y68.198782 Z-0.125000
G01 X70.467735 Y61.089506 Z-0.125000
G00 Z5.000000

(End cutting path id: polyline20)


(Start cutting path id: polyline22)
(Change tool to Default tool)

G00 Z5.000000
G00 X87.155675 Y51.794300

G00 Z4.875000 (Fast pre-penetrate)
G01 Z-0.125000 F100.0(Penetrate)
G01 X97.981300 Y84.041216 Z-0.125000 F800.000000
G01 X97.874255 Y102.684251 Z-0.125000
G01 X88.272955 Y122.082151 Z-0.125000
G01 X97.907600 Y133.929451 Z-0.125000
G01 X100.194588 Y168.675548 Z-0.125000
G01 X89.579159 Y183.301494 Z-0.125000
G01 X85.531208 Y194.521809 Z-0.125000
G01 X90.712260 Y222.894802 Z-0.125000
G01 X100.914064 Y236.329817 Z-0.125000
G00 Z5.000000

(End cutting path id: polyline22)


(Start cutting path id: polyline24)
(Change tool to Default tool)

G00 Z5.000000
G00 X102.661202 Y237.028458

G00 Z4.875000 (Fast pre-penetrate)
G01 Z-0.125000 F100.0(Penetrate)
G01 X93.312789 Y222.435175 Z-0.125000 F800.000000
G01 X88.404972 Y193.892682 Z-0.125000
G01 X92.992384 Y183.047585 Z-0.125000
G01 X101.738394 Y167.228370 Z-0.125000
G01 X99.578653 Y133.745153 Z-0.125000
G01 X90.784548 Y122.229600 Z-0.125000
G01 X99.890782 Y101.593598 Z-0.125000
G01 X100.226278 Y83.609142 Z-0.125000
G01 X89.626280 Y52.525604 Z-0.125000
G00 Z5.000000

(End cutting path id: polyline24)


(Start cutting path id: polyline26)
(Change tool to Default tool)

G00 Z5.000000
G00 X114.332381 Y59.838991

G00 Z4.875000 (Fast pre-penetrate)
G01 Z-0.125000 F100.0(Penetrate)
G01 X122.676157 Y79.288637 Z-0.125000 F800.000000
G01 X120.055717 Y90.687312 Z-0.125000
G01 X115.900575 Y123.704281 Z-0.125000
G01 X117.176598 Y152.756931 Z-0.125000
G01 X127.124541 Y180.508731 Z-0.125000
G01 X117.142717 Y187.601651 Z-0.125000
G01 X119.317598 Y217.838904 Z-0.125000
G01 X120.132290 Y244.015160 Z-0.125000
G00 Z5.000000

(End cutting path id: polyline26)


(Start cutting path id: polyline28)
(Change tool to Default tool)

G00 Z5.000000
G00 X121.828850 Y243.994131

G00 Z4.875000 (Fast pre-penetrate)
G01 Z-0.125000 F100.0(Penetrate)
G01 X121.095063 Y218.561057 Z-0.125000 F800.000000
G01 X119.300511 Y188.626490 Z-0.125000
G01 X128.250778 Y180.272882 Z-0.125000
G01 X119.497807 Y152.405225 Z-0.125000
G01 X117.396335 Y132.222668 Z-0.125000
G01 X117.485077 Y123.653655 Z-0.125000
G01 X121.939643 Y91.782930 Z-0.125000
G01 X123.298128 Y79.085159 Z-0.125000
G01 X116.343652 Y59.868783 Z-0.125000
G00 Z5.000000

(End cutting path id: polyline28)


(Start cutting path id: polyline30)
(Change tool to Default tool)

G00 Z5.000000
G00 X136.456208 Y60.166504

G00 Z4.875000 (Fast pre-penetrate)
G01 Z-0.125000 F100.0(Penetrate)
G01 X129.517893 Y77.050620 Z-0.125000 F800.000000
G01 X140.779049 Y102.739502 Z-0.125000
G01 X133.330091 Y123.147929 Z-0.125000
G01 X128.466865 Y135.425552 Z-0.125000
G01 X142.710048 Y148.887632 Z-0.125000
G01 X139.513444 Y177.914482 Z-0.125000
G01 X140.878403 Y198.875026 Z-0.125000
G01 X138.869518 Y225.782733 Z-0.125000
G01 X138.794163 Y243.783935 Z-0.125000
G00 Z5.000000

(End cutting path id: polyline30)


(Start cutting path id: polyline32)
(Change tool to Default tool)

G00 Z5.000000
G00 X137.097651 Y243.804964

G00 Z4.875000 (Fast pre-penetrate)
G01 Z-0.125000 F100.0(Penetrate)
G01 X137.092053 Y225.060580 Z-0.125000 F800.000000
G01 X138.720609 Y197.850138 Z-0.125000
G01 X138.387158 Y178.150283 Z-0.125000
G01 X140.388838 Y149.239386 Z-0.125000
G01 X127.359807 Y135.105293 Z-0.125000
G01 X131.745590 Y123.198507 Z-0.125000
G01 X138.895123 Y101.643835 Z-0.125000
G01 X128.895921 Y77.254098 Z-0.125000
G01 X134.444986 Y60.136712 Z-0.125000
G00 Z5.000000

(End cutting path id: polyline32)


(Start cutting path id: polyline34)
(Change tool to Default tool)

G00 Z5.000000
G00 X163.582727 Y51.473894

G00 Z4.875000 (Fast pre-penetrate)
G01 Z-0.125000 F100.0(Penetrate)
G01 X158.913973 Y73.610670 Z-0.125000 F800.000000
G01 X163.084789 Y96.762743 Z-0.125000
G01 X160.386658 Y116.544672 Z-0.125000
G01 X156.275279 Y140.214933 Z-0.125000
G01 X168.587317 Y163.641604 Z-0.125000
G01 X152.711246 Y175.663419 Z-0.125000
G01 X160.109529 Y195.057424 Z-0.125000
G01 X156.516240 Y219.450082 Z-0.125000
G01 X159.298439 Y244.327533 Z-0.125000
G00 Z5.000000

(End cutting path id: polyline34)


(Start cutting path id: polyline36)
(Change tool to Default tool)

G00 Z5.000000
G00 X161.108909 Y243.992038

G00 Z4.875000 (Fast pre-penetrate)
G01 Z-0.125000 F100.0(Penetrate)
G01 X158.455709 Y219.575041 Z-0.125000 F800.000000
G01 X161.394460 Y195.752122 Z-0.125000
G01 X154.424211 Y175.866264 Z-0.125000
G01 X169.700363 Y163.000356 Z-0.125000
G01 X159.067019 Y139.856558 Z-0.125000
G01 X161.464460 Y116.988429 Z-0.125000
G01 X164.817372 Y96.749161 Z-0.125000
G01 X160.373174 Y73.754029 Z-0.125000
G01 X165.244044 Y51.696065 Z-0.125000
G00 Z5.000000

(End cutting path id: polyline36)


(Start cutting path id: polyline38)
(Change tool to Default tool)

G00 Z5.000000
G00 X181.857359 Y53.917824

G00 Z4.875000 (Fast pre-penetrate)
G01 Z-0.125000 F100.0(Penetrate)
G01 X174.965483 Y75.187577 Z-0.125000 F800.000000
G01 X182.143007 Y96.613250 Z-0.125000
G01 X172.242380 Y121.425958 Z-0.125000
G01 X186.984572 Y136.273151 Z-0.125000
G01 X180.830475 Y156.588066 Z-0.125000
G01 X171.553718 Y177.894718 Z-0.125000
G01 X174.243817 Y202.699151 Z-0.125000
G01 X177.850055 Y220.824825 Z-0.125000
G01 X179.213164 Y240.636984 Z-0.125000
G00 Z5.000000

(End cutting path id: polyline38)


(Start cutting path id: polyline40)
(Change tool to Default tool)

G00 Z5.000000
G00 X180.283859 Y240.667943

G00 Z4.875000 (Fast pre-penetrate)
G01 Z-0.125000 F100.0(Penetrate)
G01 X179.663591 Y220.492494 Z-0.125000 F800.000000
G01 X176.470054 Y201.944042 Z-0.125000
G01 X174.442574 Y178.133878 Z-0.125000
G01 X182.164815 Y156.776015 Z-0.125000
G01 X188.700361 Y136.049568 Z-0.125000
G01 X174.537108 Y120.662623 Z-0.125000
G01 X184.545803 Y96.354131 Z-0.125000
G01 X177.031469 Y75.402787 Z-0.125000
G01 X184.235523 Y54.472618 Z-0.125000
G00 Z5.000000

(End cutting path id: polyline40)


(Start cutting path id: polyline42)
(Change tool to Default tool)

G00 Z5.000000
G00 X208.017454 Y60.020661

G00 Z4.875000 (Fast pre-penetrate)
G01 Z-0.125000 F100.0(Penetrate)
G01 X197.691567 Y77.554594 Z-0.125000 F800.000000
G01 X208.574049 Y93.762851 Z-0.125000
G01 X197.484340 Y113.029123 Z-0.125000
G01 X205.858345 Y133.813839 Z-0.125000
G01 X195.507973 Y158.655122 Z-0.125000
G01 X203.331418 Y180.525769 Z-0.125000
G01 X198.732129 Y194.393102 Z-0.125000
G01 X197.799342 Y217.168984 Z-0.125000
G01 X190.990805 Y240.977883 Z-0.125000
G00 Z5.000000

(End cutting path id: polyline42)


(Start cutting path id: polyline44)
(Change tool to Default tool)

G00 Z5.000000
G00 X189.920110 Y240.946923

G00 Z4.875000 (Fast pre-penetrate)
G01 Z-0.125000 F100.0(Penetrate)
G01 X195.985757 Y217.501315 Z-0.125000 F800.000000
G01 X196.505941 Y195.148162 Z-0.125000
G01 X200.442563 Y180.286561 Z-0.125000
G01 X194.173633 Y158.467221 Z-0.125000
G01 X204.142556 Y134.037421 Z-0.125000
G01 X195.189612 Y113.792458 Z-0.125000
G01 X206.171205 Y94.021969 Z-0.125000
G01 X195.625581 Y77.339384 Z-0.125000
G01 X205.639241 Y59.465867 Z-0.125000
G00 Z5.000000

(End cutting path id: polyline44)


(Start cutting path id: polyline10)
(Change tool to Default tool)

G00 Z5.000000
G00 X29.098373 Y55.462798

G00 Z4.875000 (Fast pre-penetrate)
G01 Z-0.125000 F100.0(Penetrate)
G01 X33.521152 Y79.058775 Z-0.125000 F800.000000
G01 X44.150942 Y95.924539 Z-0.125000
G01 X29.187456 Y110.477759 Z-0.125000
G01 X31.540014 Y140.923358 Z-0.125000
G01 X28.595519 Y159.738619 Z-0.125000
G01 X35.913384 Y178.105839 Z-0.125000
G01 X31.561287 Y189.810217 Z-0.125000
G01 X35.977543 Y225.096067 Z-0.125000
G01 X33.472473 Y235.488936 Z-0.125000
G00 Z5.000000

(End cutting path id: polyline10)


(Start cutting path id: polyline12)
(Change tool to Default tool)

G00 Z5.000000
G00 X32.541780 Y235.606739

G00 Z4.875000 (Fast pre-penetrate)
G01 Z-0.125000 F100.0(Penetrate)
G01 X33.918860 Y224.350110 Z-0.125000 F800.000000
G01 X29.566081 Y191.521284 Z-0.125000
G01 X33.505916 Y178.227244 Z-0.125000
G01 X28.149084 Y159.613563 Z-0.125000
G01 X30.306537 Y140.591173 Z-0.125000
G01 X27.533927 Y111.382653 Z-0.125000
G01 X41.467950 Y96.114485 Z-0.125000
G01 X31.632066 Y79.095333 Z-0.125000
G01 X26.675960 Y55.142052 Z-0.125000
G00 Z5.000000

(End cutting path id: polyline12)


(Start cutting path id: polyline120)
(Change tool to Default tool)

G00 Z5.000000
G00 X31.611086 Y235.724542

G00 Z4.875000 (Fast pre-penetrate)
G01 Z-0.125000 F100.0(Penetrate)
G01 X31.860176 Y223.604202 Z-0.125000 F800.000000
G01 X27.570875 Y193.232351 Z-0.125000
G01 X31.098447 Y178.348601 Z-0.125000
G01 X27.702600 Y159.488555 Z-0.125000
G01 X29.073060 Y140.259036 Z-0.125000
G01 X25.880448 Y112.287547 Z-0.125000
G01 X38.784959 Y96.304381 Z-0.125000
G01 X29.742980 Y79.131842 Z-0.125000
G01 X24.253498 Y54.821355 Z-0.125000
G00 Z5.000000

(End cutting path id: polyline120)


(Start cutting path id: polyline122)
(Change tool to Default tool)

G00 Z5.000000
G00 X30.680392 Y235.842394

G00 Z4.875000 (Fast pre-penetrate)
G01 Z-0.125000 F100.0(Penetrate)
G01 X29.801493 Y222.858245 Z-0.125000 F800.000000
G01 X25.575669 Y194.943418 Z-0.125000
G01 X28.690979 Y178.469958 Z-0.125000
G01 X27.256116 Y159.363499 Z-0.125000
G01 X27.839632 Y139.926899 Z-0.125000
G01 X24.226920 Y113.192441 Z-0.125000
G01 X36.101967 Y96.494327 Z-0.125000
G01 X27.853943 Y79.168400 Z-0.125000
G01 X21.831085 Y54.500657 Z-0.125000
G00 Z5.000000

(End cutting path id: polyline122)


(Start cutting path id: polyline124)
(Change tool to Default tool)

G00 Z5.000000
G00 X29.749698 Y235.960246

G00 Z4.875000 (Fast pre-penetrate)
G01 Z-0.125000 F100.0(Penetrate)
G01 X27.742858 Y222.112288 Z-0.125000 F800.000000
G01 X23.580462 Y196.654485 Z-0.125000
G01 X26.283461 Y178.591363 Z-0.125000
G01 X26.809681 Y159.238491 Z-0.125000
G01 X26.606154 Y139.594713 Z-0.125000
G01 X22.573391 Y114.097335 Z-0.125000
G01 X33.418975 Y96.684224 Z-0.125000
G01 X25.964857 Y79.204958 Z-0.125000
G01 X19.408672 Y54.179960 Z-0.125000
G00 Z5.000000

(End cutting path id: polyline124)


(Start cutting path id: polyline126)
(Change tool to Default tool)

G00 Z5.000000
G00 X28.819004 Y236.078049

G00 Z4.875000 (Fast pre-penetrate)
G01 Z-0.125000 F100.0(Penetrate)
G01 X25.684174 Y221.366379 Z-0.125000 F800.000000
G01 X21.585256 Y198.365552 Z-0.125000
G01 X23.875993 Y178.712720 Z-0.125000
G01 X26.363198 Y159.113483 Z-0.125000
G01 X25.372726 Y139.262528 Z-0.125000
G01 X20.919912 Y115.002229 Z-0.125000
G01 X30.735983 Y96.874169 Z-0.125000
G01 X24.075820 Y79.241467 Z-0.125000
G01 X16.986210 Y53.859263 Z-0.125000
G00 Z5.000000

(End cutting path id: polyline126)


(Start cutting path id: polyline128)
(Change tool to Default tool)

G00 Z5.000000
G00 X27.888311 Y236.195852

G00 Z4.875000 (Fast pre-penetrate)
G01 Z-0.125000 F100.0(Penetrate)
G01 X23.625491 Y220.620422 Z-0.125000 F800.000000
G01 X19.590050 Y200.076619 Z-0.125000
G01 X21.468524 Y178.834125 Z-0.125000
G01 X25.916762 Y158.988427 Z-0.125000
G01 X24.139249 Y138.930391 Z-0.125000
G01 X19.266383 Y115.907123 Z-0.125000
G01 X28.052992 Y97.064115 Z-0.125000
G01 X22.186734 Y79.278025 Z-0.125000
G01 X14.563797 Y53.538566 Z-0.125000
G00 Z5.000000

(End cutting path id: polyline128)


(Start cutting path id: polyline130)
(Change tool to Default tool)

G00 Z5.000000
G00 X26.957617 Y236.313704

G00 Z4.875000 (Fast pre-penetrate)
G01 Z-0.125000 F100.0(Penetrate)
G01 X21.566807 Y219.874465 Z-0.125000 F800.000000
G01 X17.594844 Y201.787685 Z-0.125000
G01 X19.061055 Y178.955482 Z-0.125000
G01 X25.470279 Y158.863371 Z-0.125000
G01 X22.905820 Y138.598254 Z-0.125000
G01 X17.612855 Y116.812017 Z-0.125000
G01 X25.370000 Y97.254011 Z-0.125000
G01 X20.297697 Y79.314583 Z-0.125000
G01 X12.141336 Y53.217868 Z-0.125000
G00 Z5.000000

(End cutting path id: polyline130)


(Start cutting path id: polyline132)
(Change tool to Default tool)

G00 Z5.000000
G00 X26.026923 Y236.431507

G00 Z4.875000 (Fast pre-penetrate)
G01 Z-0.125000 F100.0(Penetrate)
G01 X19.508123 Y219.128508 Z-0.125000 F800.000000
G01 X15.599638 Y203.498752 Z-0.125000
G01 X16.653587 Y179.076839 Z-0.125000
G01 X25.023795 Y158.738363 Z-0.125000
G01 X21.672343 Y138.266069 Z-0.125000
G01 X15.959376 Y117.716911 Z-0.125000
G01 X22.687057 Y97.443957 Z-0.125000
G01 X18.408611 Y79.351092 Z-0.125000
G01 X9.718923 Y52.897171 Z-0.125000
G00 Z5.000000

(End cutting path id: polyline132)


(Start cutting path id: polyline134)
(Change tool to Default tool)

G00 Z5.000000
G00 X25.096229 Y236.549311

G00 Z4.875000 (Fast pre-penetrate)
G01 Z-0.125000 F100.0(Penetrate)
G01 X17.449440 Y218.382551 Z-0.125000 F800.000000
G01 X13.604432 Y205.209819 Z-0.125000
G01 X14.246070 Y179.198244 Z-0.125000
G01 X24.577360 Y158.613355 Z-0.125000
G01 X20.438915 Y137.933932 Z-0.125000
G01 X14.305847 Y118.621804 Z-0.125000
G01 X20.004065 Y97.633854 Z-0.125000
G01 X16.519574 Y79.387650 Z-0.125000
G01 X7.296509 Y52.576474 Z-0.125000
G00 Z5.000000

(End cutting path id: polyline134)


(Start cutting path id: polyline118)
(Change tool to Default tool)

G00 Z5.000000
G00 X35.003477 Y236.331423

G00 Z4.875000 (Fast pre-penetrate)
G01 Z-0.125000 F100.0(Penetrate)
G01 X37.205812 Y224.414025 Z-0.125000 F800.000000
G01 X34.138353 Y190.946191 Z-0.125000
G01 X37.167891 Y178.101798 Z-0.125000
G01 X30.379799 Y159.557387 Z-0.125000
G01 X33.979465 Y140.132276 Z-0.125000
G01 X30.986486 Y111.138625 Z-0.125000
G01 X45.221637 Y95.799045 Z-0.125000
G01 X34.870242 Y78.391775 Z-0.125000
G01 X32.607545 Y55.108999 Z-0.125000
G00 Z5.000000

(End cutting path id: polyline118)


(Start cutting path id: polyline136)
(Change tool to Default tool)

G00 Z5.000000
G00 X36.534529 Y237.173911

G00 Z4.875000 (Fast pre-penetrate)
G01 Z-0.125000 F100.0(Penetrate)
G01 X38.434032 Y223.731984 Z-0.125000 F800.000000
G01 X36.715420 Y192.082212 Z-0.125000
G01 X38.422349 Y178.097758 Z-0.125000
G01 X32.164031 Y159.376204 Z-0.125000
G01 X36.418965 Y139.341193 Z-0.125000
G01 X32.785564 Y111.799443 Z-0.125000
G01 X46.292331 Y95.673599 Z-0.125000
G01 X36.219332 Y77.724775 Z-0.125000
G01 X36.116765 Y54.755249 Z-0.125000
G00 Z5.000000

(End cutting path id: polyline136)


(Start cutting path id: polyline138)
(Change tool to Default tool)

G00 Z5.000000
G00 X38.065580 Y238.016398

G00 Z4.875000 (Fast pre-penetrate)
G01 Z-0.125000 F100.0(Penetrate)
G01 X39.662300 Y223.049942 Z-0.125000 F800.000000
G01 X39.292437 Y193.218186 Z-0.125000
G01 X39.676807 Y178.093718 Z-0.125000
G01 X33.948311 Y159.195021 Z-0.125000
G01 X38.858415 Y138.550111 Z-0.125000
G01 X34.584642 Y112.460260 Z-0.125000
G01 X47.362977 Y95.548104 Z-0.125000
G01 X37.568422 Y77.057776 Z-0.125000
G01 X39.625937 Y54.401450 Z-0.125000
G00 Z5.000000

(End cutting path id: polyline138)


(Start cutting path id: polyline140)
(Change tool to Default tool)

G00 Z5.000000
G00 X39.596584 Y238.858886

G00 Z4.875000 (Fast pre-penetrate)
G01 Z-0.125000 F100.0(Penetrate)
G01 X40.890569 Y222.367901 Z-0.125000 F800.000000
G01 X41.869504 Y194.354207 Z-0.125000
G01 X40.931313 Y178.089677 Z-0.125000
G01 X35.732542 Y159.013838 Z-0.125000
G01 X41.297915 Y137.759028 Z-0.125000
G01 X36.383672 Y113.121126 Z-0.125000
G01 X48.433672 Y95.422610 Z-0.125000
G01 X38.917560 Y76.390825 Z-0.125000
G01 X43.135109 Y54.047699 Z-0.125000
G00 Z5.000000

(End cutting path id: polyline140)


(Start cutting path id: polyline98)
(Change tool to Default tool)

G00 Z5.000000
G00 X72.755988 Y236.125755

G00 Z4.875000 (Fast pre-penetrate)
G01 Z-0.125000 F100.0(Penetrate)
G01 X76.307024 Y218.697748 Z-0.125000 F800.000000
G01 X75.381636 Y199.158873 Z-0.125000
G01 X83.026527 Y181.891020 Z-0.125000
G01 X82.327010 Y159.066703 Z-0.125000
G01 X77.840120 Y138.061958 Z-0.125000
G01 X77.349144 Y112.858990 Z-0.125000
G01 X73.651438 Y94.265218 Z-0.125000
G01 X80.321922 Y69.318691 Z-0.125000
G01 X72.236486 Y61.109757 Z-0.125000
G00 Z5.000000

(End cutting path id: polyline98)


(Start cutting path id: polyline96)
(Change tool to Default tool)

G00 Z5.000000
G00 X75.571776 Y236.146151

G00 Z4.875000 (Fast pre-penetrate)
G01 Z-0.125000 F100.0(Penetrate)
G01 X77.747533 Y219.117458 Z-0.125000 F800.000000
G01 X76.396593 Y198.695157 Z-0.125000
G01 X83.681795 Y182.032092 Z-0.125000
G01 X84.113773 Y160.027578 Z-0.125000
G01 X79.846863 Y137.648722 Z-0.125000
G01 X78.441501 Y113.781311 Z-0.125000
G01 X76.073706 Y95.107121 Z-0.125000
G01 X82.087850 Y70.790939 Z-0.125000
G01 X73.728449 Y60.178235 Z-0.125000
G00 Z5.000000

(End cutting path id: polyline96)


(Start cutting path id: polyline100)
(Change tool to Default tool)

G00 Z5.000000
G00 X78.387613 Y236.166596

G00 Z4.875000 (Fast pre-penetrate)
G01 Z-0.125000 F100.0(Penetrate)
G01 X79.188091 Y219.537168 Z-0.125000 F800.000000
G01 X77.411550 Y198.231441 Z-0.125000
G01 X84.337063 Y182.173115 Z-0.125000
G01 X85.900535 Y160.988452 Z-0.125000
G01 X81.853607 Y137.235486 Z-0.125000
G01 X79.533906 Y114.703632 Z-0.125000
G01 X78.496021 Y95.949025 Z-0.125000
G01 X83.853827 Y72.263186 Z-0.125000
G01 X75.220363 Y59.246665 Z-0.125000
G00 Z5.000000

(End cutting path id: polyline100)


(Start cutting path id: polyline94)
(Change tool to Default tool)

G00 Z5.000000
G00 X81.203401 Y236.186993

G00 Z4.875000 (Fast pre-penetrate)
G01 Z-0.125000 F100.0(Penetrate)
G01 X80.628600 Y219.956879 Z-0.125000 F800.000000
G01 X78.426508 Y197.767725 Z-0.125000
G01 X84.992331 Y182.314138 Z-0.125000
G01 X87.687249 Y161.949327 Z-0.125000
G01 X80.626263 Y115.625953 Z-0.125000
G01 X80.918288 Y96.790928 Z-0.125000
G01 X85.619755 Y73.735434 Z-0.125000
G01 X76.712277 Y58.315144 Z-0.125000
G00 Z5.000000

(End cutting path id: polyline94)


(Start cutting path id: polyline102)
(Change tool to Default tool)

G00 Z5.000000
G00 X84.019238 Y236.207389

G00 Z4.875000 (Fast pre-penetrate)
G01 Z-0.125000 F100.0(Penetrate)
G01 X79.441465 Y197.304009 Z-0.125000 F800.000000
G01 X85.647599 Y182.455210 Z-0.125000
G01 X89.474012 Y162.910202 Z-0.125000
G01 X85.867093 Y136.408965 Z-0.125000
G01 X81.718668 Y116.548225 Z-0.125000
G01 X83.340555 Y97.632831 Z-0.125000
G01 X87.385683 Y75.207730 Z-0.125000
G01 X78.204191 Y57.383574 Z-0.125000
G00 Z5.000000

(End cutting path id: polyline102)


(Start cutting path id: polyline104)
(Change tool to Default tool)

G00 Z5.000000
G00 X86.835026 Y236.227786

G00 Z4.875000 (Fast pre-penetrate)
G01 Z-0.125000 F100.0(Penetrate)
G01 X83.509666 Y220.796299 Z-0.125000 F800.000000
G01 X80.456422 Y196.840341 Z-0.125000
G01 X86.302867 Y182.596282 Z-0.125000
G01 X91.260775 Y163.871126 Z-0.125000
G01 X87.873836 Y135.995680 Z-0.125000
G01 X82.811025 Y117.470546 Z-0.125000
G01 X89.151611 Y76.679929 Z-0.125000
G01 X79.696105 Y56.452052 Z-0.125000
G00 Z5.000000

(End cutting path id: polyline104)


(Start cutting path id: polyline92)
(Change tool to Default tool)

G00 Z5.000000
G00 X89.650863 Y236.248182

G00 Z4.875000 (Fast pre-penetrate)
G01 Z-0.125000 F100.0(Penetrate)
G01 X84.950175 Y221.216010 Z-0.125000 F800.000000
G01 X81.471379 Y196.376625 Z-0.125000
G01 X86.958135 Y182.737305 Z-0.125000
G01 X93.047537 Y164.832000 Z-0.125000
G01 X89.880579 Y135.582444 Z-0.125000
G01 X83.903431 Y118.392867 Z-0.125000
G01 X88.185138 Y99.316638 Z-0.125000
G01 X90.917539 Y78.152177 Z-0.125000
G01 X81.188019 Y55.520482 Z-0.125000
G00 Z5.000000

(End cutting path id: polyline92)


(Start cutting path id: polyline106)
(Change tool to Default tool)

G00 Z5.000000
G00 X92.466651 Y236.268579

G00 Z4.875000 (Fast pre-penetrate)
G01 Z-0.125000 F100.0(Penetrate)
G01 X86.390684 Y221.635720 Z-0.125000 F800.000000
G01 X82.486336 Y195.912909 Z-0.125000
G01 X87.613403 Y182.878328 Z-0.125000
G01 X94.834300 Y165.792875 Z-0.125000
G01 X91.887322 Y135.169208 Z-0.125000
G01 X84.995787 Y119.315188 Z-0.125000
G01 X90.607405 Y100.158541 Z-0.125000
G01 X92.683467 Y79.624473 Z-0.125000
G01 X82.679933 Y54.588961 Z-0.125000
G00 Z5.000000

(End cutting path id: polyline106)


(Start cutting path id: polyline108)
(Change tool to Default tool)

G00 Z5.000000
G00 X95.282488 Y236.288975

G00 Z4.875000 (Fast pre-penetrate)
G01 Z-0.125000 F100.0(Penetrate)
G01 X87.831242 Y222.055430 Z-0.125000 F800.000000
G01 X83.501293 Y195.449193 Z-0.125000
G01 X88.268671 Y183.019400 Z-0.125000
G01 X96.621063 Y166.753750 Z-0.125000
G01 X93.894065 Y134.755924 Z-0.125000
G01 X86.088193 Y120.237509 Z-0.125000
G01 X93.029721 Y101.000445 Z-0.125000
G01 X94.449444 Y81.096721 Z-0.125000
G01 X84.171847 Y53.657391 Z-0.125000
G00 Z5.000000

(End cutting path id: polyline108)


(Start cutting path id: polyline110)
(Change tool to Default tool)

G00 Z5.000000
G00 X98.098276 Y236.309372

G00 Z4.875000 (Fast pre-penetrate)
G01 Z-0.125000 F100.0(Penetrate)
G01 X89.271751 Y222.475141 Z-0.125000 F800.000000
G01 X84.516251 Y194.985477 Z-0.125000
G01 X88.923939 Y183.160423 Z-0.125000
G01 X98.407825 Y167.714673 Z-0.125000
G01 X95.900808 Y134.342688 Z-0.125000
G01 X87.180550 Y121.159830 Z-0.125000
G01 X95.451988 Y101.842348 Z-0.125000
G01 X96.215372 Y82.568969 Z-0.125000
G01 X85.663761 Y52.725821 Z-0.125000
G00 Z5.000000

(End cutting path id: polyline110)


(Start cutting path id: polyline90)
(Change tool to Default tool)

G00 Z5.000000
G00 X104.408291 Y237.727148

G00 Z4.875000 (Fast pre-penetrate)
G01 Z-0.125000 F100.0(Penetrate)
G01 X95.913270 Y221.975548 Z-0.125000 F800.000000
G01 X91.278737 Y193.263603 Z-0.125000
G01 X96.405609 Y182.793724 Z-0.125000
G01 X103.282200 Y165.781241 Z-0.125000
G01 X101.249705 Y133.560854 Z-0.125000
G01 X93.296141 Y122.377049 Z-0.125000
G01 X101.907261 Y100.502994 Z-0.125000
G01 X102.471256 Y83.177116 Z-0.125000
G01 X92.096885 Y53.256958 Z-0.125000
G00 Z5.000000

(End cutting path id: polyline90)


(Start cutting path id: polyline152)
(Change tool to Default tool)

G00 Z5.000000
G00 X106.155429 Y238.425789

G00 Z4.875000 (Fast pre-penetrate)
G01 Z-0.125000 F100.0(Penetrate)
G01 X98.513751 Y221.515970 Z-0.125000 F800.000000
G01 X94.152502 Y192.634476 Z-0.125000
G01 X99.818835 Y182.539814 Z-0.125000
G01 X104.826054 Y164.334111 Z-0.125000
G01 X102.920758 Y133.376604 Z-0.125000
G01 X95.807734 Y122.524546 Z-0.125000
G01 X103.923740 Y99.412341 Z-0.125000
G01 X104.716234 Y82.745041 Z-0.125000
G01 X94.567539 Y53.988311 Z-0.125000
G00 Z5.000000

(End cutting path id: polyline152)


(Start cutting path id: polyline154)
(Change tool to Default tool)

G00 Z5.000000
G00 X107.902518 Y239.124478

G00 Z4.875000 (Fast pre-penetrate)
G01 Z-0.125000 F100.0(Penetrate)
G01 X101.114232 Y221.056294 Z-0.125000 F800.000000
G01 X97.026315 Y192.005397 Z-0.125000
G01 X103.232012 Y182.285953 Z-0.125000
G01 X106.369860 Y162.886982 Z-0.125000
G01 X104.591811 Y133.192354 Z-0.125000
G01 X98.319376 Y122.671995 Z-0.125000
G01 X105.940268 Y98.321688 Z-0.125000
G01 X106.961213 Y82.313015 Z-0.125000
G01 X97.038144 Y54.719615 Z-0.125000
G00 Z5.000000

(End cutting path id: polyline154)


(Start cutting path id: polyline112)
(Change tool to Default tool)

G00 Z5.000000
G00 X66.371737 Y237.678274

G00 Z4.875000 (Fast pre-penetrate)
G01 Z-0.125000 F100.0(Penetrate)
G01 X70.252281 Y218.153614 Z-0.125000 F800.000000
G01 X71.737964 Y200.110499 Z-0.125000
G01 X76.433346 Y181.079298 Z-0.125000
G01 X74.664254 Y158.040258 Z-0.125000
G01 X72.659020 Y137.338150 Z-0.125000
G01 X71.296835 Y112.993100 Z-0.125000
G01 X68.447215 Y93.627134 Z-0.125000
G01 X73.066025 Y68.551072 Z-0.125000
G01 X70.190946 Y60.137686 Z-0.125000
G00 Z5.000000

(End cutting path id: polyline112)


(Start cutting path id: polyline114)
(Change tool to Default tool)

G00 Z5.000000
G00 X64.587506 Y238.464732

G00 Z4.875000 (Fast pre-penetrate)
G01 Z-0.125000 F100.0(Penetrate)
G01 X67.945140 Y218.091353 Z-0.125000 F800.000000
G01 X70.423631 Y200.354430 Z-0.125000
G01 X73.464365 Y180.743997 Z-0.125000
G01 X71.726281 Y158.007497 Z-0.125000
G01 X71.071792 Y136.769628 Z-0.125000
G01 X67.056213 Y93.729068 Z-0.125000
G01 X70.321065 Y68.903410 Z-0.125000
G01 X69.914108 Y59.185865 Z-0.125000
G00 Z5.000000

(End cutting path id: polyline114)


(Start cutting path id: polyline116)
(Change tool to Default tool)

G00 Z5.000000
G00 X62.803323 Y239.251190

G00 Z4.875000 (Fast pre-penetrate)
G01 Z-0.125000 F100.0(Penetrate)
G01 X65.638048 Y218.029142 Z-0.125000 F800.000000
G01 X69.109298 Y200.598409 Z-0.125000
G01 X70.495384 Y180.408696 Z-0.125000
G01 X68.788309 Y157.974736 Z-0.125000
G01 X69.484613 Y136.201106 Z-0.125000
G01 X66.336883 Y114.049532 Z-0.125000
G01 X65.665259 Y93.830953 Z-0.125000
G01 X67.576105 Y69.255700 Z-0.125000
G01 X69.637271 Y58.234045 Z-0.125000
G00 Z5.000000

(End cutting path id: polyline116)


(Start cutting path id: polyline146)
(Change tool to Default tool)

G00 Z5.000000
G00 X61.019092 Y240.037648

G00 Z4.875000 (Fast pre-penetrate)
G01 Z-0.125000 F100.0(Penetrate)
G01 X63.330955 Y217.966930 Z-0.125000 F800.000000
G01 X67.794965 Y200.842339 Z-0.125000
G01 X67.526403 Y180.073347 Z-0.125000
G01 X65.850288 Y157.941975 Z-0.125000
G01 X67.897435 Y135.632584 Z-0.125000
G01 X63.856932 Y114.577699 Z-0.125000
G01 X64.831144 Y69.607990 Z-0.125000
G01 X69.360433 Y57.282175 Z-0.125000
G00 Z5.000000

(End cutting path id: polyline146)


(Start cutting path id: polyline148)
(Change tool to Default tool)

G00 Z5.000000
G00 X59.234861 Y240.824057

G00 Z4.875000 (Fast pre-penetrate)
G01 Z-0.125000 F100.0(Penetrate)
G01 X61.023862 Y217.904718 Z-0.125000 F800.000000
G01 X66.480632 Y201.086318 Z-0.125000
G01 X64.557422 Y179.738046 Z-0.125000
G01 X62.912316 Y157.909262 Z-0.125000
G01 X66.310207 Y135.064062 Z-0.125000
G01 X61.376980 Y115.105964 Z-0.125000
G01 X62.883352 Y94.034772 Z-0.125000
G01 X62.086136 Y69.960329 Z-0.125000
G01 X69.083596 Y56.330355 Z-0.125000
G00 Z5.000000

(End cutting path id: polyline148)


(Start cutting path id: polyline142)
(Change tool to Default tool)

G00 Z5.000000
G00 X41.127636 Y239.701373

G00 Z4.875000 (Fast pre-penetrate)
G01 Z-0.125000 F100.0(Penetrate)
G01 X42.118789 Y221.685859 Z-0.125000 F800.000000
G01 X44.446570 Y195.490181 Z-0.125000
G01 X42.185771 Y178.085637 Z-0.125000
G01 X37.516822 Y158.832606 Z-0.125000
G01 X43.737414 Y136.967897 Z-0.125000
G01 X38.182751 Y113.781944 Z-0.125000
G01 X49.504367 Y95.297164 Z-0.125000
G01 X40.266650 Y75.723825 Z-0.125000
G01 X46.644329 Y53.693900 Z-0.125000
G00 Z5.000000

(End cutting path id: polyline142)


(Start cutting path id: polyline144)
(Change tool to Default tool)

G00 Z5.000000
G00 X42.658639 Y240.543861

G00 Z4.875000 (Fast pre-penetrate)
G01 Z-0.125000 F100.0(Penetrate)
G01 X43.347057 Y221.003818 Z-0.125000 F800.000000
G01 X47.023636 Y196.626154 Z-0.125000
G01 X43.440229 Y178.081597 Z-0.125000
G01 X39.301053 Y158.651422 Z-0.125000
G01 X46.176865 Y136.176815 Z-0.125000
G01 X39.981829 Y114.442810 Z-0.125000
G01 X50.575061 Y95.171670 Z-0.125000
G01 X41.615740 Y75.056825 Z-0.125000
G01 X50.153501 Y53.340150 Z-0.125000
G00 Z5.000000

(End cutting path id: polyline144)


(Start cutting path id: polyline196)
(Change tool to Default tool)

G00 Z5.000000
G00 X44.189691 Y241.386348

G00 Z4.875000 (Fast pre-penetrate)
G01 Z-0.125000 F100.0(Penetrate)
G01 X44.575326 Y220.321777 Z-0.125000 F800.000000
G01 X49.600702 Y197.762127 Z-0.125000
G01 X44.694687 Y178.077556 Z-0.125000
G01 X41.085334 Y158.470239 Z-0.125000
G01 X48.616364 Y135.385732 Z-0.125000
G01 X41.780859 Y115.103627 Z-0.125000
G01 X51.645756 Y95.046224 Z-0.125000
G01 X42.964830 Y74.389826 Z-0.125000
G01 X53.662673 Y52.986351 Z-0.125000
G00 Z5.000000

(End cutting path id: polyline196)


(Start cutting path id: polyline150)
(Change tool to Default tool)

G00 Z5.000000
G00 X57.450629 Y241.610515

G00 Z4.875000 (Fast pre-penetrate)
G01 Z-0.125000 F100.0(Penetrate)
G01 X58.716770 Y217.842458 Z-0.125000 F800.000000
G01 X65.166251 Y201.330249 Z-0.125000
G01 X61.588490 Y179.402696 Z-0.125000
G01 X59.974295 Y157.876501 Z-0.125000
G01 X64.723028 Y134.495540 Z-0.125000
G01 X58.896980 Y115.634131 Z-0.125000
G01 X61.492349 Y94.136657 Z-0.125000
G01 X59.341175 Y70.312619 Z-0.125000
G01 X68.806758 Y55.378534 Z-0.125000
G00 Z5.000000

(End cutting path id: polyline150)


(Start cutting path id: polyline194)
(Change tool to Default tool)

G00 Z5.000000
G00 X55.666446 Y242.396973

G00 Z4.875000 (Fast pre-penetrate)
G01 Z-0.125000 F100.0(Penetrate)
G01 X56.409629 Y217.780246 Z-0.125000 F800.000000
G01 X63.851918 Y201.574228 Z-0.125000
G01 X58.619509 Y179.067395 Z-0.125000
G01 X57.036322 Y157.843740 Z-0.125000
G01 X63.135850 Y133.926969 Z-0.125000
G01 X56.417028 Y116.162347 Z-0.125000
G01 X60.101395 Y94.238591 Z-0.125000
G01 X56.596167 Y70.664957 Z-0.125000
G01 X68.529921 Y54.426714 Z-0.125000
G00 Z5.000000

(End cutting path id: polyline194)


(Start cutting path id: polyline198)
(Change tool to Default tool)

G00 Z5.000000
G00 X45.720694 Y242.228836

G00 Z4.875000 (Fast pre-penetrate)
G01 Z-0.125000 F100.0(Penetrate)
G01 X45.803546 Y219.639735 Z-0.125000 F800.000000
G01 X52.177720 Y198.898100 Z-0.125000
G01 X45.949193 Y178.073516 Z-0.125000
G01 X42.869565 Y158.289007 Z-0.125000
G01 X51.055815 Y134.594650 Z-0.125000
G01 X43.579938 Y115.764445 Z-0.125000
G01 X52.716402 Y94.920730 Z-0.125000
G01 X44.313968 Y73.722826 Z-0.125000
G01 X57.171893 Y52.632601 Z-0.125000
G00 Z5.000000

(End cutting path id: polyline198)


(Start cutting path id: polyline200)
(Change tool to Default tool)

G00 Z5.000000
G00 X53.882215 Y243.183431

G00 Z4.875000 (Fast pre-penetrate)
G01 Z-0.125000 F100.0(Penetrate)
G01 X54.102536 Y217.718034 Z-0.125000 F800.000000
G01 X62.537585 Y201.818207 Z-0.125000
G01 X55.650528 Y178.732045 Z-0.125000
G01 X54.098350 Y157.810979 Z-0.125000
G01 X61.548671 Y133.358447 Z-0.125000
G01 X53.937028 Y116.690562 Z-0.125000
G01 X58.710442 Y94.340476 Z-0.125000
G01 X53.851207 Y71.017247 Z-0.125000
G01 X68.253083 Y53.474893 Z-0.125000
G00 Z5.000000

(End cutting path id: polyline200)


(Start cutting path id: polyline202)
(Change tool to Default tool)

G00 Z5.000000
G00 X47.251746 Y243.071323

G00 Z4.875000 (Fast pre-penetrate)
G01 Z-0.125000 F100.0(Penetrate)
G01 X47.031814 Y218.957694 Z-0.125000 F800.000000
G01 X54.754786 Y200.034122 Z-0.125000
G01 X47.203651 Y178.069475 Z-0.125000
G01 X44.653845 Y158.107824 Z-0.125000
G01 X53.495314 Y133.803568 Z-0.125000
G01 X45.379016 Y116.425311 Z-0.125000
G01 X53.787096 Y94.795284 Z-0.125000
G01 X45.663058 Y73.055875 Z-0.125000
G01 X60.681065 Y52.278802 Z-0.125000
G00 Z5.000000

(End cutting path id: polyline202)


(Start cutting path id: polyline156)
(Change tool to Default tool)

G00 Z5.000000
G00 X109.649656 Y239.823119

G00 Z4.875000 (Fast pre-penetrate)
G01 Z-0.125000 F100.0(Penetrate)
G01 X103.714713 Y220.596667 Z-0.125000 F800.000000
G01 X99.900080 Y191.376270 Z-0.125000
G01 X106.645237 Y182.032043 Z-0.125000
G01 X107.913666 Y161.439804 Z-0.125000
G01 X106.262912 Y133.008055 Z-0.125000
G01 X100.830969 Y122.819443 Z-0.125000
G01 X107.956747 Y97.231084 Z-0.125000
G01 X109.206239 Y81.880940 Z-0.125000
G01 X99.508750 Y55.450969 Z-0.125000
G00 Z5.000000

(End cutting path id: polyline156)


(Start cutting path id: polyline158)
(Change tool to Default tool)

G00 Z5.000000
G00 X111.396746 Y240.521809

G00 Z4.875000 (Fast pre-penetrate)
G01 Z-0.125000 F100.0(Penetrate)
G01 X106.315194 Y220.137040 Z-0.125000 F800.000000
G01 X102.773845 Y190.747191 Z-0.125000
G01 X110.058463 Y181.778182 Z-0.125000
G01 X109.457472 Y159.992675 Z-0.125000
G01 X107.933965 Y132.823805 Z-0.125000
G01 X103.342562 Y122.966941 Z-0.125000
G01 X109.973226 Y96.140431 Z-0.125000
G01 X111.451217 Y81.448914 Z-0.125000
G01 X101.979355 Y56.182322 Z-0.125000
G00 Z5.000000

(End cutting path id: polyline158)


(Start cutting path id: polyline160)
(Change tool to Default tool)

G00 Z5.000000
G00 X113.143884 Y241.220450

G00 Z4.875000 (Fast pre-penetrate)
G01 Z-0.125000 F100.0(Penetrate)
G01 X108.915674 Y219.677413 Z-0.125000 F800.000000
G01 X105.647610 Y190.118063 Z-0.125000
G01 X113.471688 Y181.524273 Z-0.125000
G01 X111.001277 Y158.545546 Z-0.125000
G01 X109.605018 Y132.639507 Z-0.125000
G01 X105.854155 Y123.114389 Z-0.125000
G01 X111.989705 Y95.049826 Z-0.125000
G01 X113.696196 Y81.016839 Z-0.125000
G01 X104.449960 Y56.913627 Z-0.125000
G00 Z5.000000

(End cutting path id: polyline160)


(Start cutting path id: polyline162)
(Change tool to Default tool)

G00 Z5.000000
G00 X114.890973 Y241.919140

G00 Z4.875000 (Fast pre-penetrate)
G01 Z-0.125000 F100.0(Penetrate)
G01 X111.516155 Y219.217785 Z-0.125000 F800.000000
G01 X108.521374 Y189.488985 Z-0.125000
G01 X116.884913 Y181.270412 Z-0.125000
G01 X112.545132 Y157.098368 Z-0.125000
G01 X111.276070 Y132.455208 Z-0.125000
G01 X108.365796 Y123.261838 Z-0.125000
G01 X114.006232 Y93.959173 Z-0.125000
G01 X115.941174 Y80.584813 Z-0.125000
G01 X106.920566 Y57.644980 Z-0.125000
G00 Z5.000000

(End cutting path id: polyline162)


(Start cutting path id: polyline164)
(Change tool to Default tool)

G00 Z5.000000
G00 X116.638062 Y242.617781

G00 Z4.875000 (Fast pre-penetrate)
G01 Z-0.125000 F100.0(Penetrate)
G01 X114.116636 Y218.758158 Z-0.125000 F800.000000
G01 X111.395139 Y188.859857 Z-0.125000
G01 X120.298090 Y181.016502 Z-0.125000
G01 X114.088938 Y155.651238 Z-0.125000
G01 X112.947123 Y132.270958 Z-0.125000
G01 X110.877389 Y123.409335 Z-0.125000
G01 X118.186200 Y80.152738 Z-0.125000
G01 X109.391171 Y58.376333 Z-0.125000
G00 Z5.000000

(End cutting path id: polyline164)


(Start cutting path id: polyline166)
(Change tool to Default tool)

G00 Z5.000000
G00 X118.385200 Y243.316470

G00 Z4.875000 (Fast pre-penetrate)
G01 Z-0.125000 F100.0(Penetrate)
G01 X116.717117 Y218.298531 Z-0.125000 F800.000000
G01 X114.268953 Y188.230730 Z-0.125000
G01 X123.711316 Y180.762641 Z-0.125000
G01 X115.632792 Y154.204109 Z-0.125000
G01 X114.618225 Y132.086659 Z-0.125000
G01 X113.388982 Y123.556784 Z-0.125000
G01 X118.039190 Y91.777916 Z-0.125000
G01 X120.431179 Y79.720712 Z-0.125000
G01 X111.861776 Y59.107638 Z-0.125000
G00 Z5.000000

(End cutting path id: polyline166)


(Start cutting path id: polyline168)
(Change tool to Default tool)

G00 Z5.000000
G00 X123.525362 Y243.973102

G00 Z4.875000 (Fast pre-penetrate)
G01 Z-0.125000 F100.0(Penetrate)
G01 X122.872479 Y219.283259 Z-0.125000 F800.000000
G01 X121.458306 Y189.651329 Z-0.125000
G01 X129.377064 Y180.037081 Z-0.125000
G01 X121.819017 Y152.053422 Z-0.125000
G01 X118.503393 Y132.542976 Z-0.125000
G01 X119.069578 Y123.603127 Z-0.125000
G01 X123.823569 Y92.878597 Z-0.125000
G01 X123.920100 Y78.881729 Z-0.125000
G01 X118.354922 Y59.898526 Z-0.125000
G00 Z5.000000

(End cutting path id: polyline168)


(Start cutting path id: polyline170)
(Change tool to Default tool)

G00 Z5.000000
G00 X125.221874 Y243.952072

G00 Z4.875000 (Fast pre-penetrate)
G01 Z-0.125000 F100.0(Penetrate)
G01 X124.649944 Y220.005412 Z-0.125000 F800.000000
G01 X123.616100 Y190.676217 Z-0.125000
G01 X130.503302 Y179.801231 Z-0.125000
G01 X124.140275 Y151.701668 Z-0.125000
G01 X119.610402 Y132.863284 Z-0.125000
G01 X120.654080 Y123.552500 Z-0.125000
G01 X125.707495 Y93.974264 Z-0.125000
G01 X124.542071 Y78.678251 Z-0.125000
G01 X120.366143 Y59.928317 Z-0.125000
G00 Z5.000000

(End cutting path id: polyline170)


(Start cutting path id: polyline172)
(Change tool to Default tool)

G00 Z5.000000
G00 X126.918434 Y243.931092

G00 Z4.875000 (Fast pre-penetrate)
G01 Z-0.125000 F100.0(Penetrate)
G01 X125.773894 Y191.701056 Z-0.125000 F800.000000
G01 X131.629588 Y179.565381 Z-0.125000
G01 X126.461484 Y151.349913 Z-0.125000
G01 X120.717508 Y133.183543 Z-0.125000
G01 X122.238581 Y123.501972 Z-0.125000
G01 X127.591470 Y95.069931 Z-0.125000
G01 X122.377414 Y59.958109 Z-0.125000
G00 Z5.000000

(End cutting path id: polyline172)


(Start cutting path id: polyline174)
(Change tool to Default tool)

G00 Z5.000000
G00 X128.614946 Y243.910062

G00 Z4.875000 (Fast pre-penetrate)
G01 Z-0.125000 F100.0(Penetrate)
G01 X128.204825 Y221.449766 Z-0.125000 F800.000000
G01 X127.931688 Y192.725895 Z-0.125000
G01 X132.755874 Y179.329531 Z-0.125000
G01 X128.782694 Y150.998159 Z-0.125000
G01 X121.824566 Y133.503851 Z-0.125000
G01 X129.475396 Y96.165549 Z-0.125000
G01 X125.786015 Y78.271343 Z-0.125000
G01 X124.388684 Y59.987852 Z-0.125000
G00 Z5.000000

(End cutting path id: polyline174)


(Start cutting path id: polyline176)
(Change tool to Default tool)

G00 Z5.000000
G00 X130.311507 Y243.889033

G00 Z4.875000 (Fast pre-penetrate)
G01 Z-0.125000 F100.0(Penetrate)
G01 X129.982290 Y222.171919 Z-0.125000 F800.000000
G01 X130.089433 Y193.750734 Z-0.125000
G01 X133.882111 Y179.093682 Z-0.125000
G01 X131.103903 Y150.646404 Z-0.125000
G01 X122.931575 Y133.824110 Z-0.125000
G01 X131.359322 Y97.261216 Z-0.125000
G01 X126.407986 Y78.067914 Z-0.125000
G01 X126.399954 Y60.017643 Z-0.125000
G00 Z5.000000

(End cutting path id: polyline176)


(Start cutting path id: polyline178)
(Change tool to Default tool)

G00 Z5.000000
G00 X132.008018 Y243.868052

G00 Z4.875000 (Fast pre-penetrate)
G01 Z-0.125000 F100.0(Penetrate)
G01 X131.759755 Y222.894072 Z-0.125000 F800.000000
G01 X132.247227 Y194.775621 Z-0.125000
G01 X135.008397 Y178.857832 Z-0.125000
G01 X133.425161 Y150.294650 Z-0.125000
G01 X124.038633 Y134.144418 Z-0.125000
G01 X126.992086 Y123.350239 Z-0.125000
G01 X133.243297 Y98.356883 Z-0.125000
G01 X127.029958 Y77.864435 Z-0.125000
G01 X128.411176 Y60.047386 Z-0.125000
G00 Z5.000000

(End cutting path id: polyline178)


(Start cutting path id: polyline180)
(Change tool to Default tool)

G00 Z5.000000
G00 X133.704579 Y243.847023

G00 Z4.875000 (Fast pre-penetrate)
G01 Z-0.125000 F100.0(Penetrate)
G01 X133.537172 Y223.616274 Z-0.125000 F800.000000
G01 X134.405021 Y195.800460 Z-0.125000
G01 X136.134635 Y178.621982 Z-0.125000
G01 X135.746371 Y149.942895 Z-0.125000
G01 X125.145691 Y134.464726 Z-0.125000
G01 X128.576587 Y123.299662 Z-0.125000
G01 X135.127223 Y99.452550 Z-0.125000
G01 X127.651929 Y77.661006 Z-0.125000
G01 X130.422446 Y60.077178 Z-0.125000
G00 Z5.000000

(End cutting path id: polyline180)


(Start cutting path id: polyline182)
(Change tool to Default tool)

G00 Z5.000000
G00 X135.401091 Y243.825994

G00 Z4.875000 (Fast pre-penetrate)
G01 Z-0.125000 F100.0(Penetrate)
G01 X135.314637 Y224.338427 Z-0.125000 F800.000000
G01 X137.260921 Y178.386181 Z-0.125000
G01 X138.067580 Y149.591141 Z-0.125000
G01 X126.252749 Y134.784985 Z-0.125000
G01 X130.161088 Y123.249084 Z-0.125000
G01 X137.011149 Y100.548168 Z-0.125000
G01 X128.273901 Y77.457528 Z-0.125000
G01 X132.433716 Y60.106920 Z-0.125000
G00 Z5.000000

(End cutting path id: polyline182)


(Start cutting path id: polyline184)
(Change tool to Default tool)

G00 Z5.000000
G00 X140.658228 Y243.833393

G00 Z4.875000 (Fast pre-penetrate)
G01 Z-0.125000 F100.0(Penetrate)
G01 X140.473783 Y225.207055 Z-0.125000 F800.000000
G01 X142.626709 Y198.527945 Z-0.125000
G01 X140.713235 Y177.709835 Z-0.125000
G01 X145.062509 Y150.228884 Z-0.125000
G01 X130.994911 Y135.860986 Z-0.125000
G01 X135.789793 Y122.547620 Z-0.125000
G01 X142.806822 Y102.196147 Z-0.125000
G01 X132.190224 Y76.737906 Z-0.125000
G01 X138.922286 Y59.376249 Z-0.125000
G00 Z5.000000

(End cutting path id: polyline184)


(Start cutting path id: polyline186)
(Change tool to Default tool)

G00 Z5.000000
G00 X142.522244 Y243.882802

G00 Z4.875000 (Fast pre-penetrate)
G01 Z-0.125000 F100.0(Penetrate)
G01 X142.078048 Y224.631377 Z-0.125000 F800.000000
G01 X144.374967 Y198.180912 Z-0.125000
G01 X141.913027 Y177.505189 Z-0.125000
G01 X147.415019 Y151.570186 Z-0.125000
G01 X133.522958 Y136.296370 Z-0.125000
G01 X144.834643 Y101.652841 Z-0.125000
G01 X134.862604 Y76.425192 Z-0.125000
G01 X141.388316 Y58.585994 Z-0.125000
G00 Z5.000000

(End cutting path id: polyline186)


(Start cutting path id: polyline188)
(Change tool to Default tool)

G00 Z5.000000
G00 X144.386261 Y243.932211

G00 Z4.875000 (Fast pre-penetrate)
G01 Z-0.125000 F100.0(Penetrate)
G01 X143.682265 Y224.055651 Z-0.125000 F800.000000
G01 X146.123273 Y197.833880 Z-0.125000
G01 X143.112867 Y177.300542 Z-0.125000
G01 X149.767481 Y152.911438 Z-0.125000
G01 X136.051004 Y136.731755 Z-0.125000
G01 X146.862415 Y101.109486 Z-0.125000
G01 X137.534983 Y76.112478 Z-0.125000
G01 X143.854345 Y57.795788 Z-0.125000
G00 Z5.000000

(End cutting path id: polyline188)


(Start cutting path id: polyline190)
(Change tool to Default tool)

G00 Z5.000000
G00 X146.250277 Y243.981620

G00 Z4.875000 (Fast pre-penetrate)
G01 Z-0.125000 F100.0(Penetrate)
G01 X145.286530 Y223.479973 Z-0.125000 F800.000000
G01 X147.871580 Y197.486798 Z-0.125000
G01 X144.312658 Y177.095895 Z-0.125000
G01 X152.119942 Y154.252691 Z-0.125000
G01 X138.579002 Y137.167140 Z-0.125000
G01 X148.890236 Y100.566131 Z-0.125000
G01 X140.207363 Y75.799716 Z-0.125000
G01 X146.320423 Y57.005533 Z-0.125000
G00 Z5.000000

(End cutting path id: polyline190)


(Start cutting path id: polyline62)
(Change tool to Default tool)

G00 Z5.000000
G00 X177.402744 Y240.972479

G00 Z4.875000 (Fast pre-penetrate)
G01 Z-0.125000 F100.0(Penetrate)
G01 X175.910586 Y220.699866 Z-0.125000 F800.000000
G01 X172.958886 Y202.004453 Z-0.125000
G01 X169.840753 Y177.691872 Z-0.125000
G01 X179.717479 Y157.229314 Z-0.125000
G01 X184.192831 Y136.631477 Z-0.125000
G01 X171.164578 Y120.982249 Z-0.125000
G01 X180.410424 Y96.626831 Z-0.125000
G01 X173.506233 Y75.044218 Z-0.125000
G01 X180.195993 Y53.695604 Z-0.125000
G00 Z5.000000

(End cutting path id: polyline62)


(Start cutting path id: polyline60)
(Change tool to Default tool)

G00 Z5.000000
G00 X181.354554 Y240.698952

G00 Z4.875000 (Fast pre-penetrate)
G01 Z-0.125000 F100.0(Penetrate)
G01 X181.477176 Y220.160162 Z-0.125000 F800.000000
G01 X178.696242 Y201.188982 Z-0.125000
G01 X177.331478 Y178.373086 Z-0.125000
G01 X183.499107 Y156.963916 Z-0.125000
G01 X190.416149 Y135.825985 Z-0.125000
G01 X176.831836 Y119.899287 Z-0.125000
G01 X186.948647 Y96.095013 Z-0.125000
G01 X179.097503 Y75.617948 Z-0.125000
G01 X186.613735 Y55.027413 Z-0.125000
G00 Z5.000000

(End cutting path id: polyline60)


(Start cutting path id: polyline58)
(Change tool to Default tool)

G00 Z5.000000
G00 X182.425248 Y240.729960

G00 Z4.875000 (Fast pre-penetrate)
G01 Z-0.125000 F100.0(Penetrate)
G01 X183.290761 Y219.827782 Z-0.125000 F800.000000
G01 X180.922479 Y200.433874 Z-0.125000
G01 X180.220382 Y178.612246 Z-0.125000
G01 X184.833447 Y157.151817 Z-0.125000
G01 X192.131938 Y135.602403 Z-0.125000
G01 X179.126564 Y119.135952 Z-0.125000
G01 X189.351442 Y95.835895 Z-0.125000
G01 X181.163488 Y75.833109 Z-0.125000
G01 X188.991899 Y55.582207 Z-0.125000
G00 Z5.000000

(End cutting path id: polyline58)


(Start cutting path id: polyline56)
(Change tool to Default tool)

G00 Z5.000000
G00 X183.495943 Y240.760969

G00 Z4.875000 (Fast pre-penetrate)
G01 Z-0.125000 F100.0(Penetrate)
G01 X185.104297 Y219.495451 Z-0.125000 F800.000000
G01 X183.148667 Y199.678765 Z-0.125000
G01 X183.109237 Y178.851455 Z-0.125000
G01 X186.167738 Y157.339718 Z-0.125000
G01 X193.847727 Y135.378869 Z-0.125000
G01 X181.421292 Y118.372568 Z-0.125000
G01 X191.754286 Y95.576728 Z-0.125000
G01 X183.229523 Y76.048319 Z-0.125000
G01 X191.370112 Y56.137002 Z-0.125000
G00 Z5.000000

(End cutting path id: polyline56)


(Start cutting path id: polyline52)
(Change tool to Default tool)

G00 Z5.000000
G00 X185.637332 Y240.822937

G00 Z4.875000 (Fast pre-penetrate)
G01 Z-0.125000 F100.0(Penetrate)
G01 X188.731467 Y218.830739 Z-0.125000 F800.000000
G01 X187.601091 Y198.168548 Z-0.125000
G01 X188.886996 Y179.329823 Z-0.125000
G01 X188.836370 Y157.715569 Z-0.125000
G01 X197.279353 Y134.931703 Z-0.125000
G01 X186.010749 Y116.845897 Z-0.125000
G01 X196.559926 Y95.058491 Z-0.125000
G01 X187.361542 Y76.478642 Z-0.125000
G01 X196.126488 Y57.246640 Z-0.125000
G00 Z5.000000

(End cutting path id: polyline52)


(Start cutting path id: polyline46)
(Change tool to Default tool)

G00 Z5.000000
G00 X188.849416 Y240.915914

G00 Z4.875000 (Fast pre-penetrate)
G01 Z-0.125000 F100.0(Penetrate)
G01 X194.172172 Y217.833695 Z-0.125000 F800.000000
G01 X194.279704 Y195.903271 Z-0.125000
G01 X197.553659 Y180.047401 Z-0.125000
G01 X192.839341 Y158.279320 Z-0.125000
G01 X202.426719 Y134.261004 Z-0.125000
G01 X192.894884 Y114.555842 Z-0.125000
G01 X203.768410 Y94.281087 Z-0.125000
G01 X193.559547 Y77.124223 Z-0.125000
G01 X203.261077 Y58.911072 Z-0.125000
G00 Z5.000000

(End cutting path id: polyline46)


(Start cutting path id: polyline48)
(Change tool to Default tool)

G00 Z5.000000
G00 X187.778721 Y240.884906

G00 Z4.875000 (Fast pre-penetrate)
G01 Z-0.125000 F100.0(Penetrate)
G01 X192.358588 Y218.166027 Z-0.125000 F800.000000
G01 X192.053516 Y196.658379 Z-0.125000
G01 X194.664804 Y179.808192 Z-0.125000
G01 X191.505001 Y158.091370 Z-0.125000
G01 X200.710930 Y134.484587 Z-0.125000
G01 X190.600205 Y115.319178 Z-0.125000
G01 X201.365566 Y94.540254 Z-0.125000
G01 X191.493562 Y76.909013 Z-0.125000
G01 X200.882865 Y58.356229 Z-0.125000
G00 Z5.000000

(End cutting path id: polyline48)


(Start cutting path id: polyline50)
(Change tool to Default tool)

G00 Z5.000000
G00 X186.708027 Y240.853946

G00 Z4.875000 (Fast pre-penetrate)
G01 Z-0.125000 F100.0(Penetrate)
G01 X190.545003 Y218.498407 Z-0.125000 F800.000000
G01 X189.827280 Y197.413488 Z-0.125000
G01 X191.775900 Y179.569032 Z-0.125000
G01 X190.170710 Y157.903470 Z-0.125000
G01 X198.995142 Y134.708121 Z-0.125000
G01 X188.305477 Y116.082513 Z-0.125000
G01 X198.962770 Y94.799373 Z-0.125000
G01 X189.427528 Y76.693852 Z-0.125000
G01 X198.504652 Y57.801434 Z-0.125000
G00 Z5.000000

(End cutting path id: polyline50)


(Start cutting path id: polyline54)
(Change tool to Default tool)

G00 Z5.000000
G00 X184.566637 Y240.791929

G00 Z4.875000 (Fast pre-penetrate)
G01 Z-0.125000 F100.0(Penetrate)
G01 X186.917882 Y219.163119 Z-0.125000 F800.000000
G01 X185.374903 Y198.923656 Z-0.125000
G01 X185.998141 Y179.090615 Z-0.125000
G01 X187.502078 Y157.527668 Z-0.125000
G01 X195.563516 Y135.155286 Z-0.125000
G01 X183.716020 Y117.609233 Z-0.125000
G01 X194.157131 Y95.317609 Z-0.125000
G01 X185.295508 Y76.263481 Z-0.125000
G01 X193.748276 Y56.691845 Z-0.125000
G00 Z5.000000

(End cutting path id: polyline54)


(Start cutting path id: polyline64)
(Change tool to Default tool)

G00 Z5.000000
G00 X175.592323 Y241.307975

G00 Z4.875000 (Fast pre-penetrate)
G01 Z-0.125000 F100.0(Penetrate)
G01 X173.971166 Y220.574907 Z-0.125000 F800.000000
G01 X171.673956 Y201.309755 Z-0.125000
G01 X168.127788 Y177.489027 Z-0.125000
G01 X178.604482 Y157.870514 Z-0.125000
G01 X181.401091 Y136.989803 Z-0.125000
G01 X170.086825 Y120.538443 Z-0.125000
G01 X178.677890 Y96.640413 Z-0.125000
G01 X172.047031 Y74.900858 Z-0.125000
G01 X178.534676 Y53.473433 Z-0.125000
G00 Z5.000000

(End cutting path id: polyline64)


(Start cutting path id: polyline66)
(Change tool to Default tool)

G00 Z5.000000
G00 X173.781854 Y241.643471

G00 Z4.875000 (Fast pre-penetrate)
G01 Z-0.125000 F100.0(Penetrate)
G01 X170.389025 Y200.615057 Z-0.125000 F800.000000
G01 X166.414871 Y177.286182 Z-0.125000
G01 X177.491437 Y158.511762 Z-0.125000
G01 X178.609301 Y137.348178 Z-0.125000
G01 X169.009024 Y120.094734 Z-0.125000
G01 X176.945307 Y96.654043 Z-0.125000
G01 X170.587781 Y74.757498 Z-0.125000
G01 X176.873359 Y53.251311 Z-0.125000
G00 Z5.000000

(End cutting path id: polyline66)


(Start cutting path id: polyline68)
(Change tool to Default tool)

G00 Z5.000000
G00 X171.971433 Y241.979015

G00 Z4.875000 (Fast pre-penetrate)
G01 Z-0.125000 F100.0(Penetrate)
G01 X170.092277 Y220.324941 Z-0.125000 F800.000000
G01 X169.104094 Y199.920310 Z-0.125000
G01 X164.701906 Y177.083336 Z-0.125000
G01 X176.378440 Y159.153011 Z-0.125000
G01 X175.817561 Y137.706504 Z-0.125000
G01 X167.931222 Y119.650976 Z-0.125000
G01 X175.212724 Y96.667624 Z-0.125000
G01 X169.128579 Y74.614139 Z-0.125000
G01 X175.211994 Y53.029091 Z-0.125000
G00 Z5.000000

(End cutting path id: polyline68)


(Start cutting path id: polyline70)
(Change tool to Default tool)

G00 Z5.000000
G00 X170.161061 Y242.314511

G00 Z4.875000 (Fast pre-penetrate)
G01 Z-0.125000 F100.0(Penetrate)
G01 X168.152857 Y220.199982 Z-0.125000 F800.000000
G01 X167.819163 Y199.225612 Z-0.125000
G01 X162.988940 Y176.880491 Z-0.125000
G01 X175.265395 Y159.794211 Z-0.125000
G01 X173.025820 Y138.064879 Z-0.125000
G01 X166.853420 Y119.207218 Z-0.125000
G01 X173.480190 Y96.681206 Z-0.125000
G01 X167.669329 Y74.470828 Z-0.125000
G01 X173.550677 Y52.806920 Z-0.125000
G00 Z5.000000

(End cutting path id: polyline70)


(Start cutting path id: polyline72)
(Change tool to Default tool)

G00 Z5.000000
G00 X168.350592 Y242.650006

G00 Z4.875000 (Fast pre-penetrate)
G01 Z-0.125000 F100.0(Penetrate)
G01 X166.213437 Y220.074974 Z-0.125000 F800.000000
G01 X166.534232 Y198.530914 Z-0.125000
G01 X161.276024 Y176.677646 Z-0.125000
G01 X174.152398 Y160.435459 Z-0.125000
G01 X170.234031 Y138.423205 Z-0.125000
G01 X165.775618 Y118.763460 Z-0.125000
G01 X171.747607 Y96.694787 Z-0.125000
G01 X166.210079 Y74.327468 Z-0.125000
G01 X171.889360 Y52.584749 Z-0.125000
G00 Z5.000000

(End cutting path id: polyline72)


(Start cutting path id: polyline74)
(Change tool to Default tool)

G00 Z5.000000
G00 X166.540171 Y242.985502

G00 Z4.875000 (Fast pre-penetrate)
G01 Z-0.125000 F100.0(Penetrate)
G01 X164.273969 Y219.950015 Z-0.125000 F800.000000
G01 X165.249252 Y197.836216 Z-0.125000
G01 X159.563058 Y176.474800 Z-0.125000
G01 X173.039401 Y161.076659 Z-0.125000
G01 X167.442290 Y138.781531 Z-0.125000
G01 X164.697817 Y118.319703 Z-0.125000
G01 X170.015073 Y96.708368 Z-0.125000
G01 X164.750877 Y74.184108 Z-0.125000
G01 X170.228043 Y52.362578 Z-0.125000
G00 Z5.000000

(End cutting path id: polyline74)


(Start cutting path id: polyline76)
(Change tool to Default tool)

G00 Z5.000000
G00 X164.729750 Y243.320998

G00 Z4.875000 (Fast pre-penetrate)
G01 Z-0.125000 F100.0(Penetrate)
G01 X162.334549 Y219.825007 Z-0.125000 F800.000000
G01 X163.964322 Y197.141518 Z-0.125000
G01 X157.850093 Y176.271955 Z-0.125000
G01 X171.926356 Y161.717907 Z-0.125000
G01 X164.650549 Y139.139906 Z-0.125000
G01 X163.620064 Y117.875945 Z-0.125000
G01 X168.282490 Y96.721999 Z-0.125000
G01 X163.291626 Y74.040749 Z-0.125000
G01 X168.566726 Y52.140407 Z-0.125000
G00 Z5.000000

(End cutting path id: polyline76)


(Start cutting path id: polyline78)
(Change tool to Default tool)

G00 Z5.000000
G00 X162.919329 Y243.656542

G00 Z4.875000 (Fast pre-penetrate)
G01 Z-0.125000 F100.0(Penetrate)
G01 X160.395129 Y219.700048 Z-0.125000 F800.000000
G01 X162.679391 Y196.446820 Z-0.125000
G01 X156.137128 Y176.069109 Z-0.125000
G01 X170.813359 Y162.359107 Z-0.125000
G01 X161.858809 Y139.498232 Z-0.125000
G01 X162.542262 Y117.432187 Z-0.125000
G01 X166.549907 Y96.735580 Z-0.125000
G01 X161.832425 Y73.897389 Z-0.125000
G01 X166.905409 Y51.918236 Z-0.125000
G00 Z5.000000

(End cutting path id: polyline78)


(Start cutting path id: polyline80)
(Change tool to Default tool)

G00 Z5.000000
G00 X157.434423 Y244.278124

G00 Z4.875000 (Fast pre-penetrate)
G01 Z-0.125000 F100.0(Penetrate)
G01 X154.912023 Y220.025760 Z-0.125000 F800.000000
G01 X158.361271 Y195.404457 Z-0.125000
G01 X151.511454 Y175.868065 Z-0.125000
G01 X166.234856 Y162.300303 Z-0.125000
G01 X153.747232 Y139.779499 Z-0.125000
G01 X157.927006 Y117.144932 Z-0.125000
G01 X161.057017 Y97.306098 Z-0.125000
G01 X156.241593 Y73.923384 Z-0.125000
G01 X161.116697 Y52.264149 Z-0.125000
G00 Z5.000000

(End cutting path id: polyline80)


(Start cutting path id: polyline82)
(Change tool to Default tool)

G00 Z5.000000
G00 X155.570407 Y244.228715

G00 Z4.875000 (Fast pre-penetrate)
G01 Z-0.125000 F100.0(Penetrate)
G01 X153.307758 Y220.601486 Z-0.125000 F800.000000
G01 X156.612965 Y195.751538 Z-0.125000
G01 X150.311614 Y176.072712 Z-0.125000
G01 X163.882346 Y160.959050 Z-0.125000
G01 X151.219186 Y139.344114 Z-0.125000
G01 X155.467305 Y117.745242 Z-0.125000
G01 X159.029196 Y97.849404 Z-0.125000
G01 X153.569213 Y74.236098 Z-0.125000
G01 X158.650619 Y53.054356 Z-0.125000
G00 Z5.000000

(End cutting path id: polyline82)


(Start cutting path id: polyline84)
(Change tool to Default tool)

G00 Z5.000000
G00 X153.706391 Y244.179306

G00 Z4.875000 (Fast pre-penetrate)
G01 Z-0.125000 F100.0(Penetrate)
G01 X151.703493 Y221.177164 Z-0.125000 F800.000000
G01 X154.864659 Y196.098571 Z-0.125000
G01 X149.111823 Y176.277358 Z-0.125000
G01 X161.529885 Y159.617798 Z-0.125000
G01 X148.691188 Y138.908729 Z-0.125000
G01 X153.007604 Y118.345551 Z-0.125000
G01 X157.001423 Y98.392759 Z-0.125000
G01 X150.896833 Y74.548860 Z-0.125000
G01 X156.184590 Y53.844610 Z-0.125000
G00 Z5.000000

(End cutting path id: polyline84)


(Start cutting path id: polyline86)
(Change tool to Default tool)

G00 Z5.000000
G00 X151.842374 Y244.129897

G00 Z4.875000 (Fast pre-penetrate)
G01 Z-0.125000 F100.0(Penetrate)
G01 X150.099277 Y221.752842 Z-0.125000 F800.000000
G01 X153.116401 Y196.445652 Z-0.125000
G01 X147.912032 Y176.482005 Z-0.125000
G01 X159.177423 Y158.276497 Z-0.125000
G01 X146.163141 Y138.473344 Z-0.125000
G01 X154.973602 Y98.936114 Z-0.125000
G01 X148.224454 Y74.861574 Z-0.125000
G01 X153.718512 Y54.634817 Z-0.125000
G00 Z5.000000

(End cutting path id: polyline86)


(Start cutting path id: polyline88)
(Change tool to Default tool)

G00 Z5.000000
G00 X148.114293 Y244.031078

G00 Z4.875000 (Fast pre-penetrate)
G01 Z-0.125000 F100.0(Penetrate)
G01 X146.890746 Y222.904246 Z-0.125000 F800.000000
G01 X149.619837 Y197.139717 Z-0.125000
G01 X145.512449 Y176.891249 Z-0.125000
G01 X154.472452 Y155.593992 Z-0.125000
G01 X141.107048 Y137.602525 Z-0.125000
G01 X150.918009 Y100.022824 Z-0.125000
G01 X142.879743 Y75.487002 Z-0.125000
G01 X148.786453 Y56.215278 Z-0.125000
G00 Z5.000000

(End cutting path id: polyline88)


(Start cutting path id: polyline192)
(Change tool to Default tool)

G00 Z5.000000
G00 X149.978309 Y244.080487

G00 Z4.875000 (Fast pre-penetrate)
G01 Z-0.125000 F100.0(Penetrate)
G01 X148.495012 Y222.328568 Z-0.125000 F800.000000
G01 X151.368095 Y196.792685 Z-0.125000
G01 X146.712241 Y176.686651 Z-0.125000
G01 X156.824913 Y156.935244 Z-0.125000
G01 X143.635095 Y138.037959 Z-0.125000
G01 X152.945830 Y99.479469 Z-0.125000
G01 X145.552074 Y75.174288 Z-0.125000
G01 X151.252531 Y55.425072 Z-0.125000
G00 Z5.000000

(End cutting path id: polyline192)



(Footer)
M5
G00 X0.0000 Y0.0000
M2
(Using default footer. To add your own footer create file "footer" in the output dir.)
(end)
%