%
(Header)
(Generated by gcodetools from Inkscape.)
(Using default header. To add your own header create file "header" in the output dir.)
M3
(Header end.)
G21 (All units in mm)

(Start cutting path id: polyline1329)
(Change tool to Default tool)

G00 Z3.000000
G00 X15.783683 Y80.473531

G00 Z4.875000 (Fast pre-penetrate)
G01 Z-0.125000 F400.0(Penetrate)
G01 X21.586861 Y68.694930 Z-0.125000 F800.000000
G01 X24.550879 Y62.972503 Z-0.125000
G01 X27.695289 Y57.471796 Z-0.125000
G01 X30.968922 Y52.383547 Z-0.125000
G01 X34.364209 Y47.734797 Z-0.125000
G01 X36.143133 Y45.551300 Z-0.125000
G01 X37.950658 Y43.495093 Z-0.125000
G01 X41.784995 Y39.584741 Z-0.125000
G01 X46.812707 Y35.021769 Z-0.125000
G00 Z3.000000

(End cutting path id: polyline1329)


(Start cutting path id: polyline1327)
(Change tool to Default tool)

G00 Z3.000000
G00 X15.783683 Y82.325612

G00 Z4.875000 (Fast pre-penetrate)
G01 Z-0.125000 F400.0(Penetrate)
G01 X22.239984 Y69.166814 Z-0.125000 F800.000000
G01 X25.069832 Y63.653698 Z-0.125000
G01 X28.202865 Y58.119124 Z-0.125000
G01 X31.469618 Y53.007725 Z-0.125000
G01 X33.251982 Y50.467464 Z-0.125000
G01 X34.998574 Y48.150484 Z-0.125000
G01 X36.776333 Y45.961959 Z-0.125000
G01 X38.655799 Y43.821879 Z-0.125000
G01 X42.565409 Y39.844403 Z-0.125000
G01 X47.821033 Y35.093180 Z-0.125000
G00 Z3.000000

(End cutting path id: polyline1327)


(Start cutting path id: polyline1325)
(Change tool to Default tool)

G00 Z3.000000
G00 X15.783683 Y84.177693

G00 Z4.875000 (Fast pre-penetrate)
G01 Z-0.125000 F400.0(Penetrate)
G01 X23.013810 Y69.393006 Z-0.125000 F800.000000
G01 X25.651147 Y64.217948 Z-0.125000
G01 X28.774946 Y58.656069 Z-0.125000
G01 X32.037017 Y53.528980 Z-0.125000
G01 X33.817052 Y50.980252 Z-0.125000
G01 X35.631615 Y48.563048 Z-0.125000
G01 X37.479886 Y46.284512 Z-0.125000
G01 X39.359642 Y44.145755 Z-0.125000
G01 X41.266730 Y42.138444 Z-0.125000
G01 X43.419219 Y40.030934 Z-0.125000
G01 X48.979192 Y35.031824 Z-0.125000
G00 Z3.000000

(End cutting path id: polyline1325)


(Start cutting path id: polyline1323)
(Change tool to Default tool)

G00 Z3.000000
G00 X15.783683 Y85.103733

G00 Z4.875000 (Fast pre-penetrate)
G01 Z-0.125000 F400.0(Penetrate)
G01 X23.491197 Y69.321622 Z-0.125000 F800.000000
G01 X26.004048 Y64.382466 Z-0.125000
G01 X29.060775 Y58.924145 Z-0.125000
G01 X32.320332 Y53.788774 Z-0.125000
G01 X34.168365 Y51.140298 Z-0.125000
G01 X35.982981 Y48.723306 Z-0.125000
G01 X37.831305 Y46.444955 Z-0.125000
G01 X39.711220 Y44.307019 Z-0.125000
G01 X41.692365 Y42.226047 Z-0.125000
G01 X43.845859 Y40.123988 Z-0.125000
G01 X49.482720 Y35.067436 Z-0.125000
G00 Z3.000000

(End cutting path id: polyline1323)


(Start cutting path id: polyline1321)
(Change tool to Default tool)

G00 Z3.000000
G00 X15.783683 Y91.586016

G00 Z4.875000 (Fast pre-penetrate)
G01 Z-0.125000 F400.0(Penetrate)
G01 X20.100169 Y82.939206 Z-0.125000 F800.000000
G01 X26.049133 Y70.425330 Z-0.125000
G01 X28.291527 Y65.901119 Z-0.125000
G01 X31.193473 Y60.590594 Z-0.125000
G01 X34.302165 Y55.606089 Z-0.125000
G01 X36.349243 Y52.640325 Z-0.125000
G01 X38.299829 Y50.023334 Z-0.125000
G01 X40.290366 Y47.569883 Z-0.125000
G01 X42.391287 Y45.204484 Z-0.125000
G01 X44.525599 Y43.001937 Z-0.125000
G01 X46.909439 Y40.723665 Z-0.125000
G01 X53.466282 Y34.965254 Z-0.125000
G00 Z3.000000

(End cutting path id: polyline1321)


(Start cutting path id: polyline1319)
(Change tool to Default tool)

G00 Z3.000000
G00 X15.783683 Y95.290178

G00 Z4.875000 (Fast pre-penetrate)
G01 Z-0.125000 F400.0(Penetrate)
G01 X21.332147 Y84.250532 Z-0.125000 F800.000000
G01 X27.663380 Y70.775902 Z-0.125000
G01 X29.774223 Y66.469338 Z-0.125000
G01 X32.603727 Y61.247580 Z-0.125000
G01 X35.574147 Y56.455638 Z-0.125000
G01 X37.687927 Y53.385523 Z-0.125000
G01 X39.708812 Y50.677569 Z-0.125000
G01 X41.773063 Y48.147891 Z-0.125000
G01 X43.877344 Y45.798314 Z-0.125000
G01 X46.088835 Y43.538193 Z-0.125000
G01 X48.626186 Y41.142606 Z-0.125000
G01 X55.648748 Y35.068892 Z-0.125000
G00 Z3.000000

(End cutting path id: polyline1319)


(Start cutting path id: polyline1317)
(Change tool to Default tool)

G00 Z3.000000
G00 X15.783683 Y97.142259

G00 Z4.875000 (Fast pre-penetrate)
G01 Z-0.125000 F400.0(Penetrate)
G01 X21.891740 Y85.039651 Z-0.125000 F800.000000
G01 X28.503193 Y70.897055 Z-0.125000
G01 X30.610861 Y66.582394 Z-0.125000
G01 X33.376548 Y61.474010 Z-0.125000
G01 X36.347682 Y56.684555 Z-0.125000
G01 X38.463447 Y53.621584 Z-0.125000
G01 X40.557462 Y50.833937 Z-0.125000
G01 X42.625919 Y48.322410 Z-0.125000
G01 X44.807353 Y45.913593 Z-0.125000
G01 X47.097451 Y43.603545 Z-0.125000
G01 X49.714336 Y41.165043 Z-0.125000
G01 X56.974414 Y34.962662 Z-0.125000
G00 Z3.000000

(End cutting path id: polyline1317)


(Start cutting path id: polyline1315)
(Change tool to Default tool)

G00 Z3.000000
G00 X15.783683 Y98.994340

G00 Z4.875000 (Fast pre-penetrate)
G01 Z-0.125000 F400.0(Penetrate)
G01 X19.723509 Y91.330323 Z-0.125000 F800.000000
G01 X22.573703 Y85.587470 Z-0.125000
G01 X29.286174 Y71.150710 Z-0.125000
G01 X31.388894 Y66.823402 Z-0.125000
G01 X34.152014 Y61.707822 Z-0.125000
G01 X37.056236 Y57.021793 Z-0.125000
G01 X39.172529 Y53.960912 Z-0.125000
G01 X41.267921 Y51.178768 Z-0.125000
G01 X43.410011 Y48.590644 Z-0.125000
G01 X45.667671 Y46.118486 Z-0.125000
G01 X48.035716 Y43.755231 Z-0.125000
G01 X50.806932 Y41.204704 Z-0.125000
G01 X54.205844 Y38.270875 Z-0.125000
G01 X58.154269 Y35.010075 Z-0.125000
G00 Z3.000000

(End cutting path id: polyline1315)


(Start cutting path id: polyline1313)
(Change tool to Default tool)

G00 Z3.000000
G00 X15.783683 Y99.920381

G00 Z4.875000 (Fast pre-penetrate)
G01 Z-0.125000 F400.0(Penetrate)
G01 X19.973090 Y91.786412 Z-0.125000 F800.000000
G01 X22.885461 Y85.925396 Z-0.125000
G01 X29.708289 Y71.217412 Z-0.125000
G01 X31.809634 Y66.886585 Z-0.125000
G01 X34.508645 Y61.883532 Z-0.125000
G01 X37.411544 Y57.193269 Z-0.125000
G01 X39.528182 Y54.133631 Z-0.125000
G01 X41.695063 Y51.265314 Z-0.125000
G01 X43.839509 Y48.687508 Z-0.125000
G01 X46.099339 Y46.225748 Z-0.125000
G01 X48.543768 Y43.801268 Z-0.125000
G01 X51.317444 Y41.264923 Z-0.125000
G01 X54.718818 Y38.346070 Z-0.125000
G01 X58.822844 Y34.983881 Z-0.125000
G00 Z3.000000

(End cutting path id: polyline1313)


(Start cutting path id: polyline1311)
(Change tool to Default tool)

G00 Z3.000000
G00 X15.783683 Y100.846421

G00 Z4.875000 (Fast pre-penetrate)
G01 Z-0.125000 F400.0(Penetrate)
G01 X20.222883 Y92.243055 Z-0.125000 F800.000000
G01 X23.197696 Y86.264617 Z-0.125000
G01 X25.691655 Y80.997431 Z-0.125000
G01 X30.131093 Y71.285965 Z-0.125000
G01 X32.231141 Y66.951858 Z-0.125000
G01 X34.930523 Y61.949889 Z-0.125000
G01 X37.835089 Y57.265156 Z-0.125000
G01 X39.953790 Y54.213112 Z-0.125000
G01 X42.123212 Y51.354848 Z-0.125000
G01 X44.270038 Y48.787573 Z-0.125000
G01 X46.605698 Y46.260567 Z-0.125000
G01 X49.127676 Y43.781372 Z-0.125000
G01 X51.979987 Y41.197560 Z-0.125000
G01 X55.536697 Y38.174673 Z-0.125000
G01 X59.493350 Y34.967027 Z-0.125000
G00 Z3.000000

(End cutting path id: polyline1311)


(Start cutting path id: polyline1309)
(Change tool to Default tool)

G00 Z3.000000
G00 X15.783683 Y104.550583

G00 Z4.875000 (Fast pre-penetrate)
G01 Z-0.125000 F400.0(Penetrate)
G01 X21.345906 Y93.832379 Z-0.125000 F800.000000
G01 X24.510662 Y87.508528 Z-0.125000
G01 X27.179802 Y81.857802 Z-0.125000
G01 X31.888771 Y71.453526 Z-0.125000
G01 X33.925795 Y67.235676 Z-0.125000
G01 X36.562550 Y62.350521 Z-0.125000
G01 X39.403854 Y57.781358 Z-0.125000
G01 X41.597459 Y54.655124 Z-0.125000
G01 X43.847076 Y51.746008 Z-0.125000
G01 X46.149265 Y49.062316 Z-0.125000
G01 X48.570808 Y46.520123 Z-0.125000
G01 X51.253892 Y43.964410 Z-0.125000
G01 X54.420262 Y41.190337 Z-0.125000
G01 X58.220177 Y38.076751 Z-0.125000
G01 X62.196780 Y35.001846 Z-0.125000
G00 Z3.000000

(End cutting path id: polyline1309)


(Start cutting path id: polyline1307)
(Change tool to Default tool)

G00 Z3.000000
G00 X15.783683 Y108.254746

G00 Z4.875000 (Fast pre-penetrate)
G01 Z-0.125000 F400.0(Penetrate)
G01 X22.777723 Y94.825756 Z-0.125000 F800.000000
G01 X25.949174 Y88.519632 Z-0.125000
G01 X28.735735 Y82.614933 Z-0.125000
G01 X33.543182 Y71.911545 Z-0.125000
G01 X35.636959 Y67.561748 Z-0.125000
G01 X38.276678 Y62.685139 Z-0.125000
G01 X41.059376 Y58.247024 Z-0.125000
G01 X43.331165 Y55.059169 Z-0.125000
G01 X45.664232 Y52.113514 Z-0.125000
G01 X48.125436 Y49.331556 Z-0.125000
G01 X50.709512 Y46.715809 Z-0.125000
G01 X53.783437 Y43.907816 Z-0.125000
G01 X57.270853 Y40.989518 Z-0.125000
G01 X61.091723 Y38.014203 Z-0.125000
G01 X65.245834 Y34.993512 Z-0.125000
G00 Z3.000000

(End cutting path id: polyline1307)


(Start cutting path id: polyline1305)
(Change tool to Default tool)

G00 Z3.000000
G00 X15.783683 Y112.884948

G00 Z4.875000 (Fast pre-penetrate)
G01 Z-0.125000 F400.0(Penetrate)
G01 X24.832475 Y95.567938 Z-0.125000 F800.000000
G01 X27.829803 Y89.649137 Z-0.125000
G01 X30.738681 Y83.502635 Z-0.125000
G01 X35.770071 Y72.265266 Z-0.125000
G01 X37.867579 Y67.925020 Z-0.125000
G01 X40.518754 Y63.081617 Z-0.125000
G01 X43.318915 Y58.702001 Z-0.125000
G01 X45.677567 Y55.486312 Z-0.125000
G01 X48.246774 Y52.375504 Z-0.125000
G01 X50.878448 Y49.552879 Z-0.125000
G01 X53.784390 Y46.780526 Z-0.125000
G01 X57.186134 Y43.864821 Z-0.125000
G01 X61.005971 Y40.882812 Z-0.125000
G01 X65.011308 Y38.011399 Z-0.125000
G01 X69.507896 Y35.030580 Z-0.125000
G00 Z3.000000

(End cutting path id: polyline1305)


(Start cutting path id: polyline1303)
(Change tool to Default tool)

G00 Z3.000000
G00 X15.783683 Y113.810989

G00 Z4.875000 (Fast pre-penetrate)
G01 Z-0.125000 F400.0(Penetrate)
G01 X25.330684 Y95.551692 Z-0.125000 F800.000000
G01 X28.207098 Y89.878292 Z-0.125000
G01 X31.118173 Y83.737294 Z-0.125000
G01 X36.208141 Y72.372502 Z-0.125000
G01 X38.306602 Y68.034690 Z-0.125000
G01 X40.960078 Y63.197954 Z-0.125000
G01 X43.763415 Y58.829133 Z-0.125000
G01 X46.195647 Y55.535366 Z-0.125000
G01 X48.770225 Y52.448000 Z-0.125000
G01 X51.480586 Y49.574655 Z-0.125000
G01 X54.467120 Y46.765048 Z-0.125000
G01 X58.027031 Y43.762930 Z-0.125000
G01 X61.854013 Y40.829551 Z-0.125000
G01 X65.866308 Y38.009626 Z-0.125000
G01 X70.525350 Y34.985548 Z-0.125000
G00 Z3.000000

(End cutting path id: polyline1303)


(Start cutting path id: polyline1301)
(Change tool to Default tool)

G00 Z3.000000
G00 X15.783683 Y115.663070

G00 Z4.875000 (Fast pre-penetrate)
G01 Z-0.125000 F400.0(Penetrate)
G01 X26.266594 Y95.641968 Z-0.125000 F800.000000
G01 X29.023734 Y90.218281 Z-0.125000
G01 X31.938274 Y84.086014 Z-0.125000
G01 X37.089520 Y72.600228 Z-0.125000
G01 X39.190838 Y68.269745 Z-0.125000
G01 X41.849580 Y63.448329 Z-0.125000
G01 X44.728137 Y59.004472 Z-0.125000
G01 X47.239771 Y55.655566 Z-0.125000
G01 X49.897692 Y52.535074 Z-0.125000
G01 X52.767703 Y49.572644 Z-0.125000
G01 X55.917141 Y46.699696 Z-0.125000
G01 X59.566296 Y43.719433 Z-0.125000
G01 X63.406215 Y40.876541 Z-0.125000
G01 X67.586468 Y38.052568 Z-0.125000
G01 X72.571000 Y34.949935 Z-0.125000
G00 Z3.000000

(End cutting path id: polyline1301)


(Start cutting path id: polyline1299)
(Change tool to Default tool)

G00 Z3.000000
G00 X15.783683 Y116.589110

G00 Z4.875000 (Fast pre-penetrate)
G01 Z-0.125000 F400.0(Penetrate)
G01 X26.704373 Y95.748701 Z-0.125000 F800.000000
G01 X29.402696 Y90.452120 Z-0.125000
G01 X32.379070 Y84.200658 Z-0.125000
G01 X37.533120 Y72.721460 Z-0.125000
G01 X39.636343 Y68.395872 Z-0.125000
G01 X42.363347 Y63.474311 Z-0.125000
G01 X45.248863 Y59.054320 Z-0.125000
G01 X47.766053 Y55.727400 Z-0.125000
G01 X50.502264 Y52.551769 Z-0.125000
G01 X53.378678 Y49.622200 Z-0.125000
G01 X56.609184 Y46.716285 Z-0.125000
G01 X60.264319 Y43.774810 Z-0.125000
G01 X64.264549 Y40.866461 Z-0.125000
G01 X68.451760 Y38.097441 Z-0.125000
G01 X73.599117 Y34.958164 Z-0.125000
G00 Z3.000000

(End cutting path id: polyline1299)


(Start cutting path id: polyline1297)
(Change tool to Default tool)

G00 Z3.000000
G00 X15.783683 Y117.515151

G00 Z4.875000 (Fast pre-penetrate)
G01 Z-0.125000 F400.0(Penetrate)
G01 X27.204699 Y95.738382 Z-0.125000 F800.000000
G01 X29.842962 Y90.565626 Z-0.125000
G01 X32.762503 Y84.445874 Z-0.125000
G01 X37.919967 Y72.974772 Z-0.125000
G01 X40.022793 Y68.648152 Z-0.125000
G01 X42.749215 Y63.724924 Z-0.125000
G01 X44.207200 Y61.400483 Z-0.125000
G01 X45.703734 Y59.208889 Z-0.125000
G01 X48.295325 Y55.807569 Z-0.125000
G01 X51.036960 Y52.656676 Z-0.125000
G01 X53.992723 Y49.681229 Z-0.125000
G01 X57.304455 Y46.743643 Z-0.125000
G01 X60.965516 Y43.841194 Z-0.125000
G01 X64.971779 Y40.976977 Z-0.125000
G01 X69.320598 Y38.157925 Z-0.125000
G01 X74.630726 Y34.982691 Z-0.125000
G00 Z3.000000

(End cutting path id: polyline1297)


(Start cutting path id: polyline1295)
(Change tool to Default tool)

G00 Z3.000000
G00 X15.783683 Y121.219313

G00 Z4.875000 (Fast pre-penetrate)
G01 Z-0.125000 F400.0(Penetrate)
G01 X19.733696 Y113.582971 Z-0.125000 F800.000000
G01 X28.779259 Y96.547503 Z-0.125000
G01 X31.491738 Y91.289128 Z-0.125000
G01 X34.484833 Y85.079894 Z-0.125000
G01 X39.667590 Y73.668932 Z-0.125000
G01 X41.841986 Y69.248359 Z-0.125000
G01 X43.287774 Y66.577631 Z-0.125000
G01 X44.715305 Y64.155744 Z-0.125000
G01 X46.252453 Y61.768835 Z-0.125000
G01 X47.831061 Y59.529034 Z-0.125000
G01 X50.588492 Y56.049530 Z-0.125000
G01 X53.575713 Y52.787089 Z-0.125000
G01 X56.782803 Y49.748248 Z-0.125000
G01 X60.425132 Y46.724805 Z-0.125000
G01 X64.112758 Y44.005474 Z-0.125000
G01 X68.145558 Y41.344615 Z-0.125000
G01 X72.362429 Y38.823377 Z-0.125000
G01 X79.261378 Y34.959619 Z-0.125000
G00 Z3.000000

(End cutting path id: polyline1295)


(Start cutting path id: polyline1293)
(Change tool to Default tool)

G00 Z3.000000
G00 X15.783683 Y122.145353

G00 Z4.875000 (Fast pre-penetrate)
G01 Z-0.125000 F400.0(Penetrate)
G01 X19.981054 Y114.033106 Z-0.125000 F800.000000
G01 X29.221642 Y96.667227 Z-0.125000
G01 X31.937031 Y91.416789 Z-0.125000
G01 X34.874987 Y85.343683 Z-0.125000
G01 X40.125928 Y73.828396 Z-0.125000
G01 X42.304425 Y69.418459 Z-0.125000
G01 X43.752646 Y66.754690 Z-0.125000
G01 X45.248360 Y64.232976 Z-0.125000
G01 X46.789530 Y61.859799 Z-0.125000
G01 X48.371868 Y59.633836 Z-0.125000
G01 X51.206955 Y56.094456 Z-0.125000
G01 X54.201267 Y52.866464 Z-0.125000
G01 X57.489716 Y49.794867 Z-0.125000
G01 X61.138369 Y46.811879 Z-0.125000
G01 X64.831815 Y44.134246 Z-0.125000
G01 X68.870383 Y41.520087 Z-0.125000
G01 X72.935569 Y39.132146 Z-0.125000
G01 X80.466474 Y34.962159 Z-0.125000
G00 Z3.000000

(End cutting path id: polyline1293)


(Start cutting path id: polyline1291)
(Change tool to Default tool)

G00 Z3.000000
G00 X15.783683 Y123.997434

G00 Z4.875000 (Fast pre-penetrate)
G01 Z-0.125000 F400.0(Penetrate)
G01 X20.476671 Y114.935784 Z-0.125000 F800.000000
G01 X32.770441 Y91.804192 Z-0.125000
G01 X35.719086 Y85.758364 Z-0.125000
G01 X40.992172 Y74.296523 Z-0.125000
G01 X43.177363 Y69.904022 Z-0.125000
G01 X44.693053 Y67.137410 Z-0.125000
G01 X46.193557 Y64.630697 Z-0.125000
G01 X47.739065 Y62.272469 Z-0.125000
G01 X49.395249 Y59.968771 Z-0.125000
G01 X52.239225 Y56.467121 Z-0.125000
G01 X55.315638 Y53.205157 Z-0.125000
G01 X58.612686 Y50.182455 Z-0.125000
G01 X62.422787 Y47.136681 Z-0.125000
G01 X66.126155 Y44.532391 Z-0.125000
G01 X70.018541 Y42.094232 Z-0.125000
G01 X73.620654 Y40.036067 Z-0.125000
G01 X82.885557 Y34.989517 Z-0.125000
G00 Z3.000000

(End cutting path id: polyline1291)


(Start cutting path id: polyline1289)
(Change tool to Default tool)

G00 Z3.000000
G00 X15.783683 Y127.701596

G00 Z4.875000 (Fast pre-penetrate)
G01 Z-0.125000 F400.0(Penetrate)
G01 X21.411310 Y116.874542 Z-0.125000 F800.000000
G01 X34.578998 Y92.392677 Z-0.125000
G01 X37.490496 Y86.529809 Z-0.125000
G01 X42.763767 Y75.339403 Z-0.125000
G01 X44.967426 Y70.995665 Z-0.125000
G01 X46.556670 Y68.144042 Z-0.125000
G01 X48.132394 Y65.560177 Z-0.125000
G01 X49.824032 Y63.037908 Z-0.125000
G01 X51.562078 Y60.687617 Z-0.125000
G01 X54.497362 Y57.186258 Z-0.125000
G01 X57.666140 Y53.943264 Z-0.125000
G01 X61.207504 Y50.829148 Z-0.125000
G01 X64.884149 Y48.033406 Z-0.125000
G01 X68.138309 Y45.859856 Z-0.125000
G01 X71.574289 Y43.805978 Z-0.125000
G01 X75.028553 Y41.919977 Z-0.125000
G01 X83.528414 Y37.499616 Z-0.125000
G01 X87.909750 Y34.960783 Z-0.125000
G00 Z3.000000

(End cutting path id: polyline1289)


(Start cutting path id: polyline1287)
(Change tool to Default tool)

G00 Z3.000000
G00 X15.783683 Y130.479718

G00 Z4.875000 (Fast pre-penetrate)
G01 Z-0.125000 F400.0(Penetrate)
G01 X22.169420 Y118.268895 Z-0.125000 F800.000000
G01 X35.959989 Y92.904328 Z-0.125000
G01 X38.772374 Y87.344248 Z-0.125000
G01 X44.043052 Y76.421812 Z-0.125000
G01 X46.324843 Y72.002932 Z-0.125000
G01 X47.987112 Y69.065135 Z-0.125000
G01 X49.704017 Y66.298020 Z-0.125000
G01 X51.404969 Y63.808955 Z-0.125000
G01 X53.221225 Y61.398790 Z-0.125000
G01 X56.095417 Y58.029378 Z-0.125000
G01 X59.271683 Y54.825198 Z-0.125000
G01 X62.668002 Y51.877612 Z-0.125000
G01 X66.351844 Y49.132378 Z-0.125000
G01 X69.145761 Y47.306094 Z-0.125000
G01 X72.115891 Y45.556221 Z-0.125000
G01 X75.573356 Y43.701415 Z-0.125000
G01 X85.658201 Y38.575675 Z-0.125000
G01 X88.631823 Y36.857605 Z-0.125000
G01 X91.424894 Y35.024865 Z-0.125000
G00 Z3.000000

(End cutting path id: polyline1287)


(Start cutting path id: polyline1285)
(Change tool to Default tool)

G00 Z3.000000
G00 X15.783683 Y136.035961

G00 Z4.875000 (Fast pre-penetrate)
G01 Z-0.125000 F400.0(Penetrate)
G01 X23.982634 Y120.720918 Z-0.125000 F800.000000
G01 X38.808860 Y94.181814 Z-0.125000
G01 X46.470390 Y79.410410 Z-0.125000
G01 X48.920270 Y74.876806 Z-0.125000
G01 X50.861780 Y71.558274 Z-0.125000
G01 X52.728757 Y68.637939 Z-0.125000
G01 X54.649391 Y65.906940 Z-0.125000
G01 X56.619688 Y63.369219 Z-0.125000
G01 X59.435962 Y60.146994 Z-0.125000
G01 X62.396805 Y57.198508 Z-0.125000
G01 X65.419242 Y54.599641 Z-0.125000
G01 X68.645991 Y52.221834 Z-0.125000
G01 X71.756614 Y50.244341 Z-0.125000
G01 X75.049984 Y48.407579 Z-0.125000
G01 X78.360764 Y46.743484 Z-0.125000
G01 X85.946623 Y43.136345 Z-0.125000
G01 X89.875972 Y41.034312 Z-0.125000
G01 X92.058808 Y39.695258 Z-0.125000
G01 X94.070697 Y38.329110 Z-0.125000
G01 X96.219058 Y36.723091 Z-0.125000
G01 X98.347814 Y34.984781 Z-0.125000
G00 Z3.000000

(End cutting path id: polyline1285)


(Start cutting path id: polyline1283)
(Change tool to Default tool)

G00 Z3.000000
G00 X15.783683 Y136.962001

G00 Z4.875000 (Fast pre-penetrate)
G01 Z-0.125000 F400.0(Penetrate)
G01 X24.313072 Y121.111865 Z-0.125000 F800.000000
G01 X39.359298 Y94.316963 Z-0.125000
G01 X46.867582 Y79.990852 Z-0.125000
G01 X49.326616 Y75.483336 Z-0.125000
G01 X51.271566 Y72.175414 Z-0.125000
G01 X53.207017 Y69.156786 Z-0.125000
G01 X55.198163 Y66.335485 Z-0.125000
G01 X57.241220 Y63.716907 Z-0.125000
G01 X60.060140 Y60.506880 Z-0.125000
G01 X62.948275 Y57.638906 Z-0.125000
G01 X65.895597 Y55.107826 Z-0.125000
G01 X69.123060 Y52.735046 Z-0.125000
G01 X72.078585 Y50.860025 Z-0.125000
G01 X75.372299 Y49.026492 Z-0.125000
G01 X78.683820 Y47.370255 Z-0.125000
G01 X86.429831 Y43.711522 Z-0.125000
G01 X90.358703 Y41.604912 Z-0.125000
G01 X92.696083 Y40.158437 Z-0.125000
G01 X94.859922 Y38.665950 Z-0.125000
G01 X97.157428 Y36.914967 Z-0.125000
G01 X99.433212 Y35.020526 Z-0.125000
G00 Z3.000000

(End cutting path id: polyline1283)


(Start cutting path id: polyline1281)
(Change tool to Default tool)

G00 Z3.000000
G00 X15.783683 Y137.888042

G00 Z4.875000 (Fast pre-penetrate)
G01 Z-0.125000 F400.0(Penetrate)
G01 X24.709152 Y121.394943 Z-0.125000 F800.000000
G01 X39.850470 Y94.579429 Z-0.125000
G01 X47.205322 Y80.699140 Z-0.125000
G01 X49.736773 Y76.102990 Z-0.125000
G01 X51.751678 Y72.700717 Z-0.125000
G01 X53.757985 Y69.591999 Z-0.125000
G01 X55.752067 Y66.781545 Z-0.125000
G01 X57.867911 Y64.082296 Z-0.125000
G01 X60.616002 Y60.961090 Z-0.125000
G01 X63.429684 Y58.164633 Z-0.125000
G01 X66.376689 Y55.631515 Z-0.125000
G01 X69.449952 Y53.368060 Z-0.125000
G01 X72.405001 Y51.489124 Z-0.125000
G01 X75.698900 Y49.657548 Z-0.125000
G01 X79.011056 Y48.008006 Z-0.125000
G01 X86.759237 Y44.373614 Z-0.125000
G01 X90.845192 Y42.182285 Z-0.125000
G01 X93.336797 Y40.626034 Z-0.125000
G01 X95.652242 Y39.004405 Z-0.125000
G01 X98.098523 Y37.106816 Z-0.125000
G01 X100.521548 Y35.057859 Z-0.125000
G00 Z3.000000

(End cutting path id: polyline1281)


(Start cutting path id: polyline1279)
(Change tool to Default tool)

G00 Z3.000000
G00 X15.783683 Y138.814082

G00 Z4.875000 (Fast pre-penetrate)
G01 Z-0.125000 F400.0(Penetrate)
G01 X25.043956 Y121.798987 Z-0.125000 F800.000000
G01 X40.345214 Y94.853034 Z-0.125000
G01 X47.545364 Y81.416081 Z-0.125000
G01 X50.085969 Y76.846600 Z-0.125000
G01 X52.169984 Y73.347437 Z-0.125000
G01 X54.245796 Y70.143919 Z-0.125000
G01 X56.310734 Y67.244513 Z-0.125000
G01 X58.427980 Y64.550926 Z-0.125000
G01 X61.103179 Y61.509174 Z-0.125000
G01 X63.915590 Y58.705970 Z-0.125000
G01 X66.709693 Y56.291861 Z-0.125000
G01 X69.781105 Y54.015257 Z-0.125000
G01 X72.735518 Y52.131135 Z-0.125000
G01 X76.029470 Y50.300168 Z-0.125000
G01 X79.342155 Y48.656155 Z-0.125000
G01 X87.250038 Y44.965460 Z-0.125000
G01 X91.491330 Y42.672557 Z-0.125000
G01 X93.980607 Y41.096860 Z-0.125000
G01 X96.447261 Y39.343653 Z-0.125000
G01 X98.890288 Y37.423971 Z-0.125000
G01 X101.613032 Y35.099266 Z-0.125000
G00 Z3.000000

(End cutting path id: polyline1279)


(Start cutting path id: polyline1277)
(Change tool to Default tool)

G00 Z3.000000
G00 X15.783683 Y149.000528

G00 Z4.875000 (Fast pre-penetrate)
G01 Z-0.125000 F400.0(Penetrate)
G01 X29.678286 Y125.153820 Z-0.125000 F800.000000
G01 X38.833757 Y110.280790 Z-0.125000
G01 X52.980296 Y86.909274 Z-0.125000
G01 X56.263400 Y81.852061 Z-0.125000
G01 X59.688110 Y76.956349 Z-0.125000
G01 X63.042837 Y72.513101 Z-0.125000
G01 X66.115545 Y68.814151 Z-0.125000
G01 X68.524362 Y66.209120 Z-0.125000
G01 X70.905053 Y63.914445 Z-0.125000
G01 X73.404622 Y61.807782 Z-0.125000
G01 X75.865905 Y60.015946 Z-0.125000
G01 X78.043582 Y58.633527 Z-0.125000
G01 X80.552517 Y57.231501 Z-0.125000
G01 X83.076030 Y55.974256 Z-0.125000
G01 X90.667445 Y52.430167 Z-0.125000
G01 X93.340818 Y51.014118 Z-0.125000
G01 X95.841419 Y49.535523 Z-0.125000
G01 X98.169987 Y48.015917 Z-0.125000
G01 X100.637594 Y46.269378 Z-0.125000
G01 X111.216866 Y38.288496 Z-0.125000
G01 X116.014020 Y35.028463 Z-0.125000
G00 Z3.000000

(End cutting path id: polyline1277)


(Start cutting path id: polyline1275)
(Change tool to Default tool)

G00 Z3.000000
G00 X15.783683 Y149.926568

G00 Z4.875000 (Fast pre-penetrate)
G01 Z-0.125000 F400.0(Penetrate)
G01 X30.028726 Y125.609353 Z-0.125000 F800.000000
G01 X39.139218 Y110.911291 Z-0.125000
G01 X53.257314 Y87.766708 Z-0.125000
G01 X56.683638 Y82.534685 Z-0.125000
G01 X60.255349 Y77.480329 Z-0.125000
G01 X63.757185 Y72.881083 Z-0.125000
G01 X66.978536 Y69.035316 Z-0.125000
G01 X69.391877 Y66.452457 Z-0.125000
G01 X71.776669 Y64.180245 Z-0.125000
G01 X74.203609 Y62.156873 Z-0.125000
G01 X76.667009 Y60.380515 Z-0.125000
G01 X78.846194 Y59.010663 Z-0.125000
G01 X81.199078 Y57.703174 Z-0.125000
G01 X90.838154 Y53.107711 Z-0.125000
G01 X93.354603 Y51.778128 Z-0.125000
G01 X95.856474 Y50.310883 Z-0.125000
G01 X98.186735 Y48.804824 Z-0.125000
G01 X100.502630 Y47.186317 Z-0.125000
G01 X108.172071 Y41.425604 Z-0.125000
G01 X111.558416 Y38.975407 Z-0.125000
G01 X114.810300 Y36.783284 Z-0.125000
G01 X117.772254 Y34.961841 Z-0.125000
G00 Z3.000000

(End cutting path id: polyline1275)


(Start cutting path id: polyline1273)
(Change tool to Default tool)

G00 Z3.000000
G00 X15.783683 Y150.852609

G00 Z4.875000 (Fast pre-penetrate)
G01 Z-0.125000 F400.0(Penetrate)
G01 X30.444201 Y125.955798 Z-0.125000 F800.000000
G01 X39.509158 Y111.431382 Z-0.125000
G01 X53.530946 Y88.615146 Z-0.125000
G01 X57.100700 Y83.209425 Z-0.125000
G01 X60.750146 Y78.091622 Z-0.125000
G01 X64.468992 Y73.244170 Z-0.125000
G01 X67.839092 Y69.252301 Z-0.125000
G01 X70.256745 Y66.690741 Z-0.125000
G01 X72.570127 Y64.506820 Z-0.125000
G01 X74.999369 Y62.498053 Z-0.125000
G01 X77.464727 Y60.735983 Z-0.125000
G01 X79.488919 Y59.469424 Z-0.125000
G01 X81.841856 Y58.162410 Z-0.125000
G01 X91.162242 Y53.687862 Z-0.125000
G01 X93.520894 Y52.436199 Z-0.125000
G01 X95.867030 Y51.066188 Z-0.125000
G01 X100.362560 Y48.078914 Z-0.125000
G01 X108.348654 Y42.157652 Z-0.125000
G01 X112.204713 Y39.431918 Z-0.125000
G01 X115.933508 Y37.025906 Z-0.125000
G01 X119.536202 Y34.974409 Z-0.125000
G00 Z3.000000

(End cutting path id: polyline1273)


(Start cutting path id: polyline1271)
(Change tool to Default tool)

G00 Z3.000000
G00 X15.783683 Y151.778649

G00 Z4.875000 (Fast pre-penetrate)
G01 Z-0.125000 F400.0(Penetrate)
G01 X30.727728 Y126.516317 Z-0.125000 F800.000000
G01 X39.877484 Y111.947319 Z-0.125000
G01 X49.492086 Y96.318666 Z-0.125000
G01 X53.800768 Y89.453213 Z-0.125000
G01 X57.445901 Y83.973514 Z-0.125000
G01 X61.241186 Y78.693231 Z-0.125000
G01 X65.248745 Y73.512484 Z-0.125000
G01 X68.696685 Y69.463121 Z-0.125000
G01 X71.118439 Y66.922118 Z-0.125000
G01 X73.510878 Y64.692663 Z-0.125000
G01 X75.944724 Y62.713450 Z-0.125000
G01 X78.413866 Y60.979425 Z-0.125000
G01 X80.440413 Y59.732922 Z-0.125000
G01 X82.480506 Y58.608497 Z-0.125000
G01 X91.166555 Y54.410094 Z-0.125000
G01 X95.716774 Y51.896688 Z-0.125000
G01 X100.217172 Y48.948175 Z-0.125000
G01 X108.674091 Y42.757568 Z-0.125000
G01 X112.847491 Y39.880836 Z-0.125000
G01 X117.369559 Y37.112107 Z-0.125000
G01 X121.621302 Y34.923847 Z-0.125000
G00 Z3.000000

(End cutting path id: polyline1271)


(Start cutting path id: polyline1269)
(Change tool to Default tool)

G00 Z3.000000
G00 X15.783683 Y152.704690

G00 Z4.875000 (Fast pre-penetrate)
G01 Z-0.125000 F400.0(Penetrate)
G01 X20.378511 Y144.849670 Z-0.125000 F800.000000
G01 X31.075601 Y126.965658 Z-0.125000
G01 X40.177495 Y112.563559 Z-0.125000
G01 X49.349661 Y97.744397 Z-0.125000
G01 X54.133401 Y90.176239 Z-0.125000
G01 X57.923712 Y84.529403 Z-0.125000
G01 X61.867797 Y79.098202 Z-0.125000
G01 X66.096336 Y73.686077 Z-0.125000
G01 X69.696597 Y69.507041 Z-0.125000
G01 X72.125045 Y66.999985 Z-0.125000
G01 X74.448190 Y64.871283 Z-0.125000
G01 X76.886455 Y62.920962 Z-0.125000
G01 X79.359168 Y61.213952 Z-0.125000
G01 X83.114818 Y59.041170 Z-0.125000
G01 X91.323849 Y55.036389 Z-0.125000
G01 X95.248938 Y52.892578 Z-0.125000
G01 X99.757300 Y50.009021 Z-0.125000
G01 X108.994766 Y43.340973 Z-0.125000
G01 X113.797900 Y40.127401 Z-0.125000
G01 X116.452143 Y38.532892 Z-0.125000
G01 X118.964862 Y37.166453 Z-0.125000
G01 X121.491629 Y35.944450 Z-0.125000
G01 X123.872480 Y34.938452 Z-0.125000
G00 Z3.000000

(End cutting path id: polyline1269)


(Start cutting path id: polyline1267)
(Change tool to Default tool)

G00 Z3.000000
G00 X15.783683 Y155.482811

G00 Z4.875000 (Fast pre-penetrate)
G01 Z-0.125000 F400.0(Penetrate)
G01 X20.619546 Y147.131751 Z-0.125000 F800.000000
G01 X31.249432 Y129.666866 Z-0.125000
G01 X41.460087 Y113.736561 Z-0.125000
G01 X53.424531 Y94.833138 Z-0.125000
G01 X57.138509 Y89.256257 Z-0.125000
G01 X60.647276 Y84.320329 Z-0.125000
G01 X64.639992 Y79.079363 Z-0.125000
G01 X68.760925 Y73.986934 Z-0.125000
G01 X71.651627 Y70.691183 Z-0.125000
G01 X74.378155 Y67.899409 Z-0.125000
G01 X76.933656 Y65.608887 Z-0.125000
G01 X79.688124 Y63.491853 Z-0.125000
G01 X81.858816 Y62.052945 Z-0.125000
G01 X84.048108 Y60.770564 Z-0.125000
G01 X92.555271 Y56.426217 Z-0.125000
G01 X96.473031 Y54.212874 Z-0.125000
G01 X100.667042 Y51.499258 Z-0.125000
G01 X107.145436 Y46.920675 Z-0.125000
G00 Z3.000000

(End cutting path id: polyline1267)


(Start cutting path id: polyline1265)
(Change tool to Default tool)

G00 Z3.000000
G00 X15.783683 Y160.113014

G00 Z4.875000 (Fast pre-penetrate)
G01 Z-0.125000 F400.0(Penetrate)
G01 X17.971255 Y156.013115 Z-0.125000 F800.000000
G01 X20.280086 Y151.966768 Z-0.125000
G01 X26.995626 Y141.044358 Z-0.125000
G01 X34.454564 Y129.330131 Z-0.125000
G01 X42.597794 Y116.964156 Z-0.125000
G01 X53.507821 Y100.101012 Z-0.125000
G01 X58.130774 Y93.316310 Z-0.125000
G01 X62.147012 Y87.801157 Z-0.125000
G01 X66.733929 Y81.962392 Z-0.125000
G01 X72.238895 Y75.348743 Z-0.125000
G01 X75.142006 Y72.110829 Z-0.125000
G01 X77.802441 Y69.433858 Z-0.125000
G01 X80.439196 Y67.112274 Z-0.125000
G01 X83.044836 Y65.141422 Z-0.125000
G01 X84.905489 Y63.908174 Z-0.125000
G01 X86.935370 Y62.690272 Z-0.125000
G01 X94.316944 Y58.680649 Z-0.125000
G01 X97.758587 Y56.677041 Z-0.125000
G01 X101.023409 Y54.588899 Z-0.125000
G01 X109.077025 Y49.170636 Z-0.125000
G01 X111.725209 Y47.523872 Z-0.125000
G01 X114.073622 Y46.174472 Z-0.125000
G01 X116.276460 Y45.020440 Z-0.125000
G01 X118.490147 Y43.981502 Z-0.125000
G01 X120.555059 Y43.128593 Z-0.125000
G01 X122.628278 Y42.389083 Z-0.125000
G01 X124.708721 Y41.766202 Z-0.125000
G01 X126.795222 Y41.260848 Z-0.125000
G01 X128.886486 Y40.872096 Z-0.125000
G01 X131.142427 Y40.582034 Z-0.125000
G01 X133.239591 Y40.440006 Z-0.125000
G01 X135.176259 Y40.429661 Z-0.125000
G01 X137.112292 Y40.545098 Z-0.125000
G01 X139.045918 Y40.794177 Z-0.125000
G01 X140.975178 Y41.182532 Z-0.125000
G01 X142.738041 Y41.663544 Z-0.125000
G01 X144.493920 Y42.264623 Z-0.125000
G01 X146.399658 Y43.055594 Z-0.125000
G01 X148.293649 Y43.983857 Z-0.125000
G01 X150.174437 Y45.043856 Z-0.125000
G01 X152.040991 Y46.229056 Z-0.125000
G01 X153.892490 Y47.532868 Z-0.125000
G01 X155.574682 Y48.834960 Z-0.125000
G01 X157.314607 Y50.317604 Z-0.125000
G01 X158.957217 Y51.862954 Z-0.125000
G01 X160.501985 Y53.461723 Z-0.125000
G01 X163.089660 Y56.490140 Z-0.125000
G01 X165.732473 Y60.057830 Z-0.125000
G01 X168.031647 Y63.493678 Z-0.125000
G01 X174.303957 Y73.284361 Z-0.125000
G00 Z3.000000

(End cutting path id: polyline1265)


(Start cutting path id: polyline1263)
(Change tool to Default tool)

G00 Z3.000000
G00 X15.783683 Y161.039054

G00 Z4.875000 (Fast pre-penetrate)
G01 Z-0.125000 F400.0(Penetrate)
G01 X18.655890 Y155.643042 Z-0.125000 F800.000000
G01 X21.821202 Y150.204909 Z-0.125000
G01 X26.842723 Y142.123936 Z-0.125000
G01 X33.778052 Y131.277303 Z-0.125000
G01 X43.136485 Y117.085071 Z-0.125000
G01 X51.025451 Y104.845911 Z-0.125000
G01 X54.874948 Y99.067577 Z-0.125000
G01 X60.008890 Y91.712408 Z-0.125000
G01 X64.839514 Y85.358209 Z-0.125000
G01 X69.965545 Y79.080607 Z-0.125000
G01 X74.283487 Y74.053583 Z-0.125000
G01 X77.435544 Y70.725049 Z-0.125000
G01 X80.432078 Y67.973095 Z-0.125000
G01 X83.181995 Y65.825078 Z-0.125000
G01 X86.128074 Y63.873963 Z-0.125000
G01 X88.787742 Y62.327873 Z-0.125000
G01 X95.068201 Y58.898189 Z-0.125000
G01 X98.350698 Y56.961362 Z-0.125000
G00 Z3.000000

(End cutting path id: polyline1263)


(Start cutting path id: polyline1261)
(Change tool to Default tool)

G00 Z3.000000
G00 X15.783683 Y161.965095

G00 Z4.875000 (Fast pre-penetrate)
G01 Z-0.125000 F400.0(Penetrate)
G01 X17.947469 Y157.799262 Z-0.125000 F800.000000
G01 X20.172850 Y153.808054 Z-0.125000
G01 X22.581588 Y149.758928 Z-0.125000
G01 X25.954545 Y144.346751 Z-0.125000
G01 X34.370877 Y131.252723 Z-0.125000
G01 X43.269200 Y117.813971 Z-0.125000
G01 X51.299241 Y105.392460 Z-0.125000
G01 X55.291481 Y99.438417 Z-0.125000
G01 X60.299058 Y92.318276 Z-0.125000
G01 X64.925028 Y86.261707 Z-0.125000
G01 X72.423363 Y77.206513 Z-0.125000
G01 X75.024769 Y74.238817 Z-0.125000
G01 X77.293463 Y71.819947 Z-0.125000
G01 X79.298393 Y69.862958 Z-0.125000
G01 X81.332693 Y68.072684 Z-0.125000
G01 X83.317991 Y66.515507 Z-0.125000
G01 X85.480507 Y65.013073 Z-0.125000
G01 X88.600311 Y63.113234 Z-0.125000
G01 X94.877146 Y59.648758 Z-0.125000
G01 X98.005814 Y57.826152 Z-0.125000
G01 X101.118050 Y55.861147 Z-0.125000
G01 X109.027204 Y50.629521 Z-0.125000
G01 X111.679119 Y49.014506 Z-0.125000
G01 X114.188080 Y47.612375 Z-0.125000
G01 X116.552870 Y46.423445 Z-0.125000
G01 X118.930043 Y45.372521 Z-0.125000
G01 X121.318857 Y44.471457 Z-0.125000
G01 X123.557705 Y43.772508 Z-0.125000
G01 X125.804015 Y43.213630 Z-0.125000
G01 X128.056092 Y42.794742 Z-0.125000
G01 X130.473508 Y42.498779 Z-0.125000
G01 X132.732279 Y42.369345 Z-0.125000
G00 Z3.000000

(End cutting path id: polyline1261)


(Start cutting path id: polyline1259)
(Change tool to Default tool)

G00 Z3.000000
G00 X15.783683 Y164.743216

G00 Z4.875000 (Fast pre-penetrate)
G01 Z-0.125000 F400.0(Penetrate)
G01 X17.973584 Y160.362489 Z-0.125000 F800.000000
G01 X20.104112 Y156.395225 Z-0.125000
G01 X22.359444 Y152.493552 Z-0.125000
G01 X24.995590 Y148.218552 Z-0.125000
G01 X31.960288 Y137.471747 Z-0.125000
G01 X43.310898 Y120.456996 Z-0.125000
G01 X51.220898 Y108.289618 Z-0.125000
G01 X55.082619 Y102.554596 Z-0.125000
G01 X60.586792 Y94.812765 Z-0.125000
G01 X65.438186 Y88.542465 Z-0.125000
G01 X69.153990 Y84.067891 Z-0.125000
G01 X74.118625 Y78.281540 Z-0.125000
G01 X77.018799 Y75.029312 Z-0.125000
G01 X79.368402 Y72.571098 Z-0.125000
G01 X81.379630 Y70.648241 Z-0.125000
G01 X83.419379 Y68.891145 Z-0.125000
G01 X85.408911 Y67.362596 Z-0.125000
G01 X87.574100 Y65.880402 Z-0.125000
G01 X90.381299 Y64.164767 Z-0.125000
G01 X99.308012 Y59.062204 Z-0.125000
G01 X110.041721 Y52.254272 Z-0.125000
G01 X112.704669 Y50.738079 Z-0.125000
G01 X115.066893 Y49.522294 Z-0.125000
G01 X117.600196 Y48.374136 Z-0.125000
G01 X119.987554 Y47.453043 Z-0.125000
G01 X122.545860 Y46.648314 Z-0.125000
G01 X124.953407 Y46.066707 Z-0.125000
G01 X127.528673 Y45.632421 Z-0.125000
G01 X130.108701 Y45.387787 Z-0.125000
G01 X132.529424 Y45.332701 Z-0.125000
G01 X134.949564 Y45.463141 Z-0.125000
G00 Z3.000000

(End cutting path id: polyline1259)


(Start cutting path id: polyline1257)
(Change tool to Default tool)

G00 Z3.000000
G00 X15.783683 Y165.669257

G00 Z4.875000 (Fast pre-penetrate)
G01 Z-0.125000 F400.0(Penetrate)
G01 X18.023510 Y161.138273 Z-0.125000 F800.000000
G01 X20.207696 Y157.029008 Z-0.125000
G01 X22.522374 Y153.000467 Z-0.125000
G01 X25.157991 Y148.723827 Z-0.125000
G01 X31.864561 Y138.423822 Z-0.125000
G01 X44.240061 Y119.930158 Z-0.125000
G01 X51.883255 Y108.179816 Z-0.125000
G01 X56.166087 Y101.893376 Z-0.125000
G01 X61.976673 Y93.882994 Z-0.125000
G01 X64.583319 Y90.541205 Z-0.125000
G01 X67.434042 Y87.066119 Z-0.125000
G01 X72.683263 Y80.929910 Z-0.125000
G01 X76.879496 Y76.172019 Z-0.125000
G01 X79.737839 Y73.149926 Z-0.125000
G01 X82.272491 Y70.740130 Z-0.125000
G01 X85.234339 Y68.300305 Z-0.125000
G01 X88.478391 Y66.049947 Z-0.125000
G01 X91.130915 Y64.440277 Z-0.125000
G01 X99.587650 Y59.604599 Z-0.125000
G01 X109.862545 Y53.158087 Z-0.125000
G01 X112.683635 Y51.566647 Z-0.125000
G01 X115.363570 Y50.217538 Z-0.125000
G01 X117.900339 Y49.110179 Z-0.125000
G01 X120.450469 Y48.178688 Z-0.125000
G01 X123.814880 Y47.242514 Z-0.125000
G01 X127.032659 Y46.662786 Z-0.125000
G01 X130.419454 Y46.379603 Z-0.125000
G01 X133.647049 Y46.427255 Z-0.125000
G01 X136.709094 Y46.794575 Z-0.125000
G01 X139.599452 Y47.459552 Z-0.125000
G01 X142.631017 Y48.513703 Z-0.125000
G01 X145.476793 Y49.851170 Z-0.125000
G00 Z3.000000

(End cutting path id: polyline1257)


(Start cutting path id: polyline1255)
(Change tool to Default tool)

G00 Z3.000000
G00 X15.783683 Y174.003621

G00 Z4.875000 (Fast pre-penetrate)
G01 Z-0.125000 F400.0(Penetrate)
G01 X19.329439 Y166.436600 Z-0.125000 F800.000000
G01 X21.883723 Y161.324460 Z-0.125000
G01 X24.478198 Y156.613586 Z-0.125000
G01 X27.239598 Y152.104509 Z-0.125000
G01 X31.644428 Y145.569203 Z-0.125000
G01 X43.576249 Y128.581546 Z-0.125000
G01 X55.961379 Y109.786020 Z-0.125000
G01 X59.551955 Y104.802625 Z-0.125000
G01 X63.425398 Y99.830211 Z-0.125000
G01 X67.301433 Y95.261127 Z-0.125000
G01 X71.540687 Y90.709136 Z-0.125000
G01 X82.390760 Y79.703488 Z-0.125000
G01 X84.846064 Y77.337269 Z-0.125000
G01 X87.026704 Y75.388351 Z-0.125000
G01 X90.386643 Y72.756174 Z-0.125000
G01 X93.802013 Y70.530766 Z-0.125000
G01 X97.726176 Y68.378198 Z-0.125000
G01 X103.725278 Y65.453233 Z-0.125000
G00 Z3.000000

(End cutting path id: polyline1255)


(Start cutting path id: polyline1253)
(Change tool to Default tool)

G00 Z3.000000
G00 X15.783683 Y174.929662

G00 Z4.875000 (Fast pre-penetrate)
G01 Z-0.125000 F400.0(Penetrate)
G01 X19.622676 Y166.726477 Z-0.125000 F800.000000
G01 X22.236677 Y161.489798 Z-0.125000
G01 X24.896662 Y156.670603 Z-0.125000
G01 X27.729923 Y152.074109 Z-0.125000
G01 X31.940285 Y145.871860 Z-0.125000
G01 X43.687109 Y129.254090 Z-0.125000
G01 X47.335232 Y123.784207 Z-0.125000
G01 X53.766663 Y113.872266 Z-0.125000
G01 X56.755181 Y109.472251 Z-0.125000
G01 X61.062566 Y103.632031 Z-0.125000
G01 X65.615007 Y98.036127 Z-0.125000
G01 X68.223108 Y95.099573 Z-0.125000
G01 X71.008876 Y92.158151 Z-0.125000
G01 X81.817223 Y81.395496 Z-0.125000
G01 X86.143632 Y77.298349 Z-0.125000
G01 X89.635968 Y74.413389 Z-0.125000
G01 X91.484187 Y73.085526 Z-0.125000
G01 X93.348174 Y71.879081 Z-0.125000
G01 X95.381679 Y70.693564 Z-0.125000
G01 X97.583566 Y69.529954 Z-0.125000
G01 X104.700478 Y66.207903 Z-0.125000
G01 X111.683458 Y63.246399 Z-0.125000
G01 X115.993965 Y61.783308 Z-0.125000
G01 X118.078826 Y61.243453 Z-0.125000
G01 X120.008324 Y60.860522 Z-0.125000
G01 X121.941659 Y60.599537 Z-0.125000
G01 X123.877480 Y60.469045 Z-0.125000
G01 X125.814148 Y60.475527 Z-0.125000
G01 X127.588548 Y60.605834 Z-0.125000
G01 X129.521327 Y60.886848 Z-0.125000
G01 X131.288529 Y61.274938 Z-0.125000
G01 X133.049197 Y61.796220 Z-0.125000
G01 X134.800736 Y62.460138 Z-0.125000
G01 X136.540079 Y63.275450 Z-0.125000
G01 X138.107865 Y64.154130 Z-0.125000
G01 X139.814346 Y65.276862 Z-0.125000
G01 X141.346335 Y66.441689 Z-0.125000
G01 X143.975416 Y68.807114 Z-0.125000
G01 X146.531235 Y71.563592 Z-0.125000
G01 X149.223870 Y74.929564 Z-0.125000
G01 X152.326450 Y79.259624 Z-0.125000
G01 X156.789965 Y85.928200 Z-0.125000
G01 X161.806141 Y93.700273 Z-0.125000
G01 X165.028841 Y98.958490 Z-0.125000
G01 X170.924518 Y109.006082 Z-0.125000
G01 X172.649149 Y111.748167 Z-0.125000
G01 X174.277790 Y114.153253 Z-0.125000
G00 Z3.000000

(End cutting path id: polyline1253)


(Start cutting path id: polyline1251)
(Change tool to Default tool)

G00 Z3.000000
G00 X15.783683 Y176.781743

G00 Z4.875000 (Fast pre-penetrate)
G01 Z-0.125000 F400.0(Penetrate)
G01 X20.209522 Y167.307237 Z-0.125000 F800.000000
G01 X23.067362 Y161.585444 Z-0.125000
G01 X25.994893 Y156.349294 Z-0.125000
G01 X29.185368 Y151.309940 Z-0.125000
G01 X32.807165 Y146.089453 Z-0.125000
G01 X40.546958 Y135.377757 Z-0.125000
G01 X43.839323 Y130.694480 Z-0.125000
G01 X47.494194 Y125.248515 Z-0.125000
G01 X54.866296 Y113.900603 Z-0.125000
G01 X58.765377 Y108.301339 Z-0.125000
G01 X61.916454 Y104.159689 Z-0.125000
G01 X65.126693 Y100.264736 Z-0.125000
G01 X68.246735 Y96.780098 Z-0.125000
G01 X71.562463 Y93.382191 Z-0.125000
G01 X83.650784 Y81.958873 Z-0.125000
G01 X88.167586 Y77.957875 Z-0.125000
G01 X90.459060 Y76.166146 Z-0.125000
G01 X92.776992 Y74.563646 Z-0.125000
G01 X95.118393 Y73.152281 Z-0.125000
G01 X97.635794 Y71.832700 Z-0.125000
G01 X102.071925 Y69.856900 Z-0.125000
G01 X108.120451 Y67.529866 Z-0.125000
G01 X112.273081 Y66.146440 Z-0.125000
G01 X115.962321 Y65.207303 Z-0.125000
G01 X119.343665 Y64.684434 Z-0.125000
G01 X122.570705 Y64.552381 Z-0.125000
G01 X125.634920 Y64.802174 Z-0.125000
G01 X127.243902 Y65.091045 Z-0.125000
G01 X128.688075 Y65.447359 Z-0.125000
G00 Z3.000000

(End cutting path id: polyline1251)


(Start cutting path id: polyline1249)
(Change tool to Default tool)

G00 Z3.000000
G00 X15.783683 Y179.559864

G00 Z4.875000 (Fast pre-penetrate)
G01 Z-0.125000 F400.0(Penetrate)
G01 X20.614995 Y169.182310 Z-0.125000 F800.000000
G01 X23.326468 Y163.639085 Z-0.125000
G01 X26.025135 Y158.634418 Z-0.125000
G01 X28.779603 Y154.103593 Z-0.125000
G01 X32.660321 Y148.438130 Z-0.125000
G01 X41.340813 Y136.645930 Z-0.125000
G01 X44.918108 Y131.611895 Z-0.125000
G01 X48.439443 Y126.374262 Z-0.125000
G01 X55.270023 Y115.833170 Z-0.125000
G01 X58.264680 Y111.455380 Z-0.125000
G01 X62.032051 Y106.430922 Z-0.125000
G01 X65.901418 Y101.832893 Z-0.125000
G01 X68.017288 Y99.538429 Z-0.125000
G01 X70.232007 Y97.294871 Z-0.125000
G01 X75.177539 Y92.759786 Z-0.125000
G01 X87.068799 Y82.726005 Z-0.125000
G01 X89.971248 Y80.455354 Z-0.125000
G01 X92.594297 Y78.609570 Z-0.125000
G01 X94.619707 Y77.353250 Z-0.125000
G01 X96.661203 Y76.242848 Z-0.125000
G01 X98.874678 Y75.201926 Z-0.125000
G01 X101.099794 Y74.301047 Z-0.125000
G01 X103.972213 Y73.304469 Z-0.125000
G01 X107.333026 Y72.298710 Z-0.125000
G01 X110.219838 Y71.551871 Z-0.125000
G01 X112.791717 Y71.021250 Z-0.125000
G00 Z3.000000

(End cutting path id: polyline1249)


(Start cutting path id: polyline1247)
(Change tool to Default tool)

G00 Z3.000000
G00 X15.783683 Y181.411945

G00 Z4.875000 (Fast pre-penetrate)
G01 Z-0.125000 F400.0(Penetrate)
G01 X20.788429 Y170.646539 Z-0.125000 F800.000000
G01 X23.668600 Y164.702735 Z-0.125000
G01 X26.288448 Y159.769029 Z-0.125000
G01 X28.961821 Y155.296968 Z-0.125000
G01 X30.846605 Y152.437090 Z-0.125000
G01 X33.042723 Y149.319641 Z-0.125000
G01 X41.544913 Y137.927755 Z-0.125000
G01 X44.792934 Y133.433258 Z-0.125000
G01 X48.532206 Y127.946203 Z-0.125000
G01 X57.529192 Y114.179870 Z-0.125000
G01 X60.564726 Y109.953368 Z-0.125000
G01 X63.532104 Y106.195866 Z-0.125000
G01 X65.692689 Y103.689683 Z-0.125000
G01 X67.884309 Y101.329841 Z-0.125000
G01 X70.178693 Y99.042098 Z-0.125000
G01 X72.500277 Y96.903817 Z-0.125000
G01 X77.507404 Y92.739545 Z-0.125000
G01 X86.840596 Y85.548471 Z-0.125000
G01 X91.307260 Y82.340428 Z-0.125000
G01 X95.204091 Y79.942142 Z-0.125000
G01 X98.833323 Y78.156551 Z-0.125000
G01 X100.741046 Y77.390636 Z-0.125000
G01 X102.815800 Y76.674224 Z-0.125000
G01 X105.377202 Y75.921803 Z-0.125000
G01 X108.104523 Y75.235158 Z-0.125000
G01 X110.515430 Y74.730968 Z-0.125000
G01 X112.608493 Y74.397938 Z-0.125000
G01 X114.704520 Y74.184022 Z-0.125000
G01 X116.640923 Y74.109701 Z-0.125000
G01 X118.577433 Y74.167962 Z-0.125000
G01 X120.350986 Y74.347878 Z-0.125000
G01 X122.281886 Y74.690328 Z-0.125000
G01 X124.046152 Y75.142792 Z-0.125000
G01 X125.802956 Y75.729213 Z-0.125000
G01 X127.708721 Y76.519655 Z-0.125000
G01 X129.601469 Y77.460988 Z-0.125000
G01 X131.479823 Y78.543477 Z-0.125000
G01 X133.342672 Y79.759024 Z-0.125000
G01 X135.189277 Y81.098740 Z-0.125000
G01 X138.757946 Y84.044131 Z-0.125000
G01 X142.411017 Y87.515725 Z-0.125000
G01 X145.918355 Y91.286879 Z-0.125000
G01 X149.418233 Y95.508671 Z-0.125000
G01 X152.558648 Y99.692654 Z-0.125000
G01 X155.699407 Y104.233057 Z-0.125000
G01 X158.305047 Y108.283638 Z-0.125000
G01 X163.710821 Y117.042367 Z-0.125000
G01 X166.546622 Y121.301333 Z-0.125000
G01 X170.108835 Y126.029220 Z-0.125000
G01 X174.285092 Y130.876989 Z-0.125000
G00 Z3.000000

(End cutting path id: polyline1247)


(Start cutting path id: polyline1245)
(Change tool to Default tool)

G00 Z3.000000
G00 X15.783683 Y182.337986

G00 Z4.875000 (Fast pre-penetrate)
G01 Z-0.125000 F400.0(Penetrate)
G01 X20.845870 Y171.442458 Z-0.125000 F800.000000
G01 X23.962817 Y164.994967 Z-0.125000
G01 X26.580945 Y160.056551 Z-0.125000
G01 X29.253656 Y155.582400 Z-0.125000
G01 X31.139207 Y152.725274 Z-0.125000
G01 X33.337733 Y149.616715 Z-0.125000
G01 X41.785207 Y138.377388 Z-0.125000
G01 X45.106517 Y133.803197 Z-0.125000
G01 X48.780649 Y128.426209 Z-0.125000
G01 X55.276744 Y118.403118 Z-0.125000
G01 X57.847247 Y114.565712 Z-0.125000
G01 X60.815710 Y110.442503 Z-0.125000
G01 X63.786606 Y106.699871 Z-0.125000
G01 X65.806089 Y104.374107 Z-0.125000
G01 X67.927542 Y102.107107 Z-0.125000
G01 X70.076538 Y99.980944 Z-0.125000
G01 X72.250458 Y97.992762 Z-0.125000
G01 X76.885661 Y94.191630 Z-0.125000
G01 X84.104094 Y88.841576 Z-0.125000
G01 X90.119970 Y84.592664 Z-0.125000
G01 X92.450417 Y83.088034 Z-0.125000
G01 X94.482177 Y81.886854 Z-0.125000
G01 X96.683957 Y80.722582 Z-0.125000
G01 X98.740746 Y79.771803 Z-0.125000
G01 X100.807748 Y78.946199 Z-0.125000
G01 X103.042839 Y78.186131 Z-0.125000
G01 X105.445014 Y77.496760 Z-0.125000
G01 X108.173394 Y76.832551 Z-0.125000
G01 X110.585386 Y76.356143 Z-0.125000
G01 X112.679296 Y76.052534 Z-0.125000
G01 X114.775904 Y75.872062 Z-0.125000
G01 X116.712493 Y75.831104 Z-0.125000
G01 X118.648738 Y75.923973 Z-0.125000
G01 X120.421629 Y76.135375 Z-0.125000
G01 X122.351392 Y76.510315 Z-0.125000
G01 X124.114361 Y76.989131 Z-0.125000
G01 X126.028937 Y77.658447 Z-0.125000
G01 X127.932506 Y78.476458 Z-0.125000
G01 X129.823613 Y79.435069 Z-0.125000
G01 X131.857012 Y80.621036 Z-0.125000
G01 X133.718989 Y81.843700 Z-0.125000
G01 X135.719210 Y83.297107 Z-0.125000
G01 X139.213716 Y86.168971 Z-0.125000
G01 X142.721928 Y89.475094 Z-0.125000
G01 X146.086286 Y93.073529 Z-0.125000
G01 X149.372883 Y97.032431 Z-0.125000
G01 X152.303405 Y100.939449 Z-0.125000
G01 X155.305284 Y105.290940 Z-0.125000
G01 X157.842132 Y109.244445 Z-0.125000
G01 X163.244547 Y118.014048 Z-0.125000
G01 X166.215549 Y122.475182 Z-0.125000
G01 X168.016222 Y124.946520 Z-0.125000
G01 X169.919632 Y127.379651 Z-0.125000
G01 X174.387301 Y132.546534 Z-0.125000
G00 Z3.000000

(End cutting path id: polyline1245)


(Start cutting path id: polyline1243)
(Change tool to Default tool)

G00 Z3.000000
G00 X15.783683 Y185.116107

G00 Z4.875000 (Fast pre-penetrate)
G01 Z-0.125000 F400.0(Penetrate)
G01 X21.078306 Y173.706441 Z-0.125000 F800.000000
G01 X24.726535 Y166.122064 Z-0.125000
G01 X27.398268 Y161.041753 Z-0.125000
G01 X30.065794 Y156.551515 Z-0.125000
G01 X32.019739 Y153.596175 Z-0.125000
G01 X34.224721 Y150.511852 Z-0.125000
G01 X42.505164 Y139.720914 Z-0.125000
G01 X46.047639 Y134.913388 Z-0.125000
G01 X49.797495 Y129.464698 Z-0.125000
G01 X56.165954 Y119.669809 Z-0.125000
G01 X58.671741 Y115.943845 Z-0.125000
G01 X61.575989 Y111.934910 Z-0.125000
G01 X64.414012 Y108.406854 Z-0.125000
G01 X67.763924 Y104.738676 Z-0.125000
G01 X71.344473 Y101.350029 Z-0.125000
G01 X74.995771 Y98.384979 Z-0.125000
G01 X79.163720 Y95.468031 Z-0.125000
G01 X86.022003 Y91.241741 Z-0.125000
G01 X89.466794 Y89.266444 Z-0.125000
G01 X92.452666 Y87.663468 Z-0.125000
G01 X94.977846 Y86.423817 Z-0.125000
G01 X97.355521 Y85.378793 Z-0.125000
G01 X99.743145 Y84.461167 Z-0.125000
G01 X102.139500 Y83.672180 Z-0.125000
G01 X104.703018 Y82.958785 Z-0.125000
G01 X107.593032 Y82.281003 Z-0.125000
G01 X110.166339 Y81.787026 Z-0.125000
G01 X112.421592 Y81.469977 Z-0.125000
G01 X114.518333 Y81.296251 Z-0.125000
G01 X116.616317 Y81.257860 Z-0.125000
G01 X118.552536 Y81.355386 Z-0.125000
G01 X120.486532 Y81.588748 Z-0.125000
G01 X122.416373 Y81.961783 Z-0.125000
G01 X124.500097 Y82.523176 Z-0.125000
G01 X126.574586 Y83.242788 Z-0.125000
G01 X128.638254 Y84.111203 Z-0.125000
G01 X130.690043 Y85.117147 Z-0.125000
G01 X132.885129 Y86.345924 Z-0.125000
G01 X135.063547 Y87.722417 Z-0.125000
G01 X137.069615 Y89.132750 Z-0.125000
G01 X140.270540 Y91.687802 Z-0.125000
G01 X143.264085 Y94.457112 Z-0.125000
G01 X146.192622 Y97.570884 Z-0.125000
G01 X149.047631 Y101.025888 Z-0.125000
G01 X151.621415 Y104.498619 Z-0.125000
G01 X154.269865 Y108.399949 Z-0.125000
G01 X156.596158 Y112.075827 Z-0.125000
G01 X162.045747 Y121.012726 Z-0.125000
G01 X165.350389 Y125.994480 Z-0.125000
G01 X167.221441 Y128.556437 Z-0.125000
G01 X169.269260 Y131.155727 Z-0.125000
G01 X174.387036 Y137.066088 Z-0.125000
G00 Z3.000000

(End cutting path id: polyline1243)


(Start cutting path id: polyline1241)
(Change tool to Default tool)

G00 Z3.000000
G00 X15.783683 Y190.672350

G00 Z4.875000 (Fast pre-penetrate)
G01 Z-0.125000 F400.0(Penetrate)
G01 X21.427133 Y178.491928 Z-0.125000 F800.000000
G01 X26.148034 Y168.659574 Z-0.125000
G01 X28.988729 Y163.176699 Z-0.125000
G01 X31.642021 Y158.642435 Z-0.125000
G01 X33.660339 Y155.574992 Z-0.125000
G01 X35.941891 Y152.423676 Z-0.125000
G01 X44.436408 Y141.753837 Z-0.125000
G01 X48.557050 Y136.280726 Z-0.125000
G01 X52.115030 Y131.175412 Z-0.125000
G01 X59.266920 Y120.405931 Z-0.125000
G01 X62.720575 Y115.619731 Z-0.125000
G01 X65.353599 Y112.389887 Z-0.125000
G01 X68.057214 Y109.483786 Z-0.125000
G01 X70.749320 Y106.979614 Z-0.125000
G01 X73.646265 Y104.673932 Z-0.125000
G01 X76.744744 Y102.599760 Z-0.125000
G01 X79.881772 Y100.856661 Z-0.125000
G01 X83.364055 Y99.267178 Z-0.125000
G01 X87.027445 Y97.893596 Z-0.125000
G01 X89.905790 Y96.991315 Z-0.125000
G01 X92.952199 Y96.188279 Z-0.125000
G01 X95.844541 Y95.564207 Z-0.125000
G01 X98.902776 Y95.049170 Z-0.125000
G01 X101.965034 Y94.680844 Z-0.125000
G01 X105.029910 Y94.454387 Z-0.125000
G01 X108.096110 Y94.360116 Z-0.125000
G01 X111.323943 Y94.393295 Z-0.125000
G01 X114.712351 Y94.568423 Z-0.125000
G01 X117.937512 Y94.871423 Z-0.125000
G01 X121.159366 Y95.322220 Z-0.125000
G01 X124.054301 Y95.878876 Z-0.125000
G01 X126.781490 Y96.566897 Z-0.125000
G01 X129.179115 Y97.334823 Z-0.125000
G01 X131.405713 Y98.215382 Z-0.125000
G01 X133.616807 Y99.282101 Z-0.125000
G01 X135.183297 Y100.173164 Z-0.125000
G01 X136.736135 Y101.182204 Z-0.125000
G01 X138.272462 Y102.316392 Z-0.125000
G01 X139.639007 Y103.446267 Z-0.125000
G01 X142.466209 Y106.168244 Z-0.125000
G01 X145.277085 Y109.414122 Z-0.125000
G01 X147.648966 Y112.578085 Z-0.125000
G01 X150.085247 Y116.208931 Z-0.125000
G01 X152.393971 Y119.942673 Z-0.125000
G01 X157.074550 Y127.843307 Z-0.125000
G01 X159.476541 Y131.592368 Z-0.125000
G01 X162.455798 Y135.672767 Z-0.125000
G01 X165.961179 Y139.870324 Z-0.125000
G00 Z3.000000

(End cutting path id: polyline1241)


(Start cutting path id: polyline1239)
(Change tool to Default tool)

G00 Z3.000000
G00 X15.783683 Y194.376512

G00 Z4.875000 (Fast pre-penetrate)
G01 Z-0.125000 F400.0(Penetrate)
G01 X21.540903 Y181.933226 Z-0.125000 F800.000000
G01 X26.924850 Y170.746207 Z-0.125000
G01 X30.065635 Y164.643574 Z-0.125000
G01 X32.908553 Y159.763949 Z-0.125000
G01 X34.997489 Y156.606019 Z-0.125000
G01 X37.287217 Y153.486215 Z-0.125000
G01 X45.752444 Y143.081462 Z-0.125000
G01 X49.893115 Y137.688652 Z-0.125000
G01 X53.403020 Y132.756957 Z-0.125000
G01 X60.263551 Y122.658088 Z-0.125000
G01 X63.313505 Y118.486858 Z-0.125000
G01 X66.023682 Y115.195789 Z-0.125000
G01 X68.664088 Y112.417271 Z-0.125000
G01 X71.446337 Y109.933207 Z-0.125000
G01 X74.209324 Y107.875863 Z-0.125000
G01 X77.172707 Y106.069158 Z-0.125000
G01 X80.330611 Y104.538333 Z-0.125000
G01 X83.675866 Y103.292121 Z-0.125000
G01 X87.040912 Y102.367165 Z-0.125000
G01 X89.452692 Y101.886206 Z-0.125000
G01 X91.868970 Y101.544153 Z-0.125000
G01 X94.288105 Y101.332937 Z-0.125000
G01 X96.870091 Y101.244645 Z-0.125000
G01 X99.290920 Y101.285867 Z-0.125000
G01 X101.872086 Y101.459328 Z-0.125000
G01 X104.450897 Y101.765662 Z-0.125000
G01 X107.026083 Y102.204976 Z-0.125000
G01 X109.917473 Y102.851035 Z-0.125000
G01 X112.802300 Y103.636476 Z-0.125000
G01 X115.840084 Y104.597203 Z-0.125000
G01 X118.869533 Y105.687470 Z-0.125000
G01 X121.729860 Y106.852932 Z-0.125000
G01 X124.261417 Y108.021727 Z-0.125000
G01 X126.621470 Y109.259129 Z-0.125000
G01 X128.808249 Y110.563629 Z-0.125000
G01 X131.435770 Y112.375070 Z-0.125000
G01 X133.947747 Y114.402517 Z-0.125000
G01 X136.338599 Y116.640598 Z-0.125000
G01 X138.678333 Y119.147098 Z-0.125000
G01 X140.610635 Y121.456961 Z-0.125000
G01 X142.645252 Y124.110305 Z-0.125000
G01 X148.334951 Y132.220171 Z-0.125000
G01 X150.488286 Y135.141961 Z-0.125000
G01 X152.763488 Y137.944107 Z-0.125000
G01 X155.237604 Y140.665158 Z-0.125000
G01 X158.053984 Y143.448227 Z-0.125000
G01 X162.101707 Y147.152521 Z-0.125000
G01 X169.624410 Y153.855467 Z-0.125000
G01 X174.245299 Y157.748753 Z-0.125000
G00 Z3.000000

(End cutting path id: polyline1239)


(Start cutting path id: polyline1237)
(Change tool to Default tool)

G00 Z3.000000
G00 X15.783683 Y199.932755

G00 Z4.875000 (Fast pre-penetrate)
G01 Z-0.125000 F400.0(Penetrate)
G01 X22.540180 Y185.332800 Z-0.125000 F800.000000
G01 X29.231220 Y171.666110 Z-0.125000
G01 X31.333279 Y167.619339 Z-0.125000
G01 X33.173454 Y164.301521 Z-0.125000
G01 X35.006829 Y161.271146 Z-0.125000
G01 X36.830335 Y158.534935 Z-0.125000
G01 X38.492471 Y156.253753 Z-0.125000
G01 X40.326693 Y153.915924 Z-0.125000
G01 X47.421036 Y145.485251 Z-0.125000
G01 X51.179517 Y140.801180 Z-0.125000
G01 X54.809940 Y135.971878 Z-0.125000
G01 X62.197150 Y125.711879 Z-0.125000
G01 X64.162790 Y123.154658 Z-0.125000
G01 X66.020242 Y120.915862 Z-0.125000
G01 X68.801380 Y117.953803 Z-0.125000
G01 X71.585984 Y115.484264 Z-0.125000
G01 X74.358867 Y113.499548 Z-0.125000
G01 X75.764649 Y112.660740 Z-0.125000
G01 X77.338891 Y111.844766 Z-0.125000
G01 X78.923797 Y111.145976 Z-0.125000
G01 X80.517248 Y110.558364 Z-0.125000
G01 X82.117366 Y110.075235 Z-0.125000
G01 X83.883246 Y109.656136 Z-0.125000
G01 X87.265437 Y109.165520 Z-0.125000
G01 X89.040207 Y109.066989 Z-0.125000
G01 X90.815506 Y109.074926 Z-0.125000
G01 X94.201877 Y109.379673 Z-0.125000
G01 X95.972070 Y109.688732 Z-0.125000
G01 X97.738347 Y110.099445 Z-0.125000
G01 X101.254734 Y111.223446 Z-0.125000
G01 X104.742785 Y112.743237 Z-0.125000
G01 X106.631008 Y113.731614 Z-0.125000
G01 X108.664302 Y114.919141 Z-0.125000
G01 X112.847676 Y117.716789 Z-0.125000
G01 X117.593872 Y121.348376 Z-0.125000
G01 X123.050685 Y125.927408 Z-0.125000
G01 X126.954422 Y129.459459 Z-0.125000
G01 X130.284754 Y132.780849 Z-0.125000
G01 X133.194982 Y135.984975 Z-0.125000
G01 X138.153955 Y141.796753 Z-0.125000
G00 Z3.000000

(End cutting path id: polyline1237)


(Start cutting path id: polyline1235)
(Change tool to Default tool)

G00 Z3.000000
G00 X15.783683 Y200.858796

G00 Z4.875000 (Fast pre-penetrate)
G01 Z-0.125000 F400.0(Penetrate)
G01 X19.579470 Y192.550281 Z-0.125000 F800.000000
G01 X23.253602 Y184.756195 Z-0.125000
G01 X27.160699 Y176.724116 Z-0.125000
G01 X30.522888 Y170.074696 Z-0.125000
G01 X32.715143 Y165.988132 Z-0.125000
G01 X34.655436 Y162.666001 Z-0.125000
G01 X36.662774 Y159.561040 Z-0.125000
G01 X38.733004 Y156.681557 Z-0.125000
G01 X41.349941 Y153.382974 Z-0.125000
G01 X47.379841 Y146.275931 Z-0.125000
G01 X50.724937 Y142.173439 Z-0.125000
G01 X54.653280 Y137.047329 Z-0.125000
G01 X63.182643 Y125.397263 Z-0.125000
G01 X65.740419 Y122.236899 Z-0.125000
G01 X68.143680 Y119.605647 Z-0.125000
G01 X69.929853 Y117.888160 Z-0.125000
G01 X71.747089 Y116.351964 Z-0.125000
G01 X73.592343 Y115.003120 Z-0.125000
G01 X75.461622 Y113.841442 Z-0.125000
G01 X77.350639 Y112.861956 Z-0.125000
G01 X79.414466 Y111.996743 Z-0.125000
G01 X81.491786 Y111.321897 Z-0.125000
G01 X83.739287 Y110.790244 Z-0.125000
G01 X86.800009 Y110.369531 Z-0.125000
G01 X89.866050 Y110.287034 Z-0.125000
G01 X92.930371 Y110.534816 Z-0.125000
G01 X95.986490 Y111.106553 Z-0.125000
G01 X99.028056 Y111.997722 Z-0.125000
G01 X102.049012 Y113.202977 Z-0.125000
G01 X105.200963 Y114.797830 Z-0.125000
G01 X108.320714 Y116.697642 Z-0.125000
G01 X111.869698 Y119.193903 Z-0.125000
G01 X115.840295 Y122.308759 Z-0.125000
G01 X121.065042 Y126.726555 Z-0.125000
G01 X125.192960 Y130.468499 Z-0.125000
G01 X127.788255 Y133.025588 Z-0.125000
G01 X130.276129 Y135.680202 Z-0.125000
G01 X137.174284 Y143.770833 Z-0.125000
G01 X139.570242 Y146.438015 Z-0.125000
G01 X142.232714 Y149.104059 Z-0.125000
G01 X144.947045 Y151.478876 Z-0.125000
G01 X147.550224 Y153.467138 Z-0.125000
G01 X150.490958 Y155.461274 Z-0.125000
G01 X164.369262 Y163.962193 Z-0.125000
G01 X174.310545 Y170.398148 Z-0.125000
G00 Z3.000000

(End cutting path id: polyline1235)


(Start cutting path id: polyline1233)
(Change tool to Default tool)

G00 Z3.000000
G00 X15.783683 Y201.784836

G00 Z4.875000 (Fast pre-penetrate)
G01 Z-0.125000 F400.0(Penetrate)
G01 X19.636938 Y193.346252 Z-0.125000 F800.000000
G01 X23.251988 Y185.678319 Z-0.125000
G01 X27.221289 Y177.528052 Z-0.125000
G01 X30.646210 Y170.762056 Z-0.125000
G01 X32.899160 Y166.553122 Z-0.125000
G01 X34.901445 Y163.112062 Z-0.125000
G01 X36.906693 Y159.999984 Z-0.125000
G01 X39.045027 Y157.021176 Z-0.125000
G01 X41.733904 Y153.638509 Z-0.125000
G01 X47.768751 Y146.553611 Z-0.125000
G01 X50.976159 Y142.645799 Z-0.125000
G01 X54.844177 Y137.650922 Z-0.125000
G01 X63.331418 Y126.201199 Z-0.125000
G01 X65.894883 Y123.065149 Z-0.125000
G01 X68.228611 Y120.529439 Z-0.125000
G01 X70.016345 Y118.820550 Z-0.125000
G01 X71.758862 Y117.354443 Z-0.125000
G01 X73.604858 Y116.010943 Z-0.125000
G01 X75.475222 Y114.858631 Z-0.125000
G01 X77.365588 Y113.893247 Z-0.125000
G01 X79.431082 Y113.048910 Z-0.125000
G01 X81.509990 Y112.400629 Z-0.125000
G01 X83.598079 Y111.932396 Z-0.125000
G01 X86.498385 Y111.560710 Z-0.125000
G01 X89.403162 Y111.504592 Z-0.125000
G01 X92.305902 Y111.758671 Z-0.125000
G01 X95.360989 Y112.357793 Z-0.125000
G01 X98.240657 Y113.234356 Z-0.125000
G01 X101.100376 Y114.405401 Z-0.125000
G01 X104.092122 Y115.947470 Z-0.125000
G01 X107.053097 Y117.776162 Z-0.125000
G01 X110.597398 Y120.307136 Z-0.125000
G01 X114.561275 Y123.466892 Z-0.125000
G01 X119.702916 Y127.866405 Z-0.125000
G01 X123.897800 Y131.722834 Z-0.125000
G01 X126.560749 Y134.387370 Z-0.125000
G01 X129.042167 Y137.073734 Z-0.125000
G01 X135.992630 Y145.335788 Z-0.125000
G01 X138.455554 Y148.110285 Z-0.125000
G01 X141.188643 Y150.867690 Z-0.125000
G01 X143.903106 Y153.241449 Z-0.125000
G01 X146.508190 Y155.216429 Z-0.125000
G01 X149.452708 Y157.180931 Z-0.125000
G01 X164.454590 Y166.069676 Z-0.125000
G01 X169.435286 Y169.204853 Z-0.125000
G01 X174.241701 Y172.393713 Z-0.125000
G00 Z3.000000

(End cutting path id: polyline1233)


(Start cutting path id: polyline1231)
(Change tool to Default tool)

G00 Z3.000000
G00 X15.783683 Y204.562958

G00 Z4.875000 (Fast pre-penetrate)
G01 Z-0.125000 F400.0(Penetrate)
G01 X19.810716 Y195.737500 Z-0.125000 F800.000000
G01 X23.247622 Y188.445858 Z-0.125000
G01 X27.222373 Y180.309666 Z-0.125000
G01 X30.834857 Y173.192013 Z-0.125000
G01 X33.460314 Y168.273044 Z-0.125000
G01 X35.584440 Y164.587509 Z-0.125000
G01 X37.717296 Y161.247492 Z-0.125000
G01 X39.921643 Y158.161555 Z-0.125000
G01 X42.896006 Y154.433343 Z-0.125000
G01 X49.376067 Y146.906221 Z-0.125000
G01 X52.805036 Y142.771529 Z-0.125000
G01 X64.216104 Y128.133343 Z-0.125000
G01 X66.445877 Y125.531063 Z-0.125000
G01 X68.499888 Y123.371166 Z-0.125000
G01 X70.218725 Y121.764459 Z-0.125000
G01 X71.965872 Y120.327853 Z-0.125000
G01 X73.661638 Y119.122651 Z-0.125000
G01 X75.535494 Y118.000554 Z-0.125000
G01 X77.271317 Y117.147142 Z-0.125000
G01 X79.180442 Y116.400912 Z-0.125000
G01 X81.101394 Y115.837006 Z-0.125000
G01 X83.030389 Y115.442037 Z-0.125000
G01 X85.609518 Y115.157928 Z-0.125000
G01 X88.352979 Y115.155546 Z-0.125000
G01 X91.093212 Y115.460399 Z-0.125000
G01 X93.823841 Y116.068781 Z-0.125000
G01 X96.538754 Y116.974766 Z-0.125000
G01 X99.232526 Y118.168141 Z-0.125000
G01 X101.900978 Y119.630994 Z-0.125000
G01 X104.696774 Y121.441456 Z-0.125000
G01 X108.227925 Y124.067416 Z-0.125000
G01 X112.177593 Y127.319591 Z-0.125000
G01 X116.393168 Y131.055741 Z-0.125000
G01 X120.192739 Y134.684629 Z-0.125000
G01 X122.914530 Y137.501459 Z-0.125000
G01 X125.527129 Y140.416794 Z-0.125000
G01 X132.728496 Y149.176158 Z-0.125000
G01 X135.178429 Y152.010530 Z-0.125000
G01 X137.973907 Y154.901549 Z-0.125000
G01 X140.756844 Y157.382199 Z-0.125000
G01 X143.821085 Y159.709022 Z-0.125000
G01 X147.237143 Y161.930090 Z-0.125000
G01 X150.366234 Y163.748649 Z-0.125000
G01 X159.936492 Y169.050310 Z-0.125000
G01 X165.400369 Y172.339367 Z-0.125000
G01 X170.045811 Y175.470734 Z-0.125000
G01 X174.337771 Y178.715897 Z-0.125000
G00 Z3.000000

(End cutting path id: polyline1231)


(Start cutting path id: polyline1229)
(Change tool to Default tool)

G00 Z3.000000
G00 X15.783683 Y206.415039

G00 Z4.875000 (Fast pre-penetrate)
G01 Z-0.125000 F400.0(Penetrate)
G01 X19.751476 Y197.715417 Z-0.125000 F800.000000
G01 X23.126152 Y190.542043 Z-0.125000
G01 X26.798829 Y183.019763 Z-0.125000
G01 X30.407529 Y175.891976 Z-0.125000
G01 X33.273307 Y170.477153 Z-0.125000
G01 X35.571687 Y166.399876 Z-0.125000
G01 X37.683139 Y162.988819 Z-0.125000
G01 X39.866663 Y159.825941 Z-0.125000
G01 X41.616191 Y157.520682 Z-0.125000
G01 X43.537223 Y155.161448 Z-0.125000
G01 X50.386747 Y147.259227 Z-0.125000
G01 X53.824474 Y143.162874 Z-0.125000
G01 X63.817298 Y130.674847 Z-0.125000
G01 X65.758940 Y128.406181 Z-0.125000
G01 X67.583769 Y126.432286 Z-0.125000
G01 X69.140576 Y124.896328 Z-0.125000
G01 X70.644889 Y123.554813 Z-0.125000
G01 X72.170024 Y122.343684 Z-0.125000
G01 X73.559429 Y121.371898 Z-0.125000
G01 X75.119940 Y120.427495 Z-0.125000
G01 X76.695584 Y119.626285 Z-0.125000
G01 X78.283585 Y118.965886 Z-0.125000
G01 X79.881164 Y118.441270 Z-0.125000
G01 X82.773056 Y117.815690 Z-0.125000
G01 X85.675717 Y117.561955 Z-0.125000
G01 X88.580097 Y117.669720 Z-0.125000
G01 X91.477704 Y118.137900 Z-0.125000
G01 X94.360310 Y118.960250 Z-0.125000
G01 X97.220531 Y120.123965 Z-0.125000
G01 X100.052681 Y121.606106 Z-0.125000
G01 X103.163515 Y123.581139 Z-0.125000
G01 X106.544436 Y126.069410 Z-0.125000
G01 X110.343504 Y129.187838 Z-0.125000
G01 X114.329050 Y132.748437 Z-0.125000
G01 X118.046970 Y136.345364 Z-0.125000
G01 X120.690313 Y139.110971 Z-0.125000
G01 X123.299710 Y142.041280 Z-0.125000
G01 X132.731962 Y153.399035 Z-0.125000
G01 X134.996422 Y155.838252 Z-0.125000
G01 X137.227201 Y157.995794 Z-0.125000
G01 X140.104303 Y160.428952 Z-0.125000
G01 X143.181456 Y162.664625 Z-0.125000
G01 X146.604525 Y164.828650 Z-0.125000
G01 X151.148447 Y167.403783 Z-0.125000
G00 Z3.000000

(End cutting path id: polyline1229)


(Start cutting path id: polyline1227)
(Change tool to Default tool)

G00 Z3.000000
G00 X15.783683 Y207.341079

G00 Z4.875000 (Fast pre-penetrate)
G01 Z-0.125000 F400.0(Penetrate)
G01 X19.927820 Y198.260802 Z-0.125000 F800.000000
G01 X23.484107 Y190.719843 Z-0.125000
G01 X27.346727 Y182.851647 Z-0.125000
G01 X31.091238 Y175.518412 Z-0.125000
G01 X34.034618 Y170.028923 Z-0.125000
G01 X36.349931 Y166.002446 Z-0.125000
G01 X38.613703 Y162.445710 Z-0.125000
G01 X40.955977 Y159.167606 Z-0.125000
G01 X44.291284 Y155.024818 Z-0.125000
G01 X53.874163 Y143.932969 Z-0.125000
G01 X64.047908 Y131.434333 Z-0.125000
G01 X66.434526 Y128.723495 Z-0.125000
G01 X68.644694 Y126.457156 Z-0.125000
G01 X70.369960 Y124.887306 Z-0.125000
G01 X72.045829 Y123.543383 Z-0.125000
G01 X73.745352 Y122.366306 Z-0.125000
G01 X75.465856 Y121.362822 Z-0.125000
G01 X77.203981 Y120.534201 Z-0.125000
G01 X78.955943 Y119.876818 Z-0.125000
G01 X80.718093 Y119.383133 Z-0.125000
G01 X82.648199 Y119.018855 Z-0.125000
G01 X85.228386 Y118.792531 Z-0.125000
G01 X87.810319 Y118.856745 Z-0.125000
G01 X90.387755 Y119.211524 Z-0.125000
G01 X93.114626 Y119.902456 Z-0.125000
G01 X95.664254 Y120.839160 Z-0.125000
G01 X98.350274 Y122.121302 Z-0.125000
G01 X101.009413 Y123.670912 Z-0.125000
G01 X103.795578 Y125.558103 Z-0.125000
G01 X107.011240 Y128.015021 Z-0.125000
G01 X110.345541 Y130.815738 Z-0.125000
G01 X113.872909 Y134.014176 Z-0.125000
G01 X117.139980 Y137.205047 Z-0.125000
G01 X119.708128 Y139.902709 Z-0.125000
G01 X122.244765 Y142.753114 Z-0.125000
G01 X129.597183 Y151.649638 Z-0.125000
G01 X132.191154 Y154.651253 Z-0.125000
G01 X135.055318 Y157.643290 Z-0.125000
G01 X137.981580 Y160.299888 Z-0.125000
G01 X141.191474 Y162.794853 Z-0.125000
G01 X144.755751 Y165.173216 Z-0.125000
G01 X148.350085 Y167.301337 Z-0.125000
G01 X158.071870 Y172.740396 Z-0.125000
G01 X160.880497 Y174.444152 Z-0.125000
G01 X163.518708 Y176.173255 Z-0.125000
G01 X166.291696 Y178.160379 Z-0.125000
G01 X169.039073 Y180.326917 Z-0.125000
G01 X171.682151 Y182.611564 Z-0.125000
G01 X174.296099 Y185.066551 Z-0.125000
G00 Z3.000000

(End cutting path id: polyline1227)


(Start cutting path id: polyline1225)
(Change tool to Default tool)

G00 Z3.000000
G00 X15.783683 Y208.267120

G00 Z4.875000 (Fast pre-penetrate)
G01 Z-0.125000 F400.0(Penetrate)
G01 X19.692923 Y199.694948 Z-0.125000 F800.000000
G01 X23.244765 Y192.142929 Z-0.125000
G01 X26.800496 Y184.876289 Z-0.125000
G01 X30.476242 Y177.643331 Z-0.125000
G01 X33.533022 Y171.886904 Z-0.125000
G01 X36.087915 Y167.359862 Z-0.125000
G01 X38.332108 Y163.738171 Z-0.125000
G01 X40.585588 Y160.482742 Z-0.125000
G01 X42.407189 Y158.093690 Z-0.125000
G01 X44.545787 Y155.490034 Z-0.125000
G01 X53.637890 Y145.043636 Z-0.125000
G01 X63.920935 Y132.622416 Z-0.125000
G01 X67.633590 Y128.549135 Z-0.125000
G01 X69.195053 Y127.038234 Z-0.125000
G01 X70.702912 Y125.717858 Z-0.125000
G01 X72.231064 Y124.526891 Z-0.125000
G01 X73.622876 Y123.573387 Z-0.125000
G01 X75.028817 Y122.736379 Z-0.125000
G01 X76.605388 Y121.944958 Z-0.125000
G01 X78.194447 Y121.298158 Z-0.125000
G01 X79.793163 Y120.791667 Z-0.125000
G01 X82.525644 Y120.232206 Z-0.125000
G01 X85.267465 Y120.017259 Z-0.125000
G01 X88.010371 Y120.135184 Z-0.125000
G01 X90.907369 Y120.622255 Z-0.125000
G01 X93.628843 Y121.417300 Z-0.125000
G01 X96.487769 Y122.597420 Z-0.125000
G01 X99.318251 Y124.096441 Z-0.125000
G01 X102.427631 Y126.083380 Z-0.125000
G01 X105.653585 Y128.467881 Z-0.125000
G01 X108.995401 Y131.220788 Z-0.125000
G01 X112.602911 Y134.457538 Z-0.125000
G01 X116.095036 Y137.853408 Z-0.125000
G01 X118.663978 Y140.547127 Z-0.125000
G01 X121.201990 Y143.391050 Z-0.125000
G01 X128.347187 Y151.998279 Z-0.125000
G01 X130.867419 Y154.924329 Z-0.125000
G01 X133.353864 Y157.585690 Z-0.125000
G01 X135.810623 Y159.943178 Z-0.125000
G01 X138.918203 Y162.547415 Z-0.125000
G01 X142.460626 Y165.091566 Z-0.125000
G01 X146.353621 Y167.524354 Z-0.125000
G01 X151.680973 Y170.543722 Z-0.125000
G00 Z3.000000

(End cutting path id: polyline1225)


(Start cutting path id: polyline1223)
(Change tool to Default tool)

G00 Z3.000000
G00 X15.783683 Y213.823363

G00 Z4.875000 (Fast pre-penetrate)
G01 Z-0.125000 F400.0(Penetrate)
G01 X19.811033 Y204.998911 Z-0.125000 F800.000000
G01 X24.270368 Y195.607590 Z-0.125000
G01 X27.850837 Y188.405323 Z-0.125000
G01 X31.627548 Y181.159586 Z-0.125000
G01 X35.227941 Y174.589963 Z-0.125000
G01 X38.337399 Y169.289704 Z-0.125000
G01 X41.012916 Y165.146573 Z-0.125000
G01 X43.783153 Y161.345812 Z-0.125000
G01 X45.913813 Y158.708289 Z-0.125000
G01 X48.364989 Y155.879183 Z-0.125000
G01 X60.668892 Y142.378041 Z-0.125000
G01 X65.362489 Y137.433065 Z-0.125000
G01 X68.944387 Y134.051720 Z-0.125000
G01 X70.767338 Y132.551191 Z-0.125000
G01 X72.459902 Y131.322335 Z-0.125000
G01 X74.172918 Y130.253155 Z-0.125000
G01 X75.746446 Y129.430487 Z-0.125000
G01 X77.492535 Y128.695555 Z-0.125000
G01 X79.251059 Y128.138423 Z-0.125000
G01 X81.018341 Y127.752952 Z-0.125000
G01 X82.790889 Y127.528347 Z-0.125000
G01 X85.372769 Y127.465323 Z-0.125000
G01 X87.952665 Y127.708052 Z-0.125000
G01 X90.523830 Y128.251479 Z-0.125000
G01 X93.080284 Y129.084518 Z-0.125000
G01 X95.774797 Y130.268739 Z-0.125000
G01 X98.442561 Y131.737915 Z-0.125000
G01 X101.235102 Y133.574201 Z-0.125000
G01 X103.993803 Y135.663057 Z-0.125000
G01 X108.448799 Y139.515809 Z-0.125000
G01 X112.902180 Y143.874893 Z-0.125000
G01 X116.549669 Y147.833373 Z-0.125000
G01 X125.207142 Y157.789366 Z-0.125000
G01 X127.920467 Y160.648847 Z-0.125000
G01 X130.595983 Y163.246126 Z-0.125000
G01 X134.214659 Y166.415566 Z-0.125000
G01 X138.036031 Y169.386701 Z-0.125000
G01 X142.048697 Y172.203583 Z-0.125000
G01 X152.283164 Y178.980533 Z-0.125000
G01 X155.355025 Y181.255312 Z-0.125000
G01 X158.090311 Y183.500695 Z-0.125000
G01 X161.385904 Y186.532155 Z-0.125000
G01 X164.844665 Y190.102862 Z-0.125000
G01 X168.972160 Y194.761533 Z-0.125000
G01 X174.277208 Y201.053608 Z-0.125000
G00 Z3.000000

(End cutting path id: polyline1223)


(Start cutting path id: polyline1221)
(Change tool to Default tool)

G00 Z3.000000
G00 X15.783683 Y216.601484

G00 Z4.875000 (Fast pre-penetrate)
G01 Z-0.125000 F400.0(Penetrate)
G01 X19.690568 Y208.023994 Z-0.125000 F800.000000
G01 X24.159164 Y198.655904 Z-0.125000
G01 X27.800831 Y191.332881 Z-0.125000
G01 X31.586882 Y184.113020 Z-0.125000
G01 X35.453603 Y177.122023 Z-0.125000
G01 X38.832831 Y171.413009 Z-0.125000
G01 X41.777825 Y166.862076 Z-0.125000
G01 X44.686280 Y162.870101 Z-0.125000
G01 X46.817549 Y160.235119 Z-0.125000
G01 X49.198770 Y157.499225 Z-0.125000
G01 X56.951052 Y149.201981 Z-0.125000
G01 X63.511122 Y142.492897 Z-0.125000
G01 X66.044372 Y140.074476 Z-0.125000
G01 X68.301953 Y138.068566 Z-0.125000
G01 X70.127920 Y136.587219 Z-0.125000
G01 X71.819743 Y135.352807 Z-0.125000
G01 X73.529716 Y134.258069 Z-0.125000
G01 X75.257232 Y133.319857 Z-0.125000
G01 X77.000410 Y132.549312 Z-0.125000
G01 X78.596296 Y131.998212 Z-0.125000
G01 X80.200251 Y131.588214 Z-0.125000
G01 X81.970840 Y131.293866 Z-0.125000
G01 X84.551980 Y131.137048 Z-0.125000
G01 X87.133172 Y131.288468 Z-0.125000
G01 X89.707538 Y131.745588 Z-0.125000
G01 X92.268543 Y132.500497 Z-0.125000
G01 X94.810551 Y133.540758 Z-0.125000
G01 X97.485352 Y134.940560 Z-0.125000
G01 X100.129410 Y136.620530 Z-0.125000
G01 X102.893429 Y138.671736 Z-0.125000
G01 X106.899745 Y142.105680 Z-0.125000
G01 X111.062641 Y146.139777 Z-0.125000
G01 X114.500870 Y149.813935 Z-0.125000
G01 X122.835129 Y159.181681 Z-0.125000
G01 X125.479504 Y161.941996 Z-0.125000
G01 X128.079984 Y164.471251 Z-0.125000
G01 X131.537264 Y167.572561 Z-0.125000
G01 X135.335512 Y170.696466 Z-0.125000
G01 X139.163869 Y173.620849 Z-0.125000
G01 X148.235176 Y180.266592 Z-0.125000
G01 X150.830762 Y182.307347 Z-0.125000
G01 X153.253496 Y184.358130 Z-0.125000
G01 X156.097022 Y186.992053 Z-0.125000
G01 X158.900967 Y189.840660 Z-0.125000
G01 X162.031963 Y193.273518 Z-0.125000
G01 X165.997056 Y197.850302 Z-0.125000
G00 Z3.000000

(End cutting path id: polyline1221)


(Start cutting path id: polyline1219)
(Change tool to Default tool)

G00 Z3.000000
G00 X15.783683 Y219.379606

G00 Z4.875000 (Fast pre-penetrate)
G01 Z-0.125000 F400.0(Penetrate)
G01 X19.389658 Y211.419917 Z-0.125000 F800.000000
G01 X23.383618 Y203.056263 Z-0.125000
G01 X27.692987 Y194.390747 Z-0.125000
G01 X31.421676 Y187.302383 Z-0.125000
G01 X35.363275 Y180.230397 Z-0.125000
G01 X38.944273 Y174.213277 Z-0.125000
G01 X42.224177 Y169.145692 Z-0.125000
G01 X45.264632 Y164.938690 Z-0.125000
G01 X47.177594 Y162.545219 Z-0.125000
G01 X49.192234 Y160.197468 Z-0.125000
G01 X54.458865 Y154.567274 Z-0.125000
G01 X61.268940 Y147.782758 Z-0.125000
G01 X64.185545 Y145.069195 Z-0.125000
G01 X66.749671 Y142.828759 Z-0.125000
G01 X68.727879 Y141.224274 Z-0.125000
G01 X70.570170 Y139.853549 Z-0.125000
G01 X72.274350 Y138.711900 Z-0.125000
G01 X73.993874 Y137.699129 Z-0.125000
G01 X75.728348 Y136.830979 Z-0.125000
G01 X77.316852 Y136.176692 Z-0.125000
G01 X78.914668 Y135.655464 Z-0.125000
G01 X80.519655 Y135.267532 Z-0.125000
G01 X83.097091 Y134.914340 Z-0.125000
G01 X85.679050 Y134.871901 Z-0.125000
G01 X88.258444 Y135.139580 Z-0.125000
G01 X90.828206 Y135.717032 Z-0.125000
G01 X93.381564 Y136.598014 Z-0.125000
G01 X95.912539 Y137.771228 Z-0.125000
G01 X98.571730 Y139.319647 Z-0.125000
G01 X101.196446 Y141.152387 Z-0.125000
G01 X104.917727 Y144.217872 Z-0.125000
G01 X109.020324 Y148.102718 Z-0.125000
G01 X112.472498 Y151.707423 Z-0.125000
G01 X120.994002 Y161.037361 Z-0.125000
G01 X123.572363 Y163.683429 Z-0.125000
G01 X126.175198 Y166.199904 Z-0.125000
G01 X129.176337 Y168.927384 Z-0.125000
G01 X132.651396 Y171.922676 Z-0.125000
G01 X143.143329 Y180.490058 Z-0.125000
G01 X146.700172 Y183.511887 Z-0.125000
G01 X150.666800 Y187.181495 Z-0.125000
G01 X154.496559 Y191.116638 Z-0.125000
G00 Z3.000000

(End cutting path id: polyline1219)


(Start cutting path id: polyline1217)
(Change tool to Default tool)

G00 Z3.000000
G00 X15.783683 Y221.231687

G00 Z4.875000 (Fast pre-penetrate)
G01 Z-0.125000 F400.0(Penetrate)
G01 X19.560738 Y212.878881 Z-0.125000 F800.000000
G01 X23.686142 Y204.296575 Z-0.125000
G01 X28.505971 Y194.720391 Z-0.125000
G01 X32.575972 Y187.127017 Z-0.125000
G01 X36.685237 Y179.947663 Z-0.125000
G01 X40.508647 Y173.752876 Z-0.125000
G01 X44.040512 Y168.554058 Z-0.125000
G01 X47.410665 Y164.174177 Z-0.125000
G01 X49.712431 Y161.488131 Z-0.125000
G01 X52.265842 Y158.717682 Z-0.125000
G01 X55.360670 Y155.546549 Z-0.125000
G01 X58.848720 Y152.128137 Z-0.125000
G01 X61.838058 Y149.333267 Z-0.125000
G01 X64.549399 Y146.939214 Z-0.125000
G01 X67.131994 Y144.813502 Z-0.125000
G01 X69.431829 Y143.078763 Z-0.125000
G01 X71.443559 Y141.711716 Z-0.125000
G01 X73.317151 Y140.586709 Z-0.125000
G01 X75.206855 Y139.614128 Z-0.125000
G01 X77.111535 Y138.810378 Z-0.125000
G01 X78.868737 Y138.230968 Z-0.125000
G01 X80.795086 Y137.773795 Z-0.125000
G01 X82.727918 Y137.496035 Z-0.125000
G01 X84.664004 Y137.390573 Z-0.125000
G01 X87.245435 Y137.520245 Z-0.125000
G01 X89.820171 Y137.964771 Z-0.125000
G01 X92.380938 Y138.723833 Z-0.125000
G01 X94.920802 Y139.790526 Z-0.125000
G01 X97.433865 Y141.151461 Z-0.125000
G01 X99.915812 Y142.785843 Z-0.125000
G01 X102.516795 Y144.789001 Z-0.125000
G01 X105.381700 Y147.297565 Z-0.125000
G01 X109.832118 Y151.672816 Z-0.125000
G01 X119.115727 Y161.636271 Z-0.125000
G01 X123.769292 Y166.333386 Z-0.125000
G01 X129.087040 Y171.227457 Z-0.125000
G01 X142.735686 Y183.164754 Z-0.125000
G01 X146.392118 Y186.619097 Z-0.125000
G01 X149.784680 Y190.076456 Z-0.125000
G01 X155.889351 Y196.837822 Z-0.125000
G01 X161.769099 Y203.804239 Z-0.125000
G01 X167.560081 Y211.151868 Z-0.125000
G01 X174.321235 Y220.204443 Z-0.125000
G00 Z3.000000

(End cutting path id: polyline1217)


(Start cutting path id: polyline1215)
(Change tool to Default tool)

G00 Z3.000000
G00 X15.783683 Y222.157727

G00 Z4.875000 (Fast pre-penetrate)
G01 Z-0.125000 F400.0(Penetrate)
G01 X19.321766 Y214.303343 Z-0.125000 F800.000000
G01 X23.021060 Y206.572518 Z-0.125000
G01 X28.019800 Y196.621710 Z-0.125000
G01 X31.888771 Y189.341789 Z-0.125000
G01 X35.921571 Y182.237761 Z-0.125000
G01 X39.661399 Y176.092530 Z-0.125000
G01 X43.235863 Y170.703821 Z-0.125000
G01 X46.503542 Y166.286608 Z-0.125000
G01 X48.426293 Y163.934915 Z-0.125000
G01 X50.522796 Y161.548641 Z-0.125000
G01 X55.522145 Y156.358025 Z-0.125000
G01 X61.414038 Y150.771911 Z-0.125000
G01 X64.129162 Y148.400638 Z-0.125000
G01 X66.562399 Y146.416319 Z-0.125000
G01 X68.555053 Y144.909042 Z-0.125000
G01 X70.563529 Y143.516860 Z-0.125000
G01 X72.432782 Y142.354308 Z-0.125000
G01 X74.317248 Y141.329499 Z-0.125000
G01 X76.057675 Y140.526252 Z-0.125000
G01 X77.809347 Y139.864185 Z-0.125000
G01 X79.570385 Y139.349677 Z-0.125000
G01 X81.338487 Y138.984421 Z-0.125000
G01 X83.917854 Y138.713408 Z-0.125000
G01 X86.499840 Y138.747248 Z-0.125000
G01 X89.077381 Y139.095995 Z-0.125000
G01 X91.642963 Y139.763617 Z-0.125000
G01 X94.189204 Y140.746676 Z-0.125000
G01 X96.709569 Y142.034216 Z-0.125000
G01 X99.199030 Y143.607268 Z-0.125000
G01 X101.807289 Y145.559731 Z-0.125000
G01 X104.753447 Y148.098564 Z-0.125000
G01 X108.176622 Y151.392887 Z-0.125000
G01 X111.267084 Y154.586377 Z-0.125000
G01 X118.803334 Y162.632664 Z-0.125000
G01 X123.463011 Y167.297977 Z-0.125000
G01 X127.801855 Y171.326147 Z-0.125000
G01 X139.155640 Y181.480102 Z-0.125000
G01 X144.152634 Y186.217778 Z-0.125000
G01 X149.369893 Y191.650857 Z-0.125000
G01 X156.030109 Y199.178349 Z-0.125000
G00 Z3.000000

(End cutting path id: polyline1215)


(Start cutting path id: polyline1213)
(Change tool to Default tool)

G00 Z3.000000
G00 X15.783683 Y225.861889

G00 Z4.875000 (Fast pre-penetrate)
G01 Z-0.125000 F400.0(Penetrate)
G01 X19.366745 Y217.847987 Z-0.125000 F800.000000
G01 X22.767563 Y210.740547 Z-0.125000
G01 X27.613480 Y201.234080 Z-0.125000
G01 X32.056940 Y192.933344 Z-0.125000
G01 X35.787745 Y186.447568 Z-0.125000
G01 X39.545829 Y180.361312 Z-0.125000
G01 X43.199615 Y174.912384 Z-0.125000
G01 X46.741508 Y170.103588 Z-0.125000
G01 X50.386985 Y165.722358 Z-0.125000
G01 X54.346946 Y161.550070 Z-0.125000
G01 X59.201621 Y156.993130 Z-0.125000
G01 X63.825579 Y153.120482 Z-0.125000
G01 X67.825519 Y150.211524 Z-0.125000
G01 X69.846853 Y148.920967 Z-0.125000
G01 X71.725604 Y147.841786 Z-0.125000
G01 X73.616632 Y146.882594 Z-0.125000
G01 X75.360499 Y146.119192 Z-0.125000
G01 X77.113520 Y145.475885 Z-0.125000
G01 X78.874505 Y144.960001 Z-0.125000
G01 X81.607991 Y144.424512 Z-0.125000
G01 X84.349838 Y144.211813 Z-0.125000
G01 X86.931454 Y144.318917 Z-0.125000
G01 X89.506746 Y144.745953 Z-0.125000
G01 X92.067460 Y145.504963 Z-0.125000
G01 X94.605261 Y146.596421 Z-0.125000
G01 X97.112952 Y148.008288 Z-0.125000
G01 X99.739123 Y149.829228 Z-0.125000
G01 X102.854244 Y152.385920 Z-0.125000
G01 X106.518904 Y155.793379 Z-0.125000
G01 X119.137925 Y168.607901 Z-0.125000
G01 X131.019396 Y180.206267 Z-0.125000
G01 X136.973016 Y186.397774 Z-0.125000
G01 X143.208972 Y193.387104 Z-0.125000
G00 Z3.000000

(End cutting path id: polyline1213)


(Start cutting path id: polyline1211)
(Change tool to Default tool)

G00 Z3.000000
G00 X15.783683 Y226.787930

G00 Z4.875000 (Fast pre-penetrate)
G01 Z-0.125000 F400.0(Penetrate)
G01 X19.539492 Y218.384853 Z-0.125000 F800.000000
G01 X23.127211 Y210.923453 Z-0.125000
G01 X28.426702 Y200.640118 Z-0.125000
G01 X33.089237 Y192.078027 Z-0.125000
G01 X37.179373 Y185.149127 Z-0.125000
G01 X41.115838 Y179.003658 Z-0.125000
G01 X45.093897 Y173.345312 Z-0.125000
G01 X48.832375 Y168.579378 Z-0.125000
G01 X50.852228 Y166.255414 Z-0.125000
G01 X53.047024 Y163.911023 Z-0.125000
G01 X55.341778 Y161.625211 Z-0.125000
G01 X57.882781 Y159.250023 Z-0.125000
G01 X60.520620 Y156.933361 Z-0.125000
G01 X62.952297 Y154.939119 Z-0.125000
G01 X65.250888 Y153.195650 Z-0.125000
G01 X67.568423 Y151.589790 Z-0.125000
G01 X69.748720 Y150.228960 Z-0.125000
G01 X71.788072 Y149.097762 Z-0.125000
G01 X73.841289 Y148.107666 Z-0.125000
G01 X75.907524 Y147.272430 Z-0.125000
G01 X77.825116 Y146.649893 Z-0.125000
G01 X79.750804 Y146.178194 Z-0.125000
G01 X81.682577 Y145.862467 Z-0.125000
G01 X83.618002 Y145.704723 Z-0.125000
G01 X86.361278 Y145.761608 Z-0.125000
G01 X89.098706 Y146.174305 Z-0.125000
G01 X91.660954 Y146.905321 Z-0.125000
G01 X94.358563 Y148.049907 Z-0.125000
G01 X96.866308 Y149.460981 Z-0.125000
G01 X99.492849 Y151.279328 Z-0.125000
G01 X102.383313 Y153.628111 Z-0.125000
G01 X105.608315 Y156.566569 Z-0.125000
G01 X109.393413 Y160.274780 Z-0.125000
G01 X118.766133 Y169.789211 Z-0.125000
G01 X128.842645 Y179.769758 Z-0.125000
G01 X132.663620 Y183.750515 Z-0.125000
G01 X136.450226 Y187.900711 Z-0.125000
G01 X145.887849 Y198.831508 Z-0.125000
G01 X151.601810 Y205.726805 Z-0.125000
G01 X157.086324 Y212.814508 Z-0.125000
G01 X163.175199 Y221.201233 Z-0.125000
G00 Z3.000000

(End cutting path id: polyline1211)


(Start cutting path id: polyline1209)
(Change tool to Default tool)

G00 Z3.000000
G00 X15.783683 Y228.640011

G00 Z4.875000 (Fast pre-penetrate)
G01 Z-0.125000 F400.0(Penetrate)
G01 X19.767589 Y219.712848 Z-0.125000 F800.000000
G01 X23.483128 Y212.023881 Z-0.125000
G01 X28.877075 Y201.710912 Z-0.125000
G01 X33.888066 Y192.667121 Z-0.125000
G01 X38.011195 Y185.842176 Z-0.125000
G01 X42.054261 Y179.729541 Z-0.125000
G01 X46.281901 Y173.944037 Z-0.125000
G01 X48.333345 Y171.359643 Z-0.125000
G01 X50.271045 Y169.073381 Z-0.125000
G01 X52.382497 Y166.757672 Z-0.125000
G01 X54.670002 Y164.433945 Z-0.125000
G01 X57.133058 Y162.110668 Z-0.125000
G01 X59.695121 Y159.857982 Z-0.125000
G01 X62.127327 Y157.867074 Z-0.125000
G01 X64.581414 Y156.023169 Z-0.125000
G01 X66.902759 Y154.446651 Z-0.125000
G01 X69.087183 Y153.121196 Z-0.125000
G01 X71.288090 Y151.948432 Z-0.125000
G01 X73.504449 Y150.940688 Z-0.125000
G01 X75.574996 Y150.163978 Z-0.125000
G01 X77.655941 Y149.550622 Z-0.125000
G01 X79.745142 Y149.109139 Z-0.125000
G01 X81.840004 Y148.845455 Z-0.125000
G01 X83.937724 Y148.762667 Z-0.125000
G01 X85.873942 Y148.853790 Z-0.125000
G01 X87.646225 Y149.089613 Z-0.125000
G01 X89.413348 Y149.478841 Z-0.125000
G01 X91.172508 Y150.025840 Z-0.125000
G01 X92.920952 Y150.731138 Z-0.125000
G01 X94.656219 Y151.590954 Z-0.125000
G01 X96.532166 Y152.694979 Z-0.125000
G01 X98.389300 Y153.955426 Z-0.125000
G01 X100.228205 Y155.349990 Z-0.125000
G01 X104.009810 Y158.577241 Z-0.125000
G01 X108.561696 Y162.877324 Z-0.125000
G01 X121.344839 Y175.756642 Z-0.125000
G01 X126.349029 Y180.924186 Z-0.125000
G01 X130.209613 Y185.148333 Z-0.125000
G01 X134.460112 Y190.071403 Z-0.125000
G01 X144.692754 Y202.315060 Z-0.125000
G01 X149.939170 Y208.860553 Z-0.125000
G01 X156.208517 Y217.274080 Z-0.125000
G01 X165.753905 Y230.794669 Z-0.125000
G01 X174.304248 Y242.725034 Z-0.125000
G00 Z3.000000

(End cutting path id: polyline1209)


(Start cutting path id: polyline1203)
(Change tool to Default tool)

G00 Z3.000000
G00 X15.783683 Y238.826456

G00 Z4.875000 (Fast pre-penetrate)
G01 Z-0.125000 F400.0(Penetrate)
G01 X18.974792 Y231.483140 Z-0.125000 F800.000000
G01 X22.094834 Y224.769929 Z-0.125000
G01 X25.141534 Y218.699574 Z-0.125000
G01 X28.110393 Y213.283507 Z-0.125000
G01 X32.802429 Y205.419651 Z-0.125000
G01 X38.057920 Y197.138679 Z-0.125000
G01 X41.410848 Y192.329936 Z-0.125000
G01 X44.734619 Y188.139312 Z-0.125000
G01 X46.687771 Y185.923403 Z-0.125000
G01 X48.814357 Y183.681697 Z-0.125000
G01 X53.581561 Y179.123964 Z-0.125000
G01 X56.369181 Y176.669242 Z-0.125000
G01 X59.100206 Y174.396024 Z-0.125000
G01 X61.545668 Y172.492614 Z-0.125000
G01 X63.705247 Y170.967928 Z-0.125000
G01 X65.418157 Y169.897425 Z-0.125000
G01 X67.145408 Y168.956409 Z-0.125000
G01 X68.886126 Y168.156575 Z-0.125000
G01 X70.478916 Y167.559728 Z-0.125000
G01 X72.240351 Y167.052523 Z-0.125000
G01 X73.848089 Y166.730393 Z-0.125000
G01 X75.459876 Y166.541613 Z-0.125000
G01 X77.234937 Y166.486818 Z-0.125000
G01 X79.009654 Y166.588286 Z-0.125000
G01 X80.781540 Y166.839295 Z-0.125000
G01 X82.548610 Y167.230428 Z-0.125000
G01 X84.469112 Y167.803357 Z-0.125000
G01 X86.380592 Y168.517678 Z-0.125000
G01 X88.439948 Y169.438374 Z-0.125000
G01 X90.486788 Y170.496229 Z-0.125000
G01 X92.520982 Y171.675476 Z-0.125000
G01 X94.697574 Y173.067103 Z-0.125000
G01 X96.859772 Y174.572607 Z-0.125000
G01 X101.600174 Y178.243405 Z-0.125000
G01 X106.811930 Y182.740522 Z-0.125000
G01 X112.338248 Y187.932593 Z-0.125000
G01 X117.277563 Y192.978429 Z-0.125000
G01 X122.434153 Y198.709270 Z-0.125000
G01 X128.453708 Y205.861769 Z-0.125000
G01 X134.831772 Y213.834052 Z-0.125000
G01 X139.432606 Y219.991057 Z-0.125000
G01 X144.640446 Y227.424728 Z-0.125000
G01 X149.569839 Y234.826914 Z-0.125000
G01 X153.398752 Y241.003736 Z-0.125000
G00 Z3.000000

(End cutting path id: polyline1203)


(Start cutting path id: polyline1205)
(Change tool to Default tool)

G00 Z3.000000
G00 X15.783683 Y237.900416

G00 Z4.875000 (Fast pre-penetrate)
G01 Z-0.125000 F400.0(Penetrate)
G01 X19.268135 Y229.920910 Z-0.125000 F800.000000
G01 X22.579947 Y222.865116 Z-0.125000
G01 X25.708535 Y216.729331 Z-0.125000
G01 X29.081360 Y210.694483 Z-0.125000
G01 X34.507216 Y201.682442 Z-0.125000
G01 X39.047143 Y194.609557 Z-0.125000
G01 X40.896605 Y191.966267 Z-0.125000
G01 X42.710242 Y189.545438 Z-0.125000
G01 X44.554624 Y187.250181 Z-0.125000
G01 X46.499018 Y184.994028 Z-0.125000
G01 X48.761679 Y182.545445 Z-0.125000
G01 X51.271698 Y180.002697 Z-0.125000
G01 X54.028335 Y177.370149 Z-0.125000
G01 X56.807171 Y174.863357 Z-0.125000
G01 X59.305443 Y172.747381 Z-0.125000
G01 X61.596097 Y170.949778 Z-0.125000
G01 X63.600790 Y169.529390 Z-0.125000
G01 X65.625299 Y168.265874 Z-0.125000
G01 X67.511432 Y167.257337 Z-0.125000
G01 X69.412911 Y166.414455 Z-0.125000
G01 X71.327592 Y165.747467 Z-0.125000
G01 X73.091937 Y165.296459 Z-0.125000
G01 X74.862527 Y165.001767 Z-0.125000
G01 X76.798137 Y164.858971 Z-0.125000
G01 X78.734673 Y164.899955 Z-0.125000
G01 X80.668933 Y165.118580 Z-0.125000
G01 X82.598246 Y165.505083 Z-0.125000
G01 X84.680276 Y166.098754 Z-0.125000
G01 X86.592788 Y166.798338 Z-0.125000
G01 X88.652990 Y167.709059 Z-0.125000
G01 X90.857046 Y168.850047 Z-0.125000
G01 X93.045888 Y170.136582 Z-0.125000
G01 X95.374589 Y171.655129 Z-0.125000
G01 X97.686594 Y173.302635 Z-0.125000
G01 X100.287366 Y175.308174 Z-0.125000
G01 X102.869034 Y177.440104 Z-0.125000
G01 X108.580005 Y182.569496 Z-0.125000
G01 X114.590088 Y188.466495 Z-0.125000
G01 X119.995069 Y194.291925 Z-0.125000
G01 X126.608374 Y202.034047 Z-0.125000
G01 X134.636325 Y211.959402 Z-0.125000
G01 X139.601912 Y218.518494 Z-0.125000
G01 X145.092407 Y226.311574 Z-0.125000
G01 X150.433491 Y234.299282 Z-0.125000
G01 X154.469546 Y240.765849 Z-0.125000
G01 X157.363290 Y245.800493 Z-0.125000
G01 X165.852277 Y261.172951 Z-0.125000
G00 Z3.000000

(End cutting path id: polyline1205)


(Start cutting path id: polyline1195)
(Change tool to Default tool)

G00 Z3.000000
G00 X15.783683 Y261.051428

G00 Z4.875000 (Fast pre-penetrate)
G01 Z-0.125000 F400.0(Penetrate)
G01 X18.822869 Y253.628525 Z-0.125000 F800.000000
G01 X21.703728 Y247.145872 Z-0.125000
G01 X24.533787 Y241.351901 Z-0.125000
G01 X27.428563 Y236.020262 Z-0.125000
G01 X30.704497 Y230.615863 Z-0.125000
G01 X34.162227 Y225.494807 Z-0.125000
G01 X37.724334 Y220.765597 Z-0.125000
G01 X41.105731 Y216.825612 Z-0.125000
G01 X44.214396 Y213.728959 Z-0.125000
G01 X47.320468 Y211.116229 Z-0.125000
G01 X49.013800 Y209.892612 Z-0.125000
G01 X50.567934 Y208.894075 Z-0.125000
G01 X52.134821 Y208.006558 Z-0.125000
G01 X53.712873 Y207.230430 Z-0.125000
G01 X55.300398 Y206.563337 Z-0.125000
G01 X57.055403 Y205.949320 Z-0.125000
G01 X58.817341 Y205.450581 Z-0.125000
G01 X60.584226 Y205.053838 Z-0.125000
G01 X62.515629 Y204.724776 Z-0.125000
G01 X64.449784 Y204.496627 Z-0.125000
G01 X68.483616 Y204.318589 Z-0.125000
G01 X71.065681 Y204.396773 Z-0.125000
G01 X73.646292 Y204.610027 Z-0.125000
G01 X76.224389 Y204.946788 Z-0.125000
G01 X78.959992 Y205.429467 Z-0.125000
G01 X81.530495 Y205.995648 Z-0.125000
G01 X84.095997 Y206.670176 Z-0.125000
G01 X90.009295 Y208.577634 Z-0.125000
G01 X96.055784 Y210.930888 Z-0.125000
G01 X98.907116 Y212.207475 Z-0.125000
G01 X101.431449 Y213.456068 Z-0.125000
G01 X103.943215 Y214.831397 Z-0.125000
G01 X106.283690 Y216.251414 Z-0.125000
G01 X108.452635 Y217.704531 Z-0.125000
G01 X110.602531 Y219.299728 Z-0.125000
G01 X112.578437 Y220.918844 Z-0.125000
G01 X114.382681 Y222.534308 Z-0.125000
G01 X116.314587 Y224.412424 Z-0.125000
G01 X118.222733 Y226.414391 Z-0.125000
G01 X122.401186 Y231.252159 Z-0.125000
G01 X126.765615 Y236.864996 Z-0.125000
G01 X130.199797 Y241.724963 Z-0.125000
G01 X133.666707 Y247.149602 Z-0.125000
G01 X137.622170 Y253.873662 Z-0.125000
G01 X141.735139 Y261.344242 Z-0.125000
G00 Z3.000000

(End cutting path id: polyline1195)


(Start cutting path id: polyline1197)
(Change tool to Default tool)

G00 Z3.000000
G00 X15.783683 Y260.125388

G00 Z4.875000 (Fast pre-penetrate)
G01 Z-0.125000 F400.0(Penetrate)
G01 X18.825541 Y252.708226 Z-0.125000 F800.000000
G01 X21.708675 Y246.230944 Z-0.125000
G01 X24.540560 Y240.441656 Z-0.125000
G01 X27.436024 Y235.111869 Z-0.125000
G01 X30.709366 Y229.699216 Z-0.125000
G01 X34.231733 Y224.466478 Z-0.125000
G01 X37.793126 Y219.734597 Z-0.125000
G01 X41.176401 Y215.803158 Z-0.125000
G01 X44.284405 Y212.702906 Z-0.125000
G01 X47.464799 Y210.017415 Z-0.125000
G01 X49.157680 Y208.790518 Z-0.125000
G01 X50.711470 Y207.789177 Z-0.125000
G01 X52.278092 Y206.899225 Z-0.125000
G01 X53.855960 Y206.121007 Z-0.125000
G01 X55.443299 Y205.451903 Z-0.125000
G01 X57.198146 Y204.835187 Z-0.125000
G01 X58.959872 Y204.332612 Z-0.125000
G01 X60.887306 Y203.898272 Z-0.125000
G01 X62.818762 Y203.570877 Z-0.125000
G01 X64.752969 Y203.344923 Z-0.125000
G01 X66.688844 Y203.215886 Z-0.125000
G01 X68.786907 Y203.180564 Z-0.125000
G01 X71.207472 Y203.267744 Z-0.125000
G01 X73.626527 Y203.483327 Z-0.125000
G01 X76.204042 Y203.843980 Z-0.125000
G01 X78.777667 Y204.328590 Z-0.125000
G01 X81.346689 Y204.928558 Z-0.125000
G01 X83.910339 Y205.639599 Z-0.125000
G01 X89.977995 Y207.685751 Z-0.125000
G01 X96.337591 Y210.231781 Z-0.125000
G01 X99.186991 Y211.530830 Z-0.125000
G01 X101.867270 Y212.876685 Z-0.125000
G01 X104.377105 Y214.270481 Z-0.125000
G01 X106.715859 Y215.705394 Z-0.125000
G01 X108.883165 Y217.171502 Z-0.125000
G01 X111.031049 Y218.780695 Z-0.125000
G01 X113.004574 Y220.415025 Z-0.125000
G01 X114.806173 Y222.046020 Z-0.125000
G01 X116.734771 Y223.941890 Z-0.125000
G01 X118.639345 Y225.961769 Z-0.125000
G01 X122.809967 Y230.835123 Z-0.125000
G01 X127.307666 Y236.659680 Z-0.125000
G01 X130.804951 Y241.637571 Z-0.125000
G01 X134.198598 Y246.980057 Z-0.125000
G01 X138.080322 Y253.621329 Z-0.125000
G01 X142.245097 Y261.239943 Z-0.125000
G00 Z3.000000

(End cutting path id: polyline1197)


(Start cutting path id: polyline1199)
(Change tool to Default tool)

G00 Z3.000000
G00 X15.783683 Y252.717064

G00 Z4.875000 (Fast pre-penetrate)
G01 Z-0.125000 F400.0(Penetrate)
G01 X19.083324 Y244.840481 Z-0.125000 F800.000000
G01 X22.238027 Y237.942352 Z-0.125000
G01 X25.477554 Y231.534945 Z-0.125000
G01 X28.916260 Y225.393365 Z-0.125000
G01 X32.352400 Y219.867126 Z-0.125000
G01 X35.706333 Y215.062167 Z-0.125000
G01 X39.724926 Y209.927748 Z-0.125000
G01 X43.558839 Y205.579538 Z-0.125000
G01 X46.749260 Y202.450342 Z-0.125000
G01 X49.788366 Y199.957599 Z-0.125000
G01 X51.332764 Y198.882255 Z-0.125000
G01 X52.891766 Y197.924649 Z-0.125000
G01 X54.463389 Y197.082535 Z-0.125000
G01 X56.045410 Y196.349984 Z-0.125000
G01 X57.954509 Y195.602484 Z-0.125000
G01 X59.872048 Y194.978915 Z-0.125000
G01 X61.956089 Y194.422549 Z-0.125000
G01 X64.045686 Y193.990194 Z-0.125000
G01 X65.978412 Y193.705053 Z-0.125000
G01 X67.913651 Y193.533180 Z-0.125000
G01 X69.850187 Y193.478173 Z-0.125000
G01 X71.786670 Y193.542864 Z-0.125000
G01 X73.721671 Y193.728733 Z-0.125000
G01 X75.653736 Y194.035438 Z-0.125000
G01 X77.581541 Y194.460861 Z-0.125000
G01 X79.503895 Y195.000796 Z-0.125000
G01 X81.419899 Y195.648759 Z-0.125000
G01 X83.487827 Y196.462405 Z-0.125000
G01 X88.233176 Y198.667969 Z-0.125000
G01 X99.096451 Y204.291839 Z-0.125000
G01 X105.206810 Y207.757559 Z-0.125000
G01 X108.005860 Y209.542304 Z-0.125000
G01 X110.630074 Y211.379753 Z-0.125000
G01 X113.077043 Y213.272739 Z-0.125000
G01 X115.345419 Y215.213296 Z-0.125000
G01 X117.287088 Y217.037517 Z-0.125000
G01 X119.129671 Y218.922565 Z-0.125000
G01 X123.027931 Y223.389705 Z-0.125000
G01 X128.026300 Y229.815791 Z-0.125000
G01 X133.205724 Y237.000727 Z-0.125000
G01 X136.368470 Y241.804020 Z-0.125000
G01 X139.495206 Y247.050145 Z-0.125000
G01 X142.971086 Y253.383733 Z-0.125000
G01 X146.978354 Y261.151149 Z-0.125000
G00 Z3.000000

(End cutting path id: polyline1199)


(Start cutting path id: polyline1201)
(Change tool to Default tool)

G00 Z3.000000
G00 X15.783683 Y251.791023

G00 Z4.875000 (Fast pre-penetrate)
G01 Z-0.125000 F400.0(Penetrate)
G01 X19.145210 Y243.794134 Z-0.125000 F800.000000
G01 X22.305813 Y236.910240 Z-0.125000
G01 X25.610798 Y230.393508 Z-0.125000
G01 X29.052415 Y224.260527 Z-0.125000
G01 X32.424975 Y218.848667 Z-0.125000
G01 X35.919931 Y213.862838 Z-0.125000
G01 X40.078752 Y208.544879 Z-0.125000
G01 X42.090800 Y206.185460 Z-0.125000
G01 X43.984527 Y204.112611 Z-0.125000
G01 X47.178070 Y201.000480 Z-0.125000
G01 X50.222044 Y198.539276 Z-0.125000
G01 X51.768929 Y197.483193 Z-0.125000
G01 X53.330207 Y196.545140 Z-0.125000
G01 X54.903682 Y195.721440 Z-0.125000
G01 X56.487105 Y195.004817 Z-0.125000
G01 X58.397236 Y194.271658 Z-0.125000
G01 X60.475376 Y193.609089 Z-0.125000
G01 X62.560026 Y193.065080 Z-0.125000
G01 X64.650020 Y192.642303 Z-0.125000
G01 X66.582931 Y192.365046 Z-0.125000
G01 X68.518329 Y192.201798 Z-0.125000
G01 X70.454918 Y192.157613 Z-0.125000
G01 X72.391295 Y192.236353 Z-0.125000
G01 X74.325953 Y192.440108 Z-0.125000
G01 X76.257329 Y192.768694 Z-0.125000
G01 X78.184023 Y193.219808 Z-0.125000
G01 X80.104763 Y193.789032 Z-0.125000
G01 X83.924839 Y195.255536 Z-0.125000
G01 X88.504850 Y197.466656 Z-0.125000
G01 X99.662923 Y203.454646 Z-0.125000
G01 X105.762805 Y207.016198 Z-0.125000
G01 X108.556616 Y208.843619 Z-0.125000
G01 X111.175485 Y210.720889 Z-0.125000
G01 X113.617137 Y212.649593 Z-0.125000
G01 X115.955468 Y214.689316 Z-0.125000
G01 X117.892084 Y216.541688 Z-0.125000
G01 X119.730036 Y218.450522 Z-0.125000
G01 X121.687236 Y220.647514 Z-0.125000
G01 X123.689282 Y223.051383 Z-0.125000
G01 X128.815393 Y229.712021 Z-0.125000
G01 X134.053739 Y237.030996 Z-0.125000
G01 X137.208045 Y241.863393 Z-0.125000
G01 X140.260803 Y247.027894 Z-0.125000
G01 X143.726259 Y253.391486 Z-0.125000
G01 X147.722494 Y261.188852 Z-0.125000
G00 Z3.000000

(End cutting path id: polyline1201)


(Start cutting path id: polyline1207)
(Change tool to Default tool)

G00 Z3.000000
G00 X15.783683 Y230.492092

G00 Z4.875000 (Fast pre-penetrate)
G01 Z-0.125000 F400.0(Penetrate)
G01 X19.878264 Y221.294948 Z-0.125000 F800.000000
G01 X23.655662 Y213.487183 Z-0.125000
G01 X28.698879 Y203.944653 Z-0.125000
G01 X34.242581 Y194.058933 Z-0.125000
G01 X38.319408 Y187.403903 Z-0.125000
G01 X42.250476 Y181.575193 Z-0.125000
G01 X46.572863 Y175.793869 Z-0.125000
G01 X50.792300 Y170.734063 Z-0.125000
G01 X52.983206 Y168.370781 Z-0.125000
G01 X55.203666 Y166.157386 Z-0.125000
G01 X57.599518 Y163.946557 Z-0.125000
G01 X60.094774 Y161.811848 Z-0.125000
G01 X62.383258 Y159.999772 Z-0.125000
G01 X64.692512 Y158.332185 Z-0.125000
G01 X66.866987 Y156.923492 Z-0.125000
G01 X69.059454 Y155.670189 Z-0.125000
G01 X71.110343 Y154.654799 Z-0.125000
G01 X73.174302 Y153.790432 Z-0.125000
G01 X75.249691 Y153.084842 Z-0.125000
G01 X77.334526 Y152.545384 Z-0.125000
G01 X79.426451 Y152.178355 Z-0.125000
G01 X81.522848 Y151.988410 Z-0.125000
G01 X83.620859 Y151.977854 Z-0.125000
G01 X85.556337 Y152.132105 Z-0.125000
G01 X87.327085 Y152.421930 Z-0.125000
G01 X89.091986 Y152.861058 Z-0.125000
G01 X90.848420 Y153.452904 Z-0.125000
G01 X92.593848 Y154.196514 Z-0.125000
G01 X94.326258 Y155.086148 Z-0.125000
G01 X96.199902 Y156.210626 Z-0.125000
G01 X98.056322 Y157.477026 Z-0.125000
G01 X100.049188 Y158.982688 Z-0.125000
G01 X104.514873 Y162.770009 Z-0.125000
G01 X109.516947 Y167.479084 Z-0.125000
G01 X117.490658 Y175.552781 Z-0.125000
G01 X123.939842 Y182.374842 Z-0.125000
G01 X129.062619 Y188.262740 Z-0.125000
G01 X140.039930 Y201.633389 Z-0.125000
G01 X144.654601 Y207.356478 Z-0.125000
G01 X148.586490 Y212.468592 Z-0.125000
G01 X152.742401 Y218.169958 Z-0.125000
G01 X158.152726 Y225.908879 Z-0.125000
G01 X167.706712 Y239.747787 Z-0.125000
G01 X174.395900 Y249.772757 Z-0.125000
G00 Z3.000000

(End cutting path id: polyline1207)



(Footer)
M5
G00 X0.0000 Y0.0000
M2
(Using default footer. To add your own footer create file "footer" in the output dir.)
(end)
%