%
(Header)
(Generated by gcodetools from Inkscape.)
(Using default header. To add your own header create file "header" in the output dir.)
M3
(Header end.)
G21 (All units in mm)

(Start cutting path id: polyline542)
(Change tool to Default tool)

G00 Z3.000000
G00 X123.368329 Y245.842168

G00 Z4.875000 (Fast pre-penetrate)
G01 Z-0.125000 F400.0(Penetrate)
G01 X97.664353 Y207.466627 Z-0.125000 F800.000000
G01 X112.903239 Y196.805683 Z-0.125000
G01 X114.372472 Y160.564430 Z-0.125000
G01 X109.938964 Y140.902391 Z-0.125000
G01 X120.734032 Y118.559628 Z-0.125000
G01 X112.449551 Y78.781884 Z-0.125000
G01 X119.218365 Y63.821453 Z-0.125000
G00 Z3.000000

(End cutting path id: polyline542)


(Start cutting path id: polyline156)
(Change tool to Default tool)

G00 Z3.000000
G00 X142.032754 Y237.470088

G00 Z4.875000 (Fast pre-penetrate)
G01 Z-0.125000 F400.0(Penetrate)
G01 X142.929769 Y220.988813 Z-0.125000 F800.000000
G01 X142.032754 Y183.427848 Z-0.125000
G01 X155.487869 Y169.787129 Z-0.125000
G01 X139.042722 Y124.452063 Z-0.125000
G01 X137.547682 Y110.661826 Z-0.125000
G01 X152.796884 Y99.562647 Z-0.125000
G01 X138.893203 Y56.171070 Z-0.125000
G00 Z3.000000

(End cutting path id: polyline156)


(Start cutting path id: polyline158)
(Change tool to Default tool)

G00 Z3.000000
G00 X141.500495 Y237.758771

G00 Z4.875000 (Fast pre-penetrate)
G01 Z-0.125000 F400.0(Penetrate)
G01 X141.088107 Y183.917609 Z-0.125000 F800.000000
G01 X154.156608 Y169.472647 Z-0.125000
G01 X138.072269 Y125.013963 Z-0.125000
G01 X137.072169 Y110.960824 Z-0.125000
G01 X151.470736 Y98.794519 Z-0.125000
G01 X138.288798 Y56.459789 Z-0.125000
G00 Z3.000000

(End cutting path id: polyline158)


(Start cutting path id: polyline186)
(Change tool to Default tool)

G00 Z3.000000
G00 X142.925837 Y237.794849

G00 Z4.875000 (Fast pre-penetrate)
G01 Z-0.125000 F400.0(Penetrate)
G01 X144.039381 Y220.493921 Z-0.125000 F800.000000
G01 X142.956775 Y183.551548 Z-0.125000
G01 X155.607707 Y169.885084 Z-0.125000
G01 X139.832718 Y124.885077 Z-0.125000
G01 X139.121295 Y110.599949 Z-0.125000
G01 X153.318789 Y99.098685 Z-0.125000
G01 X139.894550 Y56.279342 Z-0.125000
G00 Z3.000000

(End cutting path id: polyline186)


(Start cutting path id: polyline188)
(Change tool to Default tool)

G00 Z3.000000
G00 X140.968283 Y238.047489

G00 Z4.875000 (Fast pre-penetrate)
G01 Z-0.125000 F400.0(Penetrate)
G01 X139.803170 Y219.988713 Z-0.125000 F800.000000
G01 X140.143459 Y184.407316 Z-0.125000
G01 X152.825330 Y169.158220 Z-0.125000
G01 X137.101860 Y125.575881 Z-0.125000
G01 X136.596654 Y111.259859 Z-0.125000
G01 X150.144597 Y98.026392 Z-0.125000
G01 X137.684392 Y56.748471 Z-0.125000
G00 Z3.000000

(End cutting path id: polyline188)


(Start cutting path id: polyline190)
(Change tool to Default tool)

G00 Z3.000000
G00 X143.818917 Y238.119628

G00 Z4.875000 (Fast pre-penetrate)
G01 Z-0.125000 F400.0(Penetrate)
G01 X145.148994 Y219.999029 Z-0.125000 F800.000000
G01 X143.880797 Y183.675321 Z-0.125000
G01 X155.727528 Y169.983040 Z-0.125000
G01 X140.622716 Y125.318128 Z-0.125000
G01 X140.694855 Y110.538126 Z-0.125000
G01 X153.840731 Y98.634741 Z-0.125000
G01 X140.895939 Y56.387596 Z-0.125000
G00 Z3.000000

(End cutting path id: polyline190)


(Start cutting path id: polyline192)
(Change tool to Default tool)

G00 Z3.000000
G00 X140.436021 Y238.336172

G00 Z4.875000 (Fast pre-penetrate)
G01 Z-0.125000 F400.0(Penetrate)
G01 X138.239918 Y219.488636 Z-0.125000 F800.000000
G01 X139.198813 Y184.897077 Z-0.125000
G01 X151.493997 Y168.843721 Z-0.125000
G01 X136.131407 Y126.137817 Z-0.125000
G01 X136.121073 Y111.558839 Z-0.125000
G01 X148.818386 Y97.258282 Z-0.125000
G01 X137.079918 Y57.037190 Z-0.125000
G00 Z3.000000

(End cutting path id: polyline192)


(Start cutting path id: polyline194)
(Change tool to Default tool)

G00 Z3.000000
G00 X144.712047 Y238.444389

G00 Z4.875000 (Fast pre-penetrate)
G01 Z-0.125000 F400.0(Penetrate)
G01 X146.258606 Y219.504137 Z-0.125000 F800.000000
G01 X144.804865 Y183.799021 Z-0.125000
G01 X155.847348 Y170.080978 Z-0.125000
G01 X141.412665 Y125.751143 Z-0.125000
G01 X142.268474 Y110.476230 Z-0.125000
G01 X154.362636 Y98.170742 Z-0.125000
G01 X141.897291 Y56.495867 Z-0.125000
G00 Z3.000000

(End cutting path id: polyline194)


(Start cutting path id: polyline196)
(Change tool to Default tool)

G00 Z3.000000
G00 X139.903809 Y238.624836

G00 Z4.875000 (Fast pre-penetrate)
G01 Z-0.125000 F400.0(Penetrate)
G01 X136.676618 Y218.988613 Z-0.125000 F800.000000
G01 X138.254117 Y185.386838 Z-0.125000
G01 X150.162729 Y168.529240 Z-0.125000
G01 X135.161000 Y126.699735 Z-0.125000
G01 X135.645580 Y111.857838 Z-0.125000
G01 X147.492313 Y96.490155 Z-0.125000
G01 X136.475583 Y57.325872 Z-0.125000
G00 Z3.000000

(End cutting path id: polyline196)


(Start cutting path id: polyline198)
(Change tool to Default tool)

G00 Z3.000000
G00 X139.371595 Y238.913573

G00 Z4.875000 (Fast pre-penetrate)
G01 Z-0.125000 F400.0(Penetrate)
G01 X135.113367 Y218.488536 Z-0.125000 F800.000000
G01 X137.309518 Y185.876599 Z-0.125000
G01 X148.831454 Y168.214759 Z-0.125000
G01 X134.190594 Y127.261635 Z-0.125000
G01 X135.170067 Y112.156818 Z-0.125000
G01 X146.166168 Y95.721973 Z-0.125000
G01 X135.871177 Y57.614555 Z-0.125000
G00 Z3.000000

(End cutting path id: polyline198)


(Start cutting path id: polyline200)
(Change tool to Default tool)

G00 Z3.000000
G00 X145.605128 Y238.769186

G00 Z4.875000 (Fast pre-penetrate)
G01 Z-0.125000 F400.0(Penetrate)
G01 X147.368217 Y219.009245 Z-0.125000 F800.000000
G01 X145.728839 Y183.922740 Z-0.125000
G01 X155.967187 Y170.178934 Z-0.125000
G01 X142.202660 Y126.184211 Z-0.125000
G01 X143.842039 Y110.414353 Z-0.125000
G01 X154.884524 Y97.706780 Z-0.125000
G01 X142.898638 Y56.604139 Z-0.125000
G00 Z3.000000

(End cutting path id: polyline200)


(Start cutting path id: polyline202)
(Change tool to Default tool)

G00 Z3.000000
G00 X146.498208 Y239.093983

G00 Z4.875000 (Fast pre-penetrate)
G01 Z-0.125000 F400.0(Penetrate)
G01 X148.477829 Y218.514299 Z-0.125000 F800.000000
G01 X146.652907 Y184.046440 Z-0.125000
G01 X156.086953 Y170.276890 Z-0.125000
G01 X142.992656 Y126.617226 Z-0.125000
G01 X145.415650 Y110.352530 Z-0.125000
G01 X155.406483 Y97.242781 Z-0.125000
G01 X143.899983 Y56.712393 Z-0.125000
G00 Z3.000000

(End cutting path id: polyline202)


(Start cutting path id: polyline204)
(Change tool to Default tool)

G00 Z3.000000
G00 X138.839336 Y239.202237

G00 Z4.875000 (Fast pre-penetrate)
G01 Z-0.125000 F400.0(Penetrate)
G01 X133.550068 Y217.988514 Z-0.125000 F800.000000
G01 X136.364822 Y186.366306 Z-0.125000
G01 X147.500130 Y167.900332 Z-0.125000
G01 X133.220138 Y127.823590 Z-0.125000
G01 X134.694552 Y112.455852 Z-0.125000
G01 X144.840026 Y94.953863 Z-0.125000
G01 X135.266772 Y57.903273 Z-0.125000
G00 Z3.000000

(End cutting path id: polyline204)


(Start cutting path id: polyline206)
(Change tool to Default tool)

G00 Z3.000000
G00 X138.307123 Y239.490974

G00 Z4.875000 (Fast pre-penetrate)
G01 Z-0.125000 F400.0(Penetrate)
G01 X131.986815 Y217.488455 Z-0.125000 F800.000000
G01 X135.420223 Y186.856067 Z-0.125000
G01 X146.168855 Y167.585851 Z-0.125000
G01 X132.249732 Y128.385490 Z-0.125000
G01 X134.219039 Y112.754851 Z-0.125000
G01 X143.513884 Y94.185736 Z-0.125000
G01 X134.662366 Y58.191956 Z-0.125000
G00 Z3.000000

(End cutting path id: polyline206)


(Start cutting path id: polyline208)
(Change tool to Default tool)

G00 Z3.000000
G00 X137.774909 Y239.779638

G00 Z4.875000 (Fast pre-penetrate)
G01 Z-0.125000 F400.0(Penetrate)
G01 X130.423516 Y216.988378 Z-0.125000 F800.000000
G01 X134.475527 Y187.345828 Z-0.125000
G01 X144.837580 Y167.271369 Z-0.125000
G01 X131.279278 Y128.947408 Z-0.125000
G01 X133.743525 Y113.053831 Z-0.125000
G01 X142.187741 Y93.417608 Z-0.125000
G01 X134.057961 Y58.480674 Z-0.125000
G00 Z3.000000

(End cutting path id: polyline208)


(Start cutting path id: polyline210)
(Change tool to Default tool)

G00 Z3.000000
G00 X147.391338 Y239.418781

G00 Z4.875000 (Fast pre-penetrate)
G01 Z-0.125000 F400.0(Penetrate)
G01 X149.587440 Y218.019407 Z-0.125000 F800.000000
G01 X147.576928 Y184.170213 Z-0.125000
G01 X156.206792 Y170.374846 Z-0.125000
G01 X143.782652 Y127.050295 Z-0.125000
G01 X146.989217 Y110.290653 Z-0.125000
G01 X155.928371 Y96.778819 Z-0.125000
G01 X144.901379 Y56.820664 Z-0.125000
G00 Z3.000000

(End cutting path id: polyline210)


(Start cutting path id: polyline212)
(Change tool to Default tool)

G00 Z3.000000
G00 X148.284419 Y239.743523

G00 Z4.875000 (Fast pre-penetrate)
G01 Z-0.125000 F400.0(Penetrate)
G01 X150.697052 Y217.524515 Z-0.125000 F800.000000
G01 X148.500950 Y184.293913 Z-0.125000
G01 X156.326612 Y170.472801 Z-0.125000
G01 X144.572697 Y127.483291 Z-0.125000
G01 X148.562829 Y110.228775 Z-0.125000
G01 X156.450312 Y96.314875 Z-0.125000
G01 X145.902725 Y56.928936 Z-0.125000
G00 Z3.000000

(End cutting path id: polyline212)


(Start cutting path id: polyline214)
(Change tool to Default tool)

G00 Z3.000000
G00 X149.177548 Y240.068320

G00 Z4.875000 (Fast pre-penetrate)
G01 Z-0.125000 F400.0(Penetrate)
G01 X151.806719 Y217.029623 Z-0.125000 F800.000000
G01 X149.424971 Y184.417632 Z-0.125000
G01 X156.446433 Y170.570739 Z-0.125000
G01 X145.362646 Y127.916360 Z-0.125000
G01 X150.136394 Y110.166934 Z-0.125000
G01 X156.972272 Y95.850876 Z-0.125000
G01 X146.904072 Y57.037190 Z-0.125000
G00 Z3.000000

(End cutting path id: polyline214)


(Start cutting path id: polyline216)
(Change tool to Default tool)

G00 Z3.000000
G00 X137.242650 Y240.068320

G00 Z4.875000 (Fast pre-penetrate)
G01 Z-0.125000 F400.0(Penetrate)
G01 X128.860263 Y216.488301 Z-0.125000 F800.000000
G01 X133.530879 Y187.835589 Z-0.125000
G01 X143.506256 Y166.956888 Z-0.125000
G01 X130.308871 Y129.509308 Z-0.125000
G01 X133.267963 Y113.352865 Z-0.125000
G01 X140.861648 Y92.649499 Z-0.125000
G01 X133.453555 Y58.769339 Z-0.125000
G00 Z3.000000

(End cutting path id: polyline216)


(Start cutting path id: polyline218)
(Change tool to Default tool)

G00 Z3.000000
G00 X136.710437 Y240.357039

G00 Z4.875000 (Fast pre-penetrate)
G01 Z-0.125000 F400.0(Penetrate)
G01 X127.296964 Y215.988278 Z-0.125000 F800.000000
G01 X132.586232 Y188.325296 Z-0.125000
G01 X142.174982 Y166.642443 Z-0.125000
G01 X129.338416 Y130.071262 Z-0.125000
G01 X132.792450 Y113.651864 Z-0.125000
G01 X139.535506 Y91.881371 Z-0.125000
G01 X132.849150 Y59.058021 Z-0.125000
G00 Z3.000000

(End cutting path id: polyline218)


(Start cutting path id: polyline220)
(Change tool to Default tool)

G00 Z3.000000
G00 X136.178176 Y240.645722

G00 Z4.875000 (Fast pre-penetrate)
G01 Z-0.125000 F400.0(Penetrate)
G01 X125.733713 Y215.488201 Z-0.125000 F800.000000
G01 X131.641584 Y188.815057 Z-0.125000
G01 X140.843659 Y166.327962 Z-0.125000
G01 X128.368009 Y130.633162 Z-0.125000
G01 X132.316935 Y113.950844 Z-0.125000
G01 X138.209361 Y91.113243 Z-0.125000
G01 X132.244744 Y59.346740 Z-0.125000
G00 Z3.000000

(End cutting path id: polyline220)


(Start cutting path id: polyline222)
(Change tool to Default tool)

G00 Z3.000000
G00 X135.645964 Y240.934440

G00 Z4.875000 (Fast pre-penetrate)
G01 Z-0.125000 F400.0(Penetrate)
G01 X124.170414 Y214.988124 Z-0.125000 F800.000000
G01 X130.696938 Y189.304818 Z-0.125000
G01 X139.512385 Y166.013481 Z-0.125000
G01 X127.397603 Y131.195062 Z-0.125000
G01 X131.841423 Y114.249897 Z-0.125000
G01 X136.883219 Y90.345116 Z-0.125000
G01 X131.640338 Y59.635422 Z-0.125000
G00 Z3.000000

(End cutting path id: polyline222)


(Start cutting path id: polyline224)
(Change tool to Default tool)

G00 Z3.000000
G00 X135.113703 Y241.223123

G00 Z4.875000 (Fast pre-penetrate)
G01 Z-0.125000 F400.0(Penetrate)
G01 X122.607161 Y214.488101 Z-0.125000 F800.000000
G01 X129.752291 Y189.794543 Z-0.125000
G01 X138.181110 Y165.699054 Z-0.125000
G01 X126.427147 Y131.757016 Z-0.125000
G01 X131.365861 Y114.548877 Z-0.125000
G01 X135.557077 Y89.576952 Z-0.125000
G01 X131.035933 Y59.924141 Z-0.125000
G00 Z3.000000

(End cutting path id: polyline224)


(Start cutting path id: polyline226)
(Change tool to Default tool)

G00 Z3.000000
G00 X150.070629 Y240.393063

G00 Z4.875000 (Fast pre-penetrate)
G01 Z-0.125000 F400.0(Penetrate)
G01 X152.916324 Y216.534731 Z-0.125000 F800.000000
G01 X150.349039 Y184.541386 Z-0.125000
G01 X156.566217 Y170.668695 Z-0.125000
G01 X146.152642 Y128.349375 Z-0.125000
G01 X151.710014 Y110.105057 Z-0.125000
G01 X157.494160 Y95.386914 Z-0.125000
G01 X147.905466 Y57.145407 Z-0.125000
G00 Z3.000000

(End cutting path id: polyline226)


(Start cutting path id: polyline228)
(Change tool to Default tool)

G00 Z3.000000
G00 X150.963710 Y240.717860

G00 Z4.875000 (Fast pre-penetrate)
G01 Z-0.125000 F400.0(Penetrate)
G01 X154.025928 Y216.039839 Z-0.125000 F800.000000
G01 X151.273066 Y184.665105 Z-0.125000
G01 X156.686037 Y170.766651 Z-0.125000
G01 X146.942639 Y128.782444 Z-0.125000
G01 X153.283581 Y110.043180 Z-0.125000
G01 X158.016065 Y94.922970 Z-0.125000
G01 X148.906813 Y57.253679 Z-0.125000
G00 Z3.000000

(End cutting path id: polyline228)


(Start cutting path id: polyline230)
(Change tool to Default tool)

G00 Z3.000000
G00 X151.856830 Y241.042658

G00 Z4.875000 (Fast pre-penetrate)
G01 Z-0.125000 F400.0(Penetrate)
G01 X155.135550 Y215.544893 Z-0.125000 F800.000000
G01 X152.197074 Y184.788805 Z-0.125000
G01 X156.805858 Y170.864607 Z-0.125000
G01 X147.732635 Y129.215494 Z-0.125000
G01 X154.857184 Y109.981339 Z-0.125000
G01 X158.538007 Y94.458971 Z-0.125000
G01 X149.908160 Y57.361951 Z-0.125000
G00 Z3.000000

(End cutting path id: polyline230)


(Start cutting path id: polyline232)
(Change tool to Default tool)

G00 Z3.000000
G00 X152.749927 Y241.367400

G00 Z4.875000 (Fast pre-penetrate)
G01 Z-0.125000 F400.0(Penetrate)
G01 X156.245155 Y215.050001 Z-0.125000 F800.000000
G01 X153.121101 Y184.912578 Z-0.125000
G01 X156.925697 Y170.962563 Z-0.125000
G01 X148.522631 Y129.648509 Z-0.125000
G01 X156.430805 Y109.919461 Z-0.125000
G01 X159.059912 Y93.995009 Z-0.125000
G01 X150.909505 Y57.470204 Z-0.125000
G00 Z3.000000

(End cutting path id: polyline232)


(Start cutting path id: polyline234)
(Change tool to Default tool)

G00 Z3.000000
G00 X153.643006 Y241.692197

G00 Z4.875000 (Fast pre-penetrate)
G01 Z-0.125000 F400.0(Penetrate)
G01 X157.354777 Y214.555109 Z-0.125000 F800.000000
G01 X154.045164 Y185.036278 Z-0.125000
G01 X157.045463 Y171.060464 Z-0.125000
G01 X149.312627 Y130.081578 Z-0.125000
G01 X158.004371 Y109.857584 Z-0.125000
G01 X159.581854 Y93.531011 Z-0.125000
G01 X151.910857 Y57.578476 Z-0.125000
G00 Z3.000000

(End cutting path id: polyline234)


(Start cutting path id: polyline236)
(Change tool to Default tool)

G00 Z3.000000
G00 X154.536140 Y242.016995

G00 Z4.875000 (Fast pre-penetrate)
G01 Z-0.125000 F400.0(Penetrate)
G01 X158.464381 Y214.060217 Z-0.125000 F800.000000
G01 X154.969136 Y185.159997 Z-0.125000
G01 X157.165301 Y171.158420 Z-0.125000
G01 X150.102625 Y130.514592 Z-0.125000
G01 X159.577974 Y109.795761 Z-0.125000
G01 X160.103759 Y93.067066 Z-0.125000
G01 X152.912244 Y57.686748 Z-0.125000
G00 Z3.000000

(End cutting path id: polyline236)


(Start cutting path id: polyline238)
(Change tool to Default tool)

G00 Z3.000000
G00 X155.429218 Y242.341737

G00 Z4.875000 (Fast pre-penetrate)
G01 Z-0.125000 F400.0(Penetrate)
G01 X159.574004 Y213.565326 Z-0.125000 F800.000000
G01 X155.893217 Y185.283697 Z-0.125000
G01 X157.285122 Y171.256358 Z-0.125000
G01 X150.892621 Y130.947643 Z-0.125000
G01 X161.151541 Y109.733884 Z-0.125000
G01 X160.625665 Y92.603104 Z-0.125000
G01 X153.913595 Y57.795002 Z-0.125000
G00 Z3.000000

(End cutting path id: polyline238)


(Start cutting path id: polyline240)
(Change tool to Default tool)

G00 Z3.000000
G00 X134.581490 Y241.511787

G00 Z4.875000 (Fast pre-penetrate)
G01 Z-0.125000 F400.0(Penetrate)
G01 X121.043862 Y213.988024 Z-0.125000 F800.000000
G01 X136.849786 Y165.384554 Z-0.125000
G01 X125.456741 Y132.318934 Z-0.125000
G01 X130.890346 Y114.847875 Z-0.125000
G01 X134.230934 Y88.808824 Z-0.125000
G01 X130.431527 Y60.212823 Z-0.125000
G00 Z3.000000

(End cutting path id: polyline240)


(Start cutting path id: polyline242)
(Change tool to Default tool)

G00 Z3.000000
G00 X134.049278 Y241.800506

G00 Z4.875000 (Fast pre-penetrate)
G01 Z-0.125000 F400.0(Penetrate)
G01 X119.480562 Y213.487947 Z-0.125000 F800.000000
G01 X127.862996 Y190.774065 Z-0.125000
G01 X135.518511 Y165.070073 Z-0.125000
G01 X124.486287 Y132.880834 Z-0.125000
G01 X130.414833 Y115.146910 Z-0.125000
G01 X132.904792 Y88.040715 Z-0.125000
G01 X129.827122 Y60.501487 Z-0.125000
G00 Z3.000000

(End cutting path id: polyline242)


(Start cutting path id: polyline244)
(Change tool to Default tool)

G00 Z3.000000
G00 X133.517017 Y242.089188

G00 Z4.875000 (Fast pre-penetrate)
G01 Z-0.125000 F400.0(Penetrate)
G01 X117.917309 Y212.987925 Z-0.125000 F800.000000
G01 X126.918348 Y191.263772 Z-0.125000
G01 X134.187187 Y164.755646 Z-0.125000
G01 X123.515881 Y133.442789 Z-0.125000
G01 X129.939321 Y115.445890 Z-0.125000
G01 X131.578650 Y87.272587 Z-0.125000
G01 X129.222716 Y60.790224 Z-0.125000
G00 Z3.000000

(End cutting path id: polyline244)


(Start cutting path id: polyline246)
(Change tool to Default tool)

G00 Z3.000000
G00 X132.984805 Y242.377870

G00 Z4.875000 (Fast pre-penetrate)
G01 Z-0.125000 F400.0(Penetrate)
G01 X116.354010 Y212.487848 Z-0.125000 F800.000000
G01 X125.973700 Y191.753533 Z-0.125000
G01 X132.855912 Y164.441165 Z-0.125000
G01 X122.545425 Y134.004689 Z-0.125000
G01 X129.463806 Y115.744888 Z-0.125000
G01 X130.252507 Y86.504460 Z-0.125000
G01 X128.618311 Y61.078888 Z-0.125000
G00 Z3.000000

(End cutting path id: polyline246)


(Start cutting path id: polyline248)
(Change tool to Default tool)

G00 Z3.000000
G00 X132.452543 Y242.666589

G00 Z4.875000 (Fast pre-penetrate)
G01 Z-0.125000 F400.0(Penetrate)
G01 X114.790759 Y211.987789 Z-0.125000 F800.000000
G01 X125.029053 Y192.243294 Z-0.125000
G01 X131.524637 Y164.126684 Z-0.125000
G01 X121.575019 Y134.566589 Z-0.125000
G01 X128.988244 Y116.043923 Z-0.125000
G01 X128.926367 Y85.736332 Z-0.125000
G01 X128.013907 Y61.367571 Z-0.125000
G00 Z3.000000

(End cutting path id: polyline248)


(Start cutting path id: polyline250)
(Change tool to Default tool)

G00 Z3.000000
G00 X131.920331 Y242.955271

G00 Z4.875000 (Fast pre-penetrate)
G01 Z-0.125000 F400.0(Penetrate)
G01 X113.227458 Y211.487748 Z-0.125000 F800.000000
G01 X124.084405 Y192.733001 Z-0.125000
G01 X130.193313 Y163.812202 Z-0.125000
G01 X120.604612 Y135.128543 Z-0.125000
G01 X128.512731 Y116.342903 Z-0.125000
G01 X127.600270 Y84.968168 Z-0.125000
G01 X127.409500 Y61.656289 Z-0.125000
G00 Z3.000000

(End cutting path id: polyline250)


(Start cutting path id: polyline252)
(Change tool to Default tool)

G00 Z3.000000
G00 X131.388119 Y243.243936

G00 Z4.875000 (Fast pre-penetrate)
G01 Z-0.125000 F400.0(Penetrate)
G01 X111.664158 Y210.987689 Z-0.125000 F800.000000
G01 X123.139709 Y193.222762 Z-0.125000
G01 X128.862038 Y163.497721 Z-0.125000
G01 X119.634157 Y135.690461 Z-0.125000
G01 X128.037217 Y116.641901 Z-0.125000
G01 X126.274127 Y84.200041 Z-0.125000
G01 X126.805094 Y61.944972 Z-0.125000
G00 Z3.000000

(End cutting path id: polyline252)


(Start cutting path id: polyline254)
(Change tool to Default tool)

G00 Z3.000000
G00 X130.855858 Y243.532672

G00 Z4.875000 (Fast pre-penetrate)
G01 Z-0.125000 F400.0(Penetrate)
G01 X110.100908 Y210.487612 Z-0.125000 F800.000000
G01 X122.195061 Y193.712523 Z-0.125000
G01 X127.530763 Y163.183276 Z-0.125000
G01 X118.663750 Y136.252361 Z-0.125000
G01 X127.561704 Y116.940881 Z-0.125000
G01 X124.947985 Y83.431913 Z-0.125000
G01 X126.200689 Y62.233636 Z-0.125000
G00 Z3.000000

(End cutting path id: polyline254)


(Start cutting path id: polyline256)
(Change tool to Default tool)

G00 Z3.000000
G00 X130.323645 Y243.821337

G00 Z4.875000 (Fast pre-penetrate)
G01 Z-0.125000 F400.0(Penetrate)
G01 X108.537608 Y209.987589 Z-0.125000 F800.000000
G01 X121.250415 Y194.202284 Z-0.125000
G01 X126.199441 Y162.868795 Z-0.125000
G01 X117.693296 Y136.814316 Z-0.125000
G01 X127.086142 Y117.239916 Z-0.125000
G01 X123.621843 Y82.663803 Z-0.125000
G01 X125.596283 Y62.522373 Z-0.125000
G00 Z3.000000

(End cutting path id: polyline256)


(Start cutting path id: polyline258)
(Change tool to Default tool)

G00 Z3.000000
G00 X129.791384 Y244.110019

G00 Z4.875000 (Fast pre-penetrate)
G01 Z-0.125000 F400.0(Penetrate)
G01 X106.974356 Y209.487512 Z-0.125000 F800.000000
G01 X120.305768 Y194.691991 Z-0.125000
G01 X124.868166 Y162.554368 Z-0.125000
G01 X116.722890 Y137.376216 Z-0.125000
G01 X126.610627 Y117.538914 Z-0.125000
G01 X122.295700 Y81.895676 Z-0.125000
G01 X124.991877 Y62.811037 Z-0.125000
G00 Z3.000000

(End cutting path id: polyline258)


(Start cutting path id: polyline260)
(Change tool to Default tool)

G00 Z3.000000
G00 X129.259172 Y244.398738

G00 Z4.875000 (Fast pre-penetrate)
G01 Z-0.125000 F400.0(Penetrate)
G01 X105.411056 Y208.987435 Z-0.125000 F800.000000
G01 X119.361120 Y195.181752 Z-0.125000
G01 X123.536842 Y162.239887 Z-0.125000
G01 X115.752483 Y137.938116 Z-0.125000
G01 X126.135115 Y117.837949 Z-0.125000
G01 X120.969558 Y81.127548 Z-0.125000
G01 X124.387472 Y63.099720 Z-0.125000
G00 Z3.000000

(End cutting path id: polyline260)


(Start cutting path id: polyline262)
(Change tool to Default tool)

G00 Z3.000000
G00 X128.726960 Y244.687420

G00 Z4.875000 (Fast pre-penetrate)
G01 Z-0.125000 F400.0(Penetrate)
G01 X103.847757 Y208.487413 Z-0.125000 F800.000000
G01 X118.416473 Y195.671513 Z-0.125000
G01 X122.205567 Y161.925406 Z-0.125000
G01 X114.782028 Y138.500034 Z-0.125000
G01 X125.659553 Y118.136929 Z-0.125000
G01 X119.643416 Y80.359384 Z-0.125000
G01 X123.783066 Y63.388438 Z-0.125000
G00 Z3.000000

(End cutting path id: polyline262)


(Start cutting path id: polyline264)
(Change tool to Default tool)

G00 Z3.000000
G00 X128.194698 Y244.976084

G00 Z4.875000 (Fast pre-penetrate)
G01 Z-0.125000 F400.0(Penetrate)
G01 X102.284504 Y207.987336 Z-0.125000 F800.000000
G01 X117.471825 Y196.161274 Z-0.125000
G01 X120.874293 Y161.610906 Z-0.125000
G01 X113.811621 Y139.061988 Z-0.125000
G01 X125.184040 Y118.435927 Z-0.125000
G01 X118.317273 Y79.591257 Z-0.125000
G01 X123.178661 Y63.677121 Z-0.125000
G00 Z3.000000

(End cutting path id: polyline264)


(Start cutting path id: polyline266)
(Change tool to Default tool)

G00 Z3.000000
G00 X127.662486 Y245.264821

G00 Z4.875000 (Fast pre-penetrate)
G01 Z-0.125000 F400.0(Penetrate)
G01 X100.721253 Y207.487258 Z-0.125000 F800.000000
G01 X116.527178 Y196.650981 Z-0.125000
G01 X119.542969 Y161.296479 Z-0.125000
G01 X112.841168 Y139.623888 Z-0.125000
G01 X124.708525 Y118.734907 Z-0.125000
G01 X116.991131 Y78.823129 Z-0.125000
G01 X122.574255 Y63.965803 Z-0.125000
G00 Z3.000000

(End cutting path id: polyline266)


(Start cutting path id: polyline154)
(Change tool to Default tool)

G00 Z3.000000
G00 X127.130225 Y245.553485

G00 Z4.875000 (Fast pre-penetrate)
G01 Z-0.125000 F400.0(Penetrate)
G01 X99.157954 Y206.987236 Z-0.125000 F800.000000
G01 X115.582530 Y197.140742 Z-0.125000
G01 X118.211694 Y160.981998 Z-0.125000
G01 X111.870759 Y140.185788 Z-0.125000
G01 X124.233012 Y119.033942 Z-0.125000
G01 X115.664988 Y78.055020 Z-0.125000
G01 X121.969850 Y64.254522 Z-0.125000
G00 Z3.000000

(End cutting path id: polyline154)


(Start cutting path id: polyline540)
(Change tool to Default tool)

G00 Z3.000000
G00 X121.753511 Y245.842168

G00 Z4.875000 (Fast pre-penetrate)
G01 Z-0.125000 F400.0(Penetrate)
G01 X97.699226 Y207.956388 Z-0.125000 F800.000000
G01 X112.035917 Y196.393246 Z-0.125000
G01 X113.118474 Y160.512869 Z-0.125000
G01 X109.458272 Y140.979715 Z-0.125000
G01 X119.222298 Y118.173007 Z-0.125000
G01 X111.504903 Y79.529434 Z-0.125000
G01 X118.144874 Y63.460595 Z-0.125000
G00 Z3.000000

(End cutting path id: polyline540)


(Start cutting path id: polyline538)
(Change tool to Default tool)

G00 Z3.000000
G00 X118.523874 Y245.842168

G00 Z4.875000 (Fast pre-penetrate)
G01 Z-0.125000 F400.0(Penetrate)
G01 X97.768875 Y208.935910 Z-0.125000 F800.000000
G01 X110.301272 Y195.568427 Z-0.125000
G01 X110.610575 Y160.409782 Z-0.125000
G01 X108.496930 Y141.134381 Z-0.125000
G01 X116.198831 Y117.399713 Z-0.125000
G01 X109.615608 Y81.024425 Z-0.125000
G01 X115.997795 Y62.738844 Z-0.125000
G00 Z3.000000

(End cutting path id: polyline538)


(Start cutting path id: polyline334)
(Change tool to Default tool)

G00 Z3.000000
G00 X115.294190 Y245.842168

G00 Z4.875000 (Fast pre-penetrate)
G01 Z-0.125000 F400.0(Penetrate)
G01 X97.838574 Y209.915396 Z-0.125000 F800.000000
G01 X108.566629 Y194.743607 Z-0.125000
G01 X108.102628 Y160.306641 Z-0.125000
G01 X107.535590 Y141.289029 Z-0.125000
G01 X113.175412 Y116.626455 Z-0.125000
G01 X107.726313 Y82.519453 Z-0.125000
G01 X113.850717 Y62.017111 Z-0.125000
G00 Z3.000000

(End cutting path id: polyline334)


(Start cutting path id: polyline336)
(Change tool to Default tool)

G00 Z3.000000
G00 X113.679371 Y245.842168

G00 Z4.875000 (Fast pre-penetrate)
G01 Z-0.125000 F400.0(Penetrate)
G01 X97.873400 Y210.405157 Z-0.125000 F800.000000
G01 X107.699307 Y194.331170 Z-0.125000
G01 X106.848677 Y160.255080 Z-0.125000
G01 X107.054896 Y141.366353 Z-0.125000
G01 X111.663680 Y116.239780 Z-0.125000
G01 X106.781666 Y83.266949 Z-0.125000
G01 X112.777176 Y61.656289 Z-0.125000
G00 Z3.000000

(End cutting path id: polyline336)


(Start cutting path id: polyline338)
(Change tool to Default tool)

G00 Z3.000000
G00 X112.064554 Y245.842168

G00 Z4.875000 (Fast pre-penetrate)
G01 Z-0.125000 F400.0(Penetrate)
G01 X97.908273 Y210.894900 Z-0.125000 F800.000000
G01 X106.831985 Y193.918733 Z-0.125000
G01 X105.594728 Y160.203555 Z-0.125000
G01 X106.574202 Y141.443677 Z-0.125000
G01 X110.151945 Y115.853142 Z-0.125000
G01 X105.837018 Y84.014445 Z-0.125000
G01 X111.703685 Y61.295432 Z-0.125000
G00 Z3.000000

(End cutting path id: polyline338)


(Start cutting path id: polyline340)
(Change tool to Default tool)

G00 Z3.000000
G00 X110.449687 Y245.842168

G00 Z4.875000 (Fast pre-penetrate)
G01 Z-0.125000 F400.0(Penetrate)
G01 X97.943098 Y211.384625 Z-0.125000 F800.000000
G01 X105.964663 Y193.506350 Z-0.125000
G01 X104.340730 Y160.151993 Z-0.125000
G01 X108.640212 Y115.466522 Z-0.125000
G01 X104.892371 Y84.761995 Z-0.125000
G01 X110.630147 Y60.934556 Z-0.125000
G00 Z3.000000

(End cutting path id: polyline340)


(Start cutting path id: polyline342)
(Change tool to Default tool)

G00 Z3.000000
G00 X108.834870 Y245.842168

G00 Z4.875000 (Fast pre-penetrate)
G01 Z-0.125000 F400.0(Penetrate)
G01 X97.977924 Y211.874386 Z-0.125000 F800.000000
G01 X105.097342 Y193.093913 Z-0.125000
G01 X103.086781 Y160.100432 Z-0.125000
G01 X105.612860 Y141.598379 Z-0.125000
G01 X107.128480 Y115.079883 Z-0.125000
G01 X103.947723 Y85.509491 Z-0.125000
G01 X109.556606 Y60.573681 Z-0.125000
G00 Z3.000000

(End cutting path id: polyline342)


(Start cutting path id: polyline344)
(Change tool to Default tool)

G00 Z3.000000
G00 X107.220052 Y245.842168

G00 Z4.875000 (Fast pre-penetrate)
G01 Z-0.125000 F400.0(Penetrate)
G01 X98.012797 Y212.364147 Z-0.125000 F800.000000
G01 X104.230018 Y192.681476 Z-0.125000
G01 X101.832832 Y160.048907 Z-0.125000
G01 X105.132166 Y141.675649 Z-0.125000
G01 X105.616745 Y114.693209 Z-0.125000
G01 X103.003075 Y86.256986 Z-0.125000
G01 X108.483068 Y60.212823 Z-0.125000
G00 Z3.000000

(End cutting path id: polyline344)


(Start cutting path id: polyline346)
(Change tool to Default tool)

G00 Z3.000000
G00 X105.605186 Y245.842168

G00 Z4.875000 (Fast pre-penetrate)
G01 Z-0.125000 F400.0(Penetrate)
G01 X98.047623 Y212.853854 Z-0.125000 F800.000000
G01 X103.362696 Y192.269093 Z-0.125000
G01 X100.578881 Y159.997345 Z-0.125000
G01 X104.651471 Y141.752973 Z-0.125000
G01 X104.105060 Y114.306589 Z-0.125000
G01 X102.058428 Y87.004537 Z-0.125000
G01 X107.409528 Y59.851947 Z-0.125000
G00 Z3.000000

(End cutting path id: polyline346)


(Start cutting path id: polyline348)
(Change tool to Default tool)

G00 Z3.000000
G00 X103.990368 Y245.842168

G00 Z4.875000 (Fast pre-penetrate)
G01 Z-0.125000 F400.0(Penetrate)
G01 X98.082495 Y213.343615 Z-0.125000 F800.000000
G01 X102.495375 Y191.856656 Z-0.125000
G01 X99.324885 Y159.945784 Z-0.125000
G01 X104.170826 Y141.830351 Z-0.125000
G01 X101.113780 Y87.752032 Z-0.125000
G01 X106.335989 Y59.491090 Z-0.125000
G00 Z3.000000

(End cutting path id: polyline348)


(Start cutting path id: polyline350)
(Change tool to Default tool)

G00 Z3.000000
G00 X102.375549 Y245.842168

G00 Z4.875000 (Fast pre-penetrate)
G01 Z-0.125000 F400.0(Penetrate)
G01 X98.117321 Y213.833376 Z-0.125000 F800.000000
G01 X101.628053 Y191.444219 Z-0.125000
G01 X98.070934 Y159.894259 Z-0.125000
G01 X103.690132 Y141.907675 Z-0.125000
G01 X101.081594 Y113.533276 Z-0.125000
G01 X100.169133 Y88.499528 Z-0.125000
G01 X105.262498 Y59.130214 Z-0.125000
G00 Z3.000000

(End cutting path id: polyline350)


(Start cutting path id: polyline144)
(Change tool to Default tool)

G00 Z3.000000
G00 X61.193659 Y240.609589

G00 Z4.875000 (Fast pre-penetrate)
G01 Z-0.125000 F400.0(Penetrate)
G01 X68.818235 Y206.636676 Z-0.125000 F800.000000
G01 X67.921220 Y196.883007 Z-0.125000
G01 X54.765039 Y160.219001 Z-0.125000
G01 X72.705282 Y138.804199 Z-0.125000
G01 X66.127191 Y105.728245 Z-0.125000
G01 X55.363065 Y84.761959 Z-0.125000
G01 X64.333163 Y56.171070 Z-0.125000
G00 Z3.000000

(End cutting path id: polyline144)


(Start cutting path id: polyline146)
(Change tool to Default tool)

G00 Z3.000000
G00 X60.841857 Y240.609589

G00 Z4.875000 (Fast pre-penetrate)
G01 Z-0.125000 F400.0(Penetrate)
G01 X67.553972 Y206.543869 Z-0.125000 F800.000000
G01 X67.059031 Y196.326238 Z-0.125000
G01 X54.201886 Y160.765473 Z-0.125000
G01 X71.600803 Y138.680481 Z-0.125000
G01 X65.110350 Y105.836517 Z-0.125000
G01 X54.748345 Y84.437198 Z-0.125000
G01 X63.440080 Y56.495867 Z-0.125000
G00 Z3.000000

(End cutting path id: polyline146)


(Start cutting path id: polyline356)
(Change tool to Default tool)

G00 Z3.000000
G00 X60.490054 Y240.609589

G00 Z4.875000 (Fast pre-penetrate)
G01 Z-0.125000 F400.0(Penetrate)
G01 X66.289662 Y206.451080 Z-0.125000 F800.000000
G01 X66.196891 Y195.769469 Z-0.125000
G01 X53.638735 Y161.311926 Z-0.125000
G01 X70.496373 Y138.556780 Z-0.125000
G01 X64.093560 Y105.944789 Z-0.125000
G01 X54.133629 Y84.112401 Z-0.125000
G01 X62.547001 Y56.820664 Z-0.125000
G00 Z3.000000

(End cutting path id: polyline356)


(Start cutting path id: polyline358)
(Change tool to Default tool)

G00 Z3.000000
G00 X60.138252 Y240.609589

G00 Z4.875000 (Fast pre-penetrate)
G01 Z-0.125000 F400.0(Penetrate)
G01 X65.025398 Y206.358310 Z-0.125000 F800.000000
G01 X65.334700 Y195.212700 Z-0.125000
G01 X53.075581 Y161.858379 Z-0.125000
G01 X69.391892 Y138.433026 Z-0.125000
G01 X63.076717 Y106.053042 Z-0.125000
G01 X53.518908 Y83.787658 Z-0.125000
G01 X61.653870 Y57.145407 Z-0.125000
G00 Z3.000000

(End cutting path id: polyline358)


(Start cutting path id: polyline360)
(Change tool to Default tool)

G00 Z3.000000
G00 X59.786448 Y240.609589

G00 Z4.875000 (Fast pre-penetrate)
G01 Z-0.125000 F400.0(Penetrate)
G01 X63.761135 Y206.265503 Z-0.125000 F800.000000
G01 X64.472558 Y194.655931 Z-0.125000
G01 X52.512428 Y162.404851 Z-0.125000
G01 X68.287413 Y138.309307 Z-0.125000
G01 X62.059925 Y106.161314 Z-0.125000
G01 X52.904237 Y83.462861 Z-0.125000
G01 X60.760789 Y57.470204 Z-0.125000
G00 Z3.000000

(End cutting path id: polyline360)


(Start cutting path id: polyline362)
(Change tool to Default tool)

G00 Z3.000000
G00 X59.434647 Y240.609589

G00 Z4.875000 (Fast pre-penetrate)
G01 Z-0.125000 F400.0(Penetrate)
G01 X63.610369 Y194.099143 Z-0.125000 F800.000000
G01 X51.949228 Y162.951304 Z-0.125000
G01 X67.182982 Y138.185589 Z-0.125000
G01 X61.043084 Y106.269568 Z-0.125000
G01 X52.289517 Y83.138064 Z-0.125000
G01 X59.867708 Y57.794965 Z-0.125000
G00 Z3.000000

(End cutting path id: polyline362)


(Start cutting path id: polyline364)
(Change tool to Default tool)

G00 Z3.000000
G00 X59.082845 Y240.609589

G00 Z4.875000 (Fast pre-penetrate)
G01 Z-0.125000 F400.0(Penetrate)
G01 X61.232562 Y206.079907 Z-0.125000 F800.000000
G01 X62.748229 Y193.542374 Z-0.125000
G01 X51.386075 Y163.497721 Z-0.125000
G01 X66.078503 Y138.061834 Z-0.125000
G01 X60.026245 Y106.377840 Z-0.125000
G01 X51.674799 Y82.813266 Z-0.125000
G01 X58.974579 Y58.119762 Z-0.125000
G00 Z3.000000

(End cutting path id: polyline364)


(Start cutting path id: polyline366)
(Change tool to Default tool)

G00 Z3.000000
G00 X58.731042 Y240.609589

G00 Z4.875000 (Fast pre-penetrate)
G01 Z-0.125000 F400.0(Penetrate)
G01 X59.968299 Y205.987136 Z-0.125000 F800.000000
G01 X61.886039 Y192.985659 Z-0.125000
G01 X50.822923 Y164.044175 Z-0.125000
G01 X64.974024 Y137.938116 Z-0.125000
G01 X59.009452 Y106.486111 Z-0.125000
G01 X51.060080 Y82.488524 Z-0.125000
G01 X58.081498 Y58.444541 Z-0.125000
G00 Z3.000000

(End cutting path id: polyline366)


(Start cutting path id: polyline368)
(Change tool to Default tool)

G00 Z3.000000
G00 X58.027437 Y240.609589

G00 Z4.875000 (Fast pre-penetrate)
G01 Z-0.125000 F400.0(Penetrate)
G01 X57.439772 Y205.801540 Z-0.125000 F800.000000
G01 X60.161708 Y191.872103 Z-0.125000
G01 X49.696570 Y165.137099 Z-0.125000
G01 X62.765113 Y137.690661 Z-0.125000
G01 X56.975772 Y106.702582 Z-0.125000
G01 X49.830642 Y81.838984 Z-0.125000
G01 X56.295288 Y59.094100 Z-0.125000
G00 Z3.000000

(End cutting path id: polyline368)


(Start cutting path id: polyline370)
(Change tool to Default tool)

G00 Z3.000000
G00 X56.268474 Y240.609589

G00 Z4.875000 (Fast pre-penetrate)
G01 Z-0.125000 F400.0(Penetrate)
G01 X51.118411 Y205.337542 Z-0.125000 F800.000000
G01 X55.850857 Y189.088293 Z-0.125000
G01 X46.880761 Y167.869384 Z-0.125000
G01 X57.242813 Y137.072050 Z-0.125000
G01 X51.891666 Y107.243923 Z-0.125000
G01 X46.757049 Y80.215052 Z-0.125000
G01 X51.829786 Y60.718031 Z-0.125000
G00 Z3.000000

(End cutting path id: polyline370)


(Start cutting path id: polyline372)
(Change tool to Default tool)

G00 Z3.000000
G00 X51.695041 Y240.609589

G00 Z4.875000 (Fast pre-penetrate)
G01 Z-0.125000 F400.0(Penetrate)
G01 X34.682801 Y204.131233 Z-0.125000 F800.000000
G01 X44.642684 Y181.850347 Z-0.125000
G01 X39.559635 Y174.973313 Z-0.125000
G01 X42.884777 Y135.463620 Z-0.125000
G01 X38.672933 Y108.651275 Z-0.125000
G01 X38.765758 Y75.992943 Z-0.125000
G01 X40.219545 Y64.940140 Z-0.125000
G00 Z3.000000

(End cutting path id: polyline372)


(Start cutting path id: polyline374)
(Change tool to Default tool)

G00 Z3.000000
G00 X40.382345 Y240.609589

G00 Z4.875000 (Fast pre-penetrate)
G01 Z-0.125000 F400.0(Penetrate)
G01 X25.009482 Y206.915043 Z-0.125000 F800.000000
G01 X36.268455 Y182.963886 Z-0.125000
G01 X32.732011 Y172.436922 Z-0.125000
G01 X31.468946 Y135.711075 Z-0.125000
G01 X30.855476 Y110.352530 Z-0.125000
G01 X28.906843 Y76.333132 Z-0.125000
G01 X31.288537 Y63.857531 Z-0.125000
G00 Z3.000000

(End cutting path id: polyline374)


(Start cutting path id: polyline376)
(Change tool to Default tool)

G00 Z3.000000
G00 X31.099348 Y240.609589

G00 Z4.875000 (Fast pre-penetrate)
G01 Z-0.125000 F400.0(Penetrate)
G01 X18.757770 Y209.513275 Z-0.125000 F800.000000
G01 X30.449805 Y184.912578 Z-0.125000
G01 X27.743362 Y169.261289 Z-0.125000
G01 X23.412892 Y136.144090 Z-0.125000
G01 X25.794634 Y111.651664 Z-0.125000
G01 X21.356043 Y77.199252 Z-0.125000
G01 X25.036824 Y62.341908 Z-0.125000
G00 Z3.000000

(End cutting path id: polyline376)


(Start cutting path id: polyline378)
(Change tool to Default tool)

G00 Z3.000000
G00 X24.468683 Y240.609589

G00 Z4.875000 (Fast pre-penetrate)
G01 Z-0.125000 F400.0(Penetrate)
G01 X14.292269 Y211.369178 Z-0.125000 F800.000000
G01 X26.293652 Y186.304483 Z-0.125000
G01 X24.180055 Y166.993003 Z-0.125000
G01 X17.658616 Y136.453440 Z-0.125000
G01 X22.179762 Y112.579571 Z-0.125000
G01 X15.962588 Y77.817863 Z-0.125000
G01 X20.571371 Y61.259299 Z-0.125000
G00 Z3.000000

(End cutting path id: polyline378)


(Start cutting path id: polyline380)
(Change tool to Default tool)

G00 Z3.000000
G00 X20.490256 Y240.609589

G00 Z4.875000 (Fast pre-penetrate)
G01 Z-0.125000 F400.0(Penetrate)
G01 X11.612978 Y212.482717 Z-0.125000 F800.000000
G01 X23.799951 Y187.139618 Z-0.125000
G01 X22.042043 Y165.632027 Z-0.125000
G01 X14.206069 Y136.639036 Z-0.125000
G01 X20.010857 Y113.136340 Z-0.125000
G01 X12.726524 Y78.189036 Z-0.125000
G01 X17.892031 Y60.609759 Z-0.125000
G00 Z3.000000

(End cutting path id: polyline380)


(Start cutting path id: polyline382)
(Change tool to Default tool)

G00 Z3.000000
G00 X17.838019 Y240.609589

G00 Z4.875000 (Fast pre-penetrate)
G01 Z-0.125000 F400.0(Penetrate)
G01 X9.826768 Y213.225027 Z-0.125000 F800.000000
G01 X22.137452 Y187.696388 Z-0.125000
G01 X20.616702 Y164.724698 Z-0.125000
G01 X11.904340 Y136.762754 Z-0.125000
G01 X18.564888 Y113.507532 Z-0.125000
G01 X10.569131 Y78.436509 Z-0.125000
G01 X16.105870 Y60.176708 Z-0.125000
G00 Z3.000000

(End cutting path id: polyline382)


(Start cutting path id: polyline384)
(Change tool to Default tool)

G00 Z3.000000
G00 X16.511876 Y240.609589

G00 Z4.875000 (Fast pre-penetrate)
G01 Z-0.125000 F400.0(Penetrate)
G01 X8.933687 Y213.596219 Z-0.125000 F800.000000
G01 X21.306251 Y187.974754 Z-0.125000
G01 X19.904030 Y164.271016 Z-0.125000
G01 X10.753474 Y136.824577 Z-0.125000
G01 X17.841904 Y113.693109 Z-0.125000
G01 X9.490458 Y78.560228 Z-0.125000
G01 X15.212740 Y59.960165 Z-0.125000
G00 Z3.000000

(End cutting path id: polyline384)


(Start cutting path id: polyline386)
(Change tool to Default tool)

G00 Z3.000000
G00 X15.185734 Y240.609589

G00 Z4.875000 (Fast pre-penetrate)
G01 Z-0.125000 F400.0(Penetrate)
G01 X8.040605 Y213.967392 Z-0.125000 F800.000000
G01 X20.475002 Y188.253157 Z-0.125000
G01 X19.191360 Y163.817369 Z-0.125000
G01 X9.602610 Y136.886455 Z-0.125000
G01 X17.118969 Y113.878705 Z-0.125000
G01 X8.411787 Y78.683928 Z-0.125000
G01 X14.319660 Y59.743694 Z-0.125000
G00 Z3.000000

(End cutting path id: polyline386)


(Start cutting path id: polyline138)
(Change tool to Default tool)

G00 Z3.000000
G00 X13.859592 Y240.609589

G00 Z4.875000 (Fast pre-penetrate)
G01 Z-0.125000 F400.0(Penetrate)
G01 X7.147477 Y214.338584 Z-0.125000 F800.000000
G01 X19.643753 Y188.531523 Z-0.125000
G01 X18.478690 Y163.363687 Z-0.125000
G01 X8.451745 Y136.948332 Z-0.125000
G01 X16.395985 Y114.064301 Z-0.125000
G01 X7.333067 Y78.807701 Z-0.125000
G01 X13.426577 Y59.527150 Z-0.125000
G00 Z3.000000

(End cutting path id: polyline138)


(Start cutting path id: polyline136)
(Change tool to Default tool)

G00 Z3.000000
G00 X12.533449 Y240.609589

G00 Z4.875000 (Fast pre-penetrate)
G01 Z-0.125000 F400.0(Penetrate)
G01 X6.254394 Y214.709757 Z-0.125000 F800.000000
G01 X18.812552 Y188.809890 Z-0.125000
G01 X17.766018 Y162.910059 Z-0.125000
G01 X7.300879 Y137.010173 Z-0.125000
G01 X15.673001 Y114.249897 Z-0.125000
G01 X6.254394 Y78.931401 Z-0.125000
G01 X12.533449 Y59.310625 Z-0.125000
G00 Z3.000000

(End cutting path id: polyline136)


(Start cutting path id: polyline388)
(Change tool to Default tool)

G00 Z3.000000
G00 X19.164161 Y240.609589

G00 Z4.875000 (Fast pre-penetrate)
G01 Z-0.125000 F400.0(Penetrate)
G01 X10.719897 Y212.853908 Z-0.125000 F800.000000
G01 X22.968703 Y187.417967 Z-0.125000
G01 X21.329372 Y165.178345 Z-0.125000
G01 X13.055204 Y136.700859 Z-0.125000
G01 X19.287872 Y113.321936 Z-0.125000
G01 X11.647851 Y78.312754 Z-0.125000
G01 X16.998951 Y60.393234 Z-0.125000
G00 Z3.000000

(End cutting path id: polyline388)


(Start cutting path id: polyline390)
(Change tool to Default tool)

G00 Z3.000000
G00 X21.816399 Y240.609589

G00 Z4.875000 (Fast pre-penetrate)
G01 Z-0.125000 F400.0(Penetrate)
G01 X12.506106 Y212.111543 Z-0.125000 F800.000000
G01 X24.631153 Y186.861198 Z-0.125000
G01 X22.754714 Y166.085674 Z-0.125000
G01 X15.356886 Y136.577158 Z-0.125000
G01 X20.733794 Y112.950744 Z-0.125000
G01 X13.805244 Y78.065336 Z-0.125000
G01 X18.785161 Y60.826285 Z-0.125000
G00 Z3.000000

(End cutting path id: polyline390)


(Start cutting path id: polyline392)
(Change tool to Default tool)

G00 Z3.000000
G00 X23.142541 Y240.609589

G00 Z4.875000 (Fast pre-penetrate)
G01 Z-0.125000 F400.0(Penetrate)
G01 X13.399188 Y211.740352 Z-0.125000 F800.000000
G01 X25.462403 Y186.582849 Z-0.125000
G01 X23.467385 Y166.539320 Z-0.125000
G01 X16.507752 Y136.515281 Z-0.125000
G01 X21.456778 Y112.765167 Z-0.125000
G01 X14.883915 Y77.941617 Z-0.125000
G01 X19.678242 Y61.042828 Z-0.125000
G00 Z3.000000

(End cutting path id: polyline392)


(Start cutting path id: polyline394)
(Change tool to Default tool)

G00 Z3.000000
G00 X25.794826 Y240.609589

G00 Z4.875000 (Fast pre-penetrate)
G01 Z-0.125000 F400.0(Penetrate)
G01 X15.185399 Y210.997987 Z-0.125000 F800.000000
G01 X27.124902 Y186.026062 Z-0.125000
G01 X24.892678 Y167.446649 Z-0.125000
G01 X18.809480 Y136.391563 Z-0.125000
G01 X22.902746 Y112.393975 Z-0.125000
G01 X17.041259 Y77.694144 Z-0.125000
G01 X21.464452 Y61.475843 Z-0.125000
G00 Z3.000000

(End cutting path id: polyline394)


(Start cutting path id: polyline396)
(Change tool to Default tool)

G00 Z3.000000
G00 X27.120968 Y240.609589

G00 Z4.875000 (Fast pre-penetrate)
G01 Z-0.125000 F400.0(Penetrate)
G01 X16.078479 Y210.626813 Z-0.125000 F800.000000
G01 X27.956104 Y185.747714 Z-0.125000
G01 X25.605350 Y167.900332 Z-0.125000
G01 X19.960347 Y136.329685 Z-0.125000
G01 X23.625730 Y112.208397 Z-0.125000
G01 X18.119979 Y77.570444 Z-0.125000
G01 X22.357533 Y61.692368 Z-0.125000
G00 Z3.000000

(End cutting path id: polyline396)


(Start cutting path id: polyline398)
(Change tool to Default tool)

G00 Z3.000000
G00 X28.447111 Y240.609589

G00 Z4.875000 (Fast pre-penetrate)
G01 Z-0.125000 F400.0(Penetrate)
G01 X16.971560 Y210.255622 Z-0.125000 F800.000000
G01 X28.787353 Y185.469347 Z-0.125000
G01 X26.318020 Y168.353978 Z-0.125000
G01 X21.111211 Y136.267862 Z-0.125000
G01 X24.348665 Y112.022802 Z-0.125000
G01 X19.198651 Y77.446671 Z-0.125000
G01 X23.250662 Y61.908893 Z-0.125000
G00 Z3.000000

(End cutting path id: polyline398)


(Start cutting path id: polyline400)
(Change tool to Default tool)

G00 Z3.000000
G00 X29.773206 Y240.609589

G00 Z4.875000 (Fast pre-penetrate)
G01 Z-0.125000 F400.0(Penetrate)
G01 X17.864690 Y209.884448 Z-0.125000 F800.000000
G01 X29.618603 Y185.190926 Z-0.125000
G01 X27.030692 Y168.807661 Z-0.125000
G01 X22.262075 Y136.205967 Z-0.125000
G01 X25.071649 Y111.837260 Z-0.125000
G01 X20.277323 Y77.322971 Z-0.125000
G01 X24.143743 Y62.125383 Z-0.125000
G00 Z3.000000

(End cutting path id: polyline400)


(Start cutting path id: polyline402)
(Change tool to Default tool)

G00 Z3.000000
G00 X32.425490 Y240.609589

G00 Z4.875000 (Fast pre-penetrate)
G01 Z-0.125000 F400.0(Penetrate)
G01 X19.650851 Y209.142083 Z-0.125000 F800.000000
G01 X31.281053 Y184.634157 Z-0.125000
G01 X28.456032 Y169.714935 Z-0.125000
G01 X24.563757 Y136.082267 Z-0.125000
G01 X26.517618 Y111.466069 Z-0.125000
G01 X22.434715 Y77.075497 Z-0.125000
G01 X25.929953 Y62.558433 Z-0.125000
G00 Z3.000000

(End cutting path id: polyline402)


(Start cutting path id: polyline404)
(Change tool to Default tool)

G00 Z3.000000
G00 X33.751633 Y240.609589

G00 Z4.875000 (Fast pre-penetrate)
G01 Z-0.125000 F400.0(Penetrate)
G01 X20.543981 Y208.770910 Z-0.125000 F800.000000
G01 X32.112302 Y184.355790 Z-0.125000
G01 X29.168704 Y170.168618 Z-0.125000
G01 X25.714623 Y136.020389 Z-0.125000
G01 X27.240602 Y111.280491 Z-0.125000
G01 X23.513386 Y76.951779 Z-0.125000
G01 X26.823034 Y62.774977 Z-0.125000
G00 Z3.000000

(End cutting path id: polyline404)


(Start cutting path id: polyline406)
(Change tool to Default tool)

G00 Z3.000000
G00 X35.077775 Y240.609589

G00 Z4.875000 (Fast pre-penetrate)
G01 Z-0.125000 F400.0(Penetrate)
G01 X21.437061 Y208.399773 Z-0.125000 F800.000000
G01 X32.943503 Y184.077388 Z-0.125000
G01 X29.881374 Y170.622264 Z-0.125000
G01 X26.865487 Y135.958512 Z-0.125000
G01 X27.963539 Y111.094895 Z-0.125000
G01 X24.592106 Y76.828079 Z-0.125000
G01 X27.716117 Y62.991448 Z-0.125000
G00 Z3.000000

(End cutting path id: polyline406)


(Start cutting path id: polyline408)
(Change tool to Default tool)

G00 Z3.000000
G00 X36.403918 Y240.609589

G00 Z4.875000 (Fast pre-penetrate)
G01 Z-0.125000 F400.0(Penetrate)
G01 X22.330191 Y208.028581 Z-0.125000 F800.000000
G01 X33.774754 Y183.799021 Z-0.125000
G01 X30.593997 Y171.075947 Z-0.125000
G01 X28.016351 Y135.896671 Z-0.125000
G01 X28.686523 Y110.909299 Z-0.125000
G01 X25.670779 Y76.704306 Z-0.125000
G01 X28.609244 Y63.207991 Z-0.125000
G00 Z3.000000

(End cutting path id: polyline408)


(Start cutting path id: polyline410)
(Change tool to Default tool)

G00 Z3.000000
G00 X37.730060 Y240.609589

G00 Z4.875000 (Fast pre-penetrate)
G01 Z-0.125000 F400.0(Penetrate)
G01 X23.223272 Y207.657408 Z-0.125000 F800.000000
G01 X34.606003 Y183.520618 Z-0.125000
G01 X31.306669 Y171.529593 Z-0.125000
G01 X29.167217 Y135.834793 Z-0.125000
G01 X29.409507 Y110.723704 Z-0.125000
G01 X26.749450 Y76.580606 Z-0.125000
G01 X29.502327 Y63.424517 Z-0.125000
G00 Z3.000000

(End cutting path id: polyline410)


(Start cutting path id: polyline412)
(Change tool to Default tool)

G00 Z3.000000
G00 X39.056202 Y240.609589

G00 Z4.875000 (Fast pre-penetrate)
G01 Z-0.125000 F400.0(Penetrate)
G01 X24.116352 Y207.286216 Z-0.125000 F800.000000
G01 X35.437253 Y183.242252 Z-0.125000
G01 X32.019339 Y171.983240 Z-0.125000
G01 X30.318082 Y135.772916 Z-0.125000
G01 X30.132491 Y110.538126 Z-0.125000
G01 X27.828123 Y76.456887 Z-0.125000
G01 X30.395455 Y63.641042 Z-0.125000
G00 Z3.000000

(End cutting path id: polyline412)


(Start cutting path id: polyline414)
(Change tool to Default tool)

G00 Z3.000000
G00 X41.708487 Y240.609589

G00 Z4.875000 (Fast pre-penetrate)
G01 Z-0.125000 F400.0(Penetrate)
G01 X25.902563 Y206.543869 Z-0.125000 F800.000000
G01 X37.099703 Y182.685483 Z-0.125000
G01 X33.444681 Y172.890569 Z-0.125000
G01 X32.619812 Y135.649198 Z-0.125000
G01 X29.985514 Y76.209414 Z-0.125000
G01 X32.181618 Y64.074057 Z-0.125000
G00 Z3.000000

(End cutting path id: polyline414)


(Start cutting path id: polyline416)
(Change tool to Default tool)

G00 Z3.000000
G00 X43.034631 Y240.609589

G00 Z4.875000 (Fast pre-penetrate)
G01 Z-0.125000 F400.0(Penetrate)
G01 X26.795645 Y206.172678 Z-0.125000 F800.000000
G01 X37.930954 Y182.407116 Z-0.125000
G01 X34.157353 Y173.344251 Z-0.125000
G01 X33.770676 Y135.587320 Z-0.125000
G01 X32.301444 Y109.981339 Z-0.125000
G01 X31.064187 Y76.085714 Z-0.125000
G01 X33.074746 Y64.290582 Z-0.125000
G00 Z3.000000

(End cutting path id: polyline416)


(Start cutting path id: polyline418)
(Change tool to Default tool)

G00 Z3.000000
G00 X44.360773 Y240.609589

G00 Z4.875000 (Fast pre-penetrate)
G01 Z-0.125000 F400.0(Penetrate)
G01 X27.688773 Y205.801540 Z-0.125000 F800.000000
G01 X38.762202 Y182.128714 Z-0.125000
G01 X34.869976 Y173.797879 Z-0.125000
G01 X34.921537 Y135.525497 Z-0.125000
G01 X33.024424 Y109.795761 Z-0.125000
G01 X32.142854 Y75.961995 Z-0.125000
G01 X33.967825 Y64.507126 Z-0.125000
G00 Z3.000000

(End cutting path id: polyline418)


(Start cutting path id: polyline420)
(Change tool to Default tool)

G00 Z3.000000
G00 X45.686916 Y240.609589

G00 Z4.875000 (Fast pre-penetrate)
G01 Z-0.125000 F400.0(Penetrate)
G01 X28.581856 Y205.430367 Z-0.125000 F800.000000
G01 X39.593404 Y181.850347 Z-0.125000
G01 X35.582646 Y174.251580 Z-0.125000
G01 X36.072407 Y135.463620 Z-0.125000
G01 X33.747363 Y109.610165 Z-0.125000
G01 X33.221578 Y75.838241 Z-0.125000
G01 X34.860909 Y64.723597 Z-0.125000
G00 Z3.000000

(End cutting path id: polyline420)


(Start cutting path id: polyline422)
(Change tool to Default tool)

G00 Z3.000000
G00 X47.013058 Y240.609589

G00 Z4.875000 (Fast pre-penetrate)
G01 Z-0.125000 F400.0(Penetrate)
G01 X29.474936 Y205.059175 Z-0.125000 F800.000000
G01 X40.424654 Y181.571981 Z-0.125000
G01 X36.295316 Y174.705208 Z-0.125000
G01 X37.223271 Y135.401725 Z-0.125000
G01 X34.470347 Y109.424569 Z-0.125000
G01 X34.300253 Y75.714522 Z-0.125000
G01 X35.754040 Y64.940140 Z-0.125000
G00 Z3.000000

(End cutting path id: polyline422)


(Start cutting path id: polyline424)
(Change tool to Default tool)

G00 Z3.000000
G00 X48.339201 Y240.609589

G00 Z4.875000 (Fast pre-penetrate)
G01 Z-0.125000 F400.0(Penetrate)
G01 X30.368066 Y204.688002 Z-0.125000 F800.000000
G01 X41.255903 Y181.293578 Z-0.125000
G01 X37.007988 Y175.158855 Z-0.125000
G01 X38.374135 Y135.339902 Z-0.125000
G01 X35.193332 Y109.238992 Z-0.125000
G01 X35.378922 Y75.590822 Z-0.125000
G01 X36.647119 Y65.156666 Z-0.125000
G00 Z3.000000

(End cutting path id: polyline424)


(Start cutting path id: polyline426)
(Change tool to Default tool)

G00 Z3.000000
G00 X49.665343 Y240.609589

G00 Z4.875000 (Fast pre-penetrate)
G01 Z-0.125000 F400.0(Penetrate)
G01 X31.261147 Y204.316810 Z-0.125000 F800.000000
G01 X42.087153 Y181.015211 Z-0.125000
G01 X37.720658 Y175.612537 Z-0.125000
G01 X39.525002 Y135.278024 Z-0.125000
G01 X35.916316 Y109.053396 Z-0.125000
G01 X36.457642 Y75.467103 Z-0.125000
G01 X37.540249 Y65.373191 Z-0.125000
G00 Z3.000000

(End cutting path id: polyline426)


(Start cutting path id: polyline140)
(Change tool to Default tool)

G00 Z3.000000
G00 X50.991485 Y240.609589

G00 Z4.875000 (Fast pre-penetrate)
G01 Z-0.125000 F400.0(Penetrate)
G01 X32.154227 Y203.945637 Z-0.125000 F800.000000
G01 X42.918355 Y180.736809 Z-0.125000
G01 X38.433330 Y176.066184 Z-0.125000
G01 X40.675817 Y135.216183 Z-0.125000
G01 X36.639300 Y108.867800 Z-0.125000
G01 X37.536315 Y75.343349 Z-0.125000
G01 X38.433330 Y65.589680 Z-0.125000
G00 Z3.000000

(End cutting path id: polyline140)


(Start cutting path id: polyline142)
(Change tool to Default tool)

G00 Z3.000000
G00 X51.343240 Y240.609589

G00 Z4.875000 (Fast pre-penetrate)
G01 Z-0.125000 F400.0(Penetrate)
G01 X33.418538 Y204.038408 Z-0.125000 F800.000000
G01 X43.780544 Y181.293578 Z-0.125000
G01 X38.996482 Y175.519767 Z-0.125000
G01 X41.780298 Y135.339902 Z-0.125000
G01 X37.656141 Y108.759528 Z-0.125000
G01 X38.151034 Y75.668146 Z-0.125000
G01 X39.326410 Y65.264937 Z-0.125000
G00 Z3.000000

(End cutting path id: polyline142)


(Start cutting path id: polyline428)
(Change tool to Default tool)

G00 Z3.000000
G00 X52.046845 Y240.609589

G00 Z4.875000 (Fast pre-penetrate)
G01 Z-0.125000 F400.0(Penetrate)
G01 X35.947064 Y204.224003 Z-0.125000 F800.000000
G01 X45.504874 Y182.407116 Z-0.125000
G01 X40.122786 Y174.426806 Z-0.125000
G01 X43.989256 Y135.587320 Z-0.125000
G01 X39.689773 Y108.543003 Z-0.125000
G01 X39.380472 Y76.317686 Z-0.125000
G01 X41.112621 Y64.615379 Z-0.125000
G00 Z3.000000

(End cutting path id: polyline428)


(Start cutting path id: polyline430)
(Change tool to Default tool)

G00 Z3.000000
G00 X52.398647 Y240.609589

G00 Z4.875000 (Fast pre-penetrate)
G01 Z-0.125000 F400.0(Penetrate)
G01 X37.211374 Y204.316810 Z-0.125000 F800.000000
G01 X46.367016 Y182.963849 Z-0.125000
G01 X40.685988 Y173.880389 Z-0.125000
G01 X45.093686 Y135.711075 Z-0.125000
G01 X40.706614 Y108.434786 Z-0.125000
G01 X39.995190 Y76.642483 Z-0.125000
G01 X42.005701 Y64.290582 Z-0.125000
G00 Z3.000000

(End cutting path id: polyline430)


(Start cutting path id: polyline432)
(Change tool to Default tool)

G00 Z3.000000
G00 X52.750450 Y240.609589

G00 Z4.875000 (Fast pre-penetrate)
G01 Z-0.125000 F400.0(Penetrate)
G01 X38.475638 Y204.409581 Z-0.125000 F800.000000
G01 X47.229205 Y183.520618 Z-0.125000
G01 X41.249139 Y173.333935 Z-0.125000
G01 X46.198166 Y135.834793 Z-0.125000
G01 X41.723406 Y108.326478 Z-0.125000
G01 X40.609909 Y76.967226 Z-0.125000
G01 X42.898831 Y63.965803 Z-0.125000
G00 Z3.000000

(End cutting path id: polyline432)


(Start cutting path id: polyline434)
(Change tool to Default tool)

G00 Z3.000000
G00 X53.102252 Y240.609589

G00 Z4.875000 (Fast pre-penetrate)
G01 Z-0.125000 F400.0(Penetrate)
G01 X39.739901 Y204.502406 Z-0.125000 F800.000000
G01 X48.091394 Y184.077388 Z-0.125000
G01 X41.812292 Y172.787482 Z-0.125000
G01 X47.302645 Y135.958512 Z-0.125000
G01 X42.740247 Y108.218260 Z-0.125000
G01 X41.224627 Y77.292023 Z-0.125000
G01 X43.791912 Y63.641042 Z-0.125000
G00 Z3.000000

(End cutting path id: polyline434)


(Start cutting path id: polyline436)
(Change tool to Default tool)

G00 Z3.000000
G00 X53.454053 Y240.609589

G00 Z4.875000 (Fast pre-penetrate)
G01 Z-0.125000 F400.0(Penetrate)
G01 X41.004164 Y204.595177 Z-0.125000 F800.000000
G01 X48.953536 Y184.634157 Z-0.125000
G01 X42.375444 Y172.241011 Z-0.125000
G01 X48.407075 Y136.082267 Z-0.125000
G01 X43.757086 Y108.109988 Z-0.125000
G01 X41.839298 Y77.616820 Z-0.125000
G01 X44.684992 Y63.316245 Z-0.125000
G00 Z3.000000

(End cutting path id: polyline436)


(Start cutting path id: polyline438)
(Change tool to Default tool)

G00 Z3.000000
G00 X53.805857 Y240.609589

G00 Z4.875000 (Fast pre-penetrate)
G01 Z-0.125000 F400.0(Penetrate)
G01 X42.268474 Y204.688002 Z-0.125000 F800.000000
G01 X49.815725 Y185.190926 Z-0.125000
G01 X42.938597 Y171.694557 Z-0.125000
G01 X49.511554 Y136.205967 Z-0.125000
G01 X44.773880 Y108.001735 Z-0.125000
G01 X42.454017 Y77.941617 Z-0.125000
G01 X45.578122 Y62.991448 Z-0.125000
G00 Z3.000000

(End cutting path id: polyline438)


(Start cutting path id: polyline440)
(Change tool to Default tool)

G00 Z3.000000
G00 X54.157658 Y240.609589

G00 Z4.875000 (Fast pre-penetrate)
G01 Z-0.125000 F400.0(Penetrate)
G01 X43.532737 Y204.780773 Z-0.125000 F800.000000
G01 X50.677865 Y185.747714 Z-0.125000
G01 X43.501797 Y171.148104 Z-0.125000
G01 X50.616035 Y136.329685 Z-0.125000
G01 X45.790720 Y107.893463 Z-0.125000
G01 X43.068784 Y78.266360 Z-0.125000
G01 X46.471203 Y62.666705 Z-0.125000
G00 Z3.000000

(End cutting path id: polyline440)


(Start cutting path id: polyline442)
(Change tool to Default tool)

G00 Z3.000000
G00 X54.509462 Y240.609589

G00 Z4.875000 (Fast pre-penetrate)
G01 Z-0.125000 F400.0(Penetrate)
G01 X44.797001 Y204.873598 Z-0.125000 F800.000000
G01 X51.540054 Y186.304483 Z-0.125000
G01 X44.064950 Y170.601632 Z-0.125000
G01 X51.720465 Y136.453404 Z-0.125000
G01 X46.807559 Y107.785191 Z-0.125000
G01 X43.683455 Y78.591157 Z-0.125000
G01 X47.364332 Y62.341908 Z-0.125000
G00 Z3.000000

(End cutting path id: polyline442)


(Start cutting path id: polyline444)
(Change tool to Default tool)

G00 Z3.000000
G00 X54.861263 Y240.609589

G00 Z4.875000 (Fast pre-penetrate)
G01 Z-0.125000 F400.0(Penetrate)
G01 X46.061264 Y204.966368 Z-0.125000 F800.000000
G01 X52.402196 Y186.861198 Z-0.125000
G01 X44.628102 Y170.055234 Z-0.125000
G01 X52.824944 Y136.577158 Z-0.125000
G01 X47.824353 Y107.676938 Z-0.125000
G01 X44.298173 Y78.915918 Z-0.125000
G01 X48.257413 Y62.017111 Z-0.125000
G00 Z3.000000

(End cutting path id: polyline444)


(Start cutting path id: polyline446)
(Change tool to Default tool)

G00 Z3.000000
G00 X55.213065 Y240.609589

G00 Z4.875000 (Fast pre-penetrate)
G01 Z-0.125000 F400.0(Penetrate)
G01 X47.325574 Y205.059175 Z-0.125000 F800.000000
G01 X53.264385 Y187.417967 Z-0.125000
G01 X45.191255 Y169.508726 Z-0.125000
G01 X53.929423 Y136.700859 Z-0.125000
G01 X48.841192 Y107.568666 Z-0.125000
G01 X44.912892 Y79.240697 Z-0.125000
G01 X49.150495 Y61.692314 Z-0.125000
G00 Z3.000000

(End cutting path id: polyline446)


(Start cutting path id: polyline448)
(Change tool to Default tool)

G00 Z3.000000
G00 X55.564869 Y240.609589

G00 Z4.875000 (Fast pre-penetrate)
G01 Z-0.125000 F400.0(Penetrate)
G01 X48.589837 Y205.151946 Z-0.125000 F800.000000
G01 X54.126528 Y187.974754 Z-0.125000
G01 X45.754455 Y168.962254 Z-0.125000
G01 X55.033855 Y136.824577 Z-0.125000
G01 X49.858033 Y107.460394 Z-0.125000
G01 X45.527612 Y79.565494 Z-0.125000
G01 X50.043623 Y61.367571 Z-0.125000
G00 Z3.000000

(End cutting path id: polyline448)


(Start cutting path id: polyline450)
(Change tool to Default tool)

G00 Z3.000000
G00 X55.916670 Y240.609589

G00 Z4.875000 (Fast pre-penetrate)
G01 Z-0.125000 F400.0(Penetrate)
G01 X49.854099 Y205.244771 Z-0.125000 F800.000000
G01 X54.988717 Y188.531523 Z-0.125000
G01 X46.317608 Y168.415855 Z-0.125000
G01 X56.138334 Y136.948332 Z-0.125000
G01 X46.142330 Y79.890291 Z-0.125000
G01 X50.936706 Y61.042774 Z-0.125000
G00 Z3.000000

(End cutting path id: polyline450)


(Start cutting path id: polyline452)
(Change tool to Default tool)

G00 Z3.000000
G00 X56.620275 Y240.609589

G00 Z4.875000 (Fast pre-penetrate)
G01 Z-0.125000 F400.0(Penetrate)
G01 X52.382674 Y205.430367 Z-0.125000 F800.000000
G01 X56.713048 Y189.645026 Z-0.125000
G01 X47.443912 Y167.322931 Z-0.125000
G01 X58.347244 Y137.195769 Z-0.125000
G01 X52.908506 Y107.135651 Z-0.125000
G01 X47.371767 Y80.539849 Z-0.125000
G01 X52.722916 Y60.393234 Z-0.125000
G00 Z3.000000

(End cutting path id: polyline452)


(Start cutting path id: polyline454)
(Change tool to Default tool)

G00 Z3.000000
G00 X56.972079 Y240.609589

G00 Z4.875000 (Fast pre-penetrate)
G01 Z-0.125000 F400.0(Penetrate)
G01 X53.646935 Y205.523138 Z-0.125000 F800.000000
G01 X57.575188 Y190.201795 Z-0.125000
G01 X48.007113 Y166.776477 Z-0.125000
G01 X59.451723 Y137.319524 Z-0.125000
G01 X53.925298 Y107.027380 Z-0.125000
G01 X47.986487 Y80.864628 Z-0.125000
G01 X53.615997 Y60.068437 Z-0.125000
G00 Z3.000000

(End cutting path id: polyline454)


(Start cutting path id: polyline456)
(Change tool to Default tool)

G00 Z3.000000
G00 X57.323880 Y240.609589

G00 Z4.875000 (Fast pre-penetrate)
G01 Z-0.125000 F400.0(Penetrate)
G01 X54.911199 Y205.615963 Z-0.125000 F800.000000
G01 X58.437377 Y190.758564 Z-0.125000
G01 X48.570266 Y166.230006 Z-0.125000
G01 X60.556202 Y137.443224 Z-0.125000
G01 X54.942139 Y106.919126 Z-0.125000
G01 X48.601205 Y81.189389 Z-0.125000
G01 X54.509077 Y59.743694 Z-0.125000
G00 Z3.000000

(End cutting path id: polyline456)


(Start cutting path id: polyline458)
(Change tool to Default tool)

G00 Z3.000000
G00 X57.675682 Y240.609589

G00 Z4.875000 (Fast pre-penetrate)
G01 Z-0.125000 F400.0(Penetrate)
G01 X56.175509 Y205.708733 Z-0.125000 F800.000000
G01 X59.299519 Y191.315333 Z-0.125000
G01 X49.133417 Y165.683553 Z-0.125000
G01 X61.660634 Y137.566942 Z-0.125000
G01 X55.958931 Y106.810854 Z-0.125000
G01 X49.215924 Y81.514187 Z-0.125000
G01 X55.402207 Y59.418897 Z-0.125000
G00 Z3.000000

(End cutting path id: polyline458)


(Start cutting path id: polyline460)
(Change tool to Default tool)

G00 Z3.000000
G00 X58.379240 Y240.609589

G00 Z4.875000 (Fast pre-penetrate)
G01 Z-0.125000 F400.0(Penetrate)
G01 X58.704035 Y205.894311 Z-0.125000 F800.000000
G01 X61.023897 Y192.428872 Z-0.125000
G01 X50.259772 Y164.590682 Z-0.125000
G01 X63.869592 Y137.814415 Z-0.125000
G01 X57.992613 Y106.594329 Z-0.125000
G01 X50.445362 Y82.163726 Z-0.125000
G01 X57.188417 Y58.769339 Z-0.125000
G00 Z3.000000

(End cutting path id: polyline460)


(Start cutting path id: polyline354)
(Change tool to Default tool)

G00 Z3.000000
G00 X61.834137 Y240.790054

G00 Z4.875000 (Fast pre-penetrate)
G01 Z-0.125000 F400.0(Penetrate)
G01 X69.845388 Y207.121252 Z-0.125000 F800.000000
G01 X68.664831 Y196.496333 Z-0.125000
G01 X55.652987 Y160.182941 Z-0.125000
G01 X73.541663 Y138.948531 Z-0.125000
G01 X66.602705 Y105.810754 Z-0.125000
G01 X56.452050 Y85.251702 Z-0.125000
G01 X65.226290 Y56.098931 Z-0.125000
G00 Z3.000000

(End cutting path id: polyline354)


(Start cutting path id: polyline462)
(Change tool to Default tool)

G00 Z3.000000
G00 X62.474614 Y240.970464

G00 Z4.875000 (Fast pre-penetrate)
G01 Z-0.125000 F400.0(Penetrate)
G01 X70.872494 Y207.605846 Z-0.125000 F800.000000
G01 X69.408394 Y196.109713 Z-0.125000
G01 X56.540935 Y160.146862 Z-0.125000
G01 X74.378046 Y139.092918 Z-0.125000
G01 X67.078267 Y105.893209 Z-0.125000
G01 X57.541082 Y85.741463 Z-0.125000
G01 X66.119371 Y56.026738 Z-0.125000
G00 Z3.000000

(End cutting path id: polyline462)


(Start cutting path id: polyline464)
(Change tool to Default tool)

G00 Z3.000000
G00 X63.115093 Y241.150929

G00 Z4.875000 (Fast pre-penetrate)
G01 Z-0.125000 F400.0(Penetrate)
G01 X71.899647 Y208.090458 Z-0.125000 F800.000000
G01 X70.152005 Y195.723075 Z-0.125000
G01 X57.428883 Y160.110748 Z-0.125000
G01 X75.214428 Y139.237268 Z-0.125000
G01 X67.553780 Y105.975718 Z-0.125000
G01 X58.630067 Y86.231224 Z-0.125000
G01 X67.012454 Y55.954545 Z-0.125000
G00 Z3.000000

(End cutting path id: polyline464)


(Start cutting path id: polyline466)
(Change tool to Default tool)

G00 Z3.000000
G00 X63.755618 Y241.331340

G00 Z4.875000 (Fast pre-penetrate)
G01 Z-0.125000 F400.0(Penetrate)
G01 X72.926753 Y208.575052 Z-0.125000 F800.000000
G01 X70.895615 Y195.336400 Z-0.125000
G01 X58.316831 Y160.074669 Z-0.125000
G01 X76.050858 Y139.381600 Z-0.125000
G01 X68.029293 Y106.058173 Z-0.125000
G01 X59.719052 Y86.720949 Z-0.125000
G01 X67.905581 Y55.882351 Z-0.125000
G00 Z3.000000

(End cutting path id: polyline466)


(Start cutting path id: polyline468)
(Change tool to Default tool)

G00 Z3.000000
G00 X64.396097 Y241.511787

G00 Z4.875000 (Fast pre-penetrate)
G01 Z-0.125000 F400.0(Penetrate)
G01 X73.953906 Y209.059628 Z-0.125000 F800.000000
G01 X71.639177 Y194.949780 Z-0.125000
G01 X59.204781 Y160.038591 Z-0.125000
G01 X76.887241 Y139.525932 Z-0.125000
G01 X68.504807 Y106.140682 Z-0.125000
G01 X60.808039 Y87.210710 Z-0.125000
G01 X68.798664 Y55.810213 Z-0.125000
G00 Z3.000000

(End cutting path id: polyline468)


(Start cutting path id: polyline470)
(Change tool to Default tool)

G00 Z3.000000
G00 X65.036574 Y241.692197

G00 Z4.875000 (Fast pre-penetrate)
G01 Z-0.125000 F400.0(Penetrate)
G01 X74.981060 Y209.544204 Z-0.125000 F800.000000
G01 X72.382787 Y194.563160 Z-0.125000
G01 X60.092730 Y160.002476 Z-0.125000
G01 X77.723622 Y139.670283 Z-0.125000
G01 X68.980369 Y106.223137 Z-0.125000
G01 X61.897072 Y87.700471 Z-0.125000
G01 X69.691792 Y55.738019 Z-0.125000
G00 Z3.000000

(End cutting path id: polyline470)


(Start cutting path id: polyline472)
(Change tool to Default tool)

G00 Z3.000000
G00 X65.677101 Y241.872608

G00 Z4.875000 (Fast pre-penetrate)
G01 Z-0.125000 F400.0(Penetrate)
G01 X76.008166 Y210.028835 Z-0.125000 F800.000000
G01 X73.126398 Y194.176467 Z-0.125000
G01 X60.980630 Y159.966397 Z-0.125000
G01 X78.560005 Y139.814651 Z-0.125000
G01 X69.455882 Y106.305646 Z-0.125000
G01 X62.986057 Y88.190232 Z-0.125000
G01 X70.584874 Y55.665862 Z-0.125000
G00 Z3.000000

(End cutting path id: polyline472)


(Start cutting path id: polyline474)
(Change tool to Default tool)

G00 Z3.000000
G00 X66.317578 Y242.053073

G00 Z4.875000 (Fast pre-penetrate)
G01 Z-0.125000 F400.0(Penetrate)
G01 X77.035320 Y210.513411 Z-0.125000 F800.000000
G01 X73.870010 Y193.789847 Z-0.125000
G01 X61.868579 Y159.930337 Z-0.125000
G01 X79.396386 Y139.959001 Z-0.125000
G01 X69.931397 Y106.388101 Z-0.125000
G01 X64.075042 Y88.679939 Z-0.125000
G01 X71.477955 Y55.593669 Z-0.125000
G00 Z3.000000

(End cutting path id: polyline474)


(Start cutting path id: polyline476)
(Change tool to Default tool)

G00 Z3.000000
G00 X66.958057 Y242.233484

G00 Z4.875000 (Fast pre-penetrate)
G01 Z-0.125000 F400.0(Penetrate)
G01 X78.062425 Y210.997987 Z-0.125000 F800.000000
G01 X74.613572 Y193.403173 Z-0.125000
G01 X62.756527 Y159.894259 Z-0.125000
G01 X80.232817 Y140.103333 Z-0.125000
G01 X70.406909 Y106.470610 Z-0.125000
G01 X65.164076 Y89.169700 Z-0.125000
G01 X72.371085 Y55.521530 Z-0.125000
G00 Z3.000000

(End cutting path id: polyline476)


(Start cutting path id: polyline478)
(Change tool to Default tool)

G00 Z3.000000
G00 X67.598535 Y242.413931

G00 Z4.875000 (Fast pre-penetrate)
G01 Z-0.125000 F400.0(Penetrate)
G01 X79.089580 Y211.482581 Z-0.125000 F800.000000
G01 X75.357182 Y193.016552 Z-0.125000
G01 X63.644475 Y159.858144 Z-0.125000
G01 X81.069200 Y140.247666 Z-0.125000
G01 X70.882424 Y106.553119 Z-0.125000
G01 X66.253061 Y89.659461 Z-0.125000
G01 X73.264165 Y55.449337 Z-0.125000
G00 Z3.000000

(End cutting path id: polyline478)


(Start cutting path id: polyline480)
(Change tool to Default tool)

G00 Z3.000000
G00 X68.239061 Y242.594396

G00 Z4.875000 (Fast pre-penetrate)
G01 Z-0.125000 F400.0(Penetrate)
G01 X80.116733 Y211.967193 Z-0.125000 F800.000000
G01 X76.100793 Y192.629914 Z-0.125000
G01 X64.532423 Y159.822065 Z-0.125000
G01 X81.905581 Y140.392016 Z-0.125000
G01 X71.357986 Y106.635574 Z-0.125000
G01 X67.342046 Y90.149222 Z-0.125000
G01 X74.157246 Y55.377144 Z-0.125000
G00 Z3.000000

(End cutting path id: polyline480)


(Start cutting path id: polyline482)
(Change tool to Default tool)

G00 Z3.000000
G00 X68.879538 Y242.774806

G00 Z4.875000 (Fast pre-penetrate)
G01 Z-0.125000 F400.0(Penetrate)
G01 X81.143839 Y212.451787 Z-0.125000 F800.000000
G01 X76.844356 Y192.243294 Z-0.125000
G01 X65.420373 Y159.785987 Z-0.125000
G01 X82.741964 Y140.536348 Z-0.125000
G01 X71.833499 Y106.718083 Z-0.125000
G01 X68.431031 Y90.638929 Z-0.125000
G01 X75.050376 Y55.305005 Z-0.125000
G00 Z3.000000

(End cutting path id: polyline482)


(Start cutting path id: polyline484)
(Change tool to Default tool)

G00 Z3.000000
G00 X69.520016 Y242.955217

G00 Z4.875000 (Fast pre-penetrate)
G01 Z-0.125000 F400.0(Penetrate)
G01 X82.170992 Y212.936363 Z-0.125000 F800.000000
G01 X77.587967 Y191.856656 Z-0.125000
G01 X66.308321 Y159.749926 Z-0.125000
G01 X83.578345 Y140.680734 Z-0.125000
G01 X72.309011 Y106.800538 Z-0.125000
G01 X69.520065 Y91.128690 Z-0.125000
G01 X75.943456 Y55.232812 Z-0.125000
G00 Z3.000000

(End cutting path id: polyline484)


(Start cutting path id: polyline486)
(Change tool to Default tool)

G00 Z3.000000
G00 X70.160542 Y243.135682

G00 Z4.875000 (Fast pre-penetrate)
G01 Z-0.125000 F400.0(Penetrate)
G01 X83.198098 Y213.420939 Z-0.125000 F800.000000
G01 X78.331578 Y191.469981 Z-0.125000
G01 X67.196269 Y159.713794 Z-0.125000
G01 X84.414728 Y140.825067 Z-0.125000
G01 X72.784526 Y106.883047 Z-0.125000
G01 X70.609051 Y91.618451 Z-0.125000
G01 X76.836537 Y55.160655 Z-0.125000
G00 Z3.000000

(End cutting path id: polyline486)


(Start cutting path id: polyline488)
(Change tool to Default tool)

G00 Z3.000000
G00 X70.801021 Y243.316093

G00 Z4.875000 (Fast pre-penetrate)
G01 Z-0.125000 F400.0(Penetrate)
G01 X84.225251 Y213.905569 Z-0.125000 F800.000000
G01 X79.075141 Y191.083361 Z-0.125000
G01 X68.084217 Y159.677733 Z-0.125000
G01 X85.251158 Y140.969417 Z-0.125000
G01 X73.260088 Y106.965502 Z-0.125000
G01 X71.698036 Y92.108212 Z-0.125000
G01 X77.729667 Y55.088461 Z-0.125000
G00 Z3.000000

(End cutting path id: polyline488)


(Start cutting path id: polyline490)
(Change tool to Default tool)

G00 Z3.000000
G00 X71.441498 Y243.496540

G00 Z4.875000 (Fast pre-penetrate)
G01 Z-0.125000 F400.0(Penetrate)
G01 X85.252404 Y214.390145 Z-0.125000 F800.000000
G01 X79.818751 Y190.696687 Z-0.125000
G01 X68.972118 Y159.641655 Z-0.125000
G01 X86.087540 Y141.113749 Z-0.125000
G01 X73.735601 Y107.048011 Z-0.125000
G01 X72.787021 Y92.597919 Z-0.125000
G01 X78.622747 Y55.016268 Z-0.125000
G00 Z3.000000

(End cutting path id: polyline490)


(Start cutting path id: polyline492)
(Change tool to Default tool)

G00 Z3.000000
G00 X72.082025 Y243.676950

G00 Z4.875000 (Fast pre-penetrate)
G01 Z-0.125000 F400.0(Penetrate)
G01 X86.279510 Y214.874721 Z-0.125000 F800.000000
G01 X80.562362 Y190.310048 Z-0.125000
G01 X69.860066 Y159.605540 Z-0.125000
G01 X86.923923 Y141.258081 Z-0.125000
G01 X74.211115 Y107.130466 Z-0.125000
G01 X73.876053 Y93.087680 Z-0.125000
G01 X79.515877 Y54.944129 Z-0.125000
G00 Z3.000000

(End cutting path id: polyline492)


(Start cutting path id: polyline494)
(Change tool to Default tool)

G00 Z3.000000
G00 X72.722502 Y243.857415

G00 Z4.875000 (Fast pre-penetrate)
G01 Z-0.125000 F400.0(Penetrate)
G01 X87.306665 Y215.359315 Z-0.125000 F800.000000
G01 X81.305973 Y189.923428 Z-0.125000
G01 X70.748014 Y159.569461 Z-0.125000
G01 X87.760304 Y141.402468 Z-0.125000
G01 X74.686628 Y107.212975 Z-0.125000
G01 X74.965038 Y93.577441 Z-0.125000
G01 X80.408958 Y54.871990 Z-0.125000
G00 Z3.000000

(End cutting path id: polyline494)


(Start cutting path id: polyline496)
(Change tool to Default tool)

G00 Z3.000000
G00 X73.362981 Y244.037862

G00 Z4.875000 (Fast pre-penetrate)
G01 Z-0.125000 F400.0(Penetrate)
G01 X88.333769 Y215.843928 Z-0.125000 F800.000000
G01 X82.049536 Y189.536808 Z-0.125000
G01 X71.635964 Y159.533383 Z-0.125000
G01 X88.596687 Y141.546818 Z-0.125000
G01 X75.162190 Y107.295430 Z-0.125000
G01 X76.054023 Y94.067148 Z-0.125000
G01 X81.302038 Y54.799797 Z-0.125000
G00 Z3.000000

(End cutting path id: polyline496)


(Start cutting path id: polyline498)
(Change tool to Default tool)

G00 Z3.000000
G00 X74.003459 Y244.218273

G00 Z4.875000 (Fast pre-penetrate)
G01 Z-0.125000 F400.0(Penetrate)
G01 X89.360924 Y216.328522 Z-0.125000 F800.000000
G01 X82.793146 Y189.150134 Z-0.125000
G01 X72.523912 Y159.497323 Z-0.125000
G01 X89.433115 Y141.691150 Z-0.125000
G01 X75.637705 Y107.377939 Z-0.125000
G01 X77.143008 Y94.556909 Z-0.125000
G01 X82.195168 Y54.727604 Z-0.125000
G00 Z3.000000

(End cutting path id: polyline498)


(Start cutting path id: polyline500)
(Change tool to Default tool)

G00 Z3.000000
G00 X74.643985 Y244.398683

G00 Z4.875000 (Fast pre-penetrate)
G01 Z-0.125000 F400.0(Penetrate)
G01 X90.388077 Y216.813098 Z-0.125000 F800.000000
G01 X83.536757 Y188.763495 Z-0.125000
G01 X73.411861 Y159.461190 Z-0.125000
G01 X90.269498 Y141.835482 Z-0.125000
G01 X76.113217 Y107.460394 Z-0.125000
G01 X78.231995 Y95.046670 Z-0.125000
G01 X83.088249 Y54.655447 Z-0.125000
G00 Z3.000000

(End cutting path id: polyline500)


(Start cutting path id: polyline502)
(Change tool to Default tool)

G00 Z3.000000
G00 X75.284462 Y244.579148

G00 Z4.875000 (Fast pre-penetrate)
G01 Z-0.125000 F400.0(Penetrate)
G01 X91.415183 Y217.297674 Z-0.125000 F800.000000
G01 X84.280368 Y188.376875 Z-0.125000
G01 X74.299809 Y159.425129 Z-0.125000
G01 X91.105880 Y141.979814 Z-0.125000
G01 X76.588730 Y107.542903 Z-0.125000
G01 X79.321028 Y95.536395 Z-0.125000
G01 X83.981331 Y54.583253 Z-0.125000
G00 Z3.000000

(End cutting path id: polyline502)


(Start cutting path id: polyline504)
(Change tool to Default tool)

G00 Z3.000000
G00 X75.924940 Y244.759559

G00 Z4.875000 (Fast pre-penetrate)
G01 Z-0.125000 F400.0(Penetrate)
G01 X92.442336 Y217.782304 Z-0.125000 F800.000000
G01 X85.023929 Y187.990201 Z-0.125000
G01 X75.187757 Y159.388996 Z-0.125000
G01 X91.942263 Y142.124165 Z-0.125000
G01 X77.064245 Y107.625412 Z-0.125000
G01 X80.410013 Y96.026156 Z-0.125000
G01 X84.874459 Y54.511115 Z-0.125000
G00 Z3.000000

(End cutting path id: polyline504)


(Start cutting path id: polyline506)
(Change tool to Default tool)

G00 Z3.000000
G00 X76.565419 Y244.940024

G00 Z4.875000 (Fast pre-penetrate)
G01 Z-0.125000 F400.0(Penetrate)
G01 X93.469442 Y218.266880 Z-0.125000 F800.000000
G01 X85.767540 Y187.603563 Z-0.125000
G01 X76.075707 Y159.352936 Z-0.125000
G01 X92.778644 Y142.268551 Z-0.125000
G01 X77.539807 Y107.707867 Z-0.125000
G01 X81.498998 Y96.515917 Z-0.125000
G01 X85.767540 Y54.438921 Z-0.125000
G00 Z3.000000

(End cutting path id: polyline506)


(Start cutting path id: polyline508)
(Change tool to Default tool)

G00 Z3.000000
G00 X77.205945 Y245.120435

G00 Z4.875000 (Fast pre-penetrate)
G01 Z-0.125000 F400.0(Penetrate)
G01 X94.496595 Y218.751456 Z-0.125000 F800.000000
G01 X86.511152 Y187.216942 Z-0.125000
G01 X76.963655 Y159.316858 Z-0.125000
G01 X93.615074 Y142.412883 Z-0.125000
G01 X78.015320 Y107.790376 Z-0.125000
G01 X82.587983 Y97.005678 Z-0.125000
G01 X86.660622 Y54.366728 Z-0.125000
G00 Z3.000000

(End cutting path id: polyline508)


(Start cutting path id: polyline510)
(Change tool to Default tool)

G00 Z3.000000
G00 X77.846421 Y245.300882

G00 Z4.875000 (Fast pre-penetrate)
G01 Z-0.125000 F400.0(Penetrate)
G01 X95.523701 Y219.236050 Z-0.125000 F800.000000
G01 X87.254714 Y186.830304 Z-0.125000
G01 X77.851603 Y159.280779 Z-0.125000
G01 X94.451457 Y142.557215 Z-0.125000
G01 X78.490834 Y107.872831 Z-0.125000
G01 X83.677017 Y97.495385 Z-0.125000
G01 X87.553750 Y54.294589 Z-0.125000
G00 Z3.000000

(End cutting path id: polyline510)


(Start cutting path id: polyline512)
(Change tool to Default tool)

G00 Z3.000000
G00 X78.486949 Y245.481347

G00 Z4.875000 (Fast pre-penetrate)
G01 Z-0.125000 F400.0(Penetrate)
G01 X96.550854 Y219.720662 Z-0.125000 F800.000000
G01 X87.998324 Y186.443630 Z-0.125000
G01 X78.739504 Y159.244664 Z-0.125000
G01 X95.287838 Y142.701566 Z-0.125000
G01 X78.966347 Y107.955340 Z-0.125000
G01 X84.766002 Y97.985146 Z-0.125000
G01 X88.446833 Y54.222396 Z-0.125000
G00 Z3.000000

(End cutting path id: polyline512)


(Start cutting path id: polyline514)
(Change tool to Default tool)

G00 Z3.000000
G00 X87.842090 Y245.842168

G00 Z4.875000 (Fast pre-penetrate)
G01 Z-0.125000 F400.0(Penetrate)
G01 X98.430892 Y218.241081 Z-0.125000 F800.000000
G01 X93.822156 Y187.732466 Z-0.125000
G01 X86.785243 Y159.430260 Z-0.125000
G01 X99.364027 Y142.603610 Z-0.125000
G01 X87.476042 Y110.053532 Z-0.125000
G01 X91.667258 Y95.227081 Z-0.125000
G01 X95.600692 Y55.882406 Z-0.125000
G00 Z3.000000

(End cutting path id: polyline514)


(Start cutting path id: polyline516)
(Change tool to Default tool)

G00 Z3.000000
G00 X95.916230 Y245.842168

G00 Z4.875000 (Fast pre-penetrate)
G01 Z-0.125000 F400.0(Penetrate)
G01 X98.256718 Y215.792366 Z-0.125000 F800.000000
G01 X98.158762 Y189.794579 Z-0.125000
G01 X93.055085 Y159.688049 Z-0.125000
G01 X101.767399 Y142.216972 Z-0.125000
G01 X95.034656 Y111.986723 Z-0.125000
G01 X96.390492 Y91.489566 Z-0.125000
G01 X100.968337 Y57.686748 Z-0.125000
G00 Z3.000000

(End cutting path id: polyline516)


(Start cutting path id: polyline352)
(Change tool to Default tool)

G00 Z3.000000
G00 X100.760731 Y245.842168

G00 Z4.875000 (Fast pre-penetrate)
G01 Z-0.125000 F400.0(Penetrate)
G01 X98.152194 Y214.323083 Z-0.125000 F800.000000
G01 X100.760731 Y191.031836 Z-0.125000
G01 X96.816985 Y159.842697 Z-0.125000
G01 X103.209437 Y141.984999 Z-0.125000
G01 X99.569860 Y113.146656 Z-0.125000
G01 X99.224438 Y89.247024 Z-0.125000
G01 X104.188958 Y58.769339 Z-0.125000
G00 Z3.000000

(End cutting path id: polyline352)


(Start cutting path id: polyline518)
(Change tool to Default tool)

G00 Z3.000000
G00 X99.145865 Y245.842168

G00 Z4.875000 (Fast pre-penetrate)
G01 Z-0.125000 F400.0(Penetrate)
G01 X98.187020 Y214.812844 Z-0.125000 F800.000000
G01 X99.893410 Y190.619399 Z-0.125000
G01 X95.562987 Y159.791118 Z-0.125000
G01 X102.728790 Y142.062323 Z-0.125000
G01 X98.058127 Y112.760036 Z-0.125000
G01 X98.279790 Y89.994574 Z-0.125000
G01 X103.115419 Y58.408481 Z-0.125000
G00 Z3.000000

(End cutting path id: polyline518)


(Start cutting path id: polyline520)
(Change tool to Default tool)

G00 Z3.000000
G00 X97.531047 Y245.842168

G00 Z4.875000 (Fast pre-penetrate)
G01 Z-0.125000 F400.0(Penetrate)
G01 X98.221844 Y215.302605 Z-0.125000 F800.000000
G01 X99.026088 Y190.206962 Z-0.125000
G01 X94.309038 Y159.739556 Z-0.125000
G01 X102.248096 Y142.139647 Z-0.125000
G01 X96.546394 Y112.373398 Z-0.125000
G01 X97.335143 Y90.742070 Z-0.125000
G01 X102.041879 Y58.047605 Z-0.125000
G00 Z3.000000

(End cutting path id: polyline520)


(Start cutting path id: polyline522)
(Change tool to Default tool)

G00 Z3.000000
G00 X94.301411 Y245.842168

G00 Z4.875000 (Fast pre-penetrate)
G01 Z-0.125000 F400.0(Penetrate)
G01 X98.291542 Y216.282073 Z-0.125000 F800.000000
G01 X97.291443 Y189.382142 Z-0.125000
G01 X91.801091 Y159.636470 Z-0.125000
G01 X101.286709 Y142.294314 Z-0.125000
G01 X93.522974 Y111.600103 Z-0.125000
G01 X95.445848 Y92.237061 Z-0.125000
G01 X99.894800 Y57.325872 Z-0.125000
G00 Z3.000000

(End cutting path id: polyline522)


(Start cutting path id: polyline524)
(Change tool to Default tool)

G00 Z3.000000
G00 X92.686544 Y245.842168

G00 Z4.875000 (Fast pre-penetrate)
G01 Z-0.125000 F400.0(Penetrate)
G01 X98.326368 Y216.771834 Z-0.125000 F800.000000
G01 X96.424121 Y188.969723 Z-0.125000
G01 X90.547142 Y159.584908 Z-0.125000
G01 X100.806061 Y142.371638 Z-0.125000
G01 X92.011242 Y111.213428 Z-0.125000
G01 X94.501200 Y92.984594 Z-0.125000
G01 X98.821309 Y56.964997 Z-0.125000
G00 Z3.000000

(End cutting path id: polyline524)


(Start cutting path id: polyline526)
(Change tool to Default tool)

G00 Z3.000000
G00 X91.071727 Y245.842168

G00 Z4.875000 (Fast pre-penetrate)
G01 Z-0.125000 F400.0(Penetrate)
G01 X98.361241 Y217.261595 Z-0.125000 F800.000000
G01 X95.556799 Y188.557322 Z-0.125000
G01 X89.293191 Y159.533383 Z-0.125000
G01 X100.325367 Y142.448962 Z-0.125000
G01 X90.499509 Y110.826790 Z-0.125000
G01 X93.556553 Y93.732089 Z-0.125000
G01 X97.747770 Y56.604139 Z-0.125000
G00 Z3.000000

(End cutting path id: polyline526)


(Start cutting path id: polyline528)
(Change tool to Default tool)

G00 Z3.000000
G00 X89.456909 Y245.842168

G00 Z4.875000 (Fast pre-penetrate)
G01 Z-0.125000 F400.0(Penetrate)
G01 X98.396067 Y217.751356 Z-0.125000 F800.000000
G01 X94.689477 Y188.144885 Z-0.125000
G01 X88.039194 Y159.481821 Z-0.125000
G01 X99.844673 Y142.526286 Z-0.125000
G01 X88.987774 Y110.440170 Z-0.125000
G01 X92.611905 Y94.479585 Z-0.125000
G01 X96.674230 Y56.243263 Z-0.125000
G00 Z3.000000

(End cutting path id: polyline528)


(Start cutting path id: polyline530)
(Change tool to Default tool)

G00 Z3.000000
G00 X86.227225 Y245.842168

G00 Z4.875000 (Fast pre-penetrate)
G01 Z-0.125000 F400.0(Penetrate)
G01 X98.465765 Y218.730842 Z-0.125000 F800.000000
G01 X92.954834 Y187.320065 Z-0.125000
G01 X85.531294 Y159.378735 Z-0.125000
G01 X98.883333 Y142.680934 Z-0.125000
G01 X85.964309 Y109.666857 Z-0.125000
G01 X90.722610 Y95.974631 Z-0.125000
G01 X94.527151 Y55.521530 Z-0.125000
G00 Z3.000000

(End cutting path id: polyline530)


(Start cutting path id: polyline532)
(Change tool to Default tool)

G00 Z3.000000
G00 X84.612406 Y245.842168

G00 Z4.875000 (Fast pre-penetrate)
G01 Z-0.125000 F400.0(Penetrate)
G01 X98.500591 Y219.220603 Z-0.125000 F800.000000
G01 X92.087512 Y186.907628 Z-0.125000
G01 X84.277296 Y159.327173 Z-0.125000
G01 X98.402639 Y142.758258 Z-0.125000
G01 X84.452574 Y109.280237 Z-0.125000
G01 X89.777962 Y96.722127 Z-0.125000
G01 X93.453613 Y55.160655 Z-0.125000
G00 Z3.000000

(End cutting path id: polyline532)


(Start cutting path id: polyline534)
(Change tool to Default tool)

G00 Z3.000000
G00 X82.997588 Y245.842168

G00 Z4.875000 (Fast pre-penetrate)
G01 Z-0.125000 F400.0(Penetrate)
G01 X98.535464 Y219.710365 Z-0.125000 F800.000000
G01 X91.220191 Y186.495209 Z-0.125000
G01 X83.023347 Y159.275612 Z-0.125000
G01 X97.921991 Y142.835636 Z-0.125000
G01 X82.940842 Y108.893617 Z-0.125000
G01 X88.833315 Y97.469623 Z-0.125000
G01 X92.380073 Y54.799797 Z-0.125000
G00 Z3.000000

(End cutting path id: polyline534)


(Start cutting path id: polyline150)
(Change tool to Default tool)

G00 Z3.000000
G00 X79.127426 Y245.661757

G00 Z4.875000 (Fast pre-penetrate)
G01 Z-0.125000 F400.0(Penetrate)
G01 X97.578009 Y220.205256 Z-0.125000 F800.000000
G01 X88.741935 Y186.057010 Z-0.125000
G01 X79.627452 Y159.208586 Z-0.125000
G01 X96.124221 Y142.845898 Z-0.125000
G01 X79.441909 Y108.037795 Z-0.125000
G01 X85.854987 Y98.474907 Z-0.125000
G01 X89.339913 Y54.150203 Z-0.125000
G00 Z3.000000

(End cutting path id: polyline150)


(Start cutting path id: polyline536)
(Change tool to Default tool)

G00 Z3.000000
G00 X81.382722 Y245.842168

G00 Z4.875000 (Fast pre-penetrate)
G01 Z-0.125000 F400.0(Penetrate)
G01 X98.570289 Y220.200071 Z-0.125000 F800.000000
G01 X90.352869 Y186.082808 Z-0.125000
G01 X81.769398 Y159.224032 Z-0.125000
G01 X97.441297 Y142.912906 Z-0.125000
G01 X81.429156 Y108.506924 Z-0.125000
G01 X87.888620 Y98.217118 Z-0.125000
G01 X91.306581 Y54.438921 Z-0.125000
G00 Z3.000000

(End cutting path id: polyline536)


(Start cutting path id: polyline148)
(Change tool to Default tool)

G00 Z3.000000
G00 X79.767904 Y245.842168

G00 Z4.875000 (Fast pre-penetrate)
G01 Z-0.125000 F400.0(Penetrate)
G01 X98.605113 Y220.689832 Z-0.125000 F800.000000
G01 X89.485498 Y185.670371 Z-0.125000
G01 X80.515400 Y159.172525 Z-0.125000
G01 X96.960603 Y142.990230 Z-0.125000
G01 X79.917423 Y108.120304 Z-0.125000
G01 X86.943973 Y98.964669 Z-0.125000
G01 X90.233043 Y54.078064 Z-0.125000
G00 Z3.000000

(End cutting path id: polyline148)


(Start cutting path id: polyline332)
(Change tool to Default tool)

G00 Z3.000000
G00 X116.909008 Y245.842168

G00 Z4.875000 (Fast pre-penetrate)
G01 Z-0.125000 F400.0(Penetrate)
G01 X97.803748 Y209.425635 Z-0.125000 F800.000000
G01 X109.433950 Y195.155989 Z-0.125000
G01 X109.356626 Y160.358203 Z-0.125000
G01 X108.016238 Y141.211705 Z-0.125000
G01 X114.687100 Y117.013075 Z-0.125000
G01 X108.670963 Y81.771957 Z-0.125000
G01 X114.924257 Y62.377986 Z-0.125000
G00 Z3.000000

(End cutting path id: polyline332)


(Start cutting path id: polyline330)
(Change tool to Default tool)

G00 Z3.000000
G00 X120.138692 Y245.842168

G00 Z4.875000 (Fast pre-penetrate)
G01 Z-0.125000 F400.0(Penetrate)
G01 X97.734051 Y208.446149 Z-0.125000 F800.000000
G01 X111.168594 Y195.980864 Z-0.125000
G01 X111.864525 Y160.461289 Z-0.125000
G01 X108.977624 Y141.057057 Z-0.125000
G01 X117.710565 Y117.786387 Z-0.125000
G01 X110.560256 Y80.276930 Z-0.125000
G01 X117.071334 Y63.099720 Z-0.125000
G00 Z3.000000

(End cutting path id: polyline330)


(Start cutting path id: polyline328)
(Change tool to Default tool)

G00 Z3.000000
G00 X124.983195 Y245.842168

G00 Z4.875000 (Fast pre-penetrate)
G01 Z-0.125000 F400.0(Penetrate)
G01 X97.629527 Y206.976920 Z-0.125000 F800.000000
G01 X113.770561 Y197.218121 Z-0.125000
G01 X115.626421 Y160.615992 Z-0.125000
G01 X110.419659 Y140.825067 Z-0.125000
G01 X122.245765 Y118.946266 Z-0.125000
G01 X113.394199 Y78.034388 Z-0.125000
G01 X120.291904 Y64.182328 Z-0.125000
G00 Z3.000000

(End cutting path id: polyline328)


(Start cutting path id: polyline152)
(Change tool to Default tool)

G00 Z3.000000
G00 X126.598013 Y245.842168

G00 Z4.875000 (Fast pre-penetrate)
G01 Z-0.125000 F400.0(Penetrate)
G01 X97.594654 Y206.487159 Z-0.125000 F800.000000
G01 X114.637883 Y197.630503 Z-0.125000
G01 X116.880370 Y160.667517 Z-0.125000
G01 X110.900306 Y140.747743 Z-0.125000
G01 X123.757498 Y119.332940 Z-0.125000
G01 X114.338846 Y77.286892 Z-0.125000
G01 X121.365444 Y64.543186 Z-0.125000
G00 Z3.000000

(End cutting path id: polyline152)


(Start cutting path id: polyline268)
(Change tool to Default tool)

G00 Z3.000000
G00 X156.322297 Y242.666535

G00 Z4.875000 (Fast pre-penetrate)
G01 Z-0.125000 F400.0(Penetrate)
G01 X160.683662 Y213.070379 Z-0.125000 F800.000000
G01 X156.817225 Y185.407470 Z-0.125000
G01 X157.404942 Y171.354313 Z-0.125000
G01 X151.682620 Y131.380658 Z-0.125000
G01 X162.725162 Y109.671988 Z-0.125000
G01 X161.147606 Y92.139106 Z-0.125000
G01 X154.914946 Y57.903273 Z-0.125000
G00 Z3.000000

(End cutting path id: polyline268)


(Start cutting path id: polyline270)
(Change tool to Default tool)

G00 Z3.000000
G00 X157.215431 Y242.991332

G00 Z4.875000 (Fast pre-penetrate)
G01 Z-0.125000 F400.0(Penetrate)
G01 X161.793267 Y212.575487 Z-0.125000 F800.000000
G01 X157.741252 Y185.531170 Z-0.125000
G01 X157.524727 Y171.452269 Z-0.125000
G01 X152.472612 Y131.813727 Z-0.125000
G01 X164.298728 Y109.610165 Z-0.125000
G01 X161.669512 Y91.675143 Z-0.125000
G01 X155.916333 Y58.011545 Z-0.125000
G00 Z3.000000

(End cutting path id: polyline270)


(Start cutting path id: polyline272)
(Change tool to Default tool)

G00 Z3.000000
G00 X158.108509 Y243.316129

G00 Z4.875000 (Fast pre-penetrate)
G01 Z-0.125000 F400.0(Penetrate)
G01 X162.902871 Y212.080596 Z-0.125000 F800.000000
G01 X158.665279 Y185.654888 Z-0.125000
G01 X157.644547 Y171.550225 Z-0.125000
G01 X153.262605 Y132.246741 Z-0.125000
G01 X165.872331 Y109.548288 Z-0.125000
G01 X162.191454 Y91.211199 Z-0.125000
G01 X156.917683 Y58.119799 Z-0.125000
G00 Z3.000000

(End cutting path id: polyline272)


(Start cutting path id: polyline274)
(Change tool to Default tool)

G00 Z3.000000
G00 X159.001625 Y243.640890

G00 Z4.875000 (Fast pre-penetrate)
G01 Z-0.125000 F400.0(Penetrate)
G01 X164.012493 Y211.585704 Z-0.125000 F800.000000
G01 X159.589342 Y185.778643 Z-0.125000
G01 X157.764368 Y171.648163 Z-0.125000
G01 X154.052615 Y132.679792 Z-0.125000
G01 X167.445897 Y109.486410 Z-0.125000
G01 X162.713359 Y90.747201 Z-0.125000
G01 X157.919034 Y58.228070 Z-0.125000
G00 Z3.000000

(End cutting path id: polyline274)


(Start cutting path id: polyline276)
(Change tool to Default tool)

G00 Z3.000000
G00 X159.894722 Y243.965669

G00 Z4.875000 (Fast pre-penetrate)
G01 Z-0.125000 F400.0(Penetrate)
G01 X165.122097 Y211.090757 Z-0.125000 F800.000000
G01 X157.884152 Y171.746119 Z-0.125000
G01 X154.842607 Y133.112807 Z-0.125000
G01 X169.019464 Y109.424569 Z-0.125000
G01 X163.235301 Y90.283238 Z-0.125000
G01 X158.920366 Y58.336324 Z-0.125000
G00 Z3.000000

(End cutting path id: polyline276)


(Start cutting path id: polyline164)
(Change tool to Default tool)

G00 Z3.000000
G00 X193.832462 Y240.609589

G00 Z4.875000 (Fast pre-penetrate)
G01 Z-0.125000 F400.0(Penetrate)
G01 X193.832462 Y185.670371 Z-0.125000 F800.000000
G01 X183.367322 Y162.910059 Z-0.125000
G01 X204.297602 Y142.242734 Z-0.125000
G01 X190.692925 Y114.249897 Z-0.125000
G01 X187.553371 Y85.210511 Z-0.125000
G01 X193.832462 Y59.310625 Z-0.125000
G00 Z3.000000

(End cutting path id: polyline164)


(Start cutting path id: polyline166)
(Change tool to Default tool)

G00 Z3.000000
G00 X192.939347 Y240.826132

G00 Z4.875000 (Fast pre-penetrate)
G01 Z-0.125000 F400.0(Penetrate)
G01 X193.186802 Y220.493921 Z-0.125000 F800.000000
G01 X192.970277 Y185.716766 Z-0.125000
G01 X182.525768 Y163.245117 Z-0.125000
G01 X202.837384 Y142.062323 Z-0.125000
G01 X190.433940 Y114.064301 Z-0.125000
G01 X186.876817 Y85.241404 Z-0.125000
G01 X192.939347 Y59.310625 Z-0.125000
G00 Z3.000000

(End cutting path id: polyline166)


(Start cutting path id: polyline168)
(Change tool to Default tool)

G00 Z3.000000
G00 X192.046250 Y241.042658

G00 Z4.875000 (Fast pre-penetrate)
G01 Z-0.125000 F400.0(Penetrate)
G01 X192.541142 Y219.999029 Z-0.125000 F800.000000
G01 X192.108145 Y185.763160 Z-0.125000
G01 X181.684251 Y163.580212 Z-0.125000
G01 X201.377220 Y141.881877 Z-0.125000
G01 X190.174900 Y113.878705 Z-0.125000
G01 X186.200209 Y85.272333 Z-0.125000
G01 X192.046250 Y59.310625 Z-0.125000
G00 Z3.000000

(End cutting path id: polyline168)


(Start cutting path id: polyline170)
(Change tool to Default tool)

G00 Z3.000000
G00 X191.153171 Y241.259183

G00 Z4.875000 (Fast pre-penetrate)
G01 Z-0.125000 F400.0(Penetrate)
G01 X191.895500 Y219.504137 Z-0.125000 F800.000000
G01 X191.245942 Y185.809536 Z-0.125000
G01 X180.842697 Y163.915325 Z-0.125000
G01 X199.917056 Y141.701466 Z-0.125000
G01 X189.915878 Y113.693109 Z-0.125000
G01 X185.523674 Y85.303281 Z-0.125000
G01 X191.153171 Y59.310625 Z-0.125000
G00 Z3.000000

(End cutting path id: polyline170)


(Start cutting path id: polyline172)
(Change tool to Default tool)

G00 Z3.000000
G00 X190.260056 Y241.475672

G00 Z4.875000 (Fast pre-penetrate)
G01 Z-0.125000 F400.0(Penetrate)
G01 X191.249876 Y219.009245 Z-0.125000 F800.000000
G01 X190.383811 Y185.855967 Z-0.125000
G01 X180.001179 Y164.250384 Z-0.125000
G01 X198.456892 Y141.521001 Z-0.125000
G01 X189.656892 Y113.507532 Z-0.125000
G01 X184.847066 Y85.334211 Z-0.125000
G01 X190.260056 Y59.310625 Z-0.125000
G00 Z3.000000

(End cutting path id: polyline172)


(Start cutting path id: polyline174)
(Change tool to Default tool)

G00 Z3.000000
G00 X189.366959 Y241.692197

G00 Z4.875000 (Fast pre-penetrate)
G01 Z-0.125000 F400.0(Penetrate)
G01 X190.604216 Y218.514299 Z-0.125000 F800.000000
G01 X189.521625 Y185.902362 Z-0.125000
G01 X179.159608 Y164.585497 Z-0.125000
G01 X196.996728 Y141.340590 Z-0.125000
G01 X189.397852 Y113.321936 Z-0.125000
G01 X184.170476 Y85.365104 Z-0.125000
G01 X189.366959 Y59.310625 Z-0.125000
G00 Z3.000000

(End cutting path id: polyline174)


(Start cutting path id: polyline176)
(Change tool to Default tool)

G00 Z3.000000
G00 X188.473880 Y241.908723

G00 Z4.875000 (Fast pre-penetrate)
G01 Z-0.125000 F400.0(Penetrate)
G01 X189.958556 Y218.019407 Z-0.125000 F800.000000
G01 X188.659476 Y185.948738 Z-0.125000
G01 X178.318054 Y164.920610 Z-0.125000
G01 X195.536564 Y141.160125 Z-0.125000
G01 X189.138867 Y113.136340 Z-0.125000
G01 X183.493923 Y85.396052 Z-0.125000
G01 X188.473880 Y59.310625 Z-0.125000
G00 Z3.000000

(End cutting path id: polyline176)


(Start cutting path id: polyline178)
(Change tool to Default tool)

G00 Z3.000000
G00 X187.580765 Y242.125266

G00 Z4.875000 (Fast pre-penetrate)
G01 Z-0.125000 F400.0(Penetrate)
G01 X189.312914 Y217.524515 Z-0.125000 F800.000000
G01 X187.797290 Y185.995132 Z-0.125000
G01 X177.476537 Y165.255669 Z-0.125000
G01 X194.076382 Y140.979715 Z-0.125000
G01 X188.879899 Y112.950744 Z-0.125000
G01 X182.817315 Y85.426982 Z-0.125000
G01 X187.580765 Y59.310625 Z-0.125000
G00 Z3.000000

(End cutting path id: polyline178)


(Start cutting path id: polyline180)
(Change tool to Default tool)

G00 Z3.000000
G00 X186.687668 Y242.341737

G00 Z4.875000 (Fast pre-penetrate)
G01 Z-0.125000 F400.0(Penetrate)
G01 X188.667290 Y217.029623 Z-0.125000 F800.000000
G01 X186.935141 Y186.041563 Z-0.125000
G01 X176.634965 Y165.590782 Z-0.125000
G01 X192.616218 Y140.799304 Z-0.125000
G01 X188.620859 Y112.765167 Z-0.125000
G01 X182.140725 Y85.457929 Z-0.125000
G01 X186.687668 Y59.310625 Z-0.125000
G00 Z3.000000

(End cutting path id: polyline180)


(Start cutting path id: polyline182)
(Change tool to Default tool)

G00 Z3.000000
G00 X185.794589 Y242.558281

G00 Z4.875000 (Fast pre-penetrate)
G01 Z-0.125000 F400.0(Penetrate)
G01 X188.021630 Y216.534731 Z-0.125000 F800.000000
G01 X186.072956 Y186.087939 Z-0.125000
G01 X175.793411 Y165.925841 Z-0.125000
G01 X191.156054 Y140.618857 Z-0.125000
G01 X188.361874 Y112.579571 Z-0.125000
G01 X181.464172 Y85.488859 Z-0.125000
G01 X185.794589 Y59.310625 Z-0.125000
G00 Z3.000000

(End cutting path id: polyline182)


(Start cutting path id: polyline184)
(Change tool to Default tool)

G00 Z3.000000
G00 X184.901456 Y242.774806

G00 Z4.875000 (Fast pre-penetrate)
G01 Z-0.125000 F400.0(Penetrate)
G01 X187.375970 Y216.039785 Z-0.125000 F800.000000
G01 X185.210806 Y186.134334 Z-0.125000
G01 X174.951894 Y166.260954 Z-0.125000
G01 X189.695835 Y140.438392 Z-0.125000
G01 X188.102852 Y112.393975 Z-0.125000
G01 X180.787582 Y85.519807 Z-0.125000
G01 X184.901456 Y59.310625 Z-0.125000
G00 Z3.000000

(End cutting path id: polyline184)


(Start cutting path id: polyline280)
(Change tool to Default tool)

G00 Z3.000000
G00 X184.008377 Y242.991332

G00 Z4.875000 (Fast pre-penetrate)
G01 Z-0.125000 F400.0(Penetrate)
G01 X186.730328 Y215.544893 Z-0.125000 F800.000000
G01 X184.348621 Y186.180710 Z-0.125000
G01 X174.110340 Y166.596067 Z-0.125000
G01 X188.235671 Y140.257981 Z-0.125000
G01 X187.843866 Y112.208397 Z-0.125000
G01 X180.111029 Y85.550700 Z-0.125000
G01 X184.008377 Y59.310625 Z-0.125000
G00 Z3.000000

(End cutting path id: polyline280)


(Start cutting path id: polyline282)
(Change tool to Default tool)

G00 Z3.000000
G00 X183.115262 Y243.207821

G00 Z4.875000 (Fast pre-penetrate)
G01 Z-0.125000 F400.0(Penetrate)
G01 X186.084667 Y215.050001 Z-0.125000 F800.000000
G01 X183.486435 Y186.227104 Z-0.125000
G01 X173.268768 Y166.931125 Z-0.125000
G01 X186.775507 Y140.077571 Z-0.125000
G01 X187.584826 Y112.022802 Z-0.125000
G01 X179.434421 Y85.581648 Z-0.125000
G01 X183.115262 Y59.310625 Z-0.125000
G00 Z3.000000

(End cutting path id: polyline282)


(Start cutting path id: polyline284)
(Change tool to Default tool)

G00 Z3.000000
G00 X182.222165 Y243.424346

G00 Z4.875000 (Fast pre-penetrate)
G01 Z-0.125000 F400.0(Penetrate)
G01 X185.439044 Y214.555109 Z-0.125000 F800.000000
G01 X182.624286 Y186.273535 Z-0.125000
G01 X172.427251 Y167.266239 Z-0.125000
G01 X185.315343 Y139.897124 Z-0.125000
G01 X187.325859 Y111.837206 Z-0.125000
G01 X178.757867 Y85.612577 Z-0.125000
G01 X182.222165 Y59.310625 Z-0.125000
G00 Z3.000000

(End cutting path id: polyline284)


(Start cutting path id: polyline286)
(Change tool to Default tool)

G00 Z3.000000
G00 X181.329086 Y243.640890

G00 Z4.875000 (Fast pre-penetrate)
G01 Z-0.125000 F400.0(Penetrate)
G01 X184.793383 Y214.060163 Z-0.125000 F800.000000
G01 X181.762100 Y186.319929 Z-0.125000
G01 X171.585697 Y167.601333 Z-0.125000
G01 X183.855179 Y139.716659 Z-0.125000
G01 X187.066819 Y111.651610 Z-0.125000
G01 X178.081277 Y85.643525 Z-0.125000
G01 X181.329086 Y59.310625 Z-0.125000
G00 Z3.000000

(End cutting path id: polyline286)


(Start cutting path id: polyline288)
(Change tool to Default tool)

G00 Z3.000000
G00 X180.435971 Y243.857415

G00 Z4.875000 (Fast pre-penetrate)
G01 Z-0.125000 F400.0(Penetrate)
G01 X184.147741 Y213.565271 Z-0.125000 F800.000000
G01 X180.899915 Y186.366306 Z-0.125000
G01 X170.744125 Y167.936410 Z-0.125000
G01 X182.394961 Y139.536248 Z-0.125000
G01 X186.807833 Y111.466032 Z-0.125000
G01 X177.404724 Y85.674455 Z-0.125000
G01 X180.435971 Y59.310625 Z-0.125000
G00 Z3.000000

(End cutting path id: polyline288)


(Start cutting path id: polyline290)
(Change tool to Default tool)

G00 Z3.000000
G00 X179.542874 Y244.073886

G00 Z4.875000 (Fast pre-penetrate)
G01 Z-0.125000 F400.0(Penetrate)
G01 X183.502081 Y213.070379 Z-0.125000 F800.000000
G01 X180.037784 Y186.412700 Z-0.125000
G01 X169.902571 Y168.271505 Z-0.125000
G01 X180.934797 Y139.355838 Z-0.125000
G01 X186.548847 Y111.280436 Z-0.125000
G01 X176.728134 Y85.705402 Z-0.125000
G01 X179.542874 Y59.310625 Z-0.125000
G00 Z3.000000

(End cutting path id: polyline290)


(Start cutting path id: polyline292)
(Change tool to Default tool)

G00 Z3.000000
G00 X178.649795 Y244.290430

G00 Z4.875000 (Fast pre-penetrate)
G01 Z-0.125000 F400.0(Penetrate)
G01 X182.856457 Y212.575487 Z-0.125000 F800.000000
G01 X179.175580 Y186.459131 Z-0.125000
G01 X169.061054 Y168.606564 Z-0.125000
G01 X179.474615 Y139.175373 Z-0.125000
G01 X186.289825 Y111.094841 Z-0.125000
G01 X176.051581 Y85.736296 Z-0.125000
G01 X178.649795 Y59.310625 Z-0.125000
G00 Z3.000000

(End cutting path id: polyline292)


(Start cutting path id: polyline294)
(Change tool to Default tool)

G00 Z3.000000
G00 X177.756680 Y244.506955

G00 Z4.875000 (Fast pre-penetrate)
G01 Z-0.125000 F400.0(Penetrate)
G01 X182.210797 Y212.080596 Z-0.125000 F800.000000
G01 X178.313449 Y186.505507 Z-0.125000
G01 X168.219482 Y168.941677 Z-0.125000
G01 X178.014451 Y138.994962 Z-0.125000
G01 X186.030840 Y110.909245 Z-0.125000
G01 X175.374973 Y85.767225 Z-0.125000
G01 X177.756680 Y59.310625 Z-0.125000
G00 Z3.000000

(End cutting path id: polyline294)


(Start cutting path id: polyline296)
(Change tool to Default tool)

G00 Z3.000000
G00 X176.863583 Y244.723481

G00 Z4.875000 (Fast pre-penetrate)
G01 Z-0.125000 F400.0(Penetrate)
G01 X181.565137 Y211.585649 Z-0.125000 F800.000000
G01 X177.451263 Y186.551902 Z-0.125000
G01 X167.377965 Y169.276790 Z-0.125000
G01 X176.554287 Y138.814515 Z-0.125000
G01 X185.771800 Y110.723667 Z-0.125000
G01 X174.698419 Y85.798173 Z-0.125000
G01 X176.863583 Y59.310625 Z-0.125000
G00 Z3.000000

(End cutting path id: polyline296)


(Start cutting path id: polyline298)
(Change tool to Default tool)

G00 Z3.000000
G00 X175.970504 Y244.939970

G00 Z4.875000 (Fast pre-penetrate)
G01 Z-0.125000 F400.0(Penetrate)
G01 X180.919495 Y211.090757 Z-0.125000 F800.000000
G01 X176.589114 Y186.598278 Z-0.125000
G01 X166.536411 Y169.611849 Z-0.125000
G01 X175.094068 Y138.634104 Z-0.125000
G01 X185.512832 Y110.538126 Z-0.125000
G01 X174.021830 Y85.829103 Z-0.125000
G01 X175.970504 Y59.310625 Z-0.125000
G00 Z3.000000

(End cutting path id: polyline298)


(Start cutting path id: polyline278)
(Change tool to Default tool)

G00 Z3.000000
G00 X160.787800 Y244.290466

G00 Z4.875000 (Fast pre-penetrate)
G01 Z-0.125000 F400.0(Penetrate)
G01 X166.231720 Y210.595866 Z-0.125000 F800.000000
G01 X161.437395 Y186.026062 Z-0.125000
G01 X158.003972 Y171.844075 Z-0.125000
G01 X155.632600 Y133.545875 Z-0.125000
G01 X170.593067 Y109.362692 Z-0.125000
G01 X163.757206 Y89.819240 Z-0.125000
G01 X159.921717 Y58.444541 Z-0.125000
G00 Z3.000000

(End cutting path id: polyline278)


(Start cutting path id: polyline302)
(Change tool to Default tool)

G00 Z3.000000
G00 X161.680916 Y244.615227

G00 Z4.875000 (Fast pre-penetrate)
G01 Z-0.125000 F400.0(Penetrate)
G01 X167.341324 Y210.100974 Z-0.125000 F800.000000
G01 X162.361403 Y186.149780 Z-0.125000
G01 X158.123811 Y171.942030 Z-0.125000
G01 X156.422592 Y133.978926 Z-0.125000
G01 X172.166688 Y109.300869 Z-0.125000
G01 X164.279148 Y89.355296 Z-0.125000
G01 X160.923068 Y58.552813 Z-0.125000
G00 Z3.000000

(End cutting path id: polyline302)


(Start cutting path id: polyline304)
(Change tool to Default tool)

G00 Z3.000000
G00 X162.574013 Y244.940024

G00 Z4.875000 (Fast pre-penetrate)
G01 Z-0.125000 F400.0(Penetrate)
G01 X168.450983 Y209.606082 Z-0.125000 F800.000000
G01 X163.285430 Y186.273535 Z-0.125000
G01 X158.243632 Y172.039986 Z-0.125000
G01 X157.212584 Y134.411941 Z-0.125000
G01 X173.740254 Y109.238992 Z-0.125000
G01 X164.801053 Y88.891333 Z-0.125000
G01 X161.924454 Y58.661085 Z-0.125000
G00 Z3.000000

(End cutting path id: polyline304)


(Start cutting path id: polyline306)
(Change tool to Default tool)

G00 Z3.000000
G00 X163.467091 Y245.264767

G00 Z4.875000 (Fast pre-penetrate)
G01 Z-0.125000 F400.0(Penetrate)
G01 X169.560605 Y209.111190 Z-0.125000 F800.000000
G01 X164.209456 Y186.397253 Z-0.125000
G01 X158.363452 Y172.137924 Z-0.125000
G01 X158.002540 Y134.845010 Z-0.125000
G01 X175.313857 Y109.177096 Z-0.125000
G01 X165.322995 Y88.427335 Z-0.125000
G01 X162.925805 Y58.769339 Z-0.125000
G00 Z3.000000

(End cutting path id: polyline306)


(Start cutting path id: polyline300)
(Change tool to Default tool)

G00 Z3.000000
G00 X175.077389 Y245.156495

G00 Z4.875000 (Fast pre-penetrate)
G01 Z-0.125000 F400.0(Penetrate)
G01 X180.273835 Y210.595866 Z-0.125000 F800.000000
G01 X175.726929 Y186.644727 Z-0.125000
G01 X165.694839 Y169.946962 Z-0.125000
G01 X173.633904 Y138.453639 Z-0.125000
G01 X185.253792 Y110.352530 Z-0.125000
G01 X173.345222 Y85.860050 Z-0.125000
G01 X175.077389 Y59.310625 Z-0.125000
G00 Z3.000000

(End cutting path id: polyline300)


(Start cutting path id: polyline310)
(Change tool to Default tool)

G00 Z3.000000
G00 X174.184292 Y245.373039

G00 Z4.875000 (Fast pre-penetrate)
G01 Z-0.125000 F400.0(Penetrate)
G01 X179.628175 Y210.100974 Z-0.125000 F800.000000
G01 X174.864779 Y186.691103 Z-0.125000
G01 X164.853340 Y170.282020 Z-0.125000
G01 X172.173740 Y138.273229 Z-0.125000
G01 X184.994807 Y110.166934 Z-0.125000
G01 X172.668686 Y85.890980 Z-0.125000
G01 X174.184292 Y59.310625 Z-0.125000
G00 Z3.000000

(End cutting path id: polyline310)


(Start cutting path id: polyline312)
(Change tool to Default tool)

G00 Z3.000000
G00 X173.291177 Y245.589564

G00 Z4.875000 (Fast pre-penetrate)
G01 Z-0.125000 F400.0(Penetrate)
G01 X178.982551 Y209.606082 Z-0.125000 F800.000000
G01 X174.002594 Y186.737497 Z-0.125000
G01 X164.011768 Y170.617134 Z-0.125000
G01 X170.713576 Y138.092782 Z-0.125000
G01 X184.735785 Y109.981339 Z-0.125000
G01 X171.992079 Y85.921873 Z-0.125000
G01 X173.291177 Y59.310625 Z-0.125000
G00 Z3.000000

(End cutting path id: polyline312)


(Start cutting path id: polyline308)
(Change tool to Default tool)

G00 Z3.000000
G00 X164.360207 Y245.589564

G00 Z4.875000 (Fast pre-penetrate)
G01 Z-0.125000 F400.0(Penetrate)
G01 X170.670209 Y208.616244 Z-0.125000 F800.000000
G01 X165.133519 Y186.520954 Z-0.125000
G01 X158.483236 Y172.235880 Z-0.125000
G01 X158.792532 Y135.278024 Z-0.125000
G01 X176.887424 Y109.115273 Z-0.125000
G01 X165.844900 Y87.963373 Z-0.125000
G01 X163.927156 Y58.877610 Z-0.125000
G00 Z3.000000

(End cutting path id: polyline308)


(Start cutting path id: polyline318)
(Change tool to Default tool)

G00 Z3.000000
G00 X165.253304 Y245.914361

G00 Z4.875000 (Fast pre-penetrate)
G01 Z-0.125000 F400.0(Penetrate)
G01 X171.779814 Y208.121352 Z-0.125000 F800.000000
G01 X166.057546 Y186.644727 Z-0.125000
G01 X158.603057 Y172.333836 Z-0.125000
G01 X159.582525 Y135.711075 Z-0.125000
G01 X178.460990 Y109.053396 Z-0.125000
G01 X166.366842 Y87.499429 Z-0.125000
G01 X164.928543 Y58.985828 Z-0.125000
G00 Z3.000000

(End cutting path id: polyline318)


(Start cutting path id: polyline314)
(Change tool to Default tool)

G00 Z3.000000
G00 X172.398098 Y245.806053

G00 Z4.875000 (Fast pre-penetrate)
G01 Z-0.125000 F400.0(Penetrate)
G01 X178.336909 Y209.111190 Z-0.125000 F800.000000
