%
(Header)
(Generated by gcodetools from Inkscape.)
(Using default header. To add your own header create file "header" in the output dir.)
M3
(Header end.)
G21 (All units in mm)

(Start cutting path id: polyline110976)
(Change tool to Default tool)

G00 Z5.000000
G00 X204.090340 Y197.459316

G00 Z4.875000 (Fast pre-penetrate)
G01 Z-0.125000 F100.0(Penetrate)
G01 X199.110094 Y200.236882 Z-0.125000 F800.000000
G01 X196.121947 Y201.561385 Z-0.125000
G01 X194.129848 Y202.209004 Z-0.125000
G01 X192.137750 Y202.637973 Z-0.125000
G01 X191.141701 Y202.766428 Z-0.125000
G01 X189.149602 Y202.850142 Z-0.125000
G01 X188.153553 Y202.807174 Z-0.125000
G01 X186.161428 Y202.560820 Z-0.125000
G01 X184.169357 Y202.119761 Z-0.125000
G01 X182.177258 Y201.513072 Z-0.125000
G01 X179.189111 Y200.368353 Z-0.125000
G01 X170.224615 Y196.408340 Z-0.125000
G01 X167.236468 Y195.278411 Z-0.125000
G01 X165.244343 Y194.646164 Z-0.125000
G01 X163.252245 Y194.125650 Z-0.125000
G01 X161.260146 Y193.723616 Z-0.125000
G01 X159.268075 Y193.441994 Z-0.125000
G01 X157.275950 Y193.278402 Z-0.125000
G01 X155.283852 Y193.226861 Z-0.125000
G01 X153.291753 Y193.278455 Z-0.125000
G01 X151.299655 Y193.422203 Z-0.125000
G01 X148.311507 Y193.783121 Z-0.125000
G01 X143.331262 Y194.661669 Z-0.125000
G01 X133.370770 Y196.783651 Z-0.125000
G01 X128.390524 Y197.754538 Z-0.125000
G01 X123.410278 Y198.568739 Z-0.125000
G01 X118.429980 Y199.207152 Z-0.125000
G01 X113.449734 Y199.677633 Z-0.125000
G01 X107.473412 Y200.051753 Z-0.125000
G01 X101.497117 Y200.258895 Z-0.125000
G01 X94.524773 Y200.332793 Z-0.125000
G01 X87.552429 Y200.242571 Z-0.125000
G01 X81.576134 Y200.018469 Z-0.125000
G01 X75.599839 Y199.622706 Z-0.125000
G01 X70.619540 Y199.130449 Z-0.125000
G01 X65.639295 Y198.468118 Z-0.125000
G01 X60.659049 Y197.630687 Z-0.125000
G01 X46.714334 Y194.725671 Z-0.125000
G01 X42.730137 Y193.987088 Z-0.125000
G01 X39.741990 Y193.561427 Z-0.125000
G01 X37.749892 Y193.363651 Z-0.125000
G01 X33.765695 Y193.232312 Z-0.125000
G01 X30.777548 Y193.408101 Z-0.125000
G01 X28.785449 Y193.670620 Z-0.125000
G01 X26.793351 Y194.053445 Z-0.125000
G01 X23.805150 Y194.849364 Z-0.125000
G01 X21.813052 Y195.517145 Z-0.125000
G01 X18.824905 Y196.689777 Z-0.125000
G01 X9.860436 Y200.647594 Z-0.125000
G01 X7.868337 Y201.403164 Z-0.125000
G01 X5.876239 Y202.033189 Z-0.125000
G00 Z5.000000

(End cutting path id: polyline110976)


(Start cutting path id: polyline110950)
(Change tool to Default tool)

G00 Z5.000000
G00 X204.090340 Y201.670472

G00 Z4.875000 (Fast pre-penetrate)
G01 Z-0.125000 F100.0(Penetrate)
G01 X202.098242 Y201.313126 Z-0.125000 F800.000000
G01 X200.106143 Y201.217162 Z-0.125000
G01 X198.114045 Y201.373345 Z-0.125000
G01 X196.121947 Y201.760510 Z-0.125000
G01 X194.129848 Y202.347937 Z-0.125000
G01 X191.141701 Y203.520093 Z-0.125000
G01 X183.173307 Y207.314001 Z-0.125000
G01 X179.189111 Y208.969312 Z-0.125000
G01 X176.200963 Y209.908555 Z-0.125000
G01 X174.208865 Y210.360013 Z-0.125000
G01 X172.216740 Y210.663146 Z-0.125000
G01 X170.224615 Y210.817398 Z-0.125000
G01 X168.232517 Y210.827663 Z-0.125000
G01 X166.240419 Y210.703204 Z-0.125000
G01 X164.248294 Y210.456877 Z-0.125000
G01 X161.260146 Y209.893156 Z-0.125000
G01 X156.279901 Y208.582068 Z-0.125000
G01 X147.315458 Y205.810852 Z-0.125000
G01 X143.331262 Y204.673357 Z-0.125000
G01 X139.347065 Y203.688976 Z-0.125000
G01 X135.362868 Y202.885675 Z-0.125000
G01 X131.378672 Y202.267610 Z-0.125000
G01 X127.394475 Y201.821523 Z-0.125000
G01 X122.414176 Y201.468278 Z-0.125000
G01 X117.433930 Y201.287779 Z-0.125000
G01 X110.461560 Y201.215416 Z-0.125000
G01 X75.599839 Y201.234492 Z-0.125000
G01 X67.631393 Y201.452244 Z-0.125000
G01 X61.655098 Y201.886266 Z-0.125000
G01 X55.678803 Y202.661732 Z-0.125000
G01 X50.698531 Y203.618041 Z-0.125000
G01 X44.722236 Y205.135319 Z-0.125000
G01 X33.765695 Y208.487877 Z-0.125000
G01 X29.781498 Y209.584494 Z-0.125000
G01 X25.797302 Y210.407294 Z-0.125000
G01 X23.805150 Y210.671692 Z-0.125000
G01 X21.813052 Y210.816524 Z-0.125000
G01 X19.820954 Y210.828510 Z-0.125000
G01 X17.828856 Y210.697674 Z-0.125000
G01 X15.836757 Y210.418433 Z-0.125000
G01 X13.844659 Y209.990364 Z-0.125000
G01 X11.852534 Y209.419023 Z-0.125000
G01 X9.860436 Y208.716397 Z-0.125000
G01 X5.876239 Y207.029680 Z-0.125000
G01 X8.864413 Y207.783186 Z-0.125000
G01 X11.852534 Y208.143866 Z-0.125000
G01 X14.840708 Y208.114603 Z-0.125000
G01 X17.828856 Y207.731407 Z-0.125000
G01 X19.820954 Y207.308392 Z-0.125000
G01 X22.809101 Y206.477019 Z-0.125000
G01 X25.797302 Y205.480335 Z-0.125000
G01 X34.761744 Y202.254804 Z-0.125000
G01 X39.741990 Y200.739140 Z-0.125000
G01 X42.730137 Y200.013548 Z-0.125000
G01 X45.718285 Y199.440990 Z-0.125000
G01 X48.706432 Y199.020726 Z-0.125000
G01 X51.694606 Y198.743417 Z-0.125000
G01 X56.674852 Y198.555484 Z-0.125000
G01 X61.655098 Y198.630308 Z-0.125000
G01 X66.635344 Y198.871925 Z-0.125000
G01 X83.568232 Y199.917186 Z-0.125000
G01 X89.544527 Y200.124064 Z-0.125000
G01 X95.520822 Y200.184151 Z-0.125000
G01 X100.501068 Y200.116629 Z-0.125000
G01 X105.481341 Y199.947402 Z-0.125000
G01 X125.402377 Y198.744951 Z-0.125000
G01 X129.386573 Y198.590514 Z-0.125000
G01 X133.370770 Y198.558606 Z-0.125000
G01 X137.354967 Y198.698888 Z-0.125000
G01 X140.343114 Y198.945717 Z-0.125000
G01 X144.327311 Y199.494568 Z-0.125000
G01 X147.315458 Y200.083530 Z-0.125000
G01 X150.303606 Y200.824997 Z-0.125000
G01 X153.291753 Y201.707434 Z-0.125000
G01 X156.279901 Y202.705997 Z-0.125000
G01 X165.244343 Y205.933751 Z-0.125000
G01 X169.228566 Y207.138397 Z-0.125000
G01 X171.220638 Y207.601047 Z-0.125000
G01 X173.212816 Y207.940084 Z-0.125000
G01 X175.204914 Y208.135399 Z-0.125000
G01 X177.197012 Y208.170615 Z-0.125000
G01 X179.189111 Y208.034328 Z-0.125000
G01 X181.181209 Y207.721406 Z-0.125000
G01 X183.173307 Y207.233885 Z-0.125000
G01 X185.165406 Y206.582032 Z-0.125000
G01 X187.157478 Y205.784553 Z-0.125000
G01 X189.149602 Y204.868831 Z-0.125000
G01 X195.125897 Y201.801996 Z-0.125000
G01 X198.114045 Y200.386821 Z-0.125000
G01 X201.102192 Y199.284330 Z-0.125000
G01 X203.094291 Y198.803054 Z-0.125000
G01 X204.090340 Y198.653538 Z-0.125000
G00 Z5.000000

(End cutting path id: polyline110950)


(Start cutting path id: polyline110948)
(Change tool to Default tool)

G00 Z5.000000
G00 X204.090340 Y197.860477

G00 Z4.875000 (Fast pre-penetrate)
G01 Z-0.125000 F100.0(Penetrate)
G01 X202.098242 Y198.540720 Z-0.125000 F800.000000
G01 X200.106143 Y199.401805 Z-0.125000
G01 X192.137750 Y203.546233 Z-0.125000
G01 X190.145652 Y204.489022 Z-0.125000
G01 X188.153553 Y205.305419 Z-0.125000
G01 X186.161428 Y205.965210 Z-0.125000
G01 X184.169357 Y206.447730 Z-0.125000
G01 X181.181209 Y206.817538 Z-0.125000
G01 X179.189111 Y206.828385 Z-0.125000
G01 X177.197012 Y206.661195 Z-0.125000
G01 X175.204914 Y206.332398 Z-0.125000
G01 X173.212816 Y205.863213 Z-0.125000
G01 X169.228566 Y204.604460 Z-0.125000
G01 X161.260146 Y201.547732 Z-0.125000
G01 X157.275950 Y200.123085 Z-0.125000
G01 X154.287802 Y199.209453 Z-0.125000
G01 X151.299655 Y198.462615 Z-0.125000
G01 X148.311507 Y197.895905 Z-0.125000
G01 X145.323360 Y197.508793 Z-0.125000
G01 X142.335212 Y197.290089 Z-0.125000
G01 X139.347065 Y197.220953 Z-0.125000
G01 X135.362868 Y197.320463 Z-0.125000
G01 X131.378672 Y197.583088 Z-0.125000
G01 X115.441832 Y199.196753 Z-0.125000
G01 X108.469462 Y199.775635 Z-0.125000
G01 X101.497117 Y200.137531 Z-0.125000
G01 X95.520822 Y200.251514 Z-0.125000
G01 X88.548478 Y200.148273 Z-0.125000
G01 X80.580085 Y199.728089 Z-0.125000
G01 X73.607688 Y199.131110 Z-0.125000
G01 X60.659049 Y197.786579 Z-0.125000
G01 X55.678803 Y197.392006 Z-0.125000
G01 X50.698531 Y197.221456 Z-0.125000
G01 X45.718285 Y197.392853 Z-0.125000
G01 X42.730137 Y197.704029 Z-0.125000
G01 X39.741990 Y198.190994 Z-0.125000
G01 X37.749892 Y198.616549 Z-0.125000
G01 X34.761744 Y199.402943 Z-0.125000
G01 X29.781498 Y201.057195 Z-0.125000
G01 X19.820954 Y204.842187 Z-0.125000
G01 X16.832780 Y205.776986 Z-0.125000
G01 X14.840708 Y206.266332 Z-0.125000
G01 X11.852534 Y206.737184 Z-0.125000
G01 X9.860436 Y206.845319 Z-0.125000
G01 X7.868337 Y206.771262 Z-0.125000
G01 X5.876239 Y206.507473 Z-0.125000
G01 X13.844659 Y210.047382 Z-0.125000
G01 X16.832806 Y211.218400 Z-0.125000
G01 X18.824905 Y211.886710 Z-0.125000
G01 X21.813052 Y212.684613 Z-0.125000
G01 X23.805150 Y213.068390 Z-0.125000
G01 X25.797302 Y213.330327 Z-0.125000
G01 X28.785449 Y213.499846 Z-0.125000
G01 X30.777548 Y213.472779 Z-0.125000
G01 X33.765695 Y213.245343 Z-0.125000
G01 X35.757793 Y212.985920 Z-0.125000
G01 X38.745941 Y212.466993 Z-0.125000
G01 X42.730137 Y211.601410 Z-0.125000
G01 X55.678803 Y208.449274 Z-0.125000
G01 X60.659049 Y207.413987 Z-0.125000
G01 X64.643246 Y206.717896 Z-0.125000
G01 X68.627442 Y206.144280 Z-0.125000
G01 X73.607688 Y205.590111 Z-0.125000
G01 X78.587987 Y205.195353 Z-0.125000
G01 X83.568232 Y204.933045 Z-0.125000
G01 X92.532675 Y204.721167 Z-0.125000
G01 X102.493167 Y204.810120 Z-0.125000
G01 X110.461560 Y205.152437 Z-0.125000
G01 X118.429980 Y205.825775 Z-0.125000
G01 X124.406328 Y206.611692 Z-0.125000
G01 X130.382622 Y207.670103 Z-0.125000
G01 X136.358917 Y208.983017 Z-0.125000
G01 X147.315458 Y211.675678 Z-0.125000
G01 X152.295704 Y212.712156 Z-0.125000
G01 X156.279901 Y213.279263 Z-0.125000
G01 X160.264097 Y213.502650 Z-0.125000
G01 X163.252245 Y213.391922 Z-0.125000
G01 X165.244343 Y213.171234 Z-0.125000
G01 X167.236468 Y212.828890 Z-0.125000
G01 X170.224615 Y212.090280 Z-0.125000
G01 X172.216740 Y211.457186 Z-0.125000
G01 X175.204914 Y210.328184 Z-0.125000
G01 X183.173307 Y206.806769 Z-0.125000
G01 X186.161455 Y205.594185 Z-0.125000
G01 X189.149602 Y204.629701 Z-0.125000
G01 X191.141701 Y204.183032 Z-0.125000
G01 X193.133826 Y203.928688 Z-0.125000
G01 X194.129875 Y203.881222 Z-0.125000
G01 X196.121947 Y203.956390 Z-0.125000
G01 X197.117996 Y204.081538 Z-0.125000
G01 X198.114045 Y204.265608 Z-0.125000
G01 X200.106170 Y204.808056 Z-0.125000
G01 X202.098268 Y205.570981 Z-0.125000
G01 X204.090366 Y206.529327 Z-0.125000
G00 Z5.000000

(End cutting path id: polyline110948)


(Start cutting path id: polyline110940)
(Change tool to Default tool)

G00 Z5.000000
G00 X204.090366 Y205.169265

G00 Z4.875000 (Fast pre-penetrate)
G01 Z-0.125000 F100.0(Penetrate)
G01 X202.098268 Y204.335934 Z-0.125000 F800.000000
G01 X201.102219 Y204.000469 Z-0.125000
G01 X199.110094 Y203.504588 Z-0.125000
G01 X198.114045 Y203.346844 Z-0.125000
G01 X197.117996 Y203.249715 Z-0.125000
G01 X195.125897 Y203.234211 Z-0.125000
G01 X194.129875 Y203.312686 Z-0.125000
G01 X192.137750 Y203.629445 Z-0.125000
G01 X190.145652 Y204.136888 Z-0.125000
G01 X187.157504 Y205.183261 Z-0.125000
G01 X177.197012 Y209.613413 Z-0.125000
G01 X173.212816 Y211.114180 Z-0.125000
G01 X170.224615 Y211.959946 Z-0.125000
G01 X168.232517 Y212.369230 Z-0.125000
G01 X166.240419 Y212.649979 Z-0.125000
G01 X163.252245 Y212.833520 Z-0.125000
G01 X161.260146 Y212.806030 Z-0.125000
G01 X159.268075 Y212.669505 Z-0.125000
G01 X157.275950 Y212.435719 Z-0.125000
G01 X154.287802 Y211.931953 Z-0.125000
G01 X149.307557 Y210.802078 Z-0.125000
G01 X136.358917 Y207.445023 Z-0.125000
G01 X131.378672 Y206.360232 Z-0.125000
G01 X127.394475 Y205.640461 Z-0.125000
G01 X123.410278 Y205.055706 Z-0.125000
G01 X118.429980 Y204.501166 Z-0.125000
G01 X113.449734 Y204.114425 Z-0.125000
G01 X108.469462 Y203.860796 Z-0.125000
G01 X97.512921 Y203.624894 Z-0.125000
G01 X85.560331 Y203.724086 Z-0.125000
G01 X76.595888 Y204.094608 Z-0.125000
G01 X72.611639 Y204.384221 Z-0.125000
G01 X68.627442 Y204.775512 Z-0.125000
G01 X61.655098 Y205.753332 Z-0.125000
G01 X55.678803 Y206.917682 Z-0.125000
G01 X50.698531 Y208.099760 Z-0.125000
G01 X39.741990 Y210.970961 Z-0.125000
G01 X35.757793 Y211.869194 Z-0.125000
G01 X31.773597 Y212.525387 Z-0.125000
G01 X29.781498 Y212.727528 Z-0.125000
G01 X27.789400 Y212.828175 Z-0.125000
G01 X24.801253 Y212.765178 Z-0.125000
G01 X22.809101 Y212.568858 Z-0.125000
G01 X20.817003 Y212.244241 Z-0.125000
G01 X17.828856 Y211.519019 Z-0.125000
G01 X15.836757 Y210.886189 Z-0.125000
G01 X12.848610 Y209.745969 Z-0.125000
G01 X5.876266 Y206.603384 Z-0.125000
G00 Z5.000000

(End cutting path id: polyline110940)


(Start cutting path id: polyline110942)
(Change tool to Default tool)

G00 Z5.000000
G00 X204.090366 Y207.963129

G00 Z4.875000 (Fast pre-penetrate)
G01 Z-0.125000 F100.0(Penetrate)
G01 X202.098268 Y206.902204 Z-0.125000 F800.000000
G01 X200.106170 Y206.007411 Z-0.125000
G01 X198.114045 Y205.311002 Z-0.125000
G01 X197.117996 Y205.044144 Z-0.125000
G01 X195.125897 Y204.680342 Z-0.125000
G01 X194.129875 Y204.584219 Z-0.125000
G01 X192.137750 Y204.560539 Z-0.125000
G01 X190.145652 Y204.750615 Z-0.125000
G01 X187.157504 Y205.390139 Z-0.125000
G01 X184.169357 Y206.368964 Z-0.125000
G01 X181.181209 Y207.573848 Z-0.125000
G01 X173.212816 Y211.017607 Z-0.125000
G01 X170.224615 Y212.117214 Z-0.125000
G01 X168.232517 Y212.735677 Z-0.125000
G01 X165.244343 Y213.462963 Z-0.125000
G01 X163.252245 Y213.805836 Z-0.125000
G01 X160.264097 Y214.105767 Z-0.125000
G01 X157.275950 Y214.160854 Z-0.125000
G01 X153.291753 Y213.899710 Z-0.125000
G01 X149.307557 Y213.334878 Z-0.125000
G01 X144.327311 Y212.346290 Z-0.125000
G01 X134.366819 Y210.062145 Z-0.125000
G01 X129.386573 Y209.009343 Z-0.125000
G01 X123.410278 Y207.946011 Z-0.125000
G01 X117.433930 Y207.131068 Z-0.125000
G01 X110.461560 Y206.479109 Z-0.125000
G01 X102.493167 Y206.067260 Z-0.125000
G01 X94.524773 Y205.946054 Z-0.125000
G01 X86.556380 Y206.090225 Z-0.125000
G01 X81.576134 Y206.326286 Z-0.125000
G01 X76.595888 Y206.693369 Z-0.125000
G01 X71.615590 Y207.211131 Z-0.125000
G01 X67.631393 Y207.745404 Z-0.125000
G01 X63.647196 Y208.391145 Z-0.125000
G01 X58.666951 Y209.348565 Z-0.125000
G01 X45.718285 Y212.276361 Z-0.125000
G01 X40.738039 Y213.279554 Z-0.125000
G01 X35.757793 Y213.968158 Z-0.125000
G01 X31.773597 Y214.168659 Z-0.125000
G01 X28.785449 Y214.059862 Z-0.125000
G01 X25.797302 Y213.702040 Z-0.125000
G01 X23.805150 Y213.320009 Z-0.125000
G01 X20.817003 Y212.536526 Z-0.125000
G01 X18.824905 Y211.884461 Z-0.125000
G01 X15.836757 Y210.744267 Z-0.125000
G01 X8.864413 Y207.710426 Z-0.125000
G01 X5.876266 Y206.488476 Z-0.125000
G00 Z5.000000

(End cutting path id: polyline110942)


(Start cutting path id: polyline110944)
(Change tool to Default tool)

G00 Z5.000000
G00 X204.090366 Y203.898049

G00 Z4.875000 (Fast pre-penetrate)
G01 Z-0.125000 F100.0(Penetrate)
G01 X202.098268 Y203.209049 Z-0.125000 F800.000000
G01 X201.102219 Y202.953567 Z-0.125000
G01 X199.110094 Y202.628130 Z-0.125000
G01 X197.117996 Y202.550422 Z-0.125000
G01 X196.121947 Y202.601778 Z-0.125000
G01 X194.129875 Y202.873558 Z-0.125000
G01 X192.137750 Y203.349040 Z-0.125000
G01 X189.149602 Y204.371918 Z-0.125000
G01 X186.161455 Y205.650832 Z-0.125000
G01 X179.189111 Y208.873056 Z-0.125000
G01 X176.200963 Y210.070718 Z-0.125000
G01 X174.208865 Y210.741886 Z-0.125000
G01 X171.220638 Y211.518384 Z-0.125000
G01 X169.228566 Y211.870147 Z-0.125000
G01 X167.236468 Y212.086443 Z-0.125000
G01 X165.244343 Y212.170237 Z-0.125000
G01 X163.252245 Y212.128565 Z-0.125000
G01 X161.260146 Y211.971588 Z-0.125000
G01 X159.268075 Y211.712032 Z-0.125000
G01 X156.279901 Y211.161885 Z-0.125000
G01 X152.295704 Y210.208698 Z-0.125000
G01 X142.335212 Y207.434545 Z-0.125000
G01 X138.351016 Y206.400581 Z-0.125000
G01 X134.366819 Y205.491474 Z-0.125000
G01 X130.382622 Y204.729052 Z-0.125000
G01 X126.398426 Y204.116860 Z-0.125000
G01 X121.418127 Y203.547636 Z-0.125000
G01 X116.437881 Y203.162614 Z-0.125000
G01 X110.461560 Y202.884061 Z-0.125000
G01 X97.512921 Y202.676734 Z-0.125000
G01 X83.568232 Y202.770741 Z-0.125000
G01 X74.603790 Y203.086441 Z-0.125000
G01 X70.619540 Y203.348669 Z-0.125000
G01 X66.635344 Y203.716440 Z-0.125000
G01 X62.651147 Y204.210734 Z-0.125000
G01 X59.663000 Y204.674733 Z-0.125000
G01 X53.686705 Y205.856413 Z-0.125000
G01 X47.710383 Y207.348344 Z-0.125000
G01 X37.749892 Y210.125037 Z-0.125000
G01 X32.769646 Y211.301479 Z-0.125000
G01 X28.785449 Y211.936689 Z-0.125000
G01 X25.797302 Y212.156240 Z-0.125000
G01 X22.809101 Y212.108563 Z-0.125000
G01 X20.817003 Y211.913724 Z-0.125000
G01 X18.824905 Y211.583577 Z-0.125000
G01 X16.832806 Y211.119075 Z-0.125000
G01 X14.840708 Y210.526356 Z-0.125000
G01 X11.852561 Y209.424394 Z-0.125000
G01 X5.876266 Y206.727950 Z-0.125000
G00 Z5.000000

(End cutting path id: polyline110944)


(Start cutting path id: polyline110946)
(Change tool to Default tool)

G00 Z5.000000
G00 X204.090366 Y202.728434

G00 Z4.875000 (Fast pre-penetrate)
G01 Z-0.125000 F100.0(Penetrate)
G01 X202.098268 Y202.199400 Z-0.125000 F800.000000
G01 X200.106170 Y201.923916 Z-0.125000
G01 X198.114045 Y201.901718 Z-0.125000
G01 X197.117996 Y201.982072 Z-0.125000
G01 X195.125897 Y202.312562 Z-0.125000
G01 X193.133826 Y202.845274 Z-0.125000
G01 X190.145652 Y203.945145 Z-0.125000
G01 X181.181209 Y208.106718 Z-0.125000
G01 X178.193062 Y209.343644 Z-0.125000
G01 X176.200963 Y210.038624 Z-0.125000
G01 X173.212816 Y210.842480 Z-0.125000
G01 X171.220638 Y211.204985 Z-0.125000
G01 X169.228566 Y211.425092 Z-0.125000
G01 X167.236468 Y211.505472 Z-0.125000
G01 X165.244343 Y211.453323 Z-0.125000
G01 X163.252245 Y211.279386 Z-0.125000
G01 X161.260146 Y210.997102 Z-0.125000
G01 X158.272025 Y210.404569 Z-0.125000
G01 X154.287802 Y209.385686 Z-0.125000
G01 X141.339163 Y205.644879 Z-0.125000
G01 X137.354967 Y204.678305 Z-0.125000
G01 X133.370770 Y203.873205 Z-0.125000
G01 X129.386573 Y203.235560 Z-0.125000
G01 X124.406328 Y202.657631 Z-0.125000
G01 X119.426029 Y202.284887 Z-0.125000
G01 X113.449734 Y202.037687 Z-0.125000
G01 X100.501068 Y201.890976 Z-0.125000
G01 X79.584036 Y201.965535 Z-0.125000
G01 X70.619540 Y202.266895 Z-0.125000
G01 X63.647196 Y202.826700 Z-0.125000
G01 X57.670901 Y203.644632 Z-0.125000
G01 X52.690656 Y204.607952 Z-0.125000
G01 X46.714334 Y206.093480 Z-0.125000
G01 X35.757793 Y209.296601 Z-0.125000
G01 X31.773597 Y210.331517 Z-0.125000
G01 X27.789400 Y211.104444 Z-0.125000
G01 X25.797302 Y211.351485 Z-0.125000
G01 X23.805150 Y211.485364 Z-0.125000
G01 X21.813052 Y211.493434 Z-0.125000
G01 X19.820954 Y211.366063 Z-0.125000
G01 X17.828856 Y211.097564 Z-0.125000
G01 X15.836757 Y210.686852 Z-0.125000
G01 X13.844659 Y210.138319 Z-0.125000
G01 X10.856511 Y209.081442 Z-0.125000
G01 X5.876266 Y206.867279 Z-0.125000
G01 X8.864413 Y207.371125 Z-0.125000
G01 X10.856511 Y207.506406 Z-0.125000
G01 X13.844659 Y207.378162 Z-0.125000
G01 X16.832780 Y206.894214 Z-0.125000
G01 X18.824905 Y206.407063 Z-0.125000
G01 X21.813052 Y205.489252 Z-0.125000
G01 X32.769646 Y201.462113 Z-0.125000
G01 X37.749892 Y199.916895 Z-0.125000
G01 X40.738039 Y199.190430 Z-0.125000
G01 X42.730137 Y198.798582 Z-0.125000
G01 X45.718285 Y198.349850 Z-0.125000
G01 X48.706432 Y198.060184 Z-0.125000
G01 X53.686705 Y197.886697 Z-0.125000
G01 X58.666951 Y198.013247 Z-0.125000
G01 X63.647196 Y198.333102 Z-0.125000
G01 X75.599839 Y199.344629 Z-0.125000
G01 X81.576134 Y199.770052 Z-0.125000
G01 X88.548478 Y200.091547 Z-0.125000
G01 X95.520822 Y200.187379 Z-0.125000
G01 X101.497117 Y200.081625 Z-0.125000
G01 X107.473439 Y199.810374 Z-0.125000
G01 X113.449734 Y199.398392 Z-0.125000
G01 X128.390524 Y198.167287 Z-0.125000
G01 X132.374721 Y197.956759 Z-0.125000
G01 X136.358917 Y197.887676 Z-0.125000
G01 X140.343114 Y198.015152 Z-0.125000
G01 X143.331262 Y198.270607 Z-0.125000
G01 X146.319409 Y198.682245 Z-0.125000
G01 X149.307557 Y199.259883 Z-0.125000
G01 X152.295704 Y200.003652 Z-0.125000
G01 X155.283852 Y200.901276 Z-0.125000
G01 X159.268075 Y202.288776 Z-0.125000
G01 X167.236468 Y205.257212 Z-0.125000
G01 X171.220638 Y206.492418 Z-0.125000
G01 X173.212816 Y206.960703 Z-0.125000
G01 X175.204914 Y207.297385 Z-0.125000
G01 X177.197012 Y207.481641 Z-0.125000
G01 X179.189111 Y207.497013 Z-0.125000
G01 X181.181209 Y207.332601 Z-0.125000
G01 X183.173307 Y206.984489 Z-0.125000
G01 X185.165406 Y206.456699 Z-0.125000
G01 X187.157478 Y205.762010 Z-0.125000
G01 X189.149602 Y204.922382 Z-0.125000
G01 X191.141701 Y203.968693 Z-0.125000
G01 X197.117996 Y200.850635 Z-0.125000
G01 X199.110094 Y199.895782 Z-0.125000
G01 X202.098242 Y198.729209 Z-0.125000
G01 X204.090340 Y198.201736 Z-0.125000
G00 Z5.000000

(End cutting path id: polyline110946)


(Start cutting path id: polyline110952)
(Change tool to Default tool)

G00 Z5.000000
G00 X204.090340 Y197.619997

G00 Z4.875000 (Fast pre-penetrate)
G01 Z-0.125000 F100.0(Penetrate)
G01 X202.098242 Y198.436210 Z-0.125000 F800.000000
G01 X200.106143 Y199.401355 Z-0.125000
G01 X193.133799 Y203.109777 Z-0.125000
G01 X191.141701 Y204.039443 Z-0.125000
G01 X189.149602 Y204.830652 Z-0.125000
G01 X187.157478 Y205.453930 Z-0.125000
G01 X185.165406 Y205.890015 Z-0.125000
G01 X183.173307 Y206.129754 Z-0.125000
G01 X181.181209 Y206.173437 Z-0.125000
G01 X178.193062 Y205.892529 Z-0.125000
G01 X176.200963 Y205.499623 Z-0.125000
G01 X174.208865 Y204.969240 Z-0.125000
G01 X170.224615 Y203.605473 Z-0.125000
G01 X160.264097 Y199.717453 Z-0.125000
G01 X157.275950 Y198.732569 Z-0.125000
G01 X155.283852 Y198.169457 Z-0.125000
G01 X151.299655 Y197.296307 Z-0.125000
G01 X149.307557 Y196.990105 Z-0.125000
G01 X146.319409 Y196.688824 Z-0.125000
G01 X142.335212 Y196.555289 Z-0.125000
G01 X137.354967 Y196.738063 Z-0.125000
G01 X132.374721 Y197.188410 Z-0.125000
G01 X118.429980 Y198.897510 Z-0.125000
G01 X110.461560 Y199.696736 Z-0.125000
G01 X102.493167 Y200.192009 Z-0.125000
G01 X94.524773 Y200.349145 Z-0.125000
G01 X87.552429 Y200.204868 Z-0.125000
G01 X80.580085 Y199.800876 Z-0.125000
G01 X72.611639 Y199.046894 Z-0.125000
G01 X59.663000 Y197.452675 Z-0.125000
G01 X54.682754 Y196.921604 Z-0.125000
G01 X49.702482 Y196.598416 Z-0.125000
G01 X44.722236 Y196.612915 Z-0.125000
G01 X41.734088 Y196.834874 Z-0.125000
G01 X38.745941 Y197.241644 Z-0.125000
G01 X36.753843 Y197.620924 Z-0.125000
G01 X33.765695 Y198.352046 Z-0.125000
G01 X31.773597 Y198.942145 Z-0.125000
G01 X28.785449 Y199.961213 Z-0.125000
G01 X17.828856 Y204.217719 Z-0.125000
G01 X15.836757 Y204.873646 Z-0.125000
G01 X13.844659 Y205.423556 Z-0.125000
G01 X11.852534 Y205.840062 Z-0.125000
G01 X9.860436 Y206.098877 Z-0.125000
G01 X7.868337 Y206.180184 Z-0.125000
G01 X5.876239 Y206.070355 Z-0.125000
G00 Z5.000000

(End cutting path id: polyline110952)


(Start cutting path id: polyline110954)
(Change tool to Default tool)

G00 Z5.000000
G00 X204.090340 Y200.731282

G00 Z4.875000 (Fast pre-penetrate)
G01 Z-0.125000 F100.0(Penetrate)
G01 X203.094291 Y200.608727 Z-0.125000 F800.000000
G01 X201.102192 Y200.563563 Z-0.125000
G01 X199.110094 Y200.773827 Z-0.125000
G01 X197.117996 Y201.215575 Z-0.125000
G01 X195.125897 Y201.855125 Z-0.125000
G01 X193.133799 Y202.651705 Z-0.125000
G01 X184.169357 Y206.957184 Z-0.125000
G01 X182.177258 Y207.818693 Z-0.125000
G01 X180.185160 Y208.571008 Z-0.125000
G01 X178.193062 Y209.191879 Z-0.125000
G01 X176.200963 Y209.666170 Z-0.125000
G01 X174.208865 Y209.985945 Z-0.125000
G01 X172.216740 Y210.149669 Z-0.125000
G01 X170.224615 Y210.161867 Z-0.125000
G01 X168.232517 Y210.031877 Z-0.125000
G01 X166.240419 Y209.773009 Z-0.125000
G01 X163.252245 Y209.179523 Z-0.125000
G01 X158.272025 Y207.799696 Z-0.125000
G01 X150.303606 Y205.218398 Z-0.125000
G01 X146.319409 Y204.012508 Z-0.125000
G01 X142.335212 Y202.967696 Z-0.125000
G01 X138.351016 Y202.120290 Z-0.125000
G01 X134.366819 Y201.478623 Z-0.125000
G01 X130.382622 Y201.030023 Z-0.125000
G01 X126.398426 Y200.748268 Z-0.125000
G01 X121.418127 Y200.579835 Z-0.125000
G01 X115.441832 Y200.557742 Z-0.125000
G01 X94.524773 Y200.788643 Z-0.125000
G01 X69.623491 Y200.561552 Z-0.125000
G01 X63.647196 Y200.731996 Z-0.125000
G01 X58.666951 Y201.093761 Z-0.125000
G01 X55.678803 Y201.436025 Z-0.125000
G01 X52.690656 Y201.886187 Z-0.125000
G01 X47.710383 Y202.892555 Z-0.125000
G01 X41.734088 Y204.502833 Z-0.125000
G01 X31.773597 Y207.700716 Z-0.125000
G01 X27.789400 Y208.854430 Z-0.125000
G01 X23.805150 Y209.720860 Z-0.125000
G01 X21.813052 Y209.998804 Z-0.125000
G01 X19.820954 Y210.150357 Z-0.125000
G01 X17.828856 Y210.161602 Z-0.125000
G01 X15.836757 Y210.022458 Z-0.125000
G01 X12.848583 Y209.521814 Z-0.125000
G01 X9.860436 Y208.679382 Z-0.125000
G01 X7.868337 Y207.946725 Z-0.125000
G01 X5.876239 Y207.100853 Z-0.125000
G00 Z5.000000

(End cutting path id: polyline110954)


(Start cutting path id: polyline110956)
(Change tool to Default tool)

G00 Z5.000000
G00 X204.090340 Y199.915123

G00 Z4.875000 (Fast pre-penetrate)
G01 Z-0.125000 F100.0(Penetrate)
G01 X203.094291 Y199.883743 Z-0.125000 F800.000000
G01 X201.102192 Y200.019765 Z-0.125000
G01 X200.106143 Y200.181928 Z-0.125000
G01 X198.114045 Y200.676011 Z-0.125000
G01 X196.121947 Y201.365064 Z-0.125000
G01 X194.129848 Y202.205512 Z-0.125000
G01 X186.161428 Y206.125071 Z-0.125000
G01 X182.177258 Y207.804644 Z-0.125000
G01 X180.185160 Y208.457132 Z-0.125000
G01 X178.193062 Y208.958993 Z-0.125000
G01 X176.200963 Y209.300490 Z-0.125000
G01 X174.208865 Y209.478899 Z-0.125000
G01 X172.216740 Y209.498028 Z-0.125000
G01 X170.224615 Y209.367139 Z-0.125000
G01 X168.232517 Y209.100042 Z-0.125000
G01 X165.244343 Y208.482082 Z-0.125000
G01 X161.260146 Y207.357393 Z-0.125000
G01 X152.295704 Y204.352180 Z-0.125000
G01 X148.311507 Y203.111047 Z-0.125000
G01 X144.327311 Y202.051048 Z-0.125000
G01 X141.339163 Y201.399089 Z-0.125000
G01 X137.354967 Y200.728927 Z-0.125000
G01 X133.370770 Y200.274982 Z-0.125000
G01 X129.386573 Y200.009605 Z-0.125000
G01 X125.402377 Y199.895993 Z-0.125000
G01 X119.426029 Y199.923642 Z-0.125000
G01 X103.489216 Y200.364490 Z-0.125000
G01 X95.520822 Y200.463021 Z-0.125000
G01 X86.556380 Y200.371370 Z-0.125000
G01 X68.627442 Y199.898004 Z-0.125000
G01 X63.647196 Y199.906312 Z-0.125000
G01 X58.666951 Y200.100357 Z-0.125000
G01 X54.682754 Y200.440876 Z-0.125000
G01 X51.694606 Y200.827167 Z-0.125000
G01 X48.706432 Y201.337309 Z-0.125000
G01 X45.718285 Y201.975642 Z-0.125000
G01 X42.730137 Y202.738885 Z-0.125000
G01 X39.741990 Y203.613967 Z-0.125000
G01 X29.781498 Y206.936441 Z-0.125000
G01 X26.793351 Y207.862879 Z-0.125000
G01 X23.805150 Y208.642446 Z-0.125000
G01 X20.816977 Y209.205240 Z-0.125000
G01 X18.824905 Y209.427755 Z-0.125000
G01 X16.832780 Y209.508902 Z-0.125000
G01 X13.844659 Y209.339860 Z-0.125000
G01 X11.852534 Y209.024398 Z-0.125000
G01 X9.860436 Y208.547672 Z-0.125000
G01 X7.868337 Y207.918229 Z-0.125000
G01 X5.876239 Y207.152288 Z-0.125000
G01 X8.864413 Y208.073487 Z-0.125000
G01 X11.852534 Y208.648769 Z-0.125000
G01 X14.840708 Y208.843264 Z-0.125000
G01 X16.832780 Y208.769075 Z-0.125000
G01 X18.824905 Y208.545476 Z-0.125000
G01 X21.813052 Y207.967442 Z-0.125000
G01 X24.801253 Y207.159405 Z-0.125000
G01 X27.789400 Y206.196059 Z-0.125000
G01 X36.753843 Y203.076175 Z-0.125000
G01 X39.741990 Y202.146351 Z-0.125000
G01 X42.730137 Y201.333367 Z-0.125000
G01 X45.718285 Y200.654791 Z-0.125000
G01 X48.706432 Y200.117000 Z-0.125000
G01 X51.694606 Y199.716950 Z-0.125000
G01 X55.678803 Y199.379898 Z-0.125000
G01 X59.663000 Y199.233319 Z-0.125000
G01 X64.643246 Y199.251760 Z-0.125000
G01 X85.560331 Y200.116894 Z-0.125000
G01 X95.520822 Y200.268182 Z-0.125000
G01 X103.489216 Y200.137637 Z-0.125000
G01 X122.414176 Y199.326214 Z-0.125000
G01 X129.386573 Y199.224270 Z-0.125000
G01 X133.370770 Y199.342644 Z-0.125000
G01 X137.354967 Y199.644428 Z-0.125000
G01 X141.339163 Y200.167535 Z-0.125000
G01 X144.327311 Y200.720302 Z-0.125000
G01 X147.315458 Y201.413641 Z-0.125000
G01 X151.299655 Y202.542300 Z-0.125000
G01 X163.252245 Y206.633943 Z-0.125000
G01 X167.236468 Y207.801575 Z-0.125000
G01 X170.224615 Y208.438188 Z-0.125000
G01 X172.216740 Y208.708962 Z-0.125000
G01 X174.208865 Y208.835644 Z-0.125000
G01 X176.200963 Y208.804212 Z-0.125000
G01 X179.189111 Y208.442606 Z-0.125000
G01 X181.181209 Y207.990196 Z-0.125000
G01 X183.173307 Y207.376998 Z-0.125000
G01 X185.165406 Y206.618968 Z-0.125000
G01 X187.157478 Y205.740235 Z-0.125000
G01 X195.125897 Y201.757546 Z-0.125000
G01 X198.114045 Y200.486939 Z-0.125000
G01 X201.102192 Y199.596062 Z-0.125000
G01 X203.094291 Y199.283140 Z-0.125000
G01 X204.090340 Y199.223106 Z-0.125000
G00 Z5.000000

(End cutting path id: polyline110956)


(Start cutting path id: polyline110962)
(Change tool to Default tool)

G00 Z5.000000
G00 X204.090340 Y197.618542

G00 Z4.875000 (Fast pre-penetrate)
G01 Z-0.125000 F100.0(Penetrate)
G01 X202.098242 Y198.664783 Z-0.125000 F800.000000
G01 X200.106143 Y199.546453 Z-0.125000
G01 X198.114045 Y200.220531 Z-0.125000
G01 X197.117996 Y200.470271 Z-0.125000
G01 X195.125897 Y200.784304 Z-0.125000
G01 X194.129848 Y200.847169 Z-0.125000
G01 X193.133799 Y200.847698 Z-0.125000
G01 X191.141701 Y200.668258 Z-0.125000
G01 X188.153553 Y199.990211 Z-0.125000
G01 X185.165406 Y198.919312 Z-0.125000
G01 X183.173307 Y198.053967 Z-0.125000
G01 X175.204914 Y194.309350 Z-0.125000
G01 X171.220638 Y192.783050 Z-0.125000
G01 X168.232517 Y191.955170 Z-0.125000
G01 X166.240419 Y191.575361 Z-0.125000
G01 X164.248294 Y191.336389 Z-0.125000
G01 X161.260146 Y191.232937 Z-0.125000
G01 X159.268075 Y191.320753 Z-0.125000
G01 X157.275950 Y191.519084 Z-0.125000
G01 X153.291753 Y192.184537 Z-0.125000
G01 X149.307557 Y193.095787 Z-0.125000
G01 X139.347065 Y195.645388 Z-0.125000
G01 X133.370770 Y196.935654 Z-0.125000
G01 X128.390524 Y197.753241 Z-0.125000
G01 X122.414176 Y198.422928 Z-0.125000
G01 X115.441806 Y198.853722 Z-0.125000
G01 X106.477363 Y199.060334 Z-0.125000
G01 X86.556380 Y199.084835 Z-0.125000
G01 X75.599839 Y198.902934 Z-0.125000
G01 X67.631393 Y198.449968 Z-0.125000
G01 X63.647196 Y198.050289 Z-0.125000
G01 X59.663000 Y197.505777 Z-0.125000
G01 X55.678803 Y196.805426 Z-0.125000
G01 X51.694606 Y195.954791 Z-0.125000
G01 X39.741990 Y192.929126 Z-0.125000
G01 X35.757793 Y192.050155 Z-0.125000
G01 X31.773597 Y191.440079 Z-0.125000
G01 X29.781498 Y191.277731 Z-0.125000
G01 X27.789400 Y191.230688 Z-0.125000
G01 X24.801253 Y191.402059 Z-0.125000
G01 X22.809101 Y191.688840 Z-0.125000
G01 X20.816977 Y192.116433 Z-0.125000
G01 X18.824905 Y192.680921 Z-0.125000
G01 X16.832780 Y193.372038 Z-0.125000
G01 X13.844659 Y194.607297 Z-0.125000
G01 X5.876239 Y198.358634 Z-0.125000
G00 Z5.000000

(End cutting path id: polyline110962)


(Start cutting path id: polyline110958)
(Change tool to Default tool)

G00 Z5.000000
G00 X204.090340 Y197.618542

G00 Z4.875000 (Fast pre-penetrate)
G01 Z-0.125000 F100.0(Penetrate)
G01 X201.102192 Y198.984531 Z-0.125000 F800.000000
G01 X199.110094 Y199.634559 Z-0.125000
G01 X198.114045 Y199.868927 Z-0.125000
G01 X196.121947 Y200.146527 Z-0.125000
G01 X195.125897 Y200.188675 Z-0.125000
G01 X194.129848 Y200.167217 Z-0.125000
G01 X192.137750 Y199.941131 Z-0.125000
G01 X190.145652 Y199.490758 Z-0.125000
G01 X187.157478 Y198.467880 Z-0.125000
G01 X184.169357 Y197.152797 Z-0.125000
G01 X177.197012 Y193.798017 Z-0.125000
G01 X173.212816 Y192.206232 Z-0.125000
G01 X170.224615 Y191.335119 Z-0.125000
G01 X168.232517 Y190.933244 Z-0.125000
G01 X166.240419 Y190.679059 Z-0.125000
G01 X164.248294 Y190.569760 Z-0.125000
G01 X162.256222 Y190.597356 Z-0.125000
G01 X160.264097 Y190.749703 Z-0.125000
G01 X156.279901 Y191.366155 Z-0.125000
G01 X152.295704 Y192.279099 Z-0.125000
G01 X140.343114 Y195.454809 Z-0.125000
G01 X136.358917 Y196.338357 Z-0.125000
G01 X133.370770 Y196.891680 Z-0.125000
G01 X130.382622 Y197.346604 Z-0.125000
G01 X126.398426 Y197.806079 Z-0.125000
G01 X119.426029 Y198.267220 Z-0.125000
G01 X110.461560 Y198.439014 Z-0.125000
G01 X78.587987 Y198.435945 Z-0.125000
G01 X70.619540 Y198.279815 Z-0.125000
G01 X64.643246 Y197.923554 Z-0.125000
G01 X58.666951 Y197.251936 Z-0.125000
G01 X53.686705 Y196.401831 Z-0.125000
G01 X47.710383 Y195.040128 Z-0.125000
G01 X38.745941 Y192.620358 Z-0.125000
G01 X34.761744 Y191.641665 Z-0.125000
G01 X30.777548 Y190.911257 Z-0.125000
G01 X28.785449 Y190.684721 Z-0.125000
G01 X26.793351 Y190.573253 Z-0.125000
G01 X23.805150 Y190.652045 Z-0.125000
G01 X21.813052 Y190.882762 Z-0.125000
G01 X19.820954 Y191.261115 Z-0.125000
G01 X17.828856 Y191.785016 Z-0.125000
G01 X15.836757 Y192.445627 Z-0.125000
G01 X12.848583 Y193.656412 Z-0.125000
G01 X5.876239 Y197.001932 Z-0.125000
G00 Z5.000000

(End cutting path id: polyline110958)


(Start cutting path id: polyline110934)
(Change tool to Default tool)

G00 Z5.000000
G00 X204.090340 Y196.952904

G00 Z4.875000 (Fast pre-penetrate)
G01 Z-0.125000 F100.0(Penetrate)
G01 X202.098242 Y197.380656 Z-0.125000 F800.000000
G01 X200.106143 Y197.526679 Z-0.125000
G01 X198.114045 Y197.393514 Z-0.125000
G01 X196.121947 Y197.000106 Z-0.125000
G01 X194.129848 Y196.378971 Z-0.125000
G01 X192.137750 Y195.573342 Z-0.125000
G01 X190.145652 Y194.633490 Z-0.125000
G01 X183.173307 Y191.057387 Z-0.125000
G01 X181.181209 Y190.156164 Z-0.125000
G01 X179.189111 Y189.380168 Z-0.125000
G01 X177.197012 Y188.754985 Z-0.125000
G01 X175.204914 Y188.296966 Z-0.125000
G01 X173.212816 Y188.013412 Z-0.125000
G01 X171.220638 Y187.903346 Z-0.125000
G01 X169.228566 Y187.958432 Z-0.125000
G01 X167.236468 Y188.164304 Z-0.125000
G01 X165.244343 Y188.501991 Z-0.125000
G01 X163.252245 Y188.949269 Z-0.125000
G01 X159.268075 Y190.076128 Z-0.125000
G01 X150.303606 Y192.906160 Z-0.125000
G01 X147.315458 Y193.721896 Z-0.125000
G01 X144.327311 Y194.410129 Z-0.125000
G01 X141.339163 Y194.955197 Z-0.125000
G01 X138.351016 Y195.354082 Z-0.125000
G01 X135.362868 Y195.613903 Z-0.125000
G01 X132.374721 Y195.749025 Z-0.125000
G01 X129.386573 Y195.778262 Z-0.125000
G01 X125.402377 Y195.689203 Z-0.125000
G01 X106.477363 Y194.601158 Z-0.125000
G01 X100.501068 Y194.381184 Z-0.125000
G01 X95.520822 Y194.311281 Z-0.125000
G01 X90.540577 Y194.352159 Z-0.125000
G01 X84.564282 Y194.541283 Z-0.125000
G01 X63.647196 Y195.712777 Z-0.125000
G01 X58.666951 Y195.773684 Z-0.125000
G01 X53.686705 Y195.566489 Z-0.125000
G01 X48.706432 Y195.004515 Z-0.125000
G01 X43.726187 Y194.041486 Z-0.125000
G01 X38.745941 Y192.706136 Z-0.125000
G01 X30.777548 Y190.174949 Z-0.125000
G01 X26.793351 Y189.029226 Z-0.125000
G01 X24.801253 Y188.566629 Z-0.125000
G01 X22.809101 Y188.209891 Z-0.125000
G01 X19.820954 Y187.921919 Z-0.125000
G01 X17.828856 Y187.921708 Z-0.125000
G01 X15.836757 Y188.090247 Z-0.125000
G01 X12.848583 Y188.670398 Z-0.125000
G01 X9.860436 Y189.628480 Z-0.125000
G01 X7.868337 Y190.450433 Z-0.125000
G01 X5.876239 Y191.386845 Z-0.125000
G00 Z5.000000

(End cutting path id: polyline110934)


(Start cutting path id: polyline110918)
(Change tool to Default tool)

G00 Z5.000000
G00 X204.090340 Y191.186609

G00 Z4.875000 (Fast pre-penetrate)
G01 Z-0.125000 F100.0(Penetrate)
G01 X201.102192 Y189.829245 Z-0.125000 F800.000000
G01 X194.129848 Y185.877486 Z-0.125000
G01 X191.141701 Y184.397806 Z-0.125000
G01 X189.149602 Y183.619138 Z-0.125000
G01 X187.157478 Y183.046131 Z-0.125000
G01 X185.165406 Y182.696961 Z-0.125000
G01 X184.169357 Y182.608220 Z-0.125000
G01 X183.173307 Y182.576046 Z-0.125000
G01 X181.181209 Y182.675265 Z-0.125000
G01 X178.193062 Y183.192710 Z-0.125000
G01 X176.200963 Y183.740661 Z-0.125000
G01 X174.208865 Y184.409554 Z-0.125000
G01 X166.240419 Y187.529807 Z-0.125000
G01 X162.256222 Y188.884208 Z-0.125000
G01 X159.268075 Y189.652927 Z-0.125000
G01 X157.275950 Y190.025539 Z-0.125000
G01 X155.283852 Y190.281391 Z-0.125000
G01 X153.291753 Y190.421726 Z-0.125000
G01 X151.299655 Y190.452021 Z-0.125000
G01 X149.307557 Y190.380874 Z-0.125000
G01 X147.315458 Y190.219373 Z-0.125000
G01 X144.327311 Y189.835728 Z-0.125000
G01 X139.347065 Y188.932732 Z-0.125000
G01 X126.398426 Y186.242928 Z-0.125000
G01 X121.418127 Y185.402560 Z-0.125000
G01 X116.437881 Y184.741129 Z-0.125000
G01 X111.457609 Y184.254984 Z-0.125000
G01 X106.477363 Y183.924308 Z-0.125000
G01 X100.501068 Y183.699783 Z-0.125000
G01 X94.524773 Y183.634167 Z-0.125000
G01 X88.548478 Y183.716849 Z-0.125000
G01 X82.572183 Y183.961085 Z-0.125000
G01 X77.591938 Y184.311499 Z-0.125000
G01 X72.611639 Y184.820557 Z-0.125000
G01 X68.627442 Y185.354882 Z-0.125000
G01 X63.647196 Y186.184270 Z-0.125000
G01 X49.702482 Y189.069045 Z-0.125000
G01 X45.718285 Y189.786515 Z-0.125000
G01 X41.734088 Y190.283719 Z-0.125000
G01 X37.749892 Y190.453582 Z-0.125000
G01 X35.757793 Y190.386669 Z-0.125000
G01 X33.765695 Y190.207414 Z-0.125000
G01 X31.773597 Y189.911742 Z-0.125000
G01 X29.781498 Y189.499919 Z-0.125000
G01 X27.789400 Y188.977235 Z-0.125000
G01 X24.801253 Y188.010766 Z-0.125000
G01 X15.836757 Y184.524912 Z-0.125000
G01 X12.848583 Y183.538652 Z-0.125000
G01 X10.856511 Y183.040310 Z-0.125000
G01 X8.864413 Y182.710322 Z-0.125000
G01 X6.872288 Y182.577501 Z-0.125000
G01 X5.876239 Y182.591842 Z-0.125000
G00 Z5.000000

(End cutting path id: polyline110918)


(Start cutting path id: polyline110600)
(Change tool to Default tool)

G00 Z5.000000
G00 X204.090340 Y182.426901

G00 Z4.875000 (Fast pre-penetrate)
G01 Z-0.125000 F100.0(Penetrate)
G01 X200.106143 Y180.112778 Z-0.125000 F800.000000
G01 X198.114045 Y179.193062 Z-0.125000
G01 X197.117996 Y178.816877 Z-0.125000
G01 X195.125897 Y178.254400 Z-0.125000
G01 X194.129848 Y178.073452 Z-0.125000
G01 X193.133799 Y177.961031 Z-0.125000
G01 X191.141701 Y177.939758 Z-0.125000
G01 X190.145652 Y178.027256 Z-0.125000
G01 X188.153553 Y178.382538 Z-0.125000
G01 X185.165406 Y179.294503 Z-0.125000
G01 X182.177258 Y180.519046 Z-0.125000
G01 X176.200963 Y183.198848 Z-0.125000
G01 X174.208865 Y183.983787 Z-0.125000
G01 X172.216740 Y184.651541 Z-0.125000
G01 X170.224615 Y185.177135 Z-0.125000
G01 X168.232517 Y185.545038 Z-0.125000
G01 X166.240419 Y185.748740 Z-0.125000
G01 X164.248294 Y185.790121 Z-0.125000
G01 X161.260146 Y185.569141 Z-0.125000
G01 X159.268075 Y185.256457 Z-0.125000
G01 X157.275950 Y184.835294 Z-0.125000
G01 X153.291753 Y183.759658 Z-0.125000
G01 X144.327311 Y181.012969 Z-0.125000
G01 X139.347065 Y179.734319 Z-0.125000
G01 X134.366819 Y178.802749 Z-0.125000
G01 X129.386573 Y178.230614 Z-0.125000
G01 X124.406328 Y177.964788 Z-0.125000
G01 X119.426029 Y177.920999 Z-0.125000
G01 X101.497117 Y178.361477 Z-0.125000
G01 X93.528724 Y178.422252 Z-0.125000
G01 X86.556380 Y178.327161 Z-0.125000
G01 X72.611639 Y177.950950 Z-0.125000
G01 X66.635344 Y177.935393 Z-0.125000
G01 X62.651147 Y178.073981 Z-0.125000
G01 X59.663000 Y178.288876 Z-0.125000
G01 X55.678803 Y178.755785 Z-0.125000
G01 X52.690656 Y179.256376 Z-0.125000
G01 X49.702482 Y179.889338 Z-0.125000
G01 X46.714334 Y180.646151 Z-0.125000
G01 X35.757793 Y183.958810 Z-0.125000
G01 X32.769646 Y184.759544 Z-0.125000
G01 X30.777548 Y185.195974 Z-0.125000
G01 X28.785449 Y185.527417 Z-0.125000
G01 X26.793351 Y185.732680 Z-0.125000
G01 X24.801253 Y185.793852 Z-0.125000
G01 X22.809101 Y185.697888 Z-0.125000
G01 X20.816977 Y185.438093 Z-0.125000
G01 X18.824905 Y185.015343 Z-0.125000
G01 X16.832780 Y184.439134 Z-0.125000
G01 X12.848583 Y182.910691 Z-0.125000
G01 X5.876239 Y179.804804 Z-0.125000
G00 Z5.000000

(End cutting path id: polyline110600)


(Start cutting path id: polyline110592)
(Change tool to Default tool)

G00 Z5.000000
G00 X204.090340 Y179.822293

G00 Z4.875000 (Fast pre-penetrate)
G01 Z-0.125000 F100.0(Penetrate)
G01 X201.102192 Y178.221804 Z-0.125000 F800.000000
G01 X199.110094 Y177.416413 Z-0.125000
G01 X198.114045 Y177.109709 Z-0.125000
G01 X196.121947 Y176.704949 Z-0.125000
G01 X195.125897 Y176.609673 Z-0.125000
G01 X194.129848 Y176.585596 Z-0.125000
G01 X192.137750 Y176.743393 Z-0.125000
G01 X190.145652 Y177.152783 Z-0.125000
G01 X187.157478 Y178.148858 Z-0.125000
G01 X185.165406 Y178.992349 Z-0.125000
G01 X179.189111 Y181.758458 Z-0.125000
G01 X177.197012 Y182.581841 Z-0.125000
G01 X175.204914 Y183.284097 Z-0.125000
G01 X173.212816 Y183.836017 Z-0.125000
G01 X171.220638 Y184.218921 Z-0.125000
G01 X169.228566 Y184.424476 Z-0.125000
G01 X167.236468 Y184.453924 Z-0.125000
G01 X164.248294 Y184.190902 Z-0.125000
G01 X162.256222 Y183.836784 Z-0.125000
G01 X160.264097 Y183.366488 Z-0.125000
G01 X157.275950 Y182.500693 Z-0.125000
G01 X148.311507 Y179.558265 Z-0.125000
G01 X143.331262 Y178.199658 Z-0.125000
G01 X139.347065 Y177.406862 Z-0.125000
G01 X137.354967 Y177.116217 Z-0.125000
G01 X134.366819 Y176.807343 Z-0.125000
G01 X130.382622 Y176.607768 Z-0.125000
G01 X125.402377 Y176.626051 Z-0.125000
G01 X120.422078 Y176.837162 Z-0.125000
G01 X105.481314 Y177.706423 Z-0.125000
G01 X99.505019 Y177.903696 Z-0.125000
G01 X94.524773 Y177.951797 Z-0.125000
G01 X89.544527 Y177.888667 Z-0.125000
G01 X84.564282 Y177.720393 Z-0.125000
G01 X65.639295 Y176.667537 Z-0.125000
G01 X59.663000 Y176.600995 Z-0.125000
G01 X56.674852 Y176.716565 Z-0.125000
G01 X53.686705 Y176.962177 Z-0.125000
G01 X50.698531 Y177.355771 Z-0.125000
G01 X47.710383 Y177.907188 Z-0.125000
G01 X44.722236 Y178.614630 Z-0.125000
G01 X41.734088 Y179.461269 Z-0.125000
G01 X32.769646 Y182.400416 Z-0.125000
G01 X28.785449 Y183.538044 Z-0.125000
G01 X26.793351 Y183.971616 Z-0.125000
G01 X24.801253 Y184.280649 Z-0.125000
G01 X21.813052 Y184.463237 Z-0.125000
G01 X18.824905 Y184.263715 Z-0.125000
G01 X16.832780 Y183.908804 Z-0.125000
G01 X14.840708 Y183.382866 Z-0.125000
G01 X12.848583 Y182.702940 Z-0.125000
G01 X10.856511 Y181.896491 Z-0.125000
G01 X5.876239 Y179.594487 Z-0.125000
G00 Z5.000000

(End cutting path id: polyline110592)


(Start cutting path id: polyline110594)
(Change tool to Default tool)

G00 Z5.000000
G00 X204.090340 Y178.562878

G00 Z4.875000 (Fast pre-penetrate)
G01 Z-0.125000 F100.0(Penetrate)
G01 X201.102192 Y177.098464 Z-0.125000 F800.000000
G01 X199.110094 Y176.422031 Z-0.125000
G01 X198.114045 Y176.187848 Z-0.125000
G01 X196.121947 Y175.937685 Z-0.125000
G01 X195.125897 Y175.921837 Z-0.125000
G01 X193.133799 Y176.099795 Z-0.125000
G01 X191.141701 Y176.532865 Z-0.125000
G01 X188.153553 Y177.566405 Z-0.125000
G01 X180.185160 Y181.233208 Z-0.125000
G01 X178.193062 Y182.051378 Z-0.125000
G01 X176.200963 Y182.738818 Z-0.125000
G01 X174.208865 Y183.266555 Z-0.125000
G01 X172.216740 Y183.616810 Z-0.125000
G01 X169.228566 Y183.796806 Z-0.125000
G01 X166.240419 Y183.581409 Z-0.125000
G01 X164.248294 Y183.244991 Z-0.125000
G01 X162.256222 Y182.781468 Z-0.125000
G01 X158.272025 Y181.583410 Z-0.125000
G01 X149.307557 Y178.563275 Z-0.125000
G01 X144.327311 Y177.240968 Z-0.125000
G01 X142.335212 Y176.837876 Z-0.125000
G01 X139.347065 Y176.377210 Z-0.125000
G01 X136.358917 Y176.083709 Z-0.125000
G01 X133.370770 Y175.941363 Z-0.125000
G01 X130.382622 Y175.927023 Z-0.125000
G01 X126.398426 Y176.061087 Z-0.125000
G01 X106.477363 Y177.491713 Z-0.125000
G01 X100.501068 Y177.742803 Z-0.125000
G01 X95.520822 Y177.821410 Z-0.125000
G01 X89.544527 Y177.751481 Z-0.125000
G01 X83.568232 Y177.509044 Z-0.125000
G01 X62.651147 Y176.028305 Z-0.125000
G01 X57.670901 Y175.920805 Z-0.125000
G01 X53.686705 Y176.061748 Z-0.125000
G01 X50.698531 Y176.338237 Z-0.125000
G01 X48.706432 Y176.614092 Z-0.125000
G01 X44.722236 Y177.395458 Z-0.125000
G01 X39.741990 Y178.773380 Z-0.125000
G01 X30.777548 Y181.805686 Z-0.125000
G01 X27.789400 Y182.697543 Z-0.125000
G01 X25.797302 Y183.178846 Z-0.125000
G01 X23.805150 Y183.537276 Z-0.125000
G01 X20.816977 Y183.791990 Z-0.125000
G01 X17.828856 Y183.655651 Z-0.125000
G01 X15.836757 Y183.334659 Z-0.125000
G01 X13.844659 Y182.834332 Z-0.125000
G01 X10.856511 Y181.785737 Z-0.125000
G01 X5.876239 Y179.524293 Z-0.125000
G00 Z5.000000

(End cutting path id: polyline110594)


(Start cutting path id: polyline110596)
(Change tool to Default tool)

G00 Z5.000000
G00 X204.090340 Y181.113961

G00 Z4.875000 (Fast pre-penetrate)
G01 Z-0.125000 F100.0(Penetrate)
G01 X202.098242 Y179.939874 Z-0.125000 F800.000000
G01 X200.106143 Y178.919800 Z-0.125000
G01 X198.114045 Y178.113034 Z-0.125000
G01 X197.117996 Y177.803207 Z-0.125000
G01 X195.125897 Y177.387203 Z-0.125000
G01 X194.129848 Y177.283936 Z-0.125000
G01 X193.133799 Y177.250414 Z-0.125000
G01 X191.141701 Y177.385669 Z-0.125000
G01 X189.149602 Y177.769102 Z-0.125000
G01 X186.161428 Y178.724670 Z-0.125000
G01 X184.169357 Y179.543581 Z-0.125000
G01 X177.197012 Y182.697331 Z-0.125000
G01 X175.204914 Y183.473829 Z-0.125000
G01 X173.212816 Y184.123063 Z-0.125000
G01 X171.220638 Y184.620611 Z-0.125000
G01 X169.228566 Y184.951949 Z-0.125000
G01 X167.236468 Y185.112048 Z-0.125000
G01 X165.244343 Y185.104613 Z-0.125000
G01 X162.256222 Y184.805449 Z-0.125000
G01 X160.264097 Y184.440404 Z-0.125000
G01 X158.272025 Y183.969208 Z-0.125000
G01 X155.283852 Y183.117753 Z-0.125000
G01 X146.319409 Y180.271211 Z-0.125000
G01 X141.339163 Y178.953720 Z-0.125000
G01 X136.358917 Y178.015508 Z-0.125000
G01 X131.378672 Y177.471288 Z-0.125000
G01 X127.394475 Y177.281211 Z-0.125000
G01 X122.414176 Y177.272136 Z-0.125000
G01 X103.489216 Y178.009185 Z-0.125000
G01 X94.524773 Y178.146160 Z-0.125000
G01 X85.560331 Y177.987701 Z-0.125000
G01 X68.627442 Y177.300394 Z-0.125000
G01 X62.651147 Y177.273935 Z-0.125000
G01 X59.663000 Y177.387044 Z-0.125000
G01 X56.674852 Y177.612866 Z-0.125000
G01 X53.686705 Y177.969365 Z-0.125000
G01 X50.698531 Y178.468289 Z-0.125000
G01 X47.710383 Y179.112311 Z-0.125000
G01 X44.722236 Y179.891587 Z-0.125000
G01 X34.761744 Y183.019884 Z-0.125000
G01 X30.777548 Y184.140023 Z-0.125000
G01 X28.785449 Y184.577802 Z-0.125000
G01 X26.793351 Y184.901307 Z-0.125000
G01 X24.801253 Y185.088606 Z-0.125000
G01 X22.809101 Y185.121890 Z-0.125000
G01 X19.820954 Y184.858313 Z-0.125000
G01 X17.828856 Y184.469376 Z-0.125000
G01 X15.836757 Y183.918064 Z-0.125000
G01 X13.844659 Y183.222237 Z-0.125000
G01 X11.852534 Y182.409756 Z-0.125000
G01 X5.876239 Y179.683281 Z-0.125000
G00 Z5.000000

(End cutting path id: polyline110596)


(Start cutting path id: polyline110598)
(Change tool to Default tool)

G00 Z5.000000
G00 X204.090340 Y177.345902

G00 Z4.875000 (Fast pre-penetrate)
G01 Z-0.125000 F100.0(Penetrate)
G01 X202.098242 Y176.415998 Z-0.125000 F800.000000
G01 X201.102192 Y176.043651 Z-0.125000
G01 X199.110094 Y175.508082 Z-0.125000
G01 X197.117996 Y175.267444 Z-0.125000
G01 X196.121947 Y175.258554 Z-0.125000
G01 X194.129848 Y175.454213 Z-0.125000
G01 X192.137750 Y175.908687 Z-0.125000
G01 X189.149602 Y176.976782 Z-0.125000
G01 X181.181209 Y180.696078 Z-0.125000
G01 X178.193062 Y181.864318 Z-0.125000
G01 X176.200963 Y182.455211 Z-0.125000
G01 X174.208865 Y182.867431 Z-0.125000
G01 X171.220638 Y183.129157 Z-0.125000
G01 X168.232517 Y182.973556 Z-0.125000
G01 X166.240419 Y182.662353 Z-0.125000
G01 X164.248294 Y182.212165 Z-0.125000
G01 X160.264097 Y181.009053 Z-0.125000
G01 X151.299655 Y177.896049 Z-0.125000
G01 X148.311507 Y177.022052 Z-0.125000
G01 X146.319409 Y176.529928 Z-0.125000
G01 X143.331262 Y175.943533 Z-0.125000
G01 X141.339163 Y175.656328 Z-0.125000
G01 X139.347065 Y175.450059 Z-0.125000
G01 X136.358917 Y175.281652 Z-0.125000
G01 X132.374721 Y175.282710 Z-0.125000
G01 X128.390524 Y175.478819 Z-0.125000
G01 X112.453658 Y176.938814 Z-0.125000
G01 X106.477363 Y177.378816 Z-0.125000
G01 X100.501068 Y177.650940 Z-0.125000
G01 X95.520822 Y177.735077 Z-0.125000
G01 X89.544527 Y177.660279 Z-0.125000
G01 X82.572183 Y177.336747 Z-0.125000
G01 X76.595888 Y176.880050 Z-0.125000
G01 X64.643246 Y175.739195 Z-0.125000
G01 X59.663000 Y175.377219 Z-0.125000
G01 X55.678803 Y175.254400 Z-0.125000
G01 X51.694606 Y175.356158 Z-0.125000
G01 X48.706432 Y175.618095 Z-0.125000
G01 X46.714334 Y175.892177 Z-0.125000
G01 X42.730137 Y176.688678 Z-0.125000
G01 X37.749892 Y178.113827 Z-0.125000
G01 X29.781498 Y180.901209 Z-0.125000
G01 X26.793351 Y181.852676 Z-0.125000
G01 X24.801253 Y182.379382 Z-0.125000
G01 X22.809101 Y182.785226 Z-0.125000
G01 X19.820954 Y183.109975 Z-0.125000
G01 X16.832780 Y183.035627 Z-0.125000
G01 X14.840708 Y182.748131 Z-0.125000
G01 X12.848583 Y182.273257 Z-0.125000
G01 X9.860436 Y181.245935 Z-0.125000
G01 X5.876239 Y179.458623 Z-0.125000
G00 Z5.000000

(End cutting path id: polyline110598)


(Start cutting path id: polyline110602)
(Change tool to Default tool)

G00 Z5.000000
G00 X204.090340 Y176.180255

G00 Z4.875000 (Fast pre-penetrate)
G01 Z-0.125000 F100.0(Penetrate)
G01 X202.098242 Y175.367006 Z-0.125000 F800.000000
G01 X201.102192 Y175.062921 Z-0.125000
G01 X199.110094 Y174.677371 Z-0.125000
G01 X197.117996 Y174.595429 Z-0.125000
G01 X195.125897 Y174.806249 Z-0.125000
G01 X193.133799 Y175.279747 Z-0.125000
G01 X191.141701 Y175.970335 Z-0.125000
G01 X189.149602 Y176.821022 Z-0.125000
G01 X182.177258 Y180.147307 Z-0.125000
G01 X179.189111 Y181.303296 Z-0.125000
G01 X177.197012 Y181.874822 Z-0.125000
G01 X175.204914 Y182.259155 Z-0.125000
G01 X172.216740 Y182.465980 Z-0.125000
G01 X169.228566 Y182.244974 Z-0.125000
G01 X167.236468 Y181.888025 Z-0.125000
G01 X165.244343 Y181.393043 Z-0.125000
G01 X162.256222 Y180.458562 Z-0.125000
G01 X153.291753 Y177.256631 Z-0.125000
G01 X150.303606 Y176.350038 Z-0.125000
G01 X148.311507 Y175.841165 Z-0.125000
G01 X145.323360 Y175.240165 Z-0.125000
G01 X143.331262 Y174.951267 Z-0.125000
G01 X141.339163 Y174.749893 Z-0.125000
G01 X138.351016 Y174.600694 Z-0.125000
G01 X134.366819 Y174.646441 Z-0.125000
G01 X130.382622 Y174.903166 Z-0.125000
G01 X115.441806 Y176.535325 Z-0.125000
G01 X108.469462 Y177.163260 Z-0.125000
G01 X101.497117 Y177.549154 Z-0.125000
G01 X95.520822 Y177.669222 Z-0.125000
G01 X88.548478 Y177.560505 Z-0.125000
G01 X80.580085 Y177.112116 Z-0.125000
G01 X73.607688 Y176.463623 Z-0.125000
G01 X61.655098 Y175.117875 Z-0.125000
G01 X56.674852 Y174.711634 Z-0.125000
G01 X52.690656 Y174.587677 Z-0.125000
G01 X48.706432 Y174.725578 Z-0.125000
G01 X44.722236 Y175.188095 Z-0.125000
G01 X40.738039 Y176.005048 Z-0.125000
G01 X38.745941 Y176.541675 Z-0.125000
G01 X35.757793 Y177.482559 Z-0.125000
G01 X27.789400 Y180.349369 Z-0.125000
G01 X24.801253 Y181.303270 Z-0.125000
G01 X22.809101 Y181.817540 Z-0.125000
G01 X20.816977 Y182.198407 Z-0.125000
G01 X17.828856 Y182.462090 Z-0.125000
G01 X14.840708 Y182.302362 Z-0.125000
G01 X11.852534 Y181.700409 Z-0.125000
G01 X8.864413 Y180.694226 Z-0.125000
G01 X5.876239 Y179.383429 Z-0.125000
G00 Z5.000000

(End cutting path id: polyline110602)


(Start cutting path id: polyline110590)
(Change tool to Default tool)

G00 Z5.000000
G00 X204.090340 Y175.073769

G00 Z4.875000 (Fast pre-penetrate)
G01 Z-0.125000 F100.0(Penetrate)
G01 X202.098242 Y174.391118 Z-0.125000 F800.000000
G01 X200.106143 Y174.006785 Z-0.125000
G01 X198.114045 Y173.932014 Z-0.125000
G01 X197.117996 Y174.007976 Z-0.125000
G01 X195.125897 Y174.369846 Z-0.125000
G01 X193.133799 Y174.976482 Z-0.125000
G01 X191.141701 Y175.774094 Z-0.125000
G01 X184.169357 Y179.139960 Z-0.125000
G01 X181.181209 Y180.387865 Z-0.125000
G01 X179.189111 Y181.030776 Z-0.125000
G01 X177.197012 Y181.487631 Z-0.125000
G01 X176.200963 Y181.641010 Z-0.125000
G01 X174.208865 Y181.794045 Z-0.125000
G01 X171.220638 Y181.650429 Z-0.125000
G01 X169.228566 Y181.329040 Z-0.125000
G01 X167.236468 Y180.856019 Z-0.125000
G01 X163.252245 Y179.581152 Z-0.125000
G01 X155.283852 Y176.645233 Z-0.125000
G01 X152.295704 Y175.702683 Z-0.125000
G01 X150.303606 Y175.174205 Z-0.125000
G01 X147.315458 Y174.553943 Z-0.125000
G01 X145.323360 Y174.260203 Z-0.125000
G01 X143.331262 Y174.060760 Z-0.125000
G01 X140.343114 Y173.926960 Z-0.125000
G01 X136.358917 Y174.013664 Z-0.125000
G01 X132.374721 Y174.328412 Z-0.125000
G01 X116.437881 Y176.328316 Z-0.125000
G01 X109.465511 Y177.016496 Z-0.125000
G01 X102.493167 Y177.443136 Z-0.125000
G01 X94.524773 Y177.601648 Z-0.125000
G01 X87.552429 Y177.456154 Z-0.125000
G01 X80.580085 Y177.041817 Z-0.125000
G01 X72.611639 Y176.249046 Z-0.125000
G01 X60.659049 Y174.701527 Z-0.125000
G01 X56.674852 Y174.262451 Z-0.125000
G01 X51.694606 Y173.944502 Z-0.125000
G01 X47.710383 Y173.978554 Z-0.125000
G01 X44.722236 Y174.222129 Z-0.125000
G01 X42.730137 Y174.500629 Z-0.125000
G01 X38.745941 Y175.344226 Z-0.125000
G01 X34.761744 Y176.537574 Z-0.125000
G01 X26.793351 Y179.466693 Z-0.125000
G01 X23.805150 Y180.475839 Z-0.125000
G01 X20.816977 Y181.262974 Z-0.125000
G01 X18.824905 Y181.610451 Z-0.125000
G01 X15.836757 Y181.799601 Z-0.125000
G01 X13.844659 Y181.679189 Z-0.125000
G01 X12.848583 Y181.542109 Z-0.125000
G01 X9.860436 Y180.831651 Z-0.125000
G01 X7.868337 Y180.131193 Z-0.125000
G01 X5.876239 Y179.285507 Z-0.125000
G00 Z5.000000

(End cutting path id: polyline110590)


(Start cutting path id: polyline110604)
(Change tool to Default tool)

G00 Z5.000000
G00 X204.090340 Y183.749313

G00 Z4.875000 (Fast pre-penetrate)
G01 Z-0.125000 F100.0(Penetrate)
G01 X200.106143 Y181.358568 Z-0.125000 F800.000000
G01 X197.117996 Y179.907833 Z-0.125000
G01 X195.125897 Y179.209228 Z-0.125000
G01 X194.129848 Y178.953826 Z-0.125000
G01 X193.133799 Y178.764252 Z-0.125000
G01 X191.141701 Y178.585738 Z-0.125000
G01 X190.145652 Y178.595554 Z-0.125000
G01 X188.153553 Y178.803040 Z-0.125000
G01 X185.165406 Y179.527283 Z-0.125000
G01 X182.177258 Y180.623265 Z-0.125000
G01 X174.208865 Y184.095070 Z-0.125000
G01 X172.216740 Y184.837437 Z-0.125000
G01 X170.224615 Y185.459128 Z-0.125000
G01 X168.232517 Y185.939081 Z-0.125000
G01 X166.240419 Y186.265233 Z-0.125000
G01 X163.252245 Y186.459648 Z-0.125000
G01 X160.264097 Y186.318493 Z-0.125000
G01 X158.272025 Y186.059969 Z-0.125000
G01 X156.279901 Y185.691167 Z-0.125000
G01 X152.295704 Y184.707818 Z-0.125000
G01 X143.331262 Y182.062888 Z-0.125000
G01 X138.351016 Y180.767648 Z-0.125000
G01 X133.370770 Y179.775885 Z-0.125000
G01 X130.382622 Y179.340699 Z-0.125000
G01 X127.394475 Y179.019151 Z-0.125000
G01 X122.414176 Y178.700620 Z-0.125000
G01 X117.433930 Y178.587590 Z-0.125000
G01 X95.520822 Y178.803807 Z-0.125000
G01 X76.595888 Y178.594628 Z-0.125000
G01 X70.619540 Y178.607645 Z-0.125000
G01 X66.635344 Y178.730121 Z-0.125000
G01 X62.651147 Y178.991158 Z-0.125000
G01 X58.666951 Y179.429149 Z-0.125000
G01 X55.678803 Y179.891296 Z-0.125000
G01 X52.690656 Y180.473961 Z-0.125000
G01 X48.706432 Y181.429555 Z-0.125000
G01 X37.749892 Y184.619236 Z-0.125000
G01 X33.765695 Y185.623513 Z-0.125000
G01 X31.773597 Y186.007979 Z-0.125000
G01 X29.781498 Y186.285447 Z-0.125000
G01 X27.789400 Y186.436736 Z-0.125000
G01 X25.797302 Y186.446128 Z-0.125000
G01 X23.805150 Y186.302671 Z-0.125000
G01 X21.813052 Y186.001655 Z-0.125000
G01 X19.820954 Y185.545620 Z-0.125000
G01 X17.828856 Y184.945387 Z-0.125000
G01 X14.840708 Y183.819824 Z-0.125000
G01 X8.864413 Y181.180556 Z-0.125000
G01 X5.876239 Y179.972814 Z-0.125000
G00 Z5.000000

(End cutting path id: polyline110604)


(Start cutting path id: polyline110606)
(Change tool to Default tool)

G00 Z5.000000
G00 X204.090340 Y185.068868

G00 Z4.875000 (Fast pre-penetrate)
G01 Z-0.125000 F100.0(Penetrate)
G01 X199.110094 Y182.083895 Z-0.125000 F800.000000
G01 X196.121947 Y180.631467 Z-0.125000
G01 X194.129848 Y179.922729 Z-0.125000
G01 X193.133799 Y179.659442 Z-0.125000
G01 X191.141701 Y179.326306 Z-0.125000
G01 X190.145652 Y179.257673 Z-0.125000
G01 X189.149602 Y179.253413 Z-0.125000
G01 X187.157478 Y179.429731 Z-0.125000
G01 X185.165406 Y179.830336 Z-0.125000
G01 X183.173307 Y180.419351 Z-0.125000
G01 X180.185160 Y181.559254 Z-0.125000
G01 X172.216740 Y184.961103 Z-0.125000
G01 X170.224615 Y185.662380 Z-0.125000
G01 X168.232517 Y186.241447 Z-0.125000
G01 X166.240419 Y186.680866 Z-0.125000
G01 X164.248294 Y186.971299 Z-0.125000
G01 X161.260146 Y187.125842 Z-0.125000
G01 X158.272025 Y186.964473 Z-0.125000
G01 X156.279901 Y186.703673 Z-0.125000
G01 X154.287802 Y186.340851 Z-0.125000
G01 X150.303606 Y185.389172 Z-0.125000
G01 X141.339163 Y182.852588 Z-0.125000
G01 X136.358917 Y181.600608 Z-0.125000
G01 X131.378672 Y180.622789 Z-0.125000
G01 X128.390524 Y180.180776 Z-0.125000
G01 X125.402377 Y179.842031 Z-0.125000
G01 X119.426029 Y179.428487 Z-0.125000
G01 X113.449707 Y179.269658 Z-0.125000
G01 X76.595888 Y179.266034 Z-0.125000
G01 X71.615590 Y179.375941 Z-0.125000
G01 X66.635344 Y179.644281 Z-0.125000
G01 X62.651147 Y180.019645 Z-0.125000
G01 X58.666951 Y180.570639 Z-0.125000
G01 X55.678803 Y181.109754 Z-0.125000
G01 X51.694606 Y181.994334 Z-0.125000
G01 X47.710383 Y183.039437 Z-0.125000
G01 X39.741990 Y185.303950 Z-0.125000
G01 X35.757793 Y186.274811 Z-0.125000
G01 X31.773597 Y186.930474 Z-0.125000
G01 X29.781498 Y187.091526 Z-0.125000
G01 X27.789400 Y187.119704 Z-0.125000
G01 X25.797302 Y187.003658 Z-0.125000
G01 X23.805150 Y186.737302 Z-0.125000
G01 X21.813052 Y186.321272 Z-0.125000
G01 X19.820954 Y185.763531 Z-0.125000
G01 X16.832780 Y184.698822 Z-0.125000
G01 X8.864413 Y181.280383 Z-0.125000
G01 X5.876239 Y180.200276 Z-0.125000
G00 Z5.000000

(End cutting path id: polyline110606)


(Start cutting path id: polyline110608)
(Change tool to Default tool)

G00 Z5.000000
G00 X204.090340 Y174.032846

G00 Z4.875000 (Fast pre-penetrate)
G01 Z-0.125000 F100.0(Penetrate)
G01 X202.098242 Y173.492145 Z-0.125000 F800.000000
G01 X200.106143 Y173.264048 Z-0.125000
G01 X198.114045 Y173.348344 Z-0.125000
G01 X196.121947 Y173.722517 Z-0.125000
G01 X194.129848 Y174.345107 Z-0.125000
G01 X192.137750 Y175.160287 Z-0.125000
G01 X185.165406 Y178.568460 Z-0.125000
G01 X182.177258 Y179.811101 Z-0.125000
G01 X180.185160 Y180.440041 Z-0.125000
G01 X178.193062 Y180.874672 Z-0.125000
G01 X177.197012 Y181.014080 Z-0.125000
G01 X175.204914 Y181.134254 Z-0.125000
G01 X172.216740 Y180.932377 Z-0.125000
G01 X170.224615 Y180.569264 Z-0.125000
G01 X168.232517 Y180.054914 Z-0.125000
G01 X165.244343 Y179.073100 Z-0.125000
G01 X156.279901 Y175.716891 Z-0.125000
G01 X153.291753 Y174.793284 Z-0.125000
G01 X151.299655 Y174.288989 Z-0.125000
G01 X149.307557 Y173.884098 Z-0.125000
G01 X147.315458 Y173.581785 Z-0.125000
G01 X145.323360 Y173.380808 Z-0.125000
G01 X142.335212 Y173.257698 Z-0.125000
G01 X138.351016 Y173.380438 Z-0.125000
G01 X134.366819 Y173.749743 Z-0.125000
G01 X119.426002 Y175.871989 Z-0.125000
G01 X111.457609 Y176.772921 Z-0.125000
G01 X103.489216 Y177.314390 Z-0.125000
G01 X99.505019 Y177.452582 Z-0.125000
G01 X94.524773 Y177.507906 Z-0.125000
G01 X86.556380 Y177.328572 Z-0.125000
G01 X78.587987 Y176.801522 Z-0.125000
G01 X70.619540 Y175.914164 Z-0.125000
G01 X58.666951 Y174.176197 Z-0.125000
G01 X54.682754 Y173.673543 Z-0.125000
G01 X49.702482 Y173.293443 Z-0.125000
G01 X45.718285 Y173.301407 Z-0.125000
G01 X42.730137 Y173.543024 Z-0.125000
G01 X40.738039 Y173.828985 Z-0.125000
G01 X36.753843 Y174.706422 Z-0.125000
G01 X32.769646 Y175.950306 Z-0.125000
G01 X22.809101 Y179.648832 Z-0.125000
G01 X19.820954 Y180.496503 Z-0.125000
G01 X17.828856 Y180.885811 Z-0.125000
G01 X14.840708 Y181.134069 Z-0.125000
G01 X12.848583 Y181.047418 Z-0.125000
G01 X11.852534 Y180.924916 Z-0.125000
G01 X8.864413 Y180.246631 Z-0.125000
G01 X5.876239 Y179.152395 Z-0.125000
G00 Z5.000000

(End cutting path id: polyline110608)


(Start cutting path id: polyline110610)
(Change tool to Default tool)

G00 Z5.000000
G00 X204.090340 Y173.062568

G00 Z4.875000 (Fast pre-penetrate)
G01 Z-0.125000 F100.0(Penetrate)
G01 X202.098242 Y172.672308 Z-0.125000 F800.000000
G01 X201.102192 Y172.597880 Z-0.125000
G01 X199.110094 Y172.686595 Z-0.125000
G01 X197.117996 Y173.070479 Z-0.125000
G01 X195.125897 Y173.706801 Z-0.125000
G01 X193.133799 Y174.537803 Z-0.125000
G01 X186.161428 Y177.986060 Z-0.125000
G01 X183.173307 Y179.224071 Z-0.125000
G01 X180.185160 Y180.073170 Z-0.125000
G01 X178.193062 Y180.379505 Z-0.125000
G01 X177.197012 Y180.450995 Z-0.125000
G01 X176.200963 Y180.468299 Z-0.125000
G01 X174.208865 Y180.345929 Z-0.125000
G01 X172.216740 Y180.030149 Z-0.125000
G01 X170.224615 Y179.547788 Z-0.125000
G01 X166.240419 Y178.219978 Z-0.125000
G01 X158.272025 Y175.148540 Z-0.125000
G01 X155.283852 Y174.183077 Z-0.125000
G01 X153.291753 Y173.654519 Z-0.125000
G01 X151.299655 Y173.230498 Z-0.125000
G01 X149.307557 Y172.915433 Z-0.125000
G01 X147.315458 Y172.708794 Z-0.125000
G01 X144.327311 Y172.590816 Z-0.125000
G01 X140.343114 Y172.743639 Z-0.125000
G01 X136.358917 Y173.163136 Z-0.125000
G01 X120.422078 Y175.654687 Z-0.125000
G01 X112.453658 Y176.591893 Z-0.125000
G01 X108.469462 Y176.915214 Z-0.125000
G01 X103.489216 Y177.190750 Z-0.125000
G01 X94.524773 Y177.367492 Z-0.125000
G01 X85.560331 Y177.161170 Z-0.125000
G01 X77.591938 Y176.621235 Z-0.125000
G01 X73.607688 Y176.208459 Z-0.125000
G01 X68.627442 Y175.557903 Z-0.125000
G01 X56.674852 Y173.640205 Z-0.125000
G01 X52.690656 Y173.077331 Z-0.125000
G01 X47.710383 Y172.641087 Z-0.125000
G01 X43.726187 Y172.629657 Z-0.125000
G01 X40.738039 Y172.875269 Z-0.125000
G01 X38.745941 Y173.172872 Z-0.125000
G01 X36.753843 Y173.579669 Z-0.125000
G01 X34.761744 Y174.092060 Z-0.125000
G01 X30.777548 Y175.391612 Z-0.125000
G01 X21.813052 Y178.823889 Z-0.125000
G01 X18.824905 Y179.728736 Z-0.125000
G01 X16.832780 Y180.157863 Z-0.125000
G01 X13.844659 Y180.462610 Z-0.125000
G01 X11.852534 Y180.408265 Z-0.125000
G01 X10.856511 Y180.299627 Z-0.125000
G01 X8.864413 Y179.920003 Z-0.125000
G01 X5.876239 Y178.972823 Z-0.125000
G00 Z5.000000

(End cutting path id: polyline110610)


(Start cutting path id: polyline110612)
(Change tool to Default tool)

G00 Z5.000000
G00 X204.090340 Y172.166399

G00 Z4.875000 (Fast pre-penetrate)
G01 Z-0.125000 F100.0(Penetrate)
G01 X203.094291 Y172.008310 Z-0.125000 F800.000000
G01 X201.102192 Y171.937905 Z-0.125000
G01 X200.106143 Y172.022598 Z-0.125000
G01 X198.114045 Y172.413519 Z-0.125000
G01 X196.121947 Y173.061298 Z-0.125000
G01 X194.129848 Y173.906429 Z-0.125000
G01 X187.157478 Y177.392945 Z-0.125000
G01 X184.169357 Y178.627330 Z-0.125000
G01 X181.181209 Y179.455448 Z-0.125000
G01 X179.189111 Y179.738394 Z-0.125000
G01 X178.193062 Y179.795702 Z-0.125000
G01 X177.197012 Y179.797554 Z-0.125000
G01 X175.204914 Y179.640630 Z-0.125000
G01 X173.212816 Y179.287623 Z-0.125000
G01 X171.220638 Y178.767612 Z-0.125000
G01 X168.232517 Y177.753386 Z-0.125000
G01 X160.264097 Y174.609082 Z-0.125000
G01 X157.275950 Y173.597872 Z-0.125000
G01 X155.283852 Y173.041242 Z-0.125000
G01 X153.291753 Y172.593700 Z-0.125000
G01 X151.299655 Y172.261225 Z-0.125000
G01 X149.307557 Y172.044293 Z-0.125000
G01 X146.319409 Y171.925046 Z-0.125000
G01 X143.331262 Y172.025561 Z-0.125000
G01 X139.347065 Y172.428442 Z-0.125000
G01 X135.362868 Y173.036030 Z-0.125000
G01 X123.410278 Y175.126606 Z-0.125000
G01 X118.429980 Y175.834683 Z-0.125000
G01 X114.445783 Y176.283178 Z-0.125000
G01 X110.461560 Y176.627506 Z-0.125000
G01 X105.481314 Y176.925453 Z-0.125000
G01 X100.501068 Y177.097061 Z-0.125000
G01 X94.524773 Y177.161170 Z-0.125000
G01 X89.544527 Y177.104205 Z-0.125000
G01 X84.564282 Y176.939952 Z-0.125000
G01 X79.584036 Y176.650736 Z-0.125000
G01 X75.599839 Y176.314372 Z-0.125000
G01 X71.615590 Y175.874371 Z-0.125000
G01 X66.635344 Y175.176374 Z-0.125000
G01 X53.686705 Y172.922921 Z-0.125000
G01 X49.702482 Y172.342293 Z-0.125000
G01 X45.718285 Y171.985503 Z-0.125000
G01 X41.734088 Y171.962511 Z-0.125000
G01 X39.741990 Y172.105333 Z-0.125000
G01 X37.749892 Y172.361343 Z-0.125000
G01 X35.757793 Y172.733321 Z-0.125000
G01 X32.769646 Y173.502172 Z-0.125000
G01 X28.785449 Y174.862367 Z-0.125000
G01 X20.816977 Y178.002650 Z-0.125000
G01 X17.828856 Y178.961287 Z-0.125000
G01 X15.836757 Y179.428196 Z-0.125000
G01 X12.848583 Y179.786601 Z-0.125000
G01 X10.856511 Y179.762920 Z-0.125000
G01 X8.864413 Y179.515694 Z-0.125000
G01 X7.868337 Y179.308711 Z-0.125000
G01 X5.876239 Y178.736920 Z-0.125000
G00 Z5.000000

(End cutting path id: polyline110612)


(Start cutting path id: polyline110614)
(Change tool to Default tool)

G00 Z5.000000
G00 X204.090340 Y171.346509

G00 Z4.875000 (Fast pre-penetrate)
G01 Z-0.125000 F100.0(Penetrate)
G01 X203.094291 Y171.267557 Z-0.125000 F800.000000
G01 X201.102192 Y171.356245 Z-0.125000
G01 X200.106143 Y171.517932 Z-0.125000
G01 X198.114045 Y172.050776 Z-0.125000
G01 X195.125897 Y173.265953 Z-0.125000
G01 X189.149602 Y176.309901 Z-0.125000
G01 X186.161428 Y177.651389 Z-0.125000
G01 X184.169357 Y178.343697 Z-0.125000
G01 X182.177258 Y178.830503 Z-0.125000
G01 X180.185160 Y179.091726 Z-0.125000
G01 X179.189111 Y179.135700 Z-0.125000
G01 X178.193062 Y179.122735 Z-0.125000
G01 X176.200963 Y178.933241 Z-0.125000
G01 X174.208865 Y178.545018 Z-0.125000
G01 X172.216740 Y177.989447 Z-0.125000
G01 X169.228566 Y176.926458 Z-0.125000
G01 X161.260146 Y173.725242 Z-0.125000
G01 X157.275950 Y172.449952 Z-0.125000
G01 X155.283852 Y171.974232 Z-0.125000
G01 X153.291753 Y171.619320 Z-0.125000
G01 X151.299655 Y171.386990 Z-0.125000
G01 X148.311507 Y171.259223 Z-0.125000
G01 X145.323360 Y171.368390 Z-0.125000
G01 X141.339163 Y171.805322 Z-0.125000
G01 X137.354967 Y172.463949 Z-0.125000
G01 X125.402377 Y174.713618 Z-0.125000
G01 X120.422078 Y175.462944 Z-0.125000
G01 X116.437881 Y175.931653 Z-0.125000
G01 X111.457609 Y176.360383 Z-0.125000
G01 X106.477363 Y176.639571 Z-0.125000
G01 X100.501068 Y176.820705 Z-0.125000
G01 X94.524773 Y176.871954 Z-0.125000
G01 X88.548478 Y176.807237 Z-0.125000
G01 X83.568232 Y176.653065 Z-0.125000
G01 X78.587987 Y176.382343 Z-0.125000
G01 X73.607688 Y175.964064 Z-0.125000
G01 X69.623491 Y175.504642 Z-0.125000
G01 X64.643246 Y174.766614 Z-0.125000
G01 X51.694606 Y172.341420 Z-0.125000
G01 X47.710383 Y171.711898 Z-0.125000
G01 X43.726187 Y171.324972 Z-0.125000
G01 X41.734088 Y171.260255 Z-0.125000
G01 X39.741990 Y171.299281 Z-0.125000
G01 X37.749892 Y171.452448 Z-0.125000
G01 X35.757793 Y171.726344 Z-0.125000
G01 X33.765695 Y172.122875 Z-0.125000
G01 X31.773597 Y172.638256 Z-0.125000
G01 X27.789400 Y173.977787 Z-0.125000
G01 X18.824905 Y177.549684 Z-0.125000
G01 X16.832780 Y178.195134 Z-0.125000
G01 X14.840708 Y178.697709 Z-0.125000
G01 X12.848583 Y179.021374 Z-0.125000
G01 X11.852534 Y179.106860 Z-0.125000
G01 X9.860436 Y179.112020 Z-0.125000
G01 X7.868337 Y178.887627 Z-0.125000
G01 X5.876239 Y178.435904 Z-0.125000
G00 Z5.000000

(End cutting path id: polyline110614)


(Start cutting path id: polyline110616)
(Change tool to Default tool)

G00 Z5.000000
G00 X204.090340 Y170.603507

G00 Z4.875000 (Fast pre-penetrate)
G01 Z-0.125000 F100.0(Penetrate)
G01 X202.098242 Y170.687618 Z-0.125000 F800.000000
G01 X201.102192 Y170.849331 Z-0.125000
G01 X199.110094 Y171.386514 Z-0.125000
G01 X196.121947 Y172.616269 Z-0.125000
G01 X190.145652 Y175.693184 Z-0.125000
G01 X187.157478 Y177.038615 Z-0.125000
G01 X184.169357 Y177.990400 Z-0.125000
G01 X182.177258 Y178.349439 Z-0.125000
G01 X181.181209 Y178.440376 Z-0.125000
G01 X180.185160 Y178.472046 Z-0.125000
G01 X178.193062 Y178.362244 Z-0.125000
G01 X176.200963 Y178.037866 Z-0.125000
G01 X174.208865 Y177.527988 Z-0.125000
G01 X171.220638 Y176.498654 Z-0.125000
G01 X162.256222 Y172.857092 Z-0.125000
G01 X160.264097 Y172.181242 Z-0.125000
G01 X158.272025 Y171.613076 Z-0.125000
G01 X156.279901 Y171.166566 Z-0.125000
G01 X154.287802 Y170.848537 Z-0.125000
G01 X152.295704 Y170.659360 Z-0.125000
G01 X150.303606 Y170.593717 Z-0.125000
G01 X147.315458 Y170.704525 Z-0.125000
G01 X143.331262 Y171.168233 Z-0.125000
G01 X139.347065 Y171.873029 Z-0.125000
G01 X127.394475 Y174.271791 Z-0.125000
G01 X122.414176 Y175.055936 Z-0.125000
G01 X118.429980 Y175.537556 Z-0.125000
G01 X113.449707 Y175.968297 Z-0.125000
G01 X108.469462 Y176.241479 Z-0.125000
G01 X102.493167 Y176.418406 Z-0.125000
G01 X95.520822 Y176.486563 Z-0.125000
G01 X87.552429 Y176.424306 Z-0.125000
G01 X81.576134 Y176.254523 Z-0.125000
G01 X76.595888 Y175.990020 Z-0.125000
G01 X71.615590 Y175.570497 Z-0.125000
G01 X67.631393 Y175.099116 Z-0.125000
G01 X62.651147 Y174.327618 Z-0.125000
G01 X49.702482 Y171.741716 Z-0.125000
G01 X45.718285 Y171.068591 Z-0.125000
G01 X41.734088 Y170.659201 Z-0.125000
G01 X39.741990 Y170.594061 Z-0.125000
G01 X37.749892 Y170.640813 Z-0.125000
G01 X35.757793 Y170.809802 Z-0.125000
G01 X33.765695 Y171.107140 Z-0.125000
G01 X31.773597 Y171.533410 Z-0.125000
G01 X29.781498 Y172.082896 Z-0.125000
G01 X25.797302 Y173.492912 Z-0.125000
G01 X17.828856 Y176.754109 Z-0.125000
G01 X15.836757 Y177.431891 Z-0.125000
G01 X13.844659 Y177.968069 Z-0.125000
G01 X11.852534 Y178.324224 Z-0.125000
G01 X9.860436 Y178.469797 Z-0.125000
G01 X7.868337 Y178.384919 Z-0.125000
G01 X5.876239 Y178.063266 Z-0.125000
G00 Z5.000000

(End cutting path id: polyline110616)


(Start cutting path id: polyline110618)
(Change tool to Default tool)

G00 Z5.000000
G00 X204.090340 Y169.936678

G00 Z4.875000 (Fast pre-penetrate)
G01 Z-0.125000 F100.0(Penetrate)
G01 X202.098242 Y170.177025 Z-0.125000 F800.000000
G01 X201.102192 Y170.412213 Z-0.125000
G01 X199.110094 Y171.080418 Z-0.125000
G01 X196.121947 Y172.450614 Z-0.125000
G01 X190.145652 Y175.551288 Z-0.125000
G01 X187.157478 Y176.783531 Z-0.125000
G01 X185.165406 Y177.359713 Z-0.125000
G01 X184.169357 Y177.561960 Z-0.125000
G01 X182.177258 Y177.785268 Z-0.125000
G01 X181.181209 Y177.805615 Z-0.125000
G01 X179.189111 Y177.669381 Z-0.125000
G01 X177.197012 Y177.314972 Z-0.125000
G01 X175.204914 Y176.773635 Z-0.125000
G01 X172.216740 Y175.699402 Z-0.125000
G01 X164.248294 Y172.373541 Z-0.125000
G01 X162.256222 Y171.659219 Z-0.125000
G01 X160.264097 Y171.052345 Z-0.125000
G01 X158.272025 Y170.570090 Z-0.125000
G01 X156.279901 Y170.221766 Z-0.125000
G01 X154.287802 Y170.009518 Z-0.125000
G01 X152.295704 Y169.929058 Z-0.125000
G01 X149.307557 Y170.033648 Z-0.125000
G01 X145.323360 Y170.515956 Z-0.125000
G01 X141.339163 Y171.261472 Z-0.125000
G01 X129.386573 Y173.800516 Z-0.125000
G01 X124.406328 Y174.614082 Z-0.125000
G01 X120.422078 Y175.102317 Z-0.125000
G01 X115.441806 Y175.524221 Z-0.125000
G01 X110.461560 Y175.777745 Z-0.125000
G01 X103.489216 Y175.945490 Z-0.125000
G01 X95.520822 Y175.996158 Z-0.125000
G01 X87.552429 Y175.961286 Z-0.125000
G01 X80.580085 Y175.823068 Z-0.125000
G01 X74.603790 Y175.544912 Z-0.125000
G01 X69.623491 Y175.135205 Z-0.125000
G01 X64.643246 Y174.516557 Z-0.125000
G01 X60.659049 Y173.858936 Z-0.125000
G01 X56.674852 Y173.071934 Z-0.125000
G01 X47.710383 Y171.122195 Z-0.125000
G01 X43.726187 Y170.411261 Z-0.125000
G01 X39.741990 Y169.988060 Z-0.125000
G01 X37.749892 Y169.927868 Z-0.125000
G01 X35.757793 Y169.988034 Z-0.125000
G01 X33.765695 Y170.178825 Z-0.125000
G01 X31.773597 Y170.505399 Z-0.125000
G01 X29.781498 Y170.966700 Z-0.125000
G01 X27.789400 Y171.554630 Z-0.125000
G01 X24.801253 Y172.637012 Z-0.125000
G01 X16.832780 Y175.964514 Z-0.125000
G01 X14.840708 Y176.672538 Z-0.125000
G01 X12.848583 Y177.240201 Z-0.125000
G01 X10.856511 Y177.626783 Z-0.125000
G01 X8.864413 Y177.799476 Z-0.125000
G01 X6.872288 Y177.736638 Z-0.125000
G01 X5.876239 Y177.613924 Z-0.125000
G00 Z5.000000

(End cutting path id: polyline110618)


(Start cutting path id: polyline110620)
(Change tool to Default tool)

G00 Z5.000000
G00 X204.090340 Y169.343959

G00 Z4.875000 (Fast pre-penetrate)
G01 Z-0.125000 F100.0(Penetrate)
G01 X202.098242 Y169.735039 Z-0.125000 F800.000000
G01 X201.102192 Y170.038940 Z-0.125000
G01 X199.110094 Y170.824989 Z-0.125000
G01 X197.117996 Y171.787145 Z-0.125000
G01 X192.137750 Y174.428345 Z-0.125000
G01 X189.149602 Y175.786053 Z-0.125000
G01 X187.157478 Y176.466110 Z-0.125000
G01 X186.161428 Y176.722835 Z-0.125000
G01 X184.169357 Y177.054675 Z-0.125000
G01 X183.173307 Y177.127092 Z-0.125000
G01 X182.177258 Y177.137225 Z-0.125000
G01 X180.185160 Y176.976782 Z-0.125000
G01 X178.193035 Y176.594565 Z-0.125000
G01 X176.200937 Y176.023833 Z-0.125000
G01 X173.212816 Y174.907717 Z-0.125000
G01 X165.244343 Y171.532537 Z-0.125000
G01 X163.252245 Y170.827423 Z-0.125000
G01 X161.260146 Y170.239202 Z-0.125000
G01 X159.268075 Y169.784358 Z-0.125000
G01 X157.275950 Y169.471171 Z-0.125000
G01 X155.283852 Y169.300303 Z-0.125000
G01 X153.291753 Y169.265749 Z-0.125000
G01 X150.303606 Y169.443628 Z-0.125000
G01 X147.315458 Y169.848016 Z-0.125000
G01 X143.331262 Y170.628298 Z-0.125000
G01 X135.362868 Y172.466409 Z-0.125000
G01 X131.378672 Y173.300031 Z-0.125000
G01 X126.398426 Y174.138971 Z-0.125000
G01 X122.414176 Y174.628581 Z-0.125000
G01 X117.433904 Y175.032441 Z-0.125000
G01 X112.453658 Y175.253976 Z-0.125000
G01 X106.477363 Y175.364731 Z-0.125000
G01 X96.516872 Y175.394470 Z-0.125000
G01 X85.560331 Y175.381108 Z-0.125000
G01 X78.587987 Y175.289748 Z-0.125000
G01 X72.611639 Y175.051359 Z-0.125000
G01 X67.631393 Y174.660913 Z-0.125000
G01 X62.651147 Y174.039540 Z-0.125000
G01 X58.666924 Y173.360858 Z-0.125000
G01 X54.682727 Y172.537132 Z-0.125000
G01 X45.718285 Y170.481851 Z-0.125000
G01 X42.730137 Y169.901753 Z-0.125000
G01 X38.745941 Y169.381239 Z-0.125000
G01 X36.753843 Y169.272178 Z-0.125000
G01 X34.761744 Y169.285883 Z-0.125000
G01 X32.769646 Y169.434447 Z-0.125000
G01 X30.777548 Y169.724774 Z-0.125000
G01 X28.785449 Y170.157367 Z-0.125000
G01 X26.793351 Y170.725188 Z-0.125000
G01 X22.809101 Y172.197434 Z-0.125000
G01 X15.836757 Y175.181719 Z-0.125000
G01 X13.844659 Y175.918053 Z-0.125000
G01 X11.852534 Y176.515111 Z-0.125000
G01 X9.860436 Y176.929924 Z-0.125000
G01 X8.864413 Y177.057665 Z-0.125000
G01 X6.872288 Y177.137066 Z-0.125000
G01 X5.876239 Y177.084600 Z-0.125000
G00 Z5.000000

(End cutting path id: polyline110620)


(Start cutting path id: polyline110622)
(Change tool to Default tool)

G00 Z5.000000
G00 X204.090340 Y168.822043

G00 Z4.875000 (Fast pre-penetrate)
G01 Z-0.125000 F100.0(Penetrate)
G01 X202.098242 Y169.355813 Z-0.125000 F800.000000
G01 X200.106143 Y170.144270 Z-0.125000
G01 X198.114045 Y171.113702 Z-0.125000
G01 X193.133799 Y173.780381 Z-0.125000
G01 X190.145652 Y175.146873 Z-0.125000
G01 X188.153553 Y175.826216 Z-0.125000
G01 X187.157478 Y176.080243 Z-0.125000
G01 X185.165406 Y176.401711 Z-0.125000
G01 X184.169357 Y176.466587 Z-0.125000
G01 X183.173307 Y176.467645 Z-0.125000
G01 X181.181209 Y176.285268 Z-0.125000
G01 X178.193035 Y175.599522 Z-0.125000
G01 X175.204914 Y174.535528 Z-0.125000
G01 X168.232491 Y171.501581 Z-0.125000
G01 X164.248294 Y170.010947 Z-0.125000
G01 X162.256196 Y169.442225 Z-0.125000
G01 X160.264097 Y169.015480 Z-0.125000
G01 X157.275950 Y168.654826 Z-0.125000
G01 X155.283852 Y168.596909 Z-0.125000
G01 X153.291753 Y168.673427 Z-0.125000
G01 X149.307557 Y169.164440 Z-0.125000
G01 X145.323360 Y169.972820 Z-0.125000
G01 X137.354967 Y171.900704 Z-0.125000
G01 X132.374721 Y172.965228 Z-0.125000
G01 X127.394475 Y173.771253 Z-0.125000
G01 X122.414176 Y174.299440 Z-0.125000
G01 X117.433904 Y174.589608 Z-0.125000
G01 X112.453658 Y174.708962 Z-0.125000
G01 X80.580085 Y174.728779 Z-0.125000
G01 X75.599839 Y174.683403 Z-0.125000
G01 X70.619540 Y174.514731 Z-0.125000
G01 X66.635344 Y174.242846 Z-0.125000
G01 X62.651147 Y173.813084 Z-0.125000
G01 X59.662973 Y173.374193 Z-0.125000
G01 X55.678777 Y172.632911 Z-0.125000
G01 X41.734088 Y169.404231 Z-0.125000
G01 X37.749892 Y168.790108 Z-0.125000
G01 X34.761744 Y168.600455 Z-0.125000
G01 X32.769646 Y168.636068 Z-0.125000
G01 X30.777548 Y168.815455 Z-0.125000
G01 X28.785449 Y169.144199 Z-0.125000
G01 X26.793351 Y169.620528 Z-0.125000
G01 X24.801253 Y170.234387 Z-0.125000
G01 X22.809101 Y170.966806 Z-0.125000
G01 X14.840708 Y174.406596 Z-0.125000
G01 X11.852534 Y175.501705 Z-0.125000
G01 X8.864413 Y176.234521 Z-0.125000
G01 X6.872288 Y176.454760 Z-0.125000
G01 X5.876239 Y176.473783 Z-0.125000
G00 Z5.000000

(End cutting path id: polyline110622)


(Start cutting path id: polyline110624)
(Change tool to Default tool)

G00 Z5.000000
G00 X204.090340 Y168.366457

G00 Z4.875000 (Fast pre-penetrate)
G01 Z-0.125000 F100.0(Penetrate)
G01 X202.098242 Y169.032598 Z-0.125000 F800.000000
G01 X200.106143 Y169.924587 Z-0.125000
G01 X194.129848 Y173.122099 Z-0.125000
G01 X191.141701 Y174.499333 Z-0.125000
G01 X189.149602 Y175.179867 Z-0.125000
G01 X188.153553 Y175.432252 Z-0.125000
G01 X186.161428 Y175.745730 Z-0.125000
G01 X185.165406 Y175.804230 Z-0.125000
G01 X184.169357 Y175.797483 Z-0.125000
G01 X182.177258 Y175.595579 Z-0.125000
G01 X181.181209 Y175.406588 Z-0.125000
G01 X179.189084 Y174.874062 Z-0.125000
G01 X176.200937 Y173.772576 Z-0.125000
G01 X169.228566 Y170.686665 Z-0.125000
G01 X166.240419 Y169.535412 Z-0.125000
G01 X164.248294 Y168.916790 Z-0.125000
G01 X162.256196 Y168.441943 Z-0.125000
G01 X160.264097 Y168.121454 Z-0.125000
G01 X158.271999 Y167.956909 Z-0.125000
G01 X155.283852 Y167.987178 Z-0.125000
G01 X153.291753 Y168.171804 Z-0.125000
G01 X151.299655 Y168.466020 Z-0.125000
G01 X147.315458 Y169.294985 Z-0.125000
G01 X138.351016 Y171.547724 Z-0.125000
G01 X134.366819 Y172.415345 Z-0.125000
G01 X129.386573 Y173.237139 Z-0.125000
G01 X124.406328 Y173.750378 Z-0.125000
G01 X120.422078 Y173.967812 Z-0.125000
G01 X115.441806 Y174.061712 Z-0.125000
G01 X94.524773 Y173.856422 Z-0.125000
G01 X75.599839 Y174.063088 Z-0.125000
G01 X70.619540 Y174.008902 Z-0.125000
G01 X66.635344 Y173.839013 Z-0.125000
G01 X62.651147 Y173.511962 Z-0.125000
G01 X59.662973 Y173.143742 Z-0.125000
G01 X56.674826 Y172.662412 Z-0.125000
G01 X52.690629 Y171.851730 Z-0.125000
G01 X42.730137 Y169.370788 Z-0.125000
G01 X38.745941 Y168.521662 Z-0.125000
G01 X36.753843 Y168.211941 Z-0.125000
G01 X34.761744 Y168.008477 Z-0.125000
G01 X31.773597 Y167.944792 Z-0.125000
G01 X28.785449 Y168.212973 Z-0.125000
G01 X26.793351 Y168.586617 Z-0.125000
G01 X24.801253 Y169.112052 Z-0.125000
G01 X22.809101 Y169.775574 Z-0.125000
G01 X20.816977 Y170.553871 Z-0.125000
G01 X14.840708 Y173.210999 Z-0.125000
G01 X11.852534 Y174.426996 Z-0.125000
G01 X8.864413 Y175.334833 Z-0.125000
G01 X6.872288 Y175.691597 Z-0.125000
G01 X5.876239 Y175.781819 Z-0.125000
G00 Z5.000000

(End cutting path id: polyline110624)


(Start cutting path id: polyline110588)
(Change tool to Default tool)

G00 Z5.000000
G00 X204.090340 Y167.971858

G00 Z4.875000 (Fast pre-penetrate)
G01 Z-0.125000 F100.0(Penetrate)
G01 X203.094291 Y168.335634 Z-0.125000 F800.000000
G01 X201.102192 Y169.228601 Z-0.125000
G01 X195.125897 Y172.453550 Z-0.125000
G01 X192.137750 Y173.843590 Z-0.125000
G01 X190.145652 Y174.527405 Z-0.125000
G01 X189.149602 Y174.779341 Z-0.125000
G01 X187.157478 Y175.087263 Z-0.125000
G01 X186.161428 Y175.140655 Z-0.125000
G01 X184.169357 Y175.049004 Z-0.125000
G01 X183.173307 Y174.908404 Z-0.125000
G01 X181.181209 Y174.456153 Z-0.125000
G01 X178.193035 Y173.428883 Z-0.125000
G01 X170.224615 Y169.884502 Z-0.125000
G01 X167.236441 Y168.740604 Z-0.125000
G01 X165.244343 Y168.137937 Z-0.125000
G01 X163.252245 Y167.687564 Z-0.125000
G01 X160.264097 Y167.315798 Z-0.125000
G01 X157.275950 Y167.299976 Z-0.125000
G01 X155.283852 Y167.466981 Z-0.125000
G01 X153.291753 Y167.753868 Z-0.125000
G01 X149.307557 Y168.594872 Z-0.125000
G01 X140.343114 Y170.937596 Z-0.125000
G01 X136.358917 Y171.838898 Z-0.125000
G01 X131.378672 Y172.676911 Z-0.125000
G01 X126.398426 Y173.173401 Z-0.125000
G01 X122.414176 Y173.356599 Z-0.125000
G01 X117.433904 Y173.389857 Z-0.125000
G01 X101.497117 Y172.996051 Z-0.125000
G01 X93.528724 Y172.931969 Z-0.125000
G01 X70.619540 Y173.397794 Z-0.125000
G01 X66.635344 Y173.336861 Z-0.125000
G01 X63.647196 Y173.194383 Z-0.125000
G01 X60.659022 Y172.947977 Z-0.125000
G01 X57.670875 Y172.583275 Z-0.125000
G01 X54.682727 Y172.093374 Z-0.125000
G01 X50.698531 Y171.254302 Z-0.125000
G01 X40.738039 Y168.672897 Z-0.125000
G01 X37.749892 Y167.997788 Z-0.125000
G01 X35.757793 Y167.644119 Z-0.125000
G01 X33.765695 Y167.395597 Z-0.125000
G01 X31.773597 Y167.274100 Z-0.125000
G01 X29.781498 Y167.297701 Z-0.125000
G01 X26.793351 Y167.630546 Z-0.125000
G01 X24.801253 Y168.055520 Z-0.125000
G01 X22.809101 Y168.634930 Z-0.125000
G01 X19.820954 Y169.751576 Z-0.125000
G01 X12.848583 Y172.882016 Z-0.125000
G01 X10.856511 Y173.691878 Z-0.125000
G01 X7.868337 Y174.634085 Z-0.125000
G01 X5.876239 Y175.010719 Z-0.125000
G00 Z5.000000

(End cutting path id: polyline110588)


(Start cutting path id: polyline110626)
(Change tool to Default tool)

G00 Z5.000000
G00 X204.090340 Y167.631896

G00 Z4.875000 (Fast pre-penetrate)
G01 Z-0.125000 F100.0(Penetrate)
G01 X202.098242 Y168.523620 Z-0.125000 F800.000000
G01 X196.121947 Y171.774710 Z-0.125000
G01 X193.133799 Y173.179698 Z-0.125000
G01 X191.141701 Y173.868937 Z-0.125000
G01 X190.145652 Y174.121614 Z-0.125000
G01 X188.153553 Y174.426572 Z-0.125000
G01 X187.157478 Y174.476182 Z-0.125000
G01 X186.161428 Y174.457634 Z-0.125000
G01 X184.169357 Y174.224219 Z-0.125000
G01 X183.173307 Y174.016125 Z-0.125000
G01 X181.181209 Y173.441106 Z-0.125000
G01 X178.193035 Y172.272973 Z-0.125000
G01 X171.220638 Y169.094987 Z-0.125000
G01 X169.228566 Y168.306847 Z-0.125000
G01 X167.236441 Y167.646395 Z-0.125000
G01 X164.248294 Y166.946017 Z-0.125000
G01 X161.260146 Y166.623702 Z-0.125000
G01 X158.271999 Y166.668337 Z-0.125000
G01 X156.279901 Y166.878469 Z-0.125000
G01 X154.287802 Y167.208378 Z-0.125000
G01 X151.299655 Y167.873195 Z-0.125000
G01 X142.335212 Y170.300374 Z-0.125000
G01 X138.351016 Y171.237077 Z-0.125000
G01 X133.370770 Y172.093479 Z-0.125000
G01 X128.390524 Y172.573380 Z-0.125000
G01 X124.406328 Y172.720541 Z-0.125000
G01 X120.422078 Y172.709614 Z-0.125000
G01 X103.489216 Y172.054533 Z-0.125000
G01 X94.524773 Y171.909541 Z-0.125000
G01 X87.552429 Y172.014925 Z-0.125000
G01 X72.611639 Y172.619338 Z-0.125000
G01 X66.635344 Y172.731759 Z-0.125000
G01 X63.647196 Y172.681039 Z-0.125000
G01 X60.659022 Y172.528851 Z-0.125000
G01 X57.670875 Y172.255669 Z-0.125000
G01 X54.682727 Y171.848132 Z-0.125000
G01 X51.694580 Y171.302905 Z-0.125000
G01 X48.706432 Y170.630203 Z-0.125000
G01 X39.741990 Y168.210459 Z-0.125000
G01 X35.757793 Y167.270475 Z-0.125000
G01 X33.765695 Y166.923713 Z-0.125000
G01 X31.773597 Y166.692891 Z-0.125000
G01 X28.785449 Y166.611611 Z-0.125000
G01 X25.797302 Y166.893577 Z-0.125000
G01 X23.805150 Y167.293071 Z-0.125000
G01 X21.813052 Y167.855151 Z-0.125000
G01 X19.820954 Y168.562355 Z-0.125000
G01 X17.828856 Y169.386425 Z-0.125000
G01 X11.852534 Y172.133511 Z-0.125000
G01 X9.860436 Y172.964513 Z-0.125000
G01 X7.868337 Y173.658726 Z-0.125000
G01 X5.876239 Y174.164080 Z-0.125000
G00 Z5.000000

(End cutting path id: polyline110626)


(Start cutting path id: polyline110628)
(Change tool to Default tool)

G00 Z5.000000
G00 X204.090340 Y167.339637

G00 Z4.875000 (Fast pre-penetrate)
G01 Z-0.125000 F100.0(Penetrate)
G01 X202.098242 Y168.321267 Z-0.125000 F800.000000
G01 X197.117996 Y171.085550 Z-0.125000
G01 X194.129848 Y172.507684 Z-0.125000
G01 X192.137750 Y173.204543 Z-0.125000
G01 X191.141701 Y173.459230 Z-0.125000
G01 X189.149602 Y173.763924 Z-0.125000
G01 X188.153553 Y173.811179 Z-0.125000
G01 X186.161428 Y173.698493 Z-0.125000
G01 X185.165406 Y173.543447 Z-0.125000
G01 X183.173307 Y173.056218 Z-0.125000
G01 X180.185160 Y171.968226 Z-0.125000
G01 X173.212816 Y168.750553 Z-0.125000
G01 X170.224615 Y167.532809 Z-0.125000
G01 X168.232491 Y166.883893 Z-0.125000
G01 X166.240419 Y166.395499 Z-0.125000
G01 X163.252245 Y165.989629 Z-0.125000
G01 X160.264097 Y165.971664 Z-0.125000
G01 X158.271999 Y166.154491 Z-0.125000
G01 X156.279901 Y166.468974 Z-0.125000
G01 X152.295704 Y167.388638 Z-0.125000
G01 X144.327311 Y169.636218 Z-0.125000
G01 X140.343114 Y170.610783 Z-0.125000
G01 X135.362868 Y171.489331 Z-0.125000
G01 X130.382622 Y171.954864 Z-0.125000
G01 X126.398426 Y172.065883 Z-0.125000
G01 X122.414176 Y172.002251 Z-0.125000
G01 X104.485265 Y171.026892 Z-0.125000
G01 X99.505019 Y170.862137 Z-0.125000
G01 X94.524773 Y170.810569 Z-0.125000
G01 X85.560331 Y171.013319 Z-0.125000
G01 X69.623491 Y171.909197 Z-0.125000
G01 X63.647196 Y172.066439 Z-0.125000
G01 X60.659022 Y172.014396 Z-0.125000
G01 X57.670875 Y171.842496 Z-0.125000
G01 X52.690629 Y171.240464 Z-0.125000
G01 X49.702482 Y170.679019 Z-0.125000
G01 X46.714334 Y169.979858 Z-0.125000
G01 X37.749892 Y167.473675 Z-0.125000
G01 X34.761744 Y166.736176 Z-0.125000
G01 X32.769646 Y166.348668 Z-0.125000
G01 X30.777548 Y166.076280 Z-0.125000
G01 X27.789400 Y165.935707 Z-0.125000
G01 X25.797302 Y166.046911 Z-0.125000
G01 X23.805150 Y166.333455 Z-0.125000
G01 X21.813052 Y166.794702 Z-0.125000
G01 X19.820954 Y167.419356 Z-0.125000
G01 X16.832780 Y168.610033 Z-0.125000
G01 X9.860436 Y171.833500 Z-0.125000
G01 X7.868337 Y172.622698 Z-0.125000
G01 X5.876239 Y173.246850 Z-0.125000
G00 Z5.000000

(End cutting path id: polyline110628)


(Start cutting path id: polyline110630)
(Change tool to Default tool)

G00 Z5.000000
G00 X204.090340 Y167.087543

G00 Z4.875000 (Fast pre-penetrate)
G01 Z-0.125000 F100.0(Penetrate)
G01 X198.114045 Y170.385967 Z-0.125000 F800.000000
G01 X195.125897 Y171.827468 Z-0.125000
G01 X193.133799 Y172.534275 Z-0.125000
G01 X192.137750 Y172.792270 Z-0.125000
G01 X190.145652 Y173.099477 Z-0.125000
G01 X189.149602 Y173.145779 Z-0.125000
G01 X187.157478 Y173.026770 Z-0.125000
G01 X186.161428 Y172.866459 Z-0.125000
G01 X184.169357 Y172.365365 Z-0.125000
G01 X181.181209 Y171.251365 Z-0.125000
G01 X174.208865 Y167.986887 Z-0.125000
G01 X171.220638 Y166.770678 Z-0.125000
G01 X169.228566 Y166.132795 Z-0.125000
G01 X167.236441 Y165.663504 Z-0.125000
G01 X164.248294 Y165.299649 Z-0.125000
G01 X161.260146 Y165.335527 Z-0.125000
G01 X159.268075 Y165.557697 Z-0.125000
G01 X157.275950 Y165.911736 Z-0.125000
G01 X154.287802 Y166.629047 Z-0.125000
G01 X146.319409 Y168.945100 Z-0.125000
G01 X142.335212 Y169.960596 Z-0.125000
G01 X139.347065 Y170.558263 Z-0.125000
G01 X137.354967 Y170.866661 Z-0.125000
G01 X133.370770 Y171.265361 Z-0.125000
G01 X129.386573 Y171.399849 Z-0.125000
G01 X125.402377 Y171.325316 Z-0.125000
G01 X120.422078 Y171.039354 Z-0.125000
G01 X105.481314 Y169.947447 Z-0.125000
G01 X99.505019 Y169.706967 Z-0.125000
G01 X94.524773 Y169.648680 Z-0.125000
G01 X89.544527 Y169.725223 Z-0.125000
G01 X84.564282 Y169.930355 Z-0.125000
G01 X67.631393 Y171.152331 Z-0.125000
G01 X63.647196 Y171.349922 Z-0.125000
G01 X60.659022 Y171.400722 Z-0.125000
G01 X55.678777 Y171.217366 Z-0.125000
G01 X52.690629 Y170.909047 Z-0.125000
G01 X50.698531 Y170.612423 Z-0.125000
G01 X47.710383 Y170.031531 Z-0.125000
G01 X44.722236 Y169.303266 Z-0.125000
G01 X35.757793 Y166.715036 Z-0.125000
G01 X32.769646 Y165.978649 Z-0.125000
G01 X30.777548 Y165.606037 Z-0.125000
G01 X28.785449 Y165.361112 Z-0.125000
G01 X25.797302 Y165.285044 Z-0.125000
G01 X22.809101 Y165.605216 Z-0.125000
G01 X20.816977 Y166.046144 Z-0.125000
G01 X18.824905 Y166.658442 Z-0.125000
G01 X15.836757 Y167.845679 Z-0.125000
G01 X8.864413 Y171.113808 Z-0.125000
G01 X5.876239 Y172.265353 Z-0.125000
G00 Z5.000000

(End cutting path id: polyline110630)


(Start cutting path id: polyline110632)
(Change tool to Default tool)

G00 Z5.000000
G00 X204.090340 Y166.867621

G00 Z4.875000 (Fast pre-penetrate)
G01 Z-0.125000 F100.0(Penetrate)
G01 X199.110094 Y169.675958 Z-0.125000 F800.000000
G01 X196.121947 Y171.138996 Z-0.125000
G01 X194.129848 Y171.858027 Z-0.125000
G01 X193.133799 Y172.120705 Z-0.125000
G01 X191.141701 Y172.433336 Z-0.125000
G01 X190.145652 Y172.480141 Z-0.125000
G01 X189.149602 Y172.454291 Z-0.125000
G01 X187.157478 Y172.193545 Z-0.125000
G01 X186.161428 Y171.966189 Z-0.125000
G01 X184.169357 Y171.344260 Z-0.125000
G01 X181.181209 Y170.095798 Z-0.125000
G01 X174.208865 Y166.799412 Z-0.125000
G01 X171.220638 Y165.685332 Z-0.125000
G01 X168.232491 Y164.941219 Z-0.125000
G01 X165.244343 Y164.617581 Z-0.125000
G01 X162.256196 Y164.705052 Z-0.125000
G01 X159.268075 Y165.145847 Z-0.125000
G01 X155.283852 Y166.125360 Z-0.125000
G01 X148.311507 Y168.226943 Z-0.125000
G01 X144.327311 Y169.286809 Z-0.125000
G01 X141.339163 Y169.909056 Z-0.125000
G01 X139.347065 Y170.227032 Z-0.125000
G01 X135.362868 Y170.625626 Z-0.125000
G01 X131.378672 Y170.734369 Z-0.125000
G01 X127.394475 Y170.612661 Z-0.125000
G01 X123.410278 Y170.333632 Z-0.125000
G01 X112.453658 Y169.299615 Z-0.125000
G01 X106.477363 Y168.830668 Z-0.125000
G01 X100.501068 Y168.535050 Z-0.125000
G01 X94.524773 Y168.442075 Z-0.125000
G01 X89.544527 Y168.524863 Z-0.125000
G01 X83.568232 Y168.810163 Z-0.125000
G01 X77.591938 Y169.271225 Z-0.125000
G01 X64.643246 Y170.465262 Z-0.125000
G01 X60.659022 Y170.687274 Z-0.125000
G01 X57.670875 Y170.734026 Z-0.125000
G01 X54.682727 Y170.644332 Z-0.125000
G01 X52.690629 Y170.495927 Z-0.125000
G01 X49.702482 Y170.127760 Z-0.125000
G01 X47.710383 Y169.782770 Z-0.125000
G01 X42.730137 Y168.600402 Z-0.125000
G01 X34.761744 Y166.216271 Z-0.125000
G01 X31.773597 Y165.429110 Z-0.125000
G01 X29.781498 Y165.019139 Z-0.125000
G01 X27.789400 Y164.736511 Z-0.125000
G01 X24.801253 Y164.608029 Z-0.125000
G01 X21.813052 Y164.886503 Z-0.125000
G01 X19.820954 Y165.308116 Z-0.125000
G01 X17.828856 Y165.908799 Z-0.125000
G01 X14.840708 Y167.093205 Z-0.125000
G01 X8.864413 Y169.947870 Z-0.125000
G01 X5.876239 Y171.226997 Z-0.125000
G00 Z5.000000

(End cutting path id: polyline110632)


(Start cutting path id: polyline110634)
(Change tool to Default tool)

G00 Z5.000000
G00 X204.090340 Y166.671777

G00 Z4.875000 (Fast pre-penetrate)
G01 Z-0.125000 F100.0(Penetrate)
G01 X199.110094 Y169.490882 Z-0.125000 F800.000000
G01 X196.121947 Y170.839753 Z-0.125000
G01 X194.129848 Y171.444404 Z-0.125000
G01 X193.133799 Y171.641783 Z-0.125000
G01 X191.141701 Y171.814265 Z-0.125000
G01 X190.145652 Y171.788944 Z-0.125000
G01 X188.153553 Y171.524785 Z-0.125000
G01 X187.157478 Y171.293645 Z-0.125000
G01 X185.165406 Y170.660657 Z-0.125000
G01 X182.177258 Y169.390500 Z-0.125000
G01 X176.200937 Y166.494930 Z-0.125000
G01 X174.208865 Y165.650910 Z-0.125000
G01 X172.216740 Y164.949103 Z-0.125000
G01 X169.228566 Y164.227586 Z-0.125000
G01 X166.240419 Y163.942021 Z-0.125000
G01 X163.252245 Y164.078546 Z-0.125000
G01 X160.264097 Y164.572946 Z-0.125000
G01 X157.275950 Y165.327907 Z-0.125000
G01 X149.307557 Y167.778554 Z-0.125000
G01 X145.323360 Y168.825985 Z-0.125000
G01 X141.339163 Y169.571527 Z-0.125000
G01 X137.354967 Y169.976366 Z-0.125000
G01 X133.370770 Y170.064260 Z-0.125000
G01 X129.386573 Y169.898552 Z-0.125000
G01 X124.406328 Y169.456804 Z-0.125000
G01 X112.453658 Y168.127857 Z-0.125000
G01 X107.473412 Y167.691004 Z-0.125000
G01 X100.501068 Y167.307173 Z-0.125000
G01 X94.524773 Y167.210336 Z-0.125000
G01 X88.548478 Y167.331885 Z-0.125000
G01 X82.572183 Y167.667429 Z-0.125000
G01 X76.595888 Y168.196145 Z-0.125000
G01 X62.651147 Y169.717709 Z-0.125000
G01 X58.666924 Y169.994066 Z-0.125000
G01 X54.682727 Y170.062487 Z-0.125000
G01 X51.694580 Y169.931122 Z-0.125000
G01 X49.702482 Y169.742607 Z-0.125000
G01 X45.718285 Y169.108639 Z-0.125000
G01 X41.734088 Y168.151801 Z-0.125000
G01 X32.769646 Y165.418976 Z-0.125000
G01 X29.781498 Y164.642769 Z-0.125000
G01 X26.793351 Y164.115641 Z-0.125000
G01 X23.805150 Y163.937259 Z-0.125000
G01 X20.816977 Y164.176256 Z-0.125000
G01 X18.824905 Y164.579719 Z-0.125000
G01 X16.832780 Y165.169845 Z-0.125000
G01 X13.844659 Y166.352372 Z-0.125000
G01 X5.876239 Y170.140090 Z-0.125000
G00 Z5.000000

(End cutting path id: polyline110634)


(Start cutting path id: polyline110636)
(Change tool to Default tool)

G00 Z5.000000
G00 X204.090340 Y166.491702

G00 Z4.875000 (Fast pre-penetrate)
G01 Z-0.125000 F100.0(Penetrate)
G01 X200.106143 Y168.767724 Z-0.125000 F800.000000
G01 X197.117996 Y170.142894 Z-0.125000
G01 X195.125897 Y170.763209 Z-0.125000
G01 X194.129848 Y170.966938 Z-0.125000
G01 X192.137750 Y171.148124 Z-0.125000
G01 X191.141701 Y171.124894 Z-0.125000
G01 X189.149602 Y170.860285 Z-0.125000
G01 X188.153553 Y170.626711 Z-0.125000
G01 X186.161428 Y169.985070 Z-0.125000
G01 X183.173307 Y168.695705 Z-0.125000
G01 X177.197012 Y165.766268 Z-0.125000
G01 X175.204914 Y164.919920 Z-0.125000
G01 X173.212816 Y164.222664 Z-0.125000
G01 X170.224615 Y163.521652 Z-0.125000
G01 X169.228566 Y163.387879 Z-0.125000
G01 X167.236441 Y163.271727 Z-0.125000
G01 X164.248294 Y163.454606 Z-0.125000
G01 X161.260146 Y163.999568 Z-0.125000
G01 X158.271999 Y164.802022 Z-0.125000
G01 X150.303606 Y167.316089 Z-0.125000
G01 X147.315458 Y168.116427 Z-0.125000
G01 X143.331262 Y168.900545 Z-0.125000
G01 X139.347065 Y169.319247 Z-0.125000
G01 X135.362868 Y169.392722 Z-0.125000
G01 X130.382622 Y169.102660 Z-0.125000
G01 X126.398426 Y168.672051 Z-0.125000
G01 X114.445783 Y167.139877 Z-0.125000
G01 X107.473412 Y166.462333 Z-0.125000
G01 X101.497117 Y166.108480 Z-0.125000
G01 X94.524773 Y165.973595 Z-0.125000
G01 X88.548478 Y166.095806 Z-0.125000
G01 X81.576134 Y166.516229 Z-0.125000
G01 X74.603790 Y167.219014 Z-0.125000
G01 X60.659022 Y168.974919 Z-0.125000
G01 X56.674826 Y169.302235 Z-0.125000
G01 X52.690629 Y169.400368 Z-0.125000
G01 X49.702482 Y169.273633 Z-0.125000
G01 X47.710383 Y169.079244 Z-0.125000
G01 X43.726187 Y168.413924 Z-0.125000
G01 X39.741990 Y167.408376 Z-0.125000
G01 X31.773597 Y164.897669 Z-0.125000
G01 X28.785449 Y164.074736 Z-0.125000
G01 X25.797302 Y163.497019 Z-0.125000
G01 X22.809101 Y163.271488 Z-0.125000
G01 X20.816977 Y163.355864 Z-0.125000
G01 X19.820954 Y163.473445 Z-0.125000
G01 X17.828856 Y163.860291 Z-0.125000
G01 X15.836757 Y164.441025 Z-0.125000
G01 X12.848583 Y165.622917 Z-0.125000
G01 X5.876239 Y169.013575 Z-0.125000
G00 Z5.000000

(End cutting path id: polyline110636)


(Start cutting path id: polyline110586)
(Change tool to Default tool)

G00 Z5.000000
G00 X204.090340 Y166.319220

G00 Z4.875000 (Fast pre-penetrate)
G01 Z-0.125000 F100.0(Penetrate)
G01 X200.106143 Y168.550872 Z-0.125000 F800.000000
G01 X198.114045 Y169.438204 Z-0.125000
G01 X197.117996 Y169.791872 Z-0.125000
G01 X195.125897 Y170.288388 Z-0.125000
G01 X194.129848 Y170.423723 Z-0.125000
G01 X193.133799 Y170.481481 Z-0.125000
G01 X191.141701 Y170.367075 Z-0.125000
G01 X189.149602 Y169.965438 Z-0.125000
G01 X186.161428 Y168.918669 Z-0.125000
G01 X184.169357 Y168.011572 Z-0.125000
G01 X178.193035 Y165.048931 Z-0.125000
G01 X175.204914 Y163.830552 Z-0.125000
G01 X173.212816 Y163.227356 Z-0.125000
G01 X171.220638 Y162.822544 Z-0.125000
G01 X170.224615 Y162.698216 Z-0.125000
G01 X168.232491 Y162.605507 Z-0.125000
G01 X165.244343 Y162.831831 Z-0.125000
G01 X162.256196 Y163.424365 Z-0.125000
G01 X159.268075 Y164.271136 Z-0.125000
G01 X152.295704 Y166.541364 Z-0.125000
G01 X148.311507 Y167.625360 Z-0.125000
G01 X144.327311 Y168.361325 Z-0.125000
G01 X141.339163 Y168.655250 Z-0.125000
G01 X137.354967 Y168.722004 Z-0.125000
G01 X132.374721 Y168.386248 Z-0.125000
G01 X128.390524 Y167.898463 Z-0.125000
G01 X116.437881 Y166.170657 Z-0.125000
G01 X108.469462 Y165.311767 Z-0.125000
G01 X101.497117 Y164.882772 Z-0.125000
G01 X94.524773 Y164.751804 Z-0.125000
G01 X87.552429 Y164.911162 Z-0.125000
G01 X80.580085 Y165.369870 Z-0.125000
G01 X73.607688 Y166.129514 Z-0.125000
G01 X61.655072 Y167.854410 Z-0.125000
G01 X57.670875 Y168.352858 Z-0.125000
G01 X53.686678 Y168.672606 Z-0.125000
G01 X49.702482 Y168.716130 Z-0.125000
G01 X45.718285 Y168.403129 Z-0.125000
G01 X42.730137 Y167.910502 Z-0.125000
G01 X38.745941 Y166.930857 Z-0.125000
G01 X29.781498 Y164.063121 Z-0.125000
G01 X26.793351 Y163.263233 Z-0.125000
G01 X23.805150 Y162.744889 Z-0.125000
G01 X20.816977 Y162.614053 Z-0.125000
G01 X18.824905 Y162.777168 Z-0.125000
G01 X17.828856 Y162.937161 Z-0.125000
G01 X14.840708 Y163.721862 Z-0.125000
G01 X11.852534 Y164.904680 Z-0.125000
G01 X5.876239 Y167.856924 Z-0.125000
G00 Z5.000000

(End cutting path id: polyline110586)


(Start cutting path id: polyline110638)
(Change tool to Default tool)

G00 Z5.000000
G00 X204.090340 Y166.146315

G00 Z4.875000 (Fast pre-penetrate)
G01 Z-0.125000 F100.0(Penetrate)
G01 X201.102192 Y167.816522 Z-0.125000 F800.000000
G01 X199.110094 Y168.725285 Z-0.125000
G01 X198.114045 Y169.089722 Z-0.125000
G01 X196.121947 Y169.605870 Z-0.125000
G01 X195.125897 Y169.749486 Z-0.125000
G01 X194.129848 Y169.814150 Z-0.125000
G01 X192.137750 Y169.708846 Z-0.125000
G01 X190.145652 Y169.309722 Z-0.125000
G01 X189.149602 Y169.012225 Z-0.125000
G01 X187.157478 Y168.255544 Z-0.125000
G01 X185.165406 Y167.338156 Z-0.125000
G01 X179.189084 Y164.342732 Z-0.125000
G01 X176.200937 Y163.120200 Z-0.125000
G01 X174.208865 Y162.522189 Z-0.125000
G01 X172.216740 Y162.129389 Z-0.125000
G01 X171.220638 Y162.013582 Z-0.125000
G01 X169.228566 Y161.942276 Z-0.125000
G01 X166.240419 Y162.209003 Z-0.125000
G01 X163.252245 Y162.846065 Z-0.125000
G01 X160.264097 Y163.734032 Z-0.125000
G01 X153.291753 Y166.051092 Z-0.125000
G01 X149.307557 Y167.116488 Z-0.125000
G01 X147.315458 Y167.510611 Z-0.125000
G01 X145.323360 Y167.800462 Z-0.125000
G01 X142.335212 Y168.037951 Z-0.125000
G01 X138.351016 Y168.014959 Z-0.125000
G01 X134.366819 Y167.680552 Z-0.125000
G01 X130.382622 Y167.139877 Z-0.125000
G01 X118.429980 Y165.225593 Z-0.125000
G01 X114.445783 Y164.697009 Z-0.125000
G01 X110.461560 Y164.269787 Z-0.125000
G01 X106.477363 Y163.947657 Z-0.125000
G01 X102.493167 Y163.726651 Z-0.125000
G01 X94.524773 Y163.563932 Z-0.125000
G01 X86.556380 Y163.757395 Z-0.125000
G01 X82.572183 Y163.995176 Z-0.125000
G01 X78.587987 Y164.335059 Z-0.125000
G01 X71.615590 Y165.180005 Z-0.125000
G01 X59.662973 Y167.091009 Z-0.125000
G01 X55.678777 Y167.643564 Z-0.125000
G01 X51.694580 Y167.998396 Z-0.125000
G01 X47.710383 Y168.049699 Z-0.125000
G01 X45.718285 Y167.933653 Z-0.125000
G01 X43.726187 Y167.713705 Z-0.125000
G01 X40.738039 Y167.186153 Z-0.125000
G01 X36.753843 Y166.147585 Z-0.125000
G01 X28.785449 Y163.517365 Z-0.125000
G01 X25.797302 Y162.674827 Z-0.125000
G01 X22.809101 Y162.112271 Z-0.125000
G01 X19.820954 Y161.942938 Z-0.125000
G01 X17.828856 Y162.086554 Z-0.125000
G01 X16.832780 Y162.239139 Z-0.125000
G01 X13.844659 Y163.011880 Z-0.125000
G01 X10.856511 Y164.197450 Z-0.125000
G01 X5.876239 Y166.679900 Z-0.125000
G00 Z5.000000

(End cutting path id: polyline110638)


(Start cutting path id: polyline110640)
(Change tool to Default tool)

G00 Z5.000000
G00 X204.090340 Y165.965234

G00 Z4.875000 (Fast pre-penetrate)
G01 Z-0.125000 F100.0(Penetrate)
G01 X201.102192 Y167.564824 Z-0.125000 F800.000000
G01 X199.110094 Y168.380216 Z-0.125000
G01 X198.114045 Y168.687000 Z-0.125000
G01 X196.121947 Y169.072418 Z-0.125000
G01 X195.125897 Y169.145681 Z-0.125000
G01 X193.133799 Y169.052892 Z-0.125000
G01 X191.141701 Y168.659430 Z-0.125000
G01 X190.145652 Y168.362198 Z-0.125000
G01 X188.153553 Y167.601548 Z-0.125000
G01 X186.161428 Y166.675455 Z-0.125000
G01 X180.185160 Y163.647514 Z-0.125000
G01 X177.197012 Y162.418896 Z-0.125000
G01 X175.204914 Y161.824246 Z-0.125000
G01 X174.208865 Y161.605409 Z-0.125000
G01 X173.212816 Y161.441500 Z-0.125000
G01 X171.220638 Y161.280078 Z-0.125000
G01 X170.224615 Y161.281136 Z-0.125000
G01 X168.232491 Y161.436711 Z-0.125000
G01 X165.244343 Y162.003130 Z-0.125000
G01 X162.256196 Y162.862179 Z-0.125000
G01 X154.287802 Y165.547246 Z-0.125000
G01 X150.303606 Y166.590497 Z-0.125000
G01 X147.315458 Y167.104317 Z-0.125000
G01 X145.323360 Y167.306723 Z-0.125000
G01 X143.331262 Y167.399063 Z-0.125000
G01 X139.347065 Y167.285742 Z-0.125000
G01 X135.362868 Y166.857461 Z-0.125000
G01 X131.378672 Y166.230188 Z-0.125000
G01 X120.422078 Y164.308336 Z-0.125000
G01 X116.437881 Y163.732339 Z-0.125000
G01 X112.453658 Y163.266673 Z-0.125000
G01 X108.469462 Y162.912714 Z-0.125000
G01 X103.489216 Y162.615376 Z-0.125000
G01 X99.505019 Y162.480623 Z-0.125000
G01 X94.524773 Y162.427495 Z-0.125000
G01 X89.544527 Y162.497557 Z-0.125000
G01 X85.560331 Y162.647073 Z-0.125000
G01 X81.576134 Y162.889113 Z-0.125000
G01 X77.591938 Y163.234394 Z-0.125000
G01 X73.607688 Y163.691038 Z-0.125000
G01 X69.623491 Y164.258595 Z-0.125000
G01 X57.670875 Y166.345996 Z-0.125000
G01 X53.686678 Y166.947684 Z-0.125000
G01 X49.702482 Y167.330298 Z-0.125000
G01 X45.718285 Y167.379616 Z-0.125000
G01 X42.730137 Y167.144163 Z-0.125000
G01 X40.738039 Y166.847143 Z-0.125000
G01 X38.745941 Y166.439896 Z-0.125000
G01 X34.761744 Y165.336426 Z-0.125000
G01 X27.789400 Y162.965128 Z-0.125000
G01 X24.801253 Y162.082955 Z-0.125000
G01 X21.813052 Y161.479283 Z-0.125000
G01 X19.820954 Y161.292566 Z-0.125000
G01 X18.824905 Y161.274628 Z-0.125000
G01 X16.832780 Y161.400887 Z-0.125000
G01 X15.836757 Y161.547122 Z-0.125000
G01 X14.840708 Y161.748575 Z-0.125000
G01 X12.848583 Y162.310708 Z-0.125000
G01 X9.860436 Y163.501067 Z-0.125000
G01 X5.876239 Y165.492239 Z-0.125000
G00 Z5.000000

(End cutting path id: polyline110640)


(Start cutting path id: polyline110642)
(Change tool to Default tool)

G00 Z5.000000
G00 X204.090340 Y165.550183

G00 Z4.875000 (Fast pre-penetrate)
G01 Z-0.125000 F100.0(Penetrate)
G01 X202.098242 Y166.533321 Z-0.125000 F800.000000
G01 X201.102192 Y166.937127 Z-0.125000
G01 X199.110094 Y167.529740 Z-0.125000
G01 X197.117996 Y167.803584 Z-0.125000
G01 X196.121947 Y167.815993 Z-0.125000
G01 X194.129848 Y167.597526 Z-0.125000
G01 X192.137750 Y167.081801 Z-0.125000
G01 X190.145652 Y166.320596 Z-0.125000
G01 X188.153553 Y165.382226 Z-0.125000
G01 X182.177258 Y162.289753 Z-0.125000
G01 X179.189084 Y161.042244 Z-0.125000
G01 X177.197012 Y160.448388 Z-0.125000
G01 X176.200937 Y160.234631 Z-0.125000
G01 X175.204914 Y160.078977 Z-0.125000
