%
(Header)
(Generated by gcodetools from Inkscape.)
(Using default header. To add your own header create file "header" in the output dir.)
M3
(Header end.)
G21 (All units in mm)

(Start cutting path id: polyline127002)
(Change tool to Default tool)

G00 Z3.000000
G00 X201.019025 Y184.817319

G00 Z4.875000 (Fast pre-penetrate)
G01 Z-0.125000 F400.0(Penetrate)
G01 X169.746647 Y168.558486 Z-0.125000 F800.000000
G01 X141.459517 Y186.757740 Z-0.125000
G01 X119.579771 Y190.074719 Z-0.125000
G01 X81.126074 Y188.609764 Z-0.125000
G01 X71.524682 Y192.667508 Z-0.125000
G01 X30.378705 Y171.201039 Z-0.125000
G01 X14.077016 Y182.069720 Z-0.125000
G00 Z3.000000

(End cutting path id: polyline127002)


(Start cutting path id: polyline126634)
(Change tool to Default tool)

G00 Z3.000000
G00 X185.268827 Y219.479886

G00 Z4.875000 (Fast pre-penetrate)
G01 Z-0.125000 F400.0(Penetrate)
G01 X178.884981 Y218.551170 Z-0.125000 F800.000000
G01 X145.102709 Y215.300496 Z-0.125000
G01 X113.487542 Y210.192295 Z-0.125000
G01 X92.862716 Y200.904712 Z-0.125000
G01 X62.331066 Y211.585441 Z-0.125000
G01 X36.443283 Y224.123706 Z-0.125000
G01 X4.054145 Y212.978586 Z-0.125000
G00 Z3.000000

(End cutting path id: polyline126634)


(Start cutting path id: polyline126636)
(Change tool to Default tool)

G00 Z3.000000
G00 X185.733199 Y220.205463

G00 Z4.875000 (Fast pre-penetrate)
G01 Z-0.125000 F400.0(Penetrate)
G01 X145.086115 Y215.943132 Z-0.125000 F800.000000
G01 X113.835793 Y211.443047 Z-0.125000
G01 X92.796359 Y202.487120 Z-0.125000
G01 X62.513544 Y212.709047 Z-0.125000
G01 X36.708657 Y224.451206 Z-0.125000
G01 X4.286350 Y213.936306 Z-0.125000
G00 Z3.000000

(End cutting path id: polyline126636)


(Start cutting path id: polyline126642)
(Change tool to Default tool)

G00 Z3.000000
G00 X185.849320 Y218.289975

G00 Z4.875000 (Fast pre-penetrate)
G01 Z-0.125000 F400.0(Penetrate)
G01 X178.553268 Y216.764168 Z-0.125000 F800.000000
G01 X144.970050 Y214.309600 Z-0.125000
G01 X113.692059 Y209.516532 Z-0.125000
G01 X92.431514 Y200.505327 Z-0.125000
G01 X62.662778 Y210.942855 Z-0.125000
G01 X36.211097 Y222.253810 Z-0.125000
G01 X4.402471 Y211.904747 Z-0.125000
G00 Z3.000000

(End cutting path id: polyline126642)


(Start cutting path id: polyline126644)
(Change tool to Default tool)

G00 Z3.000000
G00 X186.197589 Y220.930992

G00 Z4.875000 (Fast pre-penetrate)
G01 Z-0.125000 F400.0(Penetrate)
G01 X178.818642 Y220.532965 Z-0.125000 F800.000000
G01 X145.069539 Y216.585718 Z-0.125000
G01 X114.184100 Y212.693798 Z-0.125000
G01 X92.730001 Y204.069604 Z-0.125000
G01 X62.695967 Y213.832602 Z-0.125000
G01 X36.974013 Y224.778707 Z-0.125000
G01 X4.518536 Y214.894076 Z-0.125000
G00 Z3.000000

(End cutting path id: polyline126644)


(Start cutting path id: polyline126646)
(Change tool to Default tool)

G00 Z3.000000
G00 X186.429775 Y217.100064

G00 Z4.875000 (Fast pre-penetrate)
G01 Z-0.125000 F400.0(Penetrate)
G01 X178.221593 Y214.977168 Z-0.125000 F800.000000
G01 X144.837335 Y213.318703 Z-0.125000
G01 X113.896632 Y208.840719 Z-0.125000
G01 X92.000255 Y200.105961 Z-0.125000
G01 X62.994454 Y210.300221 Z-0.125000
G01 X35.978893 Y220.383866 Z-0.125000
G01 X4.750722 Y210.830907 Z-0.125000
G00 Z3.000000

(End cutting path id: polyline126646)


(Start cutting path id: polyline126648)
(Change tool to Default tool)

G00 Z3.000000
G00 X186.661980 Y221.656520

G00 Z4.875000 (Fast pre-penetrate)
G01 Z-0.125000 F400.0(Penetrate)
G01 X178.785454 Y221.523862 Z-0.125000 F800.000000
G01 X145.052945 Y217.228353 Z-0.125000
G01 X114.532370 Y213.944501 Z-0.125000
G01 X92.663700 Y205.652029 Z-0.125000
G01 X62.878389 Y214.956208 Z-0.125000
G01 X37.239331 Y225.106207 Z-0.125000
G01 X4.750722 Y215.851795 Z-0.125000
G00 Z3.000000

(End cutting path id: polyline126648)


(Start cutting path id: polyline126650)
(Change tool to Default tool)

G00 Z3.000000
G00 X187.010231 Y215.910153

G00 Z4.875000 (Fast pre-penetrate)
G01 Z-0.125000 F400.0(Penetrate)
G01 X177.889861 Y213.190167 Z-0.125000 F800.000000
G01 X144.704638 Y212.327756 Z-0.125000
G01 X114.101167 Y208.164957 Z-0.125000
G01 X91.569053 Y199.706596 Z-0.125000
G01 X63.326186 Y209.657584 Z-0.125000
G01 X35.746707 Y218.513971 Z-0.125000
G01 X5.098991 Y209.757066 Z-0.125000
G00 Z3.000000

(End cutting path id: polyline126650)


(Start cutting path id: polyline126652)
(Change tool to Default tool)

G00 Z3.000000
G00 X187.126295 Y222.382048

G00 Z4.875000 (Fast pre-penetrate)
G01 Z-0.125000 F400.0(Penetrate)
G01 X178.752285 Y222.514764 Z-0.125000 F800.000000
G01 X145.036351 Y217.870944 Z-0.125000
G01 X114.880677 Y215.195259 Z-0.125000
G01 X92.597342 Y207.234460 Z-0.125000
G01 X63.060811 Y216.079771 Z-0.125000
G01 X37.504705 Y225.433764 Z-0.125000
G01 X4.982926 Y216.809521 Z-0.125000
G00 Z3.000000

(End cutting path id: polyline126652)


(Start cutting path id: polyline126654)
(Change tool to Default tool)

G00 Z3.000000
G00 X187.590742 Y214.720193

G00 Z4.875000 (Fast pre-penetrate)
G01 Z-0.125000 F400.0(Penetrate)
G01 X177.558204 Y211.403213 Z-0.125000 F800.000000
G01 X144.571979 Y211.336856 Z-0.125000
G01 X114.305740 Y207.489141 Z-0.125000
G01 X91.137850 Y199.307230 Z-0.125000
G01 X63.657899 Y209.014946 Z-0.125000
G01 X35.514521 Y216.644071 Z-0.125000
G01 X5.447298 Y208.683272 Z-0.125000
G00 Z3.000000

(End cutting path id: polyline126654)


(Start cutting path id: polyline126656)
(Change tool to Default tool)

G00 Z3.000000
G00 X187.590686 Y223.107627

G00 Z4.875000 (Fast pre-penetrate)
G01 Z-0.125000 F400.0(Penetrate)
G01 X178.719097 Y223.505654 Z-0.125000 F800.000000
G01 X145.019776 Y218.513573 Z-0.125000
G01 X115.228946 Y216.446005 Z-0.125000
G01 X92.530985 Y208.816879 Z-0.125000
G01 X63.243290 Y217.203369 Z-0.125000
G01 X37.770079 Y225.761259 Z-0.125000
G01 X5.215112 Y217.767234 Z-0.125000
G00 Z3.000000

(End cutting path id: polyline126656)


(Start cutting path id: polyline126658)
(Change tool to Default tool)

G00 Z3.000000
G00 X188.055058 Y223.833157

G00 Z4.875000 (Fast pre-penetrate)
G01 Z-0.125000 F400.0(Penetrate)
G01 X178.685927 Y224.496602 Z-0.125000 F800.000000
G01 X145.003182 Y219.156209 Z-0.125000
G01 X115.577253 Y217.696708 Z-0.125000
G01 X92.464646 Y210.399355 Z-0.125000
G01 X63.425713 Y218.326927 Z-0.125000
G01 X38.035434 Y226.088762 Z-0.125000
G01 X5.447298 Y218.725003 Z-0.125000
G00 Z3.000000

(End cutting path id: polyline126658)


(Start cutting path id: polyline126660)
(Change tool to Default tool)

G00 Z3.000000
G00 X188.171179 Y213.530282

G00 Z4.875000 (Fast pre-penetrate)
G01 Z-0.125000 F400.0(Penetrate)
G01 X177.226473 Y209.616213 Z-0.125000 F800.000000
G01 X144.439320 Y210.345963 Z-0.125000
G01 X114.510276 Y206.813332 Z-0.125000
G01 X90.706648 Y198.907808 Z-0.125000
G01 X63.989574 Y208.372364 Z-0.125000
G01 X35.282335 Y214.774131 Z-0.125000
G01 X5.795605 Y207.609437 Z-0.125000
G00 Z3.000000

(End cutting path id: polyline126660)


(Start cutting path id: polyline126662)
(Change tool to Default tool)

G00 Z3.000000
G00 X188.751691 Y212.340372

G00 Z4.875000 (Fast pre-penetrate)
G01 Z-0.125000 F400.0(Penetrate)
G01 X176.894760 Y207.829260 Z-0.125000 F800.000000
G01 X144.306605 Y209.355067 Z-0.125000
G01 X114.714848 Y206.137569 Z-0.125000
G01 X90.275445 Y198.508498 Z-0.125000
G01 X64.321306 Y207.729730 Z-0.125000
G01 X35.050130 Y212.904236 Z-0.125000
G01 X6.143875 Y206.535597 Z-0.125000
G00 Z3.000000

(End cutting path id: polyline126662)


(Start cutting path id: polyline126664)
(Change tool to Default tool)

G00 Z3.000000
G00 X189.332146 Y211.150413

G00 Z4.875000 (Fast pre-penetrate)
G01 Z-0.125000 F400.0(Penetrate)
G01 X176.563084 Y206.042258 Z-0.125000 F800.000000
G01 X144.173946 Y208.364168 Z-0.125000
G01 X114.919365 Y205.461807 Z-0.125000
G01 X89.844224 Y198.109076 Z-0.125000
G01 X64.652981 Y207.087093 Z-0.125000
G01 X34.817944 Y211.034340 Z-0.125000
G01 X6.492182 Y205.461756 Z-0.125000
G00 Z3.000000

(End cutting path id: polyline126664)


(Start cutting path id: polyline126666)
(Change tool to Default tool)

G00 Z3.000000
G00 X188.519449 Y224.558685

G00 Z4.875000 (Fast pre-penetrate)
G01 Z-0.125000 F400.0(Penetrate)
G01 X178.652795 Y225.487449 Z-0.125000 F800.000000
G01 X144.986588 Y219.798795 Z-0.125000
G01 X115.925523 Y218.947459 Z-0.125000
G01 X92.398326 Y211.981780 Z-0.125000
G01 X63.608135 Y219.450533 Z-0.125000
G01 X38.300808 Y226.416262 Z-0.125000
G01 X5.679484 Y219.682722 Z-0.125000
G00 Z3.000000

(End cutting path id: polyline126666)


(Start cutting path id: polyline126668)
(Change tool to Default tool)

G00 Z3.000000
G00 X188.983839 Y225.284264

G00 Z4.875000 (Fast pre-penetrate)
G01 Z-0.125000 F400.0(Penetrate)
G01 X178.619626 Y226.478346 Z-0.125000 F800.000000
G01 X144.969994 Y220.441429 Z-0.125000
G01 X116.273830 Y220.198211 Z-0.125000
G01 X92.331987 Y213.564204 Z-0.125000
G01 X38.566182 Y226.743763 Z-0.125000
G01 X5.911689 Y220.640442 Z-0.125000
G00 Z3.000000

(End cutting path id: polyline126668)


(Start cutting path id: polyline126670)
(Change tool to Default tool)

G00 Z3.000000
G00 X189.448211 Y226.009791

G00 Z4.875000 (Fast pre-penetrate)
G01 Z-0.125000 F400.0(Penetrate)
G01 X178.586438 Y227.469293 Z-0.125000 F800.000000
G01 X144.953418 Y221.084064 Z-0.125000
G01 X116.622081 Y221.448965 Z-0.125000
G01 X92.265629 Y215.146680 Z-0.125000
G01 X63.972999 Y221.697694 Z-0.125000
G01 X38.831556 Y227.071264 Z-0.125000
G01 X6.143875 Y221.598212 Z-0.125000
G00 Z3.000000

(End cutting path id: polyline126670)


(Start cutting path id: polyline126672)
(Change tool to Default tool)

G00 Z3.000000
G00 X189.912602 Y226.735319

G00 Z4.875000 (Fast pre-penetrate)
G01 Z-0.125000 F400.0(Penetrate)
G01 X178.553268 Y228.460189 Z-0.125000 F800.000000
G01 X144.936824 Y221.726700 Z-0.125000
G01 X116.970406 Y222.699666 Z-0.125000
G01 X92.199272 Y216.729105 Z-0.125000
G01 X64.155421 Y222.821300 Z-0.125000
G01 X39.096874 Y227.398766 Z-0.125000
G01 X6.376061 Y222.555932 Z-0.125000
G00 Z3.000000

(End cutting path id: polyline126672)


(Start cutting path id: polyline126674)
(Change tool to Default tool)

G00 Z3.000000
G00 X189.912639 Y209.960501

G00 Z4.875000 (Fast pre-penetrate)
G01 Z-0.125000 F400.0(Penetrate)
G01 X176.231353 Y204.255258 Z-0.125000 F800.000000
G01 X144.041287 Y207.373272 Z-0.125000
G01 X115.123900 Y204.785994 Z-0.125000
G01 X89.413022 Y197.709710 Z-0.125000
G01 X64.984694 Y206.444459 Z-0.125000
G01 X34.585758 Y209.164396 Z-0.125000
G01 X6.840451 Y204.387917 Z-0.125000
G00 Z3.000000

(End cutting path id: polyline126674)


(Start cutting path id: polyline126676)
(Change tool to Default tool)

G00 Z3.000000
G00 X190.493095 Y208.770590

G00 Z4.875000 (Fast pre-penetrate)
G01 Z-0.125000 F400.0(Penetrate)
G01 X175.899677 Y202.468311 Z-0.125000 F800.000000
G01 X143.908572 Y206.382327 Z-0.125000
G01 X115.328473 Y204.110182 Z-0.125000
G01 X88.981819 Y197.310345 Z-0.125000
G01 X65.316369 Y205.801873 Z-0.125000
G01 X34.353573 Y207.294501 Z-0.125000
G01 X7.188758 Y203.314127 Z-0.125000
G00 Z3.000000

(End cutting path id: polyline126676)


(Start cutting path id: polyline126678)
(Change tool to Default tool)

G00 Z3.000000
G00 X191.073606 Y207.580631

G00 Z4.875000 (Fast pre-penetrate)
G01 Z-0.125000 F400.0(Penetrate)
G01 X175.567964 Y200.681311 Z-0.125000 F800.000000
G01 X143.775913 Y205.391428 Z-0.125000
G01 X115.533009 Y203.434420 Z-0.125000
G01 X88.550617 Y196.910960 Z-0.125000
G01 X65.648101 Y205.159239 Z-0.125000
G01 X34.121368 Y205.424607 Z-0.125000
G01 X7.537009 Y202.240292 Z-0.125000
G00 Z3.000000

(End cutting path id: polyline126678)


(Start cutting path id: polyline126680)
(Change tool to Default tool)

G00 Z3.000000
G00 X191.654062 Y206.390719

G00 Z4.875000 (Fast pre-penetrate)
G01 Z-0.125000 F400.0(Penetrate)
G01 X175.236289 Y198.894349 Z-0.125000 F800.000000
G01 X143.643217 Y204.400532 Z-0.125000
G01 X115.737582 Y202.758614 Z-0.125000
G01 X88.119358 Y196.511594 Z-0.125000
G01 X65.979814 Y204.516602 Z-0.125000
G01 X33.889182 Y203.554661 Z-0.125000
G01 X7.885335 Y201.166444 Z-0.125000
G00 Z3.000000

(End cutting path id: polyline126680)


(Start cutting path id: polyline126682)
(Change tool to Default tool)

G00 Z3.000000
G00 X190.376973 Y227.460898

G00 Z4.875000 (Fast pre-penetrate)
G01 Z-0.125000 F400.0(Penetrate)
G01 X178.520080 Y229.451086 Z-0.125000 F800.000000
G01 X144.920230 Y222.369286 Z-0.125000
G01 X117.318657 Y223.950419 Z-0.125000
G01 X92.132970 Y218.311530 Z-0.125000
G01 X64.337900 Y223.944855 Z-0.125000
G01 X39.362230 Y227.726267 Z-0.125000
G01 X6.608209 Y223.513651 Z-0.125000
G00 Z3.000000

(End cutting path id: polyline126682)


(Start cutting path id: polyline126684)
(Change tool to Default tool)

G00 Z3.000000
G00 X190.841364 Y228.186426

G00 Z4.875000 (Fast pre-penetrate)
G01 Z-0.125000 F400.0(Penetrate)
G01 X178.486911 Y230.441982 Z-0.125000 F800.000000
G01 X144.903655 Y223.011920 Z-0.125000
G01 X117.666964 Y225.201171 Z-0.125000
G01 X92.066613 Y219.893955 Z-0.125000
G01 X64.520322 Y225.068461 Z-0.125000
G01 X39.627604 Y228.053767 Z-0.125000
G01 X6.840395 Y224.471421 Z-0.125000
G00 Z3.000000

(End cutting path id: polyline126684)


(Start cutting path id: polyline126686)
(Change tool to Default tool)

G00 Z3.000000
G00 X191.305736 Y228.912005

G00 Z4.875000 (Fast pre-penetrate)
G01 Z-0.125000 F400.0(Penetrate)
G01 X178.453779 Y231.432879 Z-0.125000 F800.000000
G01 X144.887061 Y223.654554 Z-0.125000
G01 X118.015234 Y226.451874 Z-0.125000
G01 X92.000255 Y221.476429 Z-0.125000
G01 X64.702745 Y226.192019 Z-0.125000
G01 X39.892978 Y228.381318 Z-0.125000
G01 X7.072581 Y225.429141 Z-0.125000
G00 Z3.000000

(End cutting path id: polyline126686)


(Start cutting path id: polyline126688)
(Change tool to Default tool)

G00 Z3.000000
G00 X191.770126 Y229.637535

G00 Z4.875000 (Fast pre-penetrate)
G01 Z-0.125000 F400.0(Penetrate)
G01 X178.420609 Y232.423777 Z-0.125000 F800.000000
G01 X144.870523 Y224.297140 Z-0.125000
G01 X118.363503 Y227.702626 Z-0.125000
G01 X91.933954 Y223.058855 Z-0.125000
G01 X64.885167 Y227.315623 Z-0.125000
G01 X40.158333 Y228.708770 Z-0.125000
G01 X7.304786 Y226.386909 Z-0.125000
G00 Z3.000000

(End cutting path id: polyline126688)


(Start cutting path id: polyline126690)
(Change tool to Default tool)

G00 Z3.000000
G00 X192.234498 Y230.363063

G00 Z4.875000 (Fast pre-penetrate)
G01 Z-0.125000 F400.0(Penetrate)
G01 X178.387421 Y233.414673 Z-0.125000 F800.000000
G01 X144.853891 Y224.939776 Z-0.125000
G01 X118.711810 Y228.953329 Z-0.125000
G01 X91.867596 Y224.641280 Z-0.125000
G01 X65.067589 Y228.439229 Z-0.125000
G01 X40.423707 Y229.036271 Z-0.125000
G01 X7.536972 Y227.344629 Z-0.125000
G00 Z3.000000

(End cutting path id: polyline126690)


(Start cutting path id: polyline126692)
(Change tool to Default tool)

G00 Z3.000000
G00 X192.698889 Y231.088591

G00 Z4.875000 (Fast pre-penetrate)
G01 Z-0.125000 F400.0(Penetrate)
G01 X178.354252 Y234.405570 Z-0.125000 F800.000000
G01 X144.837335 Y225.582411 Z-0.125000
G01 X119.060061 Y230.204080 Z-0.125000
G01 X91.801239 Y226.223705 Z-0.125000
G01 X65.250068 Y229.562786 Z-0.125000
G01 X40.689025 Y229.363822 Z-0.125000
G01 X7.769158 Y228.302348 Z-0.125000
G00 Z3.000000

(End cutting path id: polyline126692)


(Start cutting path id: polyline126694)
(Change tool to Default tool)

G00 Z3.000000
G00 X193.163261 Y231.814169

G00 Z4.875000 (Fast pre-penetrate)
G01 Z-0.125000 F400.0(Penetrate)
G01 X178.321082 Y235.396517 Z-0.125000 F800.000000
G01 X144.820759 Y226.224997 Z-0.125000
G01 X119.408387 Y231.454832 Z-0.125000
G01 X91.734937 Y227.806179 Z-0.125000
G01 X65.432491 Y230.686392 Z-0.125000
G01 X40.954399 Y229.691323 Z-0.125000
G01 X8.001343 Y229.260068 Z-0.125000
G00 Z3.000000

(End cutting path id: polyline126694)


(Start cutting path id: polyline126696)
(Change tool to Default tool)

G00 Z3.000000
G00 X193.627651 Y232.539697

G00 Z4.875000 (Fast pre-penetrate)
G01 Z-0.125000 F400.0(Penetrate)
G01 X178.287894 Y236.387413 Z-0.125000 F800.000000
G01 X144.804165 Y226.867631 Z-0.125000
G01 X119.756694 Y232.705584 Z-0.125000
G01 X91.668580 Y229.388604 Z-0.125000
G01 X65.614913 Y231.809947 Z-0.125000
G01 X41.219755 Y230.018823 Z-0.125000
G01 X8.233548 Y230.217787 Z-0.125000
G00 Z3.000000

(End cutting path id: polyline126696)


(Start cutting path id: polyline126698)
(Change tool to Default tool)

G00 Z3.000000
G00 X192.234555 Y205.200808

G00 Z4.875000 (Fast pre-penetrate)
G01 Z-0.125000 F400.0(Penetrate)
G01 X174.904557 Y197.107349 Z-0.125000 F800.000000
G01 X143.510558 Y203.409635 Z-0.125000
G01 X115.942098 Y202.082836 Z-0.125000
G01 X87.688156 Y196.112228 Z-0.125000
G01 X66.311489 Y203.873968 Z-0.125000
G01 X8.233586 Y200.092615 Z-0.125000
G00 Z3.000000

(End cutting path id: polyline126698)


(Start cutting path id: polyline126700)
(Change tool to Default tool)

G00 Z3.000000
G00 X192.815010 Y204.010848

G00 Z4.875000 (Fast pre-penetrate)
G01 Z-0.125000 F400.0(Penetrate)
G01 X174.572882 Y195.320349 Z-0.125000 F800.000000
G01 X143.377843 Y202.418735 Z-0.125000
G01 X116.146690 Y201.407040 Z-0.125000
G01 X87.256953 Y195.712863 Z-0.125000
G01 X66.643221 Y203.231382 Z-0.125000
G01 X33.424791 Y199.814870 Z-0.125000
G01 X8.581855 Y199.018767 Z-0.125000
G00 Z3.000000

(End cutting path id: polyline126700)


(Start cutting path id: polyline126702)
(Change tool to Default tool)

G00 Z3.000000
G00 X193.395503 Y202.820937

G00 Z4.875000 (Fast pre-penetrate)
G01 Z-0.125000 F400.0(Penetrate)
G01 X174.241169 Y193.533349 Z-0.125000 F800.000000
G01 X143.245184 Y201.427839 Z-0.125000
G01 X116.351206 Y200.731262 Z-0.125000
G01 X86.825751 Y195.313497 Z-0.125000
G01 X66.974878 Y202.588750 Z-0.125000
G01 X33.192605 Y197.944975 Z-0.125000
G01 X8.930162 Y197.944975 Z-0.125000
G00 Z3.000000

(End cutting path id: polyline126702)


(Start cutting path id: polyline126704)
(Change tool to Default tool)

G00 Z3.000000
G00 X193.975958 Y201.631023

G00 Z4.875000 (Fast pre-penetrate)
G01 Z-0.125000 F400.0(Penetrate)
G01 X173.909493 Y191.746405 Z-0.125000 F800.000000
G01 X143.112525 Y200.436886 Z-0.125000
G01 X116.555742 Y200.055447 Z-0.125000
G01 X86.394549 Y194.914131 Z-0.125000
G01 X67.306610 Y201.946160 Z-0.125000
G01 X32.960419 Y196.075023 Z-0.125000
G01 X9.278432 Y196.871146 Z-0.125000
G00 Z3.000000

(End cutting path id: polyline126704)


(Start cutting path id: polyline126626)
(Change tool to Default tool)

G00 Z3.000000
G00 X187.435933 Y148.509891

G00 Z4.875000 (Fast pre-penetrate)
G01 Z-0.125000 F400.0(Penetrate)
G01 X173.776778 Y169.716618 Z-0.125000 F800.000000
G01 X143.399993 Y165.227597 Z-0.125000
G01 X129.431238 Y157.797535 Z-0.125000
G01 X90.231182 Y158.571488 Z-0.125000
G01 X68.987231 Y167.704265 Z-0.125000
G01 X42.170630 Y155.940010 Z-0.125000
G01 X21.390994 Y159.345441 Z-0.125000
G00 Z3.000000

(End cutting path id: polyline126626)


(Start cutting path id: polyline126706)
(Change tool to Default tool)

G00 Z3.000000
G00 X187.938993 Y149.854614

G00 Z4.875000 (Fast pre-penetrate)
G01 Z-0.125000 F400.0(Penetrate)
G01 X173.627544 Y169.673706 Z-0.125000 F800.000000
G01 X143.328079 Y166.024995 Z-0.125000
G01 X129.066394 Y158.992966 Z-0.125000
G01 X89.894007 Y159.684024 Z-0.125000
G01 X69.081201 Y168.628860 Z-0.125000
G01 X41.733909 Y156.505222 Z-0.125000
G01 X21.120120 Y160.187103 Z-0.125000
G00 Z3.000000

(End cutting path id: polyline126706)


(Start cutting path id: polyline126628)
(Change tool to Default tool)

G00 Z3.000000
G00 X188.016426 Y148.326136

G00 Z4.875000 (Fast pre-penetrate)
G01 Z-0.125000 F400.0(Penetrate)
G01 X173.362170 Y168.510055 Z-0.125000 F800.000000
G01 X143.510558 Y163.938157 Z-0.125000
G01 X128.629616 Y156.590990 Z-0.125000
G01 X90.397067 Y157.779608 Z-0.125000
G01 X68.517284 Y166.442495 Z-0.125000
G01 X41.921850 Y154.954632 Z-0.125000
G01 X21.003999 Y158.581174 Z-0.125000
G00 Z3.000000

(End cutting path id: polyline126628)


(Start cutting path id: polyline126708)
(Change tool to Default tool)

G00 Z3.000000
G00 X188.442072 Y151.199336

G00 Z4.875000 (Fast pre-penetrate)
G01 Z-0.125000 F400.0(Penetrate)
G01 X173.478235 Y169.630794 Z-0.125000 F800.000000
G01 X143.256259 Y166.822394 Z-0.125000
G01 X128.701493 Y160.188436 Z-0.125000
G01 X89.556756 Y160.796560 Z-0.125000
G01 X69.175153 Y169.553399 Z-0.125000
G01 X41.297150 Y157.070417 Z-0.125000
G01 X20.849227 Y161.028690 Z-0.125000
G00 Z3.000000

(End cutting path id: polyline126708)


(Start cutting path id: polyline126710)
(Change tool to Default tool)

G00 Z3.000000
G00 X188.596881 Y148.142362

G00 Z4.875000 (Fast pre-penetrate)
G01 Z-0.125000 F400.0(Penetrate)
G01 X172.947562 Y167.303567 Z-0.125000 F800.000000
G01 X143.621104 Y162.648717 Z-0.125000
G01 X127.828050 Y155.384483 Z-0.125000
G01 X90.562914 Y156.987671 Z-0.125000
G01 X68.047393 Y165.180668 Z-0.125000
G01 X41.673070 Y153.969236 Z-0.125000
G01 X20.617041 Y157.816963 Z-0.125000
G00 Z3.000000

(End cutting path id: polyline126710)


(Start cutting path id: polyline126712)
(Change tool to Default tool)

G00 Z3.000000
G00 X188.945188 Y152.544058

G00 Z4.875000 (Fast pre-penetrate)
G01 Z-0.125000 F400.0(Penetrate)
G01 X173.329001 Y169.587920 Z-0.125000 F800.000000
G01 X143.184383 Y167.619831 Z-0.125000
G01 X128.336629 Y161.383867 Z-0.125000
G01 X89.219524 Y161.909078 Z-0.125000
G01 X69.269124 Y170.477994 Z-0.125000
G01 X40.860429 Y157.635667 Z-0.125000
G01 X20.578353 Y161.870333 Z-0.125000
G00 Z3.000000

(End cutting path id: polyline126712)


(Start cutting path id: polyline126714)
(Change tool to Default tool)

G00 Z3.000000
G00 X189.448267 Y153.888781

G00 Z4.875000 (Fast pre-penetrate)
G01 Z-0.125000 F400.0(Penetrate)
G01 X173.179748 Y169.545008 Z-0.125000 F800.000000
G01 X143.112525 Y168.417229 Z-0.125000
G01 X127.971784 Y162.579337 Z-0.125000
G01 X88.882292 Y163.021558 Z-0.125000
G01 X69.363151 Y171.402533 Z-0.125000
G01 X40.423707 Y158.200880 Z-0.125000
G01 X20.307479 Y162.711996 Z-0.125000
G00 Z3.000000

(End cutting path id: polyline126714)


(Start cutting path id: polyline126716)
(Change tool to Default tool)

G00 Z3.000000
G00 X189.177374 Y147.958607

G00 Z4.875000 (Fast pre-penetrate)
G01 Z-0.125000 F400.0(Penetrate)
G01 X172.532878 Y166.097060 Z-0.125000 F800.000000
G01 X143.731669 Y161.359277 Z-0.125000
G01 X127.026428 Y154.177995 Z-0.125000
G01 X90.728742 Y156.195848 Z-0.125000
G01 X67.577484 Y163.918897 Z-0.125000
G01 X41.424290 Y152.983858 Z-0.125000
G01 X20.230046 Y157.052734 Z-0.125000
G00 Z3.000000

(End cutting path id: polyline126716)


(Start cutting path id: polyline126718)
(Change tool to Default tool)

G00 Z3.000000
G00 X189.951327 Y155.233503

G00 Z4.875000 (Fast pre-penetrate)
G01 Z-0.125000 F400.0(Penetrate)
G01 X173.030438 Y169.502096 Z-0.125000 F800.000000
G01 X143.040611 Y169.214628 Z-0.125000
G01 X127.606883 Y163.774750 Z-0.125000
G01 X88.545061 Y164.134151 Z-0.125000
G01 X69.457122 Y172.327091 Z-0.125000
G01 X39.986948 Y158.766093 Z-0.125000
G01 X20.036548 Y163.553639 Z-0.125000
G00 Z3.000000

(End cutting path id: polyline126718)


(Start cutting path id: polyline126720)
(Change tool to Default tool)

G00 Z3.000000
G00 X189.757830 Y147.774833

G00 Z4.875000 (Fast pre-penetrate)
G01 Z-0.125000 F400.0(Penetrate)
G01 X172.118326 Y164.890571 Z-0.125000 F800.000000
G01 X143.842233 Y160.069837 Z-0.125000
G01 X126.224805 Y152.971488 Z-0.125000
G01 X90.894627 Y155.403968 Z-0.125000
G01 X67.107593 Y162.657108 Z-0.125000
G01 X41.175510 Y151.998480 Z-0.125000
G01 X19.843051 Y156.288467 Z-0.125000
G00 Z3.000000

(End cutting path id: polyline126720)


(Start cutting path id: polyline126722)
(Change tool to Default tool)

G00 Z3.000000
G00 X190.454406 Y156.578225

G00 Z4.875000 (Fast pre-penetrate)
G01 Z-0.125000 F400.0(Penetrate)
G01 X172.881204 Y169.459241 Z-0.125000 F800.000000
G01 X142.968791 Y170.012083 Z-0.125000
G01 X127.242038 Y164.970238 Z-0.125000
G01 X88.207829 Y165.246631 Z-0.125000
G01 X69.551092 Y173.251667 Z-0.125000
G01 X39.550227 Y159.331343 Z-0.125000
G01 X19.765655 Y164.395283 Z-0.125000
G00 Z3.000000

(End cutting path id: polyline126722)


(Start cutting path id: polyline126724)
(Change tool to Default tool)

G00 Z3.000000
G00 X190.957485 Y157.922948

G00 Z4.875000 (Fast pre-penetrate)
G01 Z-0.125000 F400.0(Penetrate)
G01 X172.731895 Y169.416329 Z-0.125000 F800.000000
G01 X142.896914 Y170.809463 Z-0.125000
G01 X126.877175 Y166.165651 Z-0.125000
G01 X87.870578 Y166.359205 Z-0.125000
G01 X69.645063 Y174.176225 Z-0.125000
G01 X39.113450 Y159.896537 Z-0.125000
G01 X19.494781 Y165.236945 Z-0.125000
G00 Z3.000000

(End cutting path id: polyline126724)


(Start cutting path id: polyline126726)
(Change tool to Default tool)

G00 Z3.000000
G00 X190.338341 Y147.591059

G00 Z4.875000 (Fast pre-penetrate)
G01 Z-0.125000 F400.0(Penetrate)
G01 X171.703662 Y163.684064 Z-0.125000 F800.000000
G01 X143.952779 Y158.780434 Z-0.125000
G01 X125.423202 Y151.764943 Z-0.125000
G01 X91.060474 Y154.612032 Z-0.125000
G01 X66.637646 Y161.395337 Z-0.125000
G01 X40.926730 Y151.013084 Z-0.125000
G01 X19.456093 Y155.524256 Z-0.125000
G00 Z3.000000

(End cutting path id: polyline126726)


(Start cutting path id: polyline126728)
(Change tool to Default tool)

G00 Z3.000000
G00 X190.918797 Y147.407304

G00 Z4.875000 (Fast pre-penetrate)
G01 Z-0.125000 F400.0(Penetrate)
G01 X171.289034 Y162.477557 Z-0.125000 F800.000000
G01 X144.063382 Y157.490994 Z-0.125000
G01 X124.621579 Y150.558436 Z-0.125000
G01 X91.226302 Y153.820189 Z-0.125000
G01 X66.167755 Y160.133510 Z-0.125000
G01 X40.678006 Y150.027706 Z-0.125000
G01 X19.069098 Y154.759989 Z-0.125000
G00 Z3.000000

(End cutting path id: polyline126728)


(Start cutting path id: polyline126730)
(Change tool to Default tool)

G00 Z3.000000
G00 X191.460602 Y159.267670

G00 Z4.875000 (Fast pre-penetrate)
G01 Z-0.125000 F400.0(Penetrate)
G01 X172.582660 Y169.373473 Z-0.125000 F800.000000
G01 X142.825057 Y171.606918 Z-0.125000
G01 X126.512292 Y167.361120 Z-0.125000
G01 X87.533403 Y167.471685 Z-0.125000
G01 X69.739033 Y175.100801 Z-0.125000
G01 X38.676728 Y160.461806 Z-0.125000
G01 X19.223907 Y166.078588 Z-0.125000
G00 Z3.000000

(End cutting path id: polyline126730)


(Start cutting path id: polyline126732)
(Change tool to Default tool)

G00 Z3.000000
G00 X191.963680 Y160.612392

G00 Z4.875000 (Fast pre-penetrate)
G01 Z-0.125000 F400.0(Penetrate)
G01 X172.433407 Y169.330562 Z-0.125000 F800.000000
G01 X142.753143 Y172.404317 Z-0.125000
G01 X126.147429 Y168.556590 Z-0.125000
G01 X87.196171 Y168.584184 Z-0.125000
G01 X69.833042 Y176.025321 Z-0.125000
G01 X38.240026 Y161.026963 Z-0.125000
G01 X18.953014 Y166.920157 Z-0.125000
G00 Z3.000000

(End cutting path id: polyline126732)


(Start cutting path id: polyline126734)
(Change tool to Default tool)

G00 Z3.000000
G00 X192.466741 Y161.957115

G00 Z4.875000 (Fast pre-penetrate)
G01 Z-0.125000 F400.0(Penetrate)
G01 X172.284154 Y169.287650 Z-0.125000 F800.000000
G01 X142.681323 Y173.201716 Z-0.125000
G01 X125.782528 Y169.752021 Z-0.125000
G01 X86.858920 Y169.696833 Z-0.125000
G01 X69.927012 Y176.950029 Z-0.125000
G01 X37.803248 Y161.592307 Z-0.125000
G01 X18.682140 Y167.761932 Z-0.125000
G00 Z3.000000

(End cutting path id: polyline126734)


(Start cutting path id: polyline126736)
(Change tool to Default tool)

G00 Z3.000000
G00 X191.499234 Y147.223530

G00 Z4.875000 (Fast pre-penetrate)
G01 Z-0.125000 F400.0(Penetrate)
G01 X170.874426 Y161.271013 Z-0.125000 F800.000000
G01 X144.173946 Y156.201554 Z-0.125000
G01 X123.820013 Y149.351948 Z-0.125000
G01 X91.392149 Y153.028253 Z-0.125000
G01 X65.697865 Y158.871721 Z-0.125000
G01 X40.429226 Y149.042329 Z-0.125000
G01 X18.682084 Y153.995722 Z-0.125000
G00 Z3.000000

(End cutting path id: polyline126736)


(Start cutting path id: polyline126738)
(Change tool to Default tool)

G00 Z3.000000
G00 X192.079745 Y147.039775

G00 Z4.875000 (Fast pre-penetrate)
G01 Z-0.125000 F400.0(Penetrate)
G01 X170.459799 Y160.064524 Z-0.125000 F800.000000
G01 X144.284511 Y154.912114 Z-0.125000
G01 X123.018391 Y148.145441 Z-0.125000
G01 X91.558034 Y152.236429 Z-0.125000
G01 X65.227955 Y157.609950 Z-0.125000
G01 X40.180446 Y148.056989 Z-0.125000
G01 X18.295126 Y153.231493 Z-0.125000
G00 Z3.000000

(End cutting path id: polyline126738)


(Start cutting path id: polyline126740)
(Change tool to Default tool)

G00 Z3.000000
G00 X192.660238 Y146.856001

G00 Z4.875000 (Fast pre-penetrate)
G01 Z-0.125000 F400.0(Penetrate)
G01 X170.045134 Y158.858017 Z-0.125000 F800.000000
G01 X144.395057 Y153.622674 Z-0.125000
G01 X122.216768 Y146.938896 Z-0.125000
G01 X91.723862 Y151.444493 Z-0.125000
G01 X64.758027 Y156.348179 Z-0.125000
G01 X39.931666 Y147.071611 Z-0.125000
G01 X17.908130 Y152.467226 Z-0.125000
G00 Z3.000000

(End cutting path id: polyline126740)


(Start cutting path id: polyline126742)
(Change tool to Default tool)

G00 Z3.000000
G00 X192.969819 Y163.301781

G00 Z4.875000 (Fast pre-penetrate)
G01 Z-0.125000 F400.0(Penetrate)
G01 X172.134864 Y169.244775 Z-0.125000 F800.000000
G01 X142.609446 Y173.999152 Z-0.125000
G01 X125.417683 Y170.947491 Z-0.125000
G01 X86.521689 Y170.809332 Z-0.125000
G01 X70.020983 Y177.874549 Z-0.125000
G01 X37.366527 Y162.157464 Z-0.125000
G01 X18.411247 Y168.603537 Z-0.125000
G00 Z3.000000

(End cutting path id: polyline126742)


(Start cutting path id: polyline126744)
(Change tool to Default tool)

G00 Z3.000000
G00 X193.472898 Y164.646559

G00 Z4.875000 (Fast pre-penetrate)
G01 Z-0.125000 F400.0(Penetrate)
G01 X171.985611 Y169.201863 Z-0.125000 F800.000000
G01 X142.537588 Y174.796551 Z-0.125000
G01 X125.052838 Y172.142923 Z-0.125000
G01 X86.184457 Y171.921812 Z-0.125000
G01 X70.114954 Y178.799069 Z-0.125000
G01 X36.929768 Y162.722677 Z-0.125000
G01 X18.140316 Y169.445125 Z-0.125000
G00 Z3.000000

(End cutting path id: polyline126744)


(Start cutting path id: polyline126746)
(Change tool to Default tool)

G00 Z3.000000
G00 X193.975958 Y165.991282

G00 Z4.875000 (Fast pre-penetrate)
G01 Z-0.125000 F400.0(Penetrate)
G01 X171.836358 Y169.158952 Z-0.125000 F800.000000
G01 X142.465674 Y175.593950 Z-0.125000
G01 X124.687937 Y173.338392 Z-0.125000
G01 X85.847225 Y173.034330 Z-0.125000
G01 X70.208962 Y179.723627 Z-0.125000
G01 X36.493047 Y163.287871 Z-0.125000
G01 X17.869442 Y170.286787 Z-0.125000
G00 Z3.000000

(End cutting path id: polyline126746)


(Start cutting path id: polyline126748)
(Change tool to Default tool)

G00 Z3.000000
G00 X194.479037 Y167.335948

G00 Z4.875000 (Fast pre-penetrate)
G01 Z-0.125000 F400.0(Penetrate)
G01 X171.687067 Y169.116096 Z-0.125000 F800.000000
G01 X142.393854 Y176.391349 Z-0.125000
G01 X124.323073 Y174.533824 Z-0.125000
G01 X85.510031 Y174.146866 Z-0.125000
G01 X70.302932 Y180.648203 Z-0.125000
G01 X36.056326 Y163.853121 Z-0.125000
G01 X17.598568 Y171.128374 Z-0.125000
G00 Z3.000000

(End cutting path id: polyline126748)


(Start cutting path id: polyline126750)
(Change tool to Default tool)

G00 Z3.000000
G00 X193.240694 Y146.672245

G00 Z4.875000 (Fast pre-penetrate)
G01 Z-0.125000 F400.0(Penetrate)
G01 X169.630526 Y157.651510 Z-0.125000 F800.000000
G01 X144.505622 Y152.333234 Z-0.125000
G01 X121.415165 Y145.732389 Z-0.125000
G01 X64.288117 Y155.086334 Z-0.125000
G01 X39.682886 Y146.086215 Z-0.125000
G01 X17.521173 Y151.703015 Z-0.125000
G00 Z3.000000

(End cutting path id: polyline126750)


(Start cutting path id: polyline126752)
(Change tool to Default tool)

G00 Z3.000000
G00 X193.821149 Y146.488471

G00 Z4.875000 (Fast pre-penetrate)
G01 Z-0.125000 F400.0(Penetrate)
G01 X169.215918 Y156.444966 Z-0.125000 F800.000000
G01 X144.616186 Y151.043794 Z-0.125000
G01 X120.613542 Y144.525901 Z-0.125000
G01 X92.055594 Y149.860733 Z-0.125000
G01 X63.818227 Y153.824563 Z-0.125000
G01 X39.434106 Y145.100837 Z-0.125000
G01 X17.134177 Y150.938786 Z-0.125000
G00 Z3.000000

(End cutting path id: polyline126752)


(Start cutting path id: polyline126754)
(Change tool to Default tool)

G00 Z3.000000
G00 X194.401661 Y146.304697

G00 Z4.875000 (Fast pre-penetrate)
G01 Z-0.125000 F400.0(Penetrate)
G01 X168.801291 Y155.238477 Z-0.125000 F800.000000
G01 X144.726789 Y149.754392 Z-0.125000
G01 X119.811976 Y143.319394 Z-0.125000
G01 X92.221422 Y149.068853 Z-0.125000
G01 X63.348336 Y152.562736 Z-0.125000
G01 X39.185326 Y144.115460 Z-0.125000
G01 X16.747182 Y150.174519 Z-0.125000
G00 Z3.000000

(End cutting path id: polyline126754)


(Start cutting path id: polyline126756)
(Change tool to Default tool)

G00 Z3.000000
G00 X194.982116 Y146.120942

G00 Z4.875000 (Fast pre-penetrate)
G01 Z-0.125000 F400.0(Penetrate)
G01 X168.386682 Y154.031970 Z-0.125000 F800.000000
G01 X144.837335 Y148.464952 Z-0.125000
G01 X119.010354 Y142.112905 Z-0.125000
G01 X92.387250 Y148.276954 Z-0.125000
G01 X62.878389 Y151.300965 Z-0.125000
G01 X38.936546 Y143.130063 Z-0.125000
G01 X16.360224 Y149.410309 Z-0.125000
G00 Z3.000000

(End cutting path id: polyline126756)


(Start cutting path id: polyline126758)
(Change tool to Default tool)

G00 Z3.000000
G00 X195.562609 Y145.937168

G00 Z4.875000 (Fast pre-penetrate)
G01 Z-0.125000 F400.0(Penetrate)
G01 X167.972055 Y152.825463 Z-0.125000 F800.000000
G01 X144.947899 Y147.175512 Z-0.125000
G01 X118.208731 Y140.906398 Z-0.125000
G01 X92.553097 Y147.485074 Z-0.125000
G01 X62.408498 Y150.039176 Z-0.125000
G01 X38.687766 Y142.144742 Z-0.125000
G01 X15.973229 Y148.646042 Z-0.125000
G00 Z3.000000

(End cutting path id: polyline126758)


(Start cutting path id: polyline126760)
(Change tool to Default tool)

G00 Z3.000000
G00 X194.982116 Y168.680670

G00 Z4.875000 (Fast pre-penetrate)
G01 Z-0.125000 F400.0(Penetrate)
G01 X171.537814 Y169.073184 Z-0.125000 F800.000000
G01 X142.321978 Y177.188785 Z-0.125000
G01 X123.958228 Y175.729293 Z-0.125000
G01 X85.172799 Y175.259402 Z-0.125000
G01 X70.396903 Y181.572761 Z-0.125000
G01 X35.619567 Y164.418334 Z-0.125000
G01 X17.327675 Y171.970036 Z-0.125000
G00 Z3.000000

(End cutting path id: polyline126760)


(Start cutting path id: polyline126762)
(Change tool to Default tool)

G00 Z3.000000
G00 X195.485176 Y170.025392

G00 Z4.875000 (Fast pre-penetrate)
G01 Z-0.125000 F400.0(Penetrate)
G01 X171.388524 Y169.030310 Z-0.125000 F800.000000
G01 X142.250120 Y177.986184 Z-0.125000
G01 X123.593327 Y176.924762 Z-0.125000
G01 X84.835567 Y176.371920 Z-0.125000
G01 X70.490874 Y182.497300 Z-0.125000
G01 X35.182846 Y164.983547 Z-0.125000
G01 X17.056801 Y172.811680 Z-0.125000
G00 Z3.000000

(End cutting path id: polyline126762)


(Start cutting path id: polyline126764)
(Change tool to Default tool)

G00 Z3.000000
G00 X195.988293 Y171.370115

G00 Z4.875000 (Fast pre-penetrate)
G01 Z-0.125000 F400.0(Penetrate)
G01 X171.239271 Y168.987398 Z-0.125000 F800.000000
G01 X142.178206 Y178.783639 Z-0.125000
G01 X123.228482 Y178.120232 Z-0.125000
G01 X84.498335 Y177.484456 Z-0.125000
G01 X70.584901 Y183.421895 Z-0.125000
G01 X34.746087 Y165.548797 Z-0.125000
G01 X16.785927 Y173.653323 Z-0.125000
G00 Z3.000000

(End cutting path id: polyline126764)


(Start cutting path id: polyline126766)
(Change tool to Default tool)

G00 Z3.000000
G00 X196.491372 Y172.714837

G00 Z4.875000 (Fast pre-penetrate)
G01 Z-0.125000 F400.0(Penetrate)
G01 X171.090018 Y168.944486 Z-0.125000 F800.000000
G01 X142.106386 Y179.581019 Z-0.125000
G01 X84.161085 Y178.596993 Z-0.125000
G01 X70.678871 Y184.346434 Z-0.125000
G01 X34.309365 Y166.113992 Z-0.125000
G01 X16.514996 Y174.494985 Z-0.125000
G00 Z3.000000

(End cutting path id: polyline126766)


(Start cutting path id: polyline126768)
(Change tool to Default tool)

G00 Z3.000000
G00 X194.556470 Y200.441110

G00 Z4.875000 (Fast pre-penetrate)
G01 Z-0.125000 F400.0(Penetrate)
G01 X173.577781 Y189.959386 Z-0.125000 F800.000000
G01 X142.979810 Y199.445990 Z-0.125000
G01 X116.760315 Y199.379726 Z-0.125000
G01 X85.963346 Y194.514803 Z-0.125000
G01 X67.638285 Y201.303571 Z-0.125000
G01 X32.728234 Y194.205165 Z-0.125000
G01 X9.626739 Y195.797335 Z-0.125000
G00 Z3.000000

(End cutting path id: polyline126768)


(Start cutting path id: polyline126770)
(Change tool to Default tool)

G00 Z3.000000
G00 X195.136926 Y199.251159

G00 Z4.875000 (Fast pre-penetrate)
G01 Z-0.125000 F400.0(Penetrate)
G01 X173.246105 Y188.172386 Z-0.125000 F800.000000
G01 X142.847151 Y198.455093 Z-0.125000
G01 X116.964831 Y198.703873 Z-0.125000
G01 X85.532144 Y194.115343 Z-0.125000
G01 X67.969998 Y200.660888 Z-0.125000
G01 X32.496029 Y192.335251 Z-0.125000
G01 X9.975008 Y194.723449 Z-0.125000
G00 Z3.000000

(End cutting path id: polyline126770)


(Start cutting path id: polyline126772)
(Change tool to Default tool)

G00 Z3.000000
G00 X195.717419 Y198.061246

G00 Z4.875000 (Fast pre-penetrate)
G01 Z-0.125000 F400.0(Penetrate)
G01 X172.914373 Y186.385442 Z-0.125000 F800.000000
G01 X142.714492 Y197.464197 Z-0.125000
G01 X117.169423 Y198.028114 Z-0.125000
G01 X85.100922 Y193.715977 Z-0.125000
G01 X68.301673 Y200.018298 Z-0.125000
G01 X32.263843 Y190.465299 Z-0.125000
G01 X10.323315 Y193.649620 Z-0.125000
G00 Z3.000000

(End cutting path id: polyline126772)


(Start cutting path id: polyline126774)
(Change tool to Default tool)

G00 Z3.000000
G00 X196.297874 Y196.871333

G00 Z4.875000 (Fast pre-penetrate)
G01 Z-0.125000 F400.0(Penetrate)
G01 X172.582660 Y184.598442 Z-0.125000 F800.000000
G01 X142.581795 Y196.473300 Z-0.125000
G01 X117.373939 Y197.352299 Z-0.125000
G01 X84.669720 Y193.316612 Z-0.125000
G01 X68.633405 Y199.375671 Z-0.125000
G01 X32.031657 Y188.595404 Z-0.125000
G01 X10.671566 Y192.575828 Z-0.125000
G00 Z3.000000

(End cutting path id: polyline126774)


(Start cutting path id: polyline126776)
(Change tool to Default tool)

G00 Z3.000000
G00 X196.878329 Y195.681383

G00 Z4.875000 (Fast pre-penetrate)
G01 Z-0.125000 F400.0(Penetrate)
G01 X172.250985 Y182.811442 Z-0.125000 F800.000000
G01 X142.449137 Y195.482404 Z-0.125000
G01 X117.578512 Y196.676540 Z-0.125000
G01 X84.238518 Y192.917227 Z-0.125000
G01 X68.965080 Y198.733044 Z-0.125000
G01 X31.799471 Y186.725509 Z-0.125000
G01 X11.019892 Y191.501980 Z-0.125000
G00 Z3.000000

(End cutting path id: polyline126776)


(Start cutting path id: polyline126778)
(Change tool to Default tool)

G00 Z3.000000
G00 X197.458822 Y194.491470

G00 Z4.875000 (Fast pre-penetrate)
G01 Z-0.125000 F400.0(Penetrate)
G01 X171.919253 Y181.024480 Z-0.125000 F800.000000
G01 X142.316421 Y194.491507 Z-0.125000
G01 X117.783048 Y196.000725 Z-0.125000
G01 X83.807259 Y192.517861 Z-0.125000
G01 X69.296793 Y198.090398 Z-0.125000
G01 X31.567266 Y184.855613 Z-0.125000
G01 X11.368143 Y190.428150 Z-0.125000
G00 Z3.000000

(End cutting path id: polyline126778)


(Start cutting path id: polyline126780)
(Change tool to Default tool)

G00 Z3.000000
G00 X196.994450 Y174.059559

G00 Z4.875000 (Fast pre-penetrate)
G01 Z-0.125000 F400.0(Penetrate)
G01 X170.940727 Y168.901630 Z-0.125000 F800.000000
G01 X142.034509 Y180.378418 Z-0.125000
G01 X122.498736 Y180.511133 Z-0.125000
G01 X83.823853 Y179.709511 Z-0.125000
G01 X70.772842 Y185.271029 Z-0.125000
G01 X33.872588 Y166.679261 Z-0.125000
G01 X16.244103 Y175.336572 Z-0.125000
G00 Z3.000000

(End cutting path id: polyline126780)


(Start cutting path id: polyline126782)
(Change tool to Default tool)

G00 Z3.000000
G00 X197.497511 Y175.404263

G00 Z4.875000 (Fast pre-penetrate)
G01 Z-0.125000 F400.0(Penetrate)
G01 X170.791474 Y168.858719 Z-0.125000 F800.000000
G01 X141.962652 Y181.175873 Z-0.125000
G01 X122.133873 Y181.706565 Z-0.125000
G01 X83.486621 Y180.822047 Z-0.125000
G01 X70.866850 Y186.195568 Z-0.125000
G01 X33.435867 Y167.244455 Z-0.125000
G01 X15.973229 Y176.178216 Z-0.125000
G00 Z3.000000

(End cutting path id: polyline126782)


(Start cutting path id: polyline126784)
(Change tool to Default tool)

G00 Z3.000000
G00 X198.000589 Y176.748985

G00 Z4.875000 (Fast pre-penetrate)
G01 Z-0.125000 F400.0(Penetrate)
G01 X170.642240 Y168.815807 Z-0.125000 F800.000000
G01 X141.890719 Y181.973272 Z-0.125000
G01 X121.768990 Y182.902034 Z-0.125000
G01 X83.149427 Y181.934583 Z-0.125000
G01 X70.960821 Y187.120163 Z-0.125000
G01 X32.999108 Y167.809668 Z-0.125000
G01 X15.702336 Y177.019878 Z-0.125000
G00 Z3.000000

(End cutting path id: polyline126784)


(Start cutting path id: polyline126786)
(Change tool to Default tool)

G00 Z3.000000
G00 X198.503668 Y178.093708

G00 Z4.875000 (Fast pre-penetrate)
G01 Z-0.125000 F400.0(Penetrate)
G01 X170.492931 Y168.772951 Z-0.125000 F800.000000
G01 X141.818918 Y182.770670 Z-0.125000
G01 X121.404127 Y184.097447 Z-0.125000
G01 X82.812195 Y183.047101 Z-0.125000
G01 X71.054791 Y188.044702 Z-0.125000
G01 X32.562386 Y168.374918 Z-0.125000
G01 X15.431462 Y177.861522 Z-0.125000
G00 Z3.000000

(End cutting path id: polyline126786)


(Start cutting path id: polyline126788)
(Change tool to Default tool)

G00 Z3.000000
G00 X198.039278 Y193.301557

G00 Z4.875000 (Fast pre-penetrate)
G01 Z-0.125000 F400.0(Penetrate)
G01 X171.587578 Y179.237480 Z-0.125000 F800.000000
G01 X142.183762 Y193.500573 Z-0.125000
G01 X117.987621 Y195.324910 Z-0.125000
G01 X83.376056 Y192.118496 Z-0.125000
G01 X69.628469 Y197.447809 Z-0.125000
G01 X31.335080 Y182.985662 Z-0.125000
G01 X11.716412 Y189.354302 Z-0.125000
G00 Z3.000000

(End cutting path id: polyline126788)


(Start cutting path id: polyline126790)
(Change tool to Default tool)

G00 Z3.000000
G00 X198.619789 Y192.111644

G00 Z4.875000 (Fast pre-penetrate)
G01 Z-0.125000 F400.0(Penetrate)
G01 X171.255903 Y177.450480 Z-0.125000 F800.000000
G01 X142.051047 Y192.509677 Z-0.125000
G01 X118.192156 Y194.649151 Z-0.125000
G01 X82.944854 Y191.719130 Z-0.125000
G01 X69.960182 Y196.805182 Z-0.125000
G01 X31.102895 Y181.115766 Z-0.125000
G01 X12.064719 Y188.280473 Z-0.125000
G00 Z3.000000

(End cutting path id: polyline126790)


(Start cutting path id: polyline126792)
(Change tool to Default tool)

G00 Z3.000000
G00 X199.006728 Y179.438430

G00 Z4.875000 (Fast pre-penetrate)
G01 Z-0.125000 F400.0(Penetrate)
G01 X170.343678 Y168.730039 Z-0.125000 F800.000000
G01 X141.746985 Y183.568050 Z-0.125000
G01 X121.039226 Y185.292935 Z-0.125000
G01 X82.474963 Y184.159637 Z-0.125000
G01 X71.148762 Y188.969297 Z-0.125000
G01 X32.125665 Y168.940131 Z-0.125000
G01 X15.160588 Y178.703165 Z-0.125000
G00 Z3.000000

(End cutting path id: polyline126792)


(Start cutting path id: polyline126794)
(Change tool to Default tool)

G00 Z3.000000
G00 X196.143065 Y145.753413

G00 Z4.875000 (Fast pre-penetrate)
G01 Z-0.125000 F400.0(Penetrate)
G01 X167.557391 Y151.618919 Z-0.125000 F800.000000
G01 X145.058464 Y145.886072 Z-0.125000
G01 X117.407109 Y139.699854 Z-0.125000
G01 X92.718982 Y146.693195 Z-0.125000
G01 X61.938608 Y148.777405 Z-0.125000
G01 X38.438986 Y141.159346 Z-0.125000
G01 X15.586215 Y147.881812 Z-0.125000
G00 Z3.000000

(End cutting path id: polyline126794)


(Start cutting path id: polyline126796)
(Change tool to Default tool)

G00 Z3.000000
G00 X196.723558 Y145.569639

G00 Z4.875000 (Fast pre-penetrate)
G01 Z-0.125000 F400.0(Penetrate)
G01 X167.142782 Y150.412430 Z-0.125000 F800.000000
G01 X145.169010 Y144.596632 Z-0.125000
G01 X116.605505 Y138.493347 Z-0.125000
G01 X92.884810 Y145.901315 Z-0.125000
G01 X61.468661 Y147.515578 Z-0.125000
G01 X38.190262 Y140.173968 Z-0.125000
G01 X15.199276 Y147.117545 Z-0.125000
G00 Z3.000000

(End cutting path id: polyline126796)


(Start cutting path id: polyline126798)
(Change tool to Default tool)

G00 Z3.000000
G00 X197.304013 Y145.385828

G00 Z4.875000 (Fast pre-penetrate)
G01 Z-0.125000 F400.0(Penetrate)
G01 X166.728155 Y149.205923 Z-0.125000 F800.000000
G01 X145.279575 Y143.307173 Z-0.125000
G01 X115.803939 Y137.286858 Z-0.125000
G01 X93.050658 Y145.109435 Z-0.125000
G01 X60.998751 Y146.253789 Z-0.125000
G01 X37.941482 Y139.188590 Z-0.125000
G01 X14.812262 Y146.353335 Z-0.125000
G00 Z3.000000

(End cutting path id: polyline126798)


(Start cutting path id: polyline126800)
(Change tool to Default tool)

G00 Z3.000000
G00 X197.884525 Y145.202110

G00 Z4.875000 (Fast pre-penetrate)
G01 Z-0.125000 F400.0(Penetrate)
G01 X166.313547 Y147.999435 Z-0.125000 F800.000000
G01 X145.390177 Y142.017790 Z-0.125000
G01 X115.002317 Y136.080351 Z-0.125000
G01 X93.216486 Y144.317555 Z-0.125000
G01 X60.528861 Y144.992018 Z-0.125000
G01 X37.692702 Y138.203194 Z-0.125000
G01 X14.425323 Y145.589068 Z-0.125000
G00 Z3.000000

(End cutting path id: polyline126800)


(Start cutting path id: polyline126802)
(Change tool to Default tool)

G00 Z3.000000
G00 X198.464980 Y145.018336

G00 Z4.875000 (Fast pre-penetrate)
G01 Z-0.125000 F400.0(Penetrate)
G01 X165.898882 Y146.792928 Z-0.125000 F800.000000
G01 X145.500742 Y140.728350 Z-0.125000
G01 X114.200694 Y134.873863 Z-0.125000
G01 X93.382370 Y143.525656 Z-0.125000
G01 X60.058970 Y143.730248 Z-0.125000
G01 X37.443922 Y137.217816 Z-0.125000
G01 X14.038309 Y144.824838 Z-0.125000
G00 Z3.000000

(End cutting path id: polyline126802)


(Start cutting path id: polyline126804)
(Change tool to Default tool)

G00 Z3.000000
G00 X199.045473 Y144.834581

G00 Z4.875000 (Fast pre-penetrate)
G01 Z-0.125000 F400.0(Penetrate)
G01 X165.484255 Y145.586421 Z-0.125000 F800.000000
G01 X145.611288 Y139.438910 Z-0.125000
G01 X113.399072 Y133.667300 Z-0.125000
G01 X93.548218 Y142.733776 Z-0.125000
G01 X59.589023 Y142.468421 Z-0.125000
G01 X37.195142 Y136.232476 Z-0.125000
G01 X13.651313 Y144.060571 Z-0.125000
G00 Z3.000000

(End cutting path id: polyline126804)


(Start cutting path id: polyline126806)
(Change tool to Default tool)

G00 Z3.000000
G00 X199.625928 Y144.650751

G00 Z4.875000 (Fast pre-penetrate)
G01 Z-0.125000 F400.0(Penetrate)
G01 X165.069647 Y144.379876 Z-0.125000 F800.000000
G01 X145.721852 Y138.149470 Z-0.125000
G01 X112.597468 Y132.460811 Z-0.125000
G01 X93.714046 Y141.941896 Z-0.125000
G01 X59.119132 Y141.206631 Z-0.125000
G01 X36.946362 Y135.247099 Z-0.125000
G01 X13.264356 Y143.296361 Z-0.125000
G00 Z3.000000

(End cutting path id: polyline126806)


(Start cutting path id: polyline126808)
(Change tool to Default tool)

G00 Z3.000000
G00 X200.206384 Y144.466995

G00 Z4.875000 (Fast pre-penetrate)
G01 Z-0.125000 F400.0(Penetrate)
G01 X164.655038 Y143.173388 Z-0.125000 F800.000000
G01 X145.832455 Y136.860011 Z-0.125000
G01 X111.795902 Y131.254304 Z-0.125000
G01 X93.879931 Y141.150016 Z-0.125000
G01 X58.649241 Y139.944861 Z-0.125000
G01 X36.697582 Y134.261721 Z-0.125000
G01 X12.877360 Y142.532094 Z-0.125000
G00 Z3.000000

(End cutting path id: polyline126808)


(Start cutting path id: polyline126810)
(Change tool to Default tool)

G00 Z3.000000
G00 X200.786877 Y144.283221

G00 Z4.875000 (Fast pre-penetrate)
G01 Z-0.125000 F400.0(Penetrate)
G01 X164.240411 Y141.966881 Z-0.125000 F800.000000
G01 X145.943019 Y135.570571 Z-0.125000
G01 X110.994280 Y130.047760 Z-0.125000
G01 X94.045778 Y140.358136 Z-0.125000
G01 X58.179294 Y138.683034 Z-0.125000
G01 X36.448802 Y133.276325 Z-0.125000
G01 X12.490365 Y141.767865 Z-0.125000
G00 Z3.000000

(End cutting path id: polyline126810)


(Start cutting path id: polyline126812)
(Change tool to Default tool)

G00 Z3.000000
G00 X201.367332 Y144.099466

G00 Z4.875000 (Fast pre-penetrate)
G01 Z-0.125000 F400.0(Penetrate)
G01 X163.825803 Y140.760374 Z-0.125000 F800.000000
G01 X146.053584 Y134.281131 Z-0.125000
G01 X110.192657 Y128.841253 Z-0.125000
G01 X94.211606 Y139.566256 Z-0.125000
G01 X57.709404 Y137.421244 Z-0.125000
G01 X36.200022 Y132.290947 Z-0.125000
G01 X12.103407 Y141.003598 Z-0.125000
G00 Z3.000000

(End cutting path id: polyline126812)


(Start cutting path id: polyline126814)
(Change tool to Default tool)

G00 Z3.000000
G00 X199.432431 Y113.780573

G00 Z4.875000 (Fast pre-penetrate)
G01 Z-0.125000 F400.0(Penetrate)
G01 X166.545733 Y105.255920 Z-0.125000 F800.000000
G01 X145.036351 Y107.810021 Z-0.125000
G01 X123.040485 Y120.580472 Z-0.125000
G01 X93.293919 Y107.423026 Z-0.125000
G01 X64.586623 Y113.979646 Z-0.125000
G01 X33.258963 Y123.333590 Z-0.125000
G01 X8.001343 Y107.511478 Z-0.125000
G00 Z3.000000

(End cutting path id: polyline126814)


(Start cutting path id: polyline126618)
(Change tool to Default tool)

G00 Z3.000000
G00 X198.271464 Y105.712295

G00 Z4.875000 (Fast pre-penetrate)
G01 Z-0.125000 F400.0(Penetrate)
G01 X167.739869 Y96.889099 Z-0.125000 F800.000000
G01 X144.638337 Y101.997245 Z-0.125000
G01 X127.418942 Y119.643713 Z-0.125000
G01 X92.862716 Y99.520577 Z-0.125000
G01 X66.974878 Y108.962973 Z-0.125000
G01 X32.728234 Y121.965629 Z-0.125000
G01 X7.304823 Y99.211014 Z-0.125000
G00 Z3.000000

(End cutting path id: polyline126618)


(Start cutting path id: polyline126620)
(Change tool to Default tool)

G00 Z3.000000
G00 X198.503668 Y105.218959

G00 Z4.875000 (Fast pre-penetrate)
G01 Z-0.125000 F400.0(Penetrate)
G01 X168.137902 Y96.445470 Z-0.125000 F800.000000
G01 X144.240248 Y101.454145 Z-0.125000
G01 X127.020871 Y118.111012 Z-0.125000
G01 X92.685813 Y98.347202 Z-0.125000
G01 X67.207082 Y107.623770 Z-0.125000
G01 X32.529217 Y120.759084 Z-0.125000
G01 X7.653093 Y98.485436 Z-0.125000
G00 Z3.000000

(End cutting path id: polyline126620)


(Start cutting path id: polyline126816)
(Change tool to Default tool)

G00 Z3.000000
G00 X198.464980 Y107.057017

G00 Z4.875000 (Fast pre-penetrate)
G01 Z-0.125000 F400.0(Penetrate)
G01 X167.540796 Y98.283528 Z-0.125000 F800.000000
G01 X144.704638 Y102.966048 Z-0.125000
G01 X126.689196 Y119.799818 Z-0.125000
G01 X92.934593 Y100.837630 Z-0.125000
G01 X66.576864 Y109.799060 Z-0.125000
G01 X32.816685 Y122.193591 Z-0.125000
G01 X7.420907 Y100.594425 Z-0.125000
G00 Z3.000000

(End cutting path id: polyline126816)


(Start cutting path id: polyline126818)
(Change tool to Default tool)

G00 Z3.000000
G00 X198.735854 Y104.725585

G00 Z4.875000 (Fast pre-penetrate)
G01 Z-0.125000 F400.0(Penetrate)
G01 X168.535916 Y96.001859 Z-0.125000 F800.000000
G01 X143.842233 Y100.911045 Z-0.125000
G01 X126.622838 Y116.578348 Z-0.125000
G01 X92.508890 Y97.173883 Z-0.125000
G01 X67.439268 Y106.284566 Z-0.125000
G01 X32.330201 Y119.552577 Z-0.125000
G01 X8.001400 Y97.759894 Z-0.125000
G00 Z3.000000

(End cutting path id: polyline126818)


(Start cutting path id: polyline126820)
(Change tool to Default tool)

G00 Z3.000000
G00 X198.658478 Y108.401740

G00 Z4.875000 (Fast pre-penetrate)
G01 Z-0.125000 F400.0(Penetrate)
G01 X167.341799 Y99.678014 Z-0.125000 F800.000000
G01 X144.770996 Y103.934831 Z-0.125000
G01 X125.959450 Y119.955922 Z-0.125000
G01 X93.006450 Y102.154739 Z-0.125000
G01 X66.178774 Y110.635204 Z-0.125000
G01 X32.905137 Y122.421572 Z-0.125000
G01 X7.536972 Y101.977835 Z-0.125000
G00 Z3.000000

(End cutting path id: polyline126820)


(Start cutting path id: polyline126822)
(Change tool to Default tool)

G00 Z3.000000
G00 X198.968040 Y104.232248

G00 Z4.875000 (Fast pre-penetrate)
G01 Z-0.125000 F400.0(Penetrate)
G01 X168.933949 Y95.558286 Z-0.125000 F800.000000
G01 X143.444200 Y100.367945 Z-0.125000
G01 X126.224805 Y115.045628 Z-0.125000
G01 X92.331987 Y96.000564 Z-0.125000
G01 X67.671454 Y104.945400 Z-0.125000
G01 X32.131184 Y118.346070 Z-0.125000
G01 X8.349669 Y97.034372 Z-0.125000
G00 Z3.000000

(End cutting path id: polyline126822)


(Start cutting path id: polyline126824)
(Change tool to Default tool)

G00 Z3.000000
G00 X198.851975 Y109.746462

G00 Z4.875000 (Fast pre-penetrate)
G01 Z-0.125000 F400.0(Penetrate)
G01 X167.142782 Y101.072500 Z-0.125000 F800.000000
G01 X144.837335 Y104.903633 Z-0.125000
G01 X125.229741 Y120.112065 Z-0.125000
G01 X93.078327 Y103.471792 Z-0.125000
G01 X65.780760 Y111.471291 Z-0.125000
G01 X32.993589 Y122.649591 Z-0.125000
G01 X7.653093 Y103.361246 Z-0.125000
G00 Z3.000000

(End cutting path id: polyline126824)


(Start cutting path id: polyline126826)
(Change tool to Default tool)

G00 Z3.000000
G00 X199.200226 Y103.738912

G00 Z4.875000 (Fast pre-penetrate)
G01 Z-0.125000 F400.0(Penetrate)
G01 X169.332020 Y95.114657 Z-0.125000 F800.000000
G01 X143.046167 Y99.824827 Z-0.125000
G01 X125.826791 Y113.512984 Z-0.125000
G01 X92.155064 Y94.827189 Z-0.125000
G01 X67.903640 Y103.606197 Z-0.125000
G01 X31.932168 Y117.139525 Z-0.125000
G01 X8.697976 Y96.308793 Z-0.125000
G00 Z3.000000

(End cutting path id: polyline126826)


(Start cutting path id: polyline126828)
(Change tool to Default tool)

G00 Z3.000000
G00 X199.432431 Y103.245519

G00 Z4.875000 (Fast pre-penetrate)
G01 Z-0.125000 F400.0(Penetrate)
G01 X169.730053 Y94.671084 Z-0.125000 F800.000000
G01 X142.648097 Y99.281727 Z-0.125000
G01 X125.428702 Y111.980264 Z-0.125000
G01 X91.978161 Y93.653870 Z-0.125000
G01 X68.135845 Y102.267031 Z-0.125000
G01 X31.733113 Y115.933037 Z-0.125000
G01 X9.046227 Y95.583271 Z-0.125000
G00 Z3.000000

(End cutting path id: polyline126828)


(Start cutting path id: polyline126830)
(Change tool to Default tool)

G00 Z3.000000
G00 X199.045417 Y111.091184

G00 Z4.875000 (Fast pre-penetrate)
G01 Z-0.125000 F400.0(Penetrate)
G01 X166.943766 Y102.466948 Z-0.125000 F800.000000
G01 X144.903692 Y105.872436 Z-0.125000
G01 X124.499995 Y120.268225 Z-0.125000
G01 X93.150185 Y104.788845 Z-0.125000
G01 X65.382727 Y112.307415 Z-0.125000
G01 X33.082059 Y122.877609 Z-0.125000
G01 X7.769158 Y104.744657 Z-0.125000
G00 Z3.000000

(End cutting path id: polyline126830)


(Start cutting path id: polyline126832)
(Change tool to Default tool)

G00 Z3.000000
G00 X199.238933 Y112.435907

G00 Z4.875000 (Fast pre-penetrate)
G01 Z-0.125000 F400.0(Penetrate)
G01 X166.744749 Y103.861434 Z-0.125000 F800.000000
G01 X144.969994 Y106.841219 Z-0.125000
G01 X123.770250 Y120.424330 Z-0.125000
G01 X93.222061 Y106.105954 Z-0.125000
G01 X64.984694 Y113.143502 Z-0.125000
G01 X33.170511 Y123.105572 Z-0.125000
G01 X7.885279 Y106.128067 Z-0.125000
G00 Z3.000000

(End cutting path id: polyline126832)


(Start cutting path id: polyline126834)
(Change tool to Default tool)

G00 Z3.000000
G00 X199.664617 Y102.752183

G00 Z4.875000 (Fast pre-penetrate)
G01 Z-0.125000 F400.0(Penetrate)
G01 X170.128086 Y94.227474 Z-0.125000 F800.000000
G01 X142.250064 Y98.738627 Z-0.125000
G01 X125.030687 Y110.447619 Z-0.125000
G01 X91.801239 Y92.480551 Z-0.125000
G01 X68.368031 Y100.927827 Z-0.125000
G01 X31.534097 Y114.726530 Z-0.125000
G01 X9.394553 Y94.857730 Z-0.125000
G00 Z3.000000

(End cutting path id: polyline126834)


(Start cutting path id: polyline126836)
(Change tool to Default tool)

G00 Z3.000000
G00 X199.896803 Y102.258846

G00 Z4.875000 (Fast pre-penetrate)
G01 Z-0.125000 F400.0(Penetrate)
G01 X170.526119 Y93.783901 Z-0.125000 F800.000000
G01 X141.852031 Y98.195527 Z-0.125000
G01 X124.632654 Y108.914899 Z-0.125000
G01 X91.624335 Y91.307176 Z-0.125000
G01 X68.600217 Y99.588624 Z-0.125000
G01 X31.335080 Y113.520023 Z-0.125000
G01 X9.742804 Y94.132208 Z-0.125000
G00 Z3.000000

(End cutting path id: polyline126836)


(Start cutting path id: polyline126838)
(Change tool to Default tool)

G00 Z3.000000
G00 X200.129007 Y101.765454

G00 Z4.875000 (Fast pre-penetrate)
G01 Z-0.125000 F400.0(Penetrate)
G01 X170.924133 Y93.340271 Z-0.125000 F800.000000
G01 X141.454017 Y97.652427 Z-0.125000
G01 X124.234621 Y107.382235 Z-0.125000
G01 X91.447469 Y90.133857 Z-0.125000
G01 X68.832421 Y98.249458 Z-0.125000
G01 X31.136064 Y112.313535 Z-0.125000
G01 X10.091111 Y93.406629 Z-0.125000
G00 Z3.000000

(End cutting path id: polyline126838)


(Start cutting path id: polyline126840)
(Change tool to Default tool)

G00 Z3.000000
G00 X200.361193 Y101.272117

G00 Z4.875000 (Fast pre-penetrate)
G01 Z-0.125000 F400.0(Penetrate)
G01 X171.322223 Y92.896699 Z-0.125000 F800.000000
G01 X141.055984 Y97.109271 Z-0.125000
G01 X123.836551 Y105.849591 Z-0.125000
G01 X91.270565 Y88.960538 Z-0.125000
G01 X69.064607 Y96.910254 Z-0.125000
G01 X30.937047 Y111.106990 Z-0.125000
G01 X10.439380 Y92.681107 Z-0.125000
G00 Z3.000000

(End cutting path id: polyline126840)


(Start cutting path id: polyline126842)
(Change tool to Default tool)

G00 Z3.000000
G00 X200.593379 Y100.778781

G00 Z4.875000 (Fast pre-penetrate)
G01 Z-0.125000 F400.0(Penetrate)
G01 X171.720237 Y92.453088 Z-0.125000 F800.000000
G01 X140.657913 Y96.566171 Z-0.125000
G01 X123.438518 Y104.316871 Z-0.125000
G01 X91.093643 Y87.787163 Z-0.125000
G01 X69.296793 Y95.571051 Z-0.125000
G01 X30.738031 Y109.900483 Z-0.125000
G01 X10.787687 Y91.955528 Z-0.125000
G00 Z3.000000

(End cutting path id: polyline126842)


(Start cutting path id: polyline126844)
(Change tool to Default tool)

G00 Z3.000000
G00 X200.825565 Y100.285388

G00 Z4.875000 (Fast pre-penetrate)
G01 Z-0.125000 F400.0(Penetrate)
G01 X172.118326 Y92.009459 Z-0.125000 F800.000000
G01 X140.259880 Y96.023052 Z-0.125000
G01 X123.040485 Y102.784207 Z-0.125000
G01 X90.916740 Y86.613844 Z-0.125000
G01 X69.528979 Y94.231885 Z-0.125000
G01 X30.539033 Y108.693976 Z-0.125000
G01 X11.135957 Y91.229987 Z-0.125000
G00 Z3.000000

(End cutting path id: polyline126844)


(Start cutting path id: polyline126846)
(Change tool to Default tool)

G00 Z3.000000
G00 X199.625928 Y115.125295

G00 Z4.875000 (Fast pre-penetrate)
G01 Z-0.125000 F400.0(Penetrate)
G01 X166.346679 Y106.650406 Z-0.125000 F800.000000
G01 X145.102709 Y108.778824 Z-0.125000
G01 X122.310739 Y120.736577 Z-0.125000
G01 X93.365795 Y108.740117 Z-0.125000
G01 X64.188590 Y114.815733 Z-0.125000
G01 X33.347415 Y123.561553 Z-0.125000
G01 X8.117465 Y108.894888 Z-0.125000
G00 Z3.000000

(End cutting path id: polyline126846)


(Start cutting path id: polyline126848)
(Change tool to Default tool)

G00 Z3.000000
G00 X199.819426 Y116.470074

G00 Z4.875000 (Fast pre-penetrate)
G01 Z-0.125000 F400.0(Penetrate)
G01 X166.147662 Y108.044835 Z-0.125000 F800.000000
G01 X145.169010 Y109.747607 Z-0.125000
G01 X121.581049 Y120.892682 Z-0.125000
G01 X93.437653 Y110.057188 Z-0.125000
G01 X63.790557 Y115.651876 Z-0.125000
G01 X33.435867 Y123.789571 Z-0.125000
G01 X8.233548 Y110.278355 Z-0.125000
G00 Z3.000000

(End cutting path id: polyline126848)


(Start cutting path id: polyline126850)
(Change tool to Default tool)

G00 Z3.000000
G00 X200.012886 Y117.814740

G00 Z4.875000 (Fast pre-penetrate)
G01 Z-0.125000 F400.0(Penetrate)
G01 X165.948646 Y109.439321 Z-0.125000 F800.000000
G01 X145.235368 Y110.716409 Z-0.125000
G01 X120.851284 Y121.048824 Z-0.125000
G01 X93.509529 Y111.374241 Z-0.125000
G01 X63.392543 Y116.487944 Z-0.125000
G01 X33.524337 Y124.017552 Z-0.125000
G01 X8.349669 Y111.661766 Z-0.125000
G00 Z3.000000

(End cutting path id: polyline126850)


(Start cutting path id: polyline126852)
(Change tool to Default tool)

G00 Z3.000000
G00 X200.206384 Y119.159462

G00 Z4.875000 (Fast pre-penetrate)
G01 Z-0.125000 F400.0(Penetrate)
G01 X165.749629 Y110.833826 Z-0.125000 F800.000000
G01 X145.301725 Y111.685193 Z-0.125000
G01 X120.121539 Y121.204985 Z-0.125000
G01 X93.581387 Y112.691351 Z-0.125000
G01 X62.994454 Y117.324088 Z-0.125000
G01 X33.612789 Y124.245571 Z-0.125000
G01 X8.465734 Y113.045177 Z-0.125000
G00 Z3.000000

(End cutting path id: polyline126852)


(Start cutting path id: polyline126854)
(Change tool to Default tool)

G00 Z3.000000
G00 X200.399882 Y120.504185

G00 Z4.875000 (Fast pre-penetrate)
G01 Z-0.125000 F400.0(Penetrate)
G01 X165.550613 Y112.228255 Z-0.125000 F800.000000
G01 X145.368083 Y112.653939 Z-0.125000
G01 X119.391793 Y121.361089 Z-0.125000
G01 X93.653263 Y114.008404 Z-0.125000
G01 X62.596440 Y118.160175 Z-0.125000
G01 X33.701241 Y124.473533 Z-0.125000
G01 X8.581855 Y114.428587 Z-0.125000
G00 Z3.000000

(End cutting path id: polyline126854)


(Start cutting path id: polyline126856)
(Change tool to Default tool)

G00 Z3.000000
G00 X200.593379 Y121.848907

G00 Z4.875000 (Fast pre-penetrate)
G01 Z-0.125000 F400.0(Penetrate)
G01 X165.351596 Y113.622741 Z-0.125000 F800.000000
G01 X145.434440 Y113.622798 Z-0.125000
G01 X118.662047 Y121.517231 Z-0.125000
G01 X93.725121 Y115.325513 Z-0.125000
G01 X62.198407 Y118.996318 Z-0.125000
G01 X33.789692 Y124.701552 Z-0.125000
G01 X8.697920 Y115.811998 Z-0.125000
G00 Z3.000000

(End cutting path id: polyline126856)


(Start cutting path id: polyline126858)
(Change tool to Default tool)

G00 Z3.000000
G00 X200.786877 Y123.193629

G00 Z4.875000 (Fast pre-penetrate)
G01 Z-0.125000 F400.0(Penetrate)
G01 X165.152598 Y115.017227 Z-0.125000 F800.000000
G01 X145.500742 Y114.591543 Z-0.125000
G01 X117.932301 Y121.673336 Z-0.125000
G01 X93.796998 Y116.642566 Z-0.125000
G01 X61.800374 Y119.832405 Z-0.125000
G01 X33.878163 Y124.929533 Z-0.125000
G01 X8.814041 Y117.195408 Z-0.125000
G00 Z3.000000

(End cutting path id: polyline126858)


(Start cutting path id: polyline126860)
(Change tool to Default tool)

G00 Z3.000000
G00 X200.980374 Y124.538352

G00 Z4.875000 (Fast pre-penetrate)
G01 Z-0.125000 F400.0(Penetrate)
G01 X164.953582 Y116.411657 Z-0.125000 F800.000000
G01 X145.567099 Y115.560327 Z-0.125000
G01 X117.202592 Y121.829497 Z-0.125000
G01 X93.868855 Y117.959619 Z-0.125000
G01 X61.402303 Y120.668530 Z-0.125000
G01 X33.966615 Y125.157552 Z-0.125000
G01 X8.930106 Y118.578819 Z-0.125000
G00 Z3.000000

(End cutting path id: polyline126860)


(Start cutting path id: polyline126862)
(Change tool to Default tool)

G00 Z3.000000
G00 X201.173891 Y125.883074

G00 Z4.875000 (Fast pre-penetrate)
G01 Z-0.125000 F400.0(Penetrate)
G01 X164.754509 Y117.806161 Z-0.125000 F800.000000
G01 X145.633457 Y116.529129 Z-0.125000
G01 X116.472846 Y121.985583 Z-0.125000
G01 X93.940732 Y119.276728 Z-0.125000
G01 X61.004270 Y121.504617 Z-0.125000
G01 X34.055067 Y125.385514 Z-0.125000
G01 X9.046227 Y119.962230 Z-0.125000
G00 Z3.000000

(End cutting path id: polyline126862)


(Start cutting path id: polyline126864)
(Change tool to Default tool)

G00 Z3.000000
G00 X201.367389 Y127.227796

G00 Z4.875000 (Fast pre-penetrate)
G01 Z-0.125000 F400.0(Penetrate)
G01 X164.555493 Y119.200647 Z-0.125000 F800.000000
G01 X145.699758 Y117.497913 Z-0.125000
G01 X115.743082 Y122.141744 Z-0.125000
G01 X94.012589 Y120.593781 Z-0.125000
G01 X60.606237 Y122.340760 Z-0.125000
G01 X34.143481 Y125.613532 Z-0.125000
G01 X9.162311 Y121.345640 Z-0.125000
G00 Z3.000000

(End cutting path id: polyline126864)


(Start cutting path id: polyline126866)
(Change tool to Default tool)

G00 Z3.000000
G00 X201.560830 Y128.572519

G00 Z4.875000 (Fast pre-penetrate)
G01 Z-0.125000 F400.0(Penetrate)
G01 X164.356495 Y120.595133 Z-0.125000 F800.000000
G01 X145.766116 Y118.466715 Z-0.125000
G01 X115.013336 Y122.297848 Z-0.125000
G01 X94.084466 Y121.910834 Z-0.125000
G01 X60.208223 Y123.176847 Z-0.125000
G01 X34.231933 Y125.841551 Z-0.125000
G01 X9.278432 Y122.729051 Z-0.125000
G00 Z3.000000

(End cutting path id: polyline126866)


(Start cutting path id: polyline126868)
(Change tool to Default tool)

G00 Z3.000000
G00 X201.754328 Y129.917241

G00 Z4.875000 (Fast pre-penetrate)
G01 Z-0.125000 F400.0(Penetrate)
G01 X164.157478 Y121.989619 Z-0.125000 F800.000000
G01 X145.832455 Y119.435517 Z-0.125000
G01 X114.283646 Y122.453953 Z-0.125000
G01 X94.156324 Y123.227944 Z-0.125000
G01 X59.810134 Y124.012972 Z-0.125000
G01 X34.320384 Y126.069513 Z-0.125000
G01 X9.394497 Y124.112461 Z-0.125000
G00 Z3.000000

(End cutting path id: polyline126868)


(Start cutting path id: polyline126870)
(Change tool to Default tool)

G00 Z3.000000
G00 X201.947844 Y131.261963

G00 Z4.875000 (Fast pre-penetrate)
G01 Z-0.125000 F400.0(Penetrate)
G01 X163.958462 Y123.384048 Z-0.125000 F800.000000
G01 X145.898775 Y120.404301 Z-0.125000
G01 X113.553881 Y122.610095 Z-0.125000
G01 X94.228200 Y124.544997 Z-0.125000
G01 X59.412119 Y124.849059 Z-0.125000
G01 X34.408836 Y126.297494 Z-0.125000
G01 X9.510618 Y125.495872 Z-0.125000
G00 Z3.000000

(End cutting path id: polyline126870)


(Start cutting path id: polyline126872)
(Change tool to Default tool)

G00 Z3.000000
G00 X202.141342 Y132.606686

G00 Z4.875000 (Fast pre-penetrate)
G01 Z-0.125000 F400.0(Penetrate)
G01 X163.759445 Y124.778534 Z-0.125000 F800.000000
G01 X145.965114 Y121.373103 Z-0.125000
G01 X112.824135 Y122.766256 Z-0.125000
G01 X94.300058 Y125.862106 Z-0.125000
G01 X59.014086 Y125.685278 Z-0.125000
G01 X34.497307 Y126.525588 Z-0.125000
G01 X9.626682 Y126.879358 Z-0.125000
G00 Z3.000000

(End cutting path id: polyline126872)


(Start cutting path id: polyline126874)
(Change tool to Default tool)

G00 Z3.000000
G00 X202.334783 Y133.951389

G00 Z4.875000 (Fast pre-penetrate)
G01 Z-0.125000 F400.0(Penetrate)
G01 X163.560429 Y126.173020 Z-0.125000 F800.000000
G01 X146.031471 Y122.341905 Z-0.125000
G01 X112.094389 Y122.922342 Z-0.125000
G01 X94.371934 Y127.179178 Z-0.125000
G01 X58.616053 Y126.521289 Z-0.125000
G01 X34.585758 Y126.753475 Z-0.125000
G01 X9.742804 Y128.262750 Z-0.125000
G00 Z3.000000

(End cutting path id: polyline126874)


(Start cutting path id: polyline126876)
(Change tool to Default tool)

G00 Z3.000000
G00 X201.947844 Y143.915692

G00 Z4.875000 (Fast pre-penetrate)
G01 Z-0.125000 F400.0(Penetrate)
G01 X163.411176 Y139.553886 Z-0.125000 F800.000000
G01 X146.164130 Y132.991747 Z-0.125000
G01 X109.391035 Y127.634764 Z-0.125000
G01 X94.377453 Y138.774358 Z-0.125000
G01 X57.239494 Y136.159474 Z-0.125000
G01 X35.951242 Y131.305570 Z-0.125000
G01 X11.716412 Y140.239387 Z-0.125000
G00 Z3.000000

(End cutting path id: polyline126876)


(Start cutting path id: polyline126878)
(Change tool to Default tool)

G00 Z3.000000
G00 X202.528281 Y143.731937

G00 Z4.875000 (Fast pre-penetrate)
G01 Z-0.125000 F400.0(Penetrate)
G01 X162.996511 Y138.347341 Z-0.125000 F800.000000
G01 X146.274695 Y131.702307 Z-0.125000
G01 X108.589431 Y126.428257 Z-0.125000
G01 X94.543338 Y137.982478 Z-0.125000
G01 X56.769604 Y134.897647 Z-0.125000
G01 X35.702500 Y130.320230 Z-0.125000
G01 X11.329454 Y139.475101 Z-0.125000
G00 Z3.000000

(End cutting path id: polyline126878)


(Start cutting path id: polyline126880)
(Change tool to Default tool)

G00 Z3.000000
G00 X202.528281 Y135.296074

G00 Z4.875000 (Fast pre-penetrate)
G01 Z-0.125000 F400.0(Penetrate)
G01 X163.361412 Y127.567506 Z-0.125000 F800.000000
G01 X146.097829 Y123.310651 Z-0.125000
G01 X111.364681 Y123.078503 Z-0.125000
G01 X94.443792 Y128.496231 Z-0.125000
G01 X58.218039 Y127.357414 Z-0.125000
G01 X34.674210 Y126.981494 Z-0.125000
G01 X9.858887 Y129.646160 Z-0.125000
G00 Z3.000000

(End cutting path id: polyline126880)


(Start cutting path id: polyline126882)
(Change tool to Default tool)

G00 Z3.000000
G00 X202.721797 Y136.640796

G00 Z4.875000 (Fast pre-penetrate)
G01 Z-0.125000 F400.0(Penetrate)
G01 X163.162396 Y128.961954 Z-0.125000 F800.000000
G01 X146.164130 Y124.279491 Z-0.125000
G01 X110.634935 Y123.234608 Z-0.125000
G01 X94.515668 Y129.813340 Z-0.125000
G01 X34.762662 Y127.209475 Z-0.125000
G01 X9.975008 Y131.029571 Z-0.125000
G00 Z3.000000

(End cutting path id: polyline126882)


(Start cutting path id: polyline126884)
(Change tool to Default tool)

G00 Z3.000000
G00 X202.915295 Y137.985519

G00 Z4.875000 (Fast pre-penetrate)
G01 Z-0.125000 F400.0(Penetrate)
G01 X162.963342 Y130.356440 Z-0.125000 F800.000000
G01 X146.230488 Y125.248237 Z-0.125000
G01 X109.905189 Y123.390750 Z-0.125000
G01 X94.587545 Y131.130393 Z-0.125000
G01 X57.421935 Y129.029645 Z-0.125000
G01 X34.851133 Y127.437494 Z-0.125000
G01 X10.091073 Y132.412981 Z-0.125000
G00 Z3.000000

(End cutting path id: polyline126884)


(Start cutting path id: polyline126886)
(Change tool to Default tool)

G00 Z3.000000
G00 X203.108736 Y139.330241

G00 Z4.875000 (Fast pre-penetrate)
G01 Z-0.125000 F400.0(Penetrate)
G01 X162.764325 Y131.750926 Z-0.125000 F800.000000
G01 X146.296845 Y126.217021 Z-0.125000
G01 X109.175443 Y123.546854 Z-0.125000
G01 X94.659402 Y132.447446 Z-0.125000
G01 X57.023902 Y129.865732 Z-0.125000
G01 X34.939584 Y127.665456 Z-0.125000
G01 X10.207138 Y133.796392 Z-0.125000
G00 Z3.000000

(End cutting path id: polyline126886)


(Start cutting path id: polyline126624)
(Change tool to Default tool)

G00 Z3.000000
G00 X203.108736 Y143.548163

G00 Z4.875000 (Fast pre-penetrate)
G01 Z-0.125000 F400.0(Penetrate)
G01 X162.581903 Y137.140834 Z-0.125000 F800.000000
G01 X146.385297 Y130.412849 Z-0.125000
G01 X107.787809 Y125.221769 Z-0.125000
G01 X94.709166 Y137.190598 Z-0.125000
G01 X56.299657 Y133.635876 Z-0.125000
G01 X35.453682 Y129.334852 Z-0.125000
G01 X10.942459 Y138.710891 Z-0.125000
G00 Z3.000000

(End cutting path id: polyline126624)


(Start cutting path id: polyline126888)
(Change tool to Default tool)

G00 Z3.000000
G00 X203.302234 Y140.674963

G00 Z4.875000 (Fast pre-penetrate)
G01 Z-0.125000 F400.0(Penetrate)
G01 X162.565309 Y133.145355 Z-0.125000 F800.000000
G01 X146.363147 Y127.185823 Z-0.125000
G01 X108.445678 Y123.703015 Z-0.125000
G01 X94.731279 Y133.764555 Z-0.125000
G01 X56.625869 Y130.701875 Z-0.125000
G01 X35.028036 Y127.893475 Z-0.125000
G01 X10.323259 Y135.179803 Z-0.125000
G00 Z3.000000

(End cutting path id: polyline126888)


(Start cutting path id: polyline126890)
(Change tool to Default tool)

G00 Z3.000000
G00 X203.495750 Y142.019667

G00 Z4.875000 (Fast pre-penetrate)
G01 Z-0.125000 F400.0(Penetrate)
G01 X162.366292 Y134.539841 Z-0.125000 F800.000000
G01 X146.429504 Y128.154625 Z-0.125000
G01 X107.715932 Y123.859120 Z-0.125000
G01 X94.803137 Y135.081608 Z-0.125000
G01 X56.227799 Y131.537962 Z-0.125000
G01 X35.116488 Y128.121437 Z-0.125000
G01 X10.439380 Y136.563213 Z-0.125000
G00 Z3.000000

(End cutting path id: polyline126890)


(Start cutting path id: polyline126622)
(Change tool to Default tool)

G00 Z3.000000
G00 X203.689248 Y143.364389

G00 Z4.875000 (Fast pre-penetrate)
G01 Z-0.125000 F400.0(Penetrate)
G01 X162.167295 Y135.934327 Z-0.125000 F800.000000
G01 X146.495862 Y129.123409 Z-0.125000
G01 X106.986243 Y124.015206 Z-0.125000
G01 X94.875013 Y136.398718 Z-0.125000
G01 X55.829766 Y132.374087 Z-0.125000
G01 X35.204940 Y128.349456 Z-0.125000
G01 X10.555445 Y137.946624 Z-0.125000
G00 Z3.000000

(End cutting path id: polyline126622)


(Start cutting path id: polyline126974)
(Change tool to Default tool)

G00 Z3.000000
G00 X199.509807 Y180.783152

G00 Z4.875000 (Fast pre-penetrate)
G01 Z-0.125000 F400.0(Penetrate)
G01 X170.194444 Y168.687165 Z-0.125000 F800.000000
G01 X141.675127 Y184.365506 Z-0.125000
G01 X120.674381 Y186.488405 Z-0.125000
G01 X82.137732 Y185.272174 Z-0.125000
G01 X71.242770 Y189.893836 Z-0.125000
G01 X31.688906 Y169.505325 Z-0.125000
G01 X14.889695 Y179.544827 Z-0.125000
G00 Z3.000000

(End cutting path id: polyline126974)


(Start cutting path id: polyline126976)
(Change tool to Default tool)

G00 Z3.000000
G00 X199.200226 Y190.921731

G00 Z4.875000 (Fast pre-penetrate)
G01 Z-0.125000 F400.0(Penetrate)
G01 X170.924190 Y175.663480 Z-0.125000 F800.000000
G01 X141.918388 Y191.518780 Z-0.125000
G01 X118.396673 Y193.973336 Z-0.125000
G01 X82.513652 Y191.319764 Z-0.125000
G01 X70.291913 Y196.162536 Z-0.125000
G01 X30.870690 Y179.245871 Z-0.125000
G01 X12.412989 Y187.206681 Z-0.125000
G00 Z3.000000

(End cutting path id: polyline126976)


(Start cutting path id: polyline126978)
(Change tool to Default tool)

G00 Z3.000000
G00 X199.780682 Y189.731780

G00 Z4.875000 (Fast pre-penetrate)
G01 Z-0.125000 F400.0(Penetrate)
G01 X170.592458 Y173.876536 Z-0.125000 F800.000000
G01 X141.785692 Y190.527884 Z-0.125000
G01 X118.601245 Y193.297577 Z-0.125000
G01 X82.082449 Y190.920398 Z-0.125000
G01 X70.623589 Y195.519966 Z-0.125000
G01 X30.638504 Y177.375975 Z-0.125000
G01 X12.761296 Y186.132833 Z-0.125000
G00 Z3.000000

(End cutting path id: polyline126978)


(Start cutting path id: polyline126980)
(Change tool to Default tool)

G00 Z3.000000
G00 X200.012886 Y182.127875

G00 Z4.875000 (Fast pre-penetrate)
G01 Z-0.125000 F400.0(Penetrate)
G01 X170.045191 Y168.644253 Z-0.125000 F800.000000
G01 X141.603251 Y185.162904 Z-0.125000
G01 X120.309480 Y187.683818 Z-0.125000
G01 X81.800500 Y186.384654 Z-0.125000
G01 X71.336741 Y190.818431 Z-0.125000
G01 X31.252185 Y170.070576 Z-0.125000
G01 X14.618764 Y180.386471 Z-0.125000
G00 Z3.000000

(End cutting path id: polyline126980)


(Start cutting path id: polyline126982)
(Change tool to Default tool)

G00 Z3.000000
G00 X200.361193 Y188.541867

G00 Z4.875000 (Fast pre-penetrate)
G01 Z-0.125000 F400.0(Penetrate)
G01 X170.260801 Y172.089536 Z-0.125000 F800.000000
G01 X141.653033 Y189.536988 Z-0.125000
G01 X118.805781 Y192.621762 Z-0.125000
G01 X81.651247 Y190.520976 Z-0.125000
G01 X70.955264 Y194.877320 Z-0.125000
G01 X30.406318 Y175.506042 Z-0.125000
G01 X13.109546 Y185.059004 Z-0.125000
G00 Z3.000000

(End cutting path id: polyline126982)


(Start cutting path id: polyline126984)
(Change tool to Default tool)

G00 Z3.000000
G00 X194.092042 Y233.265227

G00 Z4.875000 (Fast pre-penetrate)
G01 Z-0.125000 F400.0(Penetrate)
G01 X178.254725 Y237.378310 Z-0.125000 F800.000000
G01 X144.787571 Y227.510217 Z-0.125000
G01 X120.104963 Y233.956287 Z-0.125000
G01 X91.602222 Y230.971030 Z-0.125000
G01 X65.797335 Y232.933553 Z-0.125000
G01 X41.485129 Y230.346324 Z-0.125000
G01 X8.465734 Y231.175557 Z-0.125000
G00 Z3.000000

(End cutting path id: polyline126984)


(Start cutting path id: polyline126986)
(Change tool to Default tool)

G00 Z3.000000
G00 X194.556414 Y233.990804

G00 Z4.875000 (Fast pre-penetrate)
G01 Z-0.125000 F400.0(Penetrate)
G01 X178.221593 Y238.369206 Z-0.125000 F800.000000
G01 X144.770996 Y228.152853 Z-0.125000
G01 X120.453214 Y235.207038 Z-0.125000
G01 X91.535883 Y232.553455 Z-0.125000
G01 X65.979758 Y234.057109 Z-0.125000
G01 X41.750503 Y230.673826 Z-0.125000
G01 X8.697920 Y232.133277 Z-0.125000
G00 Z3.000000

(End cutting path id: polyline126986)


(Start cutting path id: polyline126988)
(Change tool to Default tool)

G00 Z3.000000
G00 X195.020804 Y234.716334

G00 Z4.875000 (Fast pre-penetrate)
G01 Z-0.125000 F400.0(Penetrate)
G01 X178.188423 Y239.360103 Z-0.125000 F800.000000
G01 X144.754402 Y228.795488 Z-0.125000
G01 X120.801521 Y236.457790 Z-0.125000
G01 X91.469563 Y234.135880 Z-0.125000
G01 X66.162236 Y235.180715 Z-0.125000
G01 X42.015858 Y231.001327 Z-0.125000
G01 X8.930106 Y233.091045 Z-0.125000
G00 Z3.000000

(End cutting path id: polyline126988)


(Start cutting path id: polyline126990)
(Change tool to Default tool)

G00 Z3.000000
G00 X195.485176 Y235.441912

G00 Z4.875000 (Fast pre-penetrate)
G01 Z-0.125000 F400.0(Penetrate)
G01 X178.155235 Y240.351050 Z-0.125000 F800.000000
G01 X144.737808 Y229.438122 Z-0.125000
G01 X121.149790 Y237.708493 Z-0.125000
G01 X91.403224 Y235.718356 Z-0.125000
G01 X66.344659 Y236.304321 Z-0.125000
G01 X42.281195 Y231.328828 Z-0.125000
G01 X9.162311 Y234.048765 Z-0.125000
G00 Z3.000000

(End cutting path id: polyline126990)


(Start cutting path id: polyline126992)
(Change tool to Default tool)

G00 Z3.000000
G00 X195.949567 Y236.167440

G00 Z4.875000 (Fast pre-penetrate)
G01 Z-0.125000 F400.0(Penetrate)
G01 X178.122066 Y241.341946 Z-0.125000 F800.000000
G01 X144.721232 Y230.080708 Z-0.125000
G01 X121.498098 Y238.959245 Z-0.125000
G01 X91.336867 Y237.300781 Z-0.125000
G01 X66.527100 Y237.427884 Z-0.125000
G01 X42.546550 Y231.656336 Z-0.125000
G01 X9.394497 Y235.006492 Z-0.125000
G00 Z3.000000

(End cutting path id: polyline126992)


(Start cutting path id: polyline126994)
(Change tool to Default tool)

G00 Z3.000000
G00 X196.413939 Y236.892968

G00 Z4.875000 (Fast pre-penetrate)
G01 Z-0.125000 F400.0(Penetrate)
G01 X178.088878 Y242.332843 Z-0.125000 F800.000000
G01 X144.704638 Y230.723344 Z-0.125000
G01 X121.846367 Y240.209996 Z-0.125000
G01 X91.270565 Y238.883205 Z-0.125000
G01 X66.709522 Y238.551482 Z-0.125000
G01 X42.811924 Y231.983831 Z-0.125000
G01 X9.626682 Y235.964204 Z-0.125000
G00 Z3.000000

(End cutting path id: polyline126994)


(Start cutting path id: polyline126996)
(Change tool to Default tool)

G00 Z3.000000
G00 X196.878329 Y237.618547

G00 Z4.875000 (Fast pre-penetrate)
G01 Z-0.125000 F400.0(Penetrate)
G01 X178.055708 Y243.323741 Z-0.125000 F800.000000
G01 X144.688100 Y231.365978 Z-0.125000
G01 X122.194674 Y241.460699 Z-0.125000
G01 X66.891945 Y239.675039 Z-0.125000
G01 X43.077298 Y232.311331 Z-0.125000
G01 X9.858887 Y236.921974 Z-0.125000
G00 Z3.000000

(End cutting path id: polyline126996)


(Start cutting path id: polyline126998)
(Change tool to Default tool)

G00 Z3.000000
G00 X197.342701 Y238.344075

G00 Z4.875000 (Fast pre-penetrate)
G01 Z-0.125000 F400.0(Penetrate)
G01 X178.022576 Y244.314638 Z-0.125000 F800.000000
G01 X144.671506 Y232.008613 Z-0.125000
G01 X122.542944 Y242.711451 Z-0.125000
G01 X91.137850 Y242.048055 Z-0.125000
G01 X67.074367 Y240.798646 Z-0.125000
G01 X43.342654 Y232.638832 Z-0.125000
G01 X10.091073 Y237.879694 Z-0.125000
G00 Z3.000000

(End cutting path id: polyline126998)


(Start cutting path id: polyline126640)
(Change tool to Default tool)

G00 Z3.000000
G00 X197.807092 Y239.069605

G00 Z4.875000 (Fast pre-penetrate)
G01 Z-0.125000 F400.0(Penetrate)
G01 X177.989407 Y245.305585 Z-0.125000 F800.000000
G01 X144.654912 Y232.651199 Z-0.125000
G01 X122.891194 Y243.962204 Z-0.125000
G01 X91.071549 Y243.630480 Z-0.125000
G01 X67.256846 Y241.922250 Z-0.125000
G01 X43.607971 Y232.966332 Z-0.125000
G01 X10.323259 Y238.837413 Z-0.125000
G00 Z3.000000

(End cutting path id: polyline126640)


(Start cutting path id: polyline126638)
(Change tool to Default tool)

G00 Z3.000000
G00 X198.271464 Y239.795133

G00 Z4.875000 (Fast pre-penetrate)
G01 Z-0.125000 F400.0(Penetrate)
G01 X177.956219 Y246.296481 Z-0.125000 F800.000000
G01 X144.638337 Y233.293835 Z-0.125000
G01 X123.239501 Y245.212906 Z-0.125000
G01 X91.005191 Y245.212906 Z-0.125000
G01 X67.439268 Y243.045807 Z-0.125000
G01 X43.873345 Y233.293835 Z-0.125000
G01 X10.555445 Y239.795133 Z-0.125000
G00 Z3.000000

(End cutting path id: polyline126638)


(Start cutting path id: polyline126632)
(Change tool to Default tool)

G00 Z3.000000
G00 X200.941649 Y187.351955

G00 Z4.875000 (Fast pre-penetrate)
G01 Z-0.125000 F400.0(Penetrate)
G01 X169.929070 Y170.302574 Z-0.125000 F800.000000
G01 X141.520318 Y188.546091 Z-0.125000
G01 X119.010354 Y191.946003 Z-0.125000
G01 X81.220044 Y190.121648 Z-0.125000
G01 X71.286977 Y194.234693 Z-0.125000
G01 X30.174170 Y173.636147 Z-0.125000
G01 X13.457872 Y183.985212 Z-0.125000
G00 Z3.000000

(End cutting path id: polyline126632)


(Start cutting path id: polyline127000)
(Change tool to Default tool)

G00 Z3.000000
G00 X200.516003 Y183.472541

G00 Z4.875000 (Fast pre-penetrate)
G01 Z-0.125000 F400.0(Penetrate)
G01 X169.895900 Y168.601341 Z-0.125000 F800.000000
G01 X141.531393 Y185.960341 Z-0.125000
G01 X119.944635 Y188.879306 Z-0.125000
G01 X81.463249 Y187.497228 Z-0.125000
G01 X71.430711 Y191.742970 Z-0.125000
G01 X30.815426 Y170.635788 Z-0.125000
G01 X14.347890 Y181.228077 Z-0.125000
G00 Z3.000000

(End cutting path id: polyline127000)


(Start cutting path id: polyline126630)
(Change tool to Default tool)

G00 Z3.000000
G00 X201.522142 Y186.161985

G00 Z4.875000 (Fast pre-penetrate)
G01 Z-0.125000 F400.0(Penetrate)
G01 X169.597394 Y168.515574 Z-0.125000 F800.000000
G01 X141.387659 Y187.555138 Z-0.125000
G01 X119.214889 Y191.270188 Z-0.125000
G01 X80.788842 Y189.722282 Z-0.125000
G01 X71.618709 Y193.592104 Z-0.125000
G01 X29.941984 Y171.766252 Z-0.125000
G01 X13.806123 Y182.911364 Z-0.125000
G00 Z3.000000

(End cutting path id: polyline126630)


(Start cutting path id: polyline126892)
(Change tool to Default tool)

G00 Z3.000000
G00 X201.057770 Y99.792052

G00 Z4.875000 (Fast pre-penetrate)
G01 Z-0.125000 F400.0(Penetrate)
G01 X172.516340 Y91.565886 Z-0.125000 F800.000000
G01 X139.861847 Y95.479952 Z-0.125000
G01 X122.642471 Y101.251506 Z-0.125000
G01 X90.739817 Y85.440506 Z-0.125000
G01 X69.761184 Y92.892681 Z-0.125000
G01 X30.339960 Y107.487488 Z-0.125000
G01 X11.484264 Y90.504465 Z-0.125000
G00 Z3.000000

(End cutting path id: polyline126892)


(Start cutting path id: polyline126894)
(Change tool to Default tool)

G00 Z3.000000
G00 X201.289956 Y99.298715

G00 Z4.875000 (Fast pre-penetrate)
G01 Z-0.125000 F400.0(Penetrate)
G01 X172.914373 Y91.122257 Z-0.125000 F800.000000
G01 X139.463776 Y94.936852 Z-0.125000
G01 X122.244438 Y99.718842 Z-0.125000
G01 X90.562914 Y84.267150 Z-0.125000
G01 X69.993370 Y91.553515 Z-0.125000
G01 X30.140944 Y106.280981 Z-0.125000
G01 X11.832533 Y89.778942 Z-0.125000
G00 Z3.000000

(End cutting path id: polyline126894)


(Start cutting path id: polyline126896)
(Change tool to Default tool)

G00 Z3.000000
G00 X201.522142 Y98.805322

G00 Z4.875000 (Fast pre-penetrate)
G01 Z-0.125000 F400.0(Penetrate)
G01 X173.312406 Y90.678703 Z-0.125000 F800.000000
G01 X139.065743 Y94.393752 Z-0.125000
G01 X121.846367 Y98.186141 Z-0.125000
G01 X90.385991 Y83.093812 Z-0.125000
G01 X70.225556 Y90.214312 Z-0.125000
G01 X29.941927 Y105.074492 Z-0.125000
G01 X12.180840 Y89.053364 Z-0.125000
G00 Z3.000000

(End cutting path id: polyline126896)


(Start cutting path id: polyline126898)
(Change tool to Default tool)

G00 Z3.000000
G00 X199.432431 Y59.189719

G00 Z4.875000 (Fast pre-penetrate)
G01 Z-0.125000 F400.0(Penetrate)
G01 X172.781715 Y57.862924 Z-0.125000 F800.000000
G01 X142.648097 Y52.937143 Z-0.125000
G01 X117.545343 Y52.030531 Z-0.125000
G01 X86.002034 Y59.134493 Z-0.125000
G01 X63.176933 Y52.870842 Z-0.125000
G01 X35.547690 Y63.866719 Z-0.125000
G01 X11.716412 Y56.867860 Z-0.125000
G00 Z3.000000

(End cutting path id: polyline126898)


(Start cutting path id: polyline126610)
(Change tool to Default tool)

G00 Z3.000000
G00 X198.271464 Y52.079168

G00 Z4.875000 (Fast pre-penetrate)
G01 Z-0.125000 F400.0(Penetrate)
G01 X171.454882 Y52.079168 Z-0.125000 F800.000000
G01 X144.638337 Y45.577869 Z-0.125000
G01 X117.821736 Y46.661384 Z-0.125000
G01 X85.587407 Y57.496934 Z-0.125000
G01 X60.937969 Y48.828490 Z-0.125000
G01 X37.372046 Y58.580468 Z-0.125000
G01 X10.555445 Y52.079168 Z-0.125000
G00 Z3.000000

(End cutting path id: polyline126610)


(Start cutting path id: polyline126612)
(Change tool to Default tool)

G00 Z3.000000
G00 X198.503668 Y53.501267

G00 Z4.875000 (Fast pre-penetrate)
G01 Z-0.125000 F400.0(Penetrate)
G01 X171.720237 Y53.235893 Z-0.125000 F800.000000
G01 X144.240248 Y47.049731 Z-0.125000
G01 X117.766454 Y47.735232 Z-0.125000
G01 X85.670359 Y57.824442 Z-0.125000
G01 X61.385765 Y49.636964 Z-0.125000
G01 X37.007145 Y59.637703 Z-0.125000
G01 X10.787650 Y53.036877 Z-0.125000
G00 Z3.000000

(End cutting path id: polyline126612)


(Start cutting path id: polyline126900)
(Change tool to Default tool)

G00 Z3.000000
G00 X198.735854 Y54.923422

G00 Z4.875000 (Fast pre-penetrate)
G01 Z-0.125000 F400.0(Penetrate)
G01 X171.985611 Y54.392674 Z-0.125000 F800.000000
G01 X143.842233 Y48.521593 Z-0.125000
G01 X117.711171 Y48.809062 Z-0.125000
G01 X85.753254 Y58.151931 Z-0.125000
G01 X61.833562 Y50.445438 Z-0.125000
G01 X36.642300 Y60.694957 Z-0.125000
G01 X11.019836 Y53.994660 Z-0.125000
G00 Z3.000000

(End cutting path id: polyline126900)


(Start cutting path id: polyline126902)
(Change tool to Default tool)

G00 Z3.000000
G00 X198.968040 Y56.345521

G00 Z4.875000 (Fast pre-penetrate)
G01 Z-0.125000 F400.0(Penetrate)
G01 X172.250985 Y55.549418 Z-0.125000 F800.000000
G01 X143.444200 Y49.993475 Z-0.125000
G01 X117.655889 Y49.882910 Z-0.125000
G01 X85.836187 Y58.479439 Z-0.125000
G01 X62.281340 Y51.253912 Z-0.125000
G01 X36.277455 Y61.752211 Z-0.125000
G01 X11.252021 Y54.952368 Z-0.125000
G00 Z3.000000

(End cutting path id: polyline126902)


(Start cutting path id: polyline126904)
(Change tool to Default tool)

G00 Z3.000000
G00 X199.200226 Y57.767620

G00 Z4.875000 (Fast pre-penetrate)
G01 Z-0.125000 F400.0(Penetrate)
G01 X172.516340 Y56.706199 Z-0.125000 F800.000000
G01 X143.046111 Y51.465281 Z-0.125000
G01 X117.600625 Y50.956702 Z-0.125000
G01 X85.919083 Y58.806947 Z-0.125000
G01 X62.729136 Y52.062368 Z-0.125000
G01 X35.912554 Y62.809465 Z-0.125000
G01 X11.484207 Y55.910095 Z-0.125000
G00 Z3.000000

(End cutting path id: polyline126904)


(Start cutting path id: polyline126906)
(Change tool to Default tool)

G00 Z3.000000
G00 X199.664617 Y60.611874

G00 Z4.875000 (Fast pre-penetrate)
G01 Z-0.125000 F400.0(Penetrate)
G01 X173.047032 Y59.019705 Z-0.125000 F800.000000
G01 X142.250064 Y54.409024 Z-0.125000
G01 X117.490061 Y53.104379 Z-0.125000
G01 X86.084967 Y59.462001 Z-0.125000
G01 X63.624729 Y53.679316 Z-0.125000
G01 X35.182846 Y64.923974 Z-0.125000
G01 X11.948598 Y57.825587 Z-0.125000
G00 Z3.000000

(End cutting path id: polyline126906)


(Start cutting path id: polyline126908)
(Change tool to Default tool)

G00 Z3.000000
G00 X199.896803 Y62.033973

G00 Z4.875000 (Fast pre-penetrate)
G01 Z-0.125000 F400.0(Penetrate)
G01 X173.312406 Y60.176448 Z-0.125000 F800.000000
G01 X141.852031 Y55.880887 Z-0.125000
G01 X117.434778 Y54.178227 Z-0.125000
G01 X86.167863 Y59.789490 Z-0.125000
G01 X64.072526 Y54.487790 Z-0.125000
G01 X34.817944 Y65.981228 Z-0.125000
G01 X12.180784 Y58.783295 Z-0.125000
G00 Z3.000000

(End cutting path id: polyline126908)


(Start cutting path id: polyline126910)
(Change tool to Default tool)

G00 Z3.000000
G00 X200.128951 Y63.456072

G00 Z4.875000 (Fast pre-penetrate)
G01 Z-0.125000 F400.0(Penetrate)
G01 X173.577781 Y61.333173 Z-0.125000 F800.000000
G01 X141.454017 Y57.352805 Z-0.125000
G01 X117.379496 Y55.252057 Z-0.125000
G01 X86.250814 Y60.116999 Z-0.125000
G01 X64.520322 Y55.296264 Z-0.125000
G01 X34.453100 Y67.038463 Z-0.125000
G01 X12.412989 Y59.741060 Z-0.125000
G00 Z3.000000

(End cutting path id: polyline126910)


(Start cutting path id: polyline126912)
(Change tool to Default tool)

G00 Z3.000000
G00 X200.361137 Y64.878227

G00 Z4.875000 (Fast pre-penetrate)
G01 Z-0.125000 F400.0(Penetrate)
G01 X173.843136 Y62.489954 Z-0.125000 F800.000000
G01 X117.324232 Y56.325905 Z-0.125000
G01 X86.333747 Y60.444488 Z-0.125000
G01 X64.968100 Y56.104738 Z-0.125000
G01 X34.088198 Y68.095679 Z-0.125000
G01 X12.645174 Y60.698787 Z-0.125000
G00 Z3.000000

(End cutting path id: polyline126912)


(Start cutting path id: polyline126914)
(Change tool to Default tool)

G00 Z3.000000
G00 X200.593323 Y66.300326

G00 Z4.875000 (Fast pre-penetrate)
G01 Z-0.125000 F400.0(Penetrate)
G01 X140.657913 Y60.296493 Z-0.125000 F800.000000
G01 X117.268894 Y57.399697 Z-0.125000
G01 X86.416643 Y60.771996 Z-0.125000
G01 X65.415896 Y56.913212 Z-0.125000
G01 X33.723354 Y69.152933 Z-0.125000
G01 X12.877360 Y61.656514 Z-0.125000
G00 Z3.000000

(End cutting path id: polyline126914)


(Start cutting path id: polyline126916)
(Change tool to Default tool)

G00 Z3.000000
G00 X200.825528 Y67.722425

G00 Z4.875000 (Fast pre-penetrate)
G01 Z-0.125000 F400.0(Penetrate)
G01 X174.373884 Y64.803479 Z-0.125000 F800.000000
G01 X140.259880 Y61.768411 Z-0.125000
G01 X117.213611 Y58.473526 Z-0.125000
G01 X86.499594 Y61.099504 Z-0.125000
G01 X65.863693 Y57.721686 Z-0.125000
G01 X33.358452 Y70.210169 Z-0.125000
G01 X13.109546 Y62.614222 Z-0.125000
G00 Z3.000000

(End cutting path id: polyline126916)


(Start cutting path id: polyline126918)
(Change tool to Default tool)

G00 Z3.000000
G00 X201.057713 Y69.144580

G00 Z4.875000 (Fast pre-penetrate)
G01 Z-0.125000 F400.0(Penetrate)
G01 X174.639239 Y65.960203 Z-0.125000 F800.000000
G01 X139.861847 Y63.240274 Z-0.125000
G01 X117.158348 Y59.547374 Z-0.125000
G01 X86.582527 Y61.426993 Z-0.125000
G01 X66.311489 Y58.530141 Z-0.125000
G01 X32.993589 Y71.267423 Z-0.125000
G01 X13.341751 Y63.572005 Z-0.125000
G00 Z3.000000

(End cutting path id: polyline126918)


(Start cutting path id: polyline126920)
(Change tool to Default tool)

G00 Z3.000000
G00 X201.289899 Y70.566679

G00 Z4.875000 (Fast pre-penetrate)
G01 Z-0.125000 F400.0(Penetrate)
G01 X174.904557 Y67.117003 Z-0.125000 F800.000000
G01 X139.463776 Y64.712136 Z-0.125000
G01 X117.103065 Y60.621204 Z-0.125000
G01 X86.665423 Y61.754501 Z-0.125000
G01 X66.759286 Y59.338615 Z-0.125000
G01 X32.628744 Y72.324677 Z-0.125000
G01 X13.573937 Y64.529714 Z-0.125000
G00 Z3.000000

(End cutting path id: polyline126920)


(Start cutting path id: polyline126922)
(Change tool to Default tool)

G00 Z3.000000
G00 X201.522104 Y71.988778

G00 Z4.875000 (Fast pre-penetrate)
G01 Z-0.125000 F400.0(Penetrate)
G01 X175.169931 Y68.273728 Z-0.125000 F800.000000
G01 X139.065743 Y66.184017 Z-0.125000
G01 X117.047783 Y61.695052 Z-0.125000
G01 X86.748374 Y62.082010 Z-0.125000
G01 X67.207082 Y60.147089 Z-0.125000
G01 X32.263843 Y73.381931 Z-0.125000
G01 X13.806123 Y65.487441 Z-0.125000
G00 Z3.000000

(End cutting path id: polyline126922)


(Start cutting path id: polyline126924)
(Change tool to Default tool)

G00 Z3.000000
G00 X201.754290 Y73.410877

G00 Z4.875000 (Fast pre-penetrate)
G01 Z-0.125000 F400.0(Penetrate)
G01 X175.435305 Y69.430509 Z-0.125000 F800.000000
G01 X138.667710 Y67.655880 Z-0.125000
G01 X116.992501 Y62.768844 Z-0.125000
G01 X86.831307 Y62.409499 Z-0.125000
G01 X67.654860 Y60.955563 Z-0.125000
G01 X31.898998 Y74.439185 Z-0.125000
G01 X14.038309 Y66.445205 Z-0.125000
G00 Z3.000000

(End cutting path id: polyline126924)


(Start cutting path id: polyline126926)
(Change tool to Default tool)

G00 Z3.000000
G00 X201.986476 Y74.832994

G00 Z4.875000 (Fast pre-penetrate)
G01 Z-0.125000 F400.0(Penetrate)
G01 X175.700661 Y70.587253 Z-0.125000 F800.000000
G01 X138.269696 Y69.127742 Z-0.125000
G01 X116.937218 Y63.842673 Z-0.125000
G01 X86.914203 Y62.737007 Z-0.125000
G01 X68.102657 Y61.764037 Z-0.125000
G01 X31.534153 Y75.496383 Z-0.125000
G01 X14.270513 Y67.402932 Z-0.125000
G00 Z3.000000

(End cutting path id: polyline126926)


(Start cutting path id: polyline126928)
(Change tool to Default tool)

G00 Z3.000000
G00 X202.218662 Y76.255131

G00 Z4.875000 (Fast pre-penetrate)
G01 Z-0.125000 F400.0(Penetrate)
G01 X175.965979 Y71.743977 Z-0.125000 F800.000000
G01 X137.871663 Y70.599604 Z-0.125000
G01 X116.881936 Y64.916521 Z-0.125000
G01 X86.997154 Y63.064496 Z-0.125000
G01 X68.550453 Y62.572512 Z-0.125000
G01 X31.169252 Y76.553637 Z-0.125000
G01 X14.502699 Y68.360641 Z-0.125000
G00 Z3.000000

(End cutting path id: polyline126928)


(Start cutting path id: polyline126930)
(Change tool to Default tool)

G00 Z3.000000
G00 X202.450867 Y77.677248

G00 Z4.875000 (Fast pre-penetrate)
G01 Z-0.125000 F400.0(Penetrate)
G01 X176.231409 Y72.900758 Z-0.125000 F800.000000
G01 X137.473593 Y72.071485 Z-0.125000
G01 X116.826672 Y65.990313 Z-0.125000
G01 X87.080050 Y63.392004 Z-0.125000
G01 X68.998250 Y63.380742 Z-0.125000
G01 X30.804389 Y77.610647 Z-0.125000
G01 X14.734848 Y69.318124 Z-0.125000
G00 Z3.000000

(End cutting path id: polyline126930)


(Start cutting path id: polyline126932)
(Change tool to Default tool)

G00 Z3.000000
G00 X202.683052 Y79.099347

G00 Z4.875000 (Fast pre-penetrate)
G01 Z-0.125000 F400.0(Penetrate)
G01 X176.496727 Y74.057502 Z-0.125000 F800.000000
G01 X137.075560 Y73.543348 Z-0.125000
G01 X116.771390 Y67.064142 Z-0.125000
G01 X87.162983 Y63.719550 Z-0.125000
G01 X69.446046 Y64.189460 Z-0.125000
G01 X30.439487 Y78.668145 Z-0.125000
G01 X14.967034 Y70.276132 Z-0.125000
G00 Z3.000000

(End cutting path id: polyline126932)


(Start cutting path id: polyline126934)
(Change tool to Default tool)

G00 Z3.000000
G00 X202.915238 Y80.521446

G00 Z4.875000 (Fast pre-penetrate)
G01 Z-0.125000 F400.0(Penetrate)
G01 X176.762082 Y75.214283 Z-0.125000 F800.000000
G01 X136.677527 Y75.015210 Z-0.125000
G01 X116.716051 Y68.137991 Z-0.125000
G01 X87.245934 Y64.047058 Z-0.125000
G01 X69.893843 Y64.997915 Z-0.125000
G01 X30.074643 Y79.725380 Z-0.125000
G01 X15.199220 Y71.233859 Z-0.125000
G00 Z3.000000

(End cutting path id: polyline126934)


(Start cutting path id: polyline126936)
(Change tool to Default tool)

G00 Z3.000000
G00 X203.147424 Y81.943545

G00 Z4.875000 (Fast pre-penetrate)
G01 Z-0.125000 F400.0(Penetrate)
G01 X177.027456 Y76.371008 Z-0.125000 F800.000000
G01 X136.279456 Y76.487016 Z-0.125000
G01 X116.660788 Y69.211764 Z-0.125000
G01 X87.328830 Y64.374510 Z-0.125000
G01 X70.341621 Y65.806333 Z-0.125000
G01 X29.709798 Y80.782540 Z-0.125000
G01 X15.431406 Y72.191511 Z-0.125000
G00 Z3.000000

(End cutting path id: polyline126936)


(Start cutting path id: polyline126938)
(Change tool to Default tool)

G00 Z3.000000
G00 X201.754328 Y98.311986

G00 Z4.875000 (Fast pre-penetrate)
G01 Z-0.125000 F400.0(Penetrate)
G01 X173.710439 Y90.235073 Z-0.125000 F800.000000
G01 X138.667710 Y93.850652 Z-0.125000
G01 X121.448334 Y96.653478 Z-0.125000
G01 X90.209088 Y81.920493 Z-0.125000
G01 X70.457742 Y88.875108 Z-0.125000
G01 X29.742930 Y103.867929 Z-0.125000
G01 X12.529091 Y88.327822 Z-0.125000
G00 Z3.000000

(End cutting path id: polyline126938)


(Start cutting path id: polyline126940)
(Change tool to Default tool)

G00 Z3.000000
G00 X201.986532 Y97.818650

G00 Z4.875000 (Fast pre-penetrate)
G01 Z-0.125000 F400.0(Penetrate)
G01 X174.108454 Y89.791500 Z-0.125000 F800.000000
G01 X121.050301 Y95.120814 Z-0.125000
G01 X90.032165 Y80.747118 Z-0.125000
G01 X70.689946 Y87.535943 Z-0.125000
G01 X29.543913 Y102.661441 Z-0.125000
G01 X12.877360 Y87.602300 Z-0.125000
G00 Z3.000000

(End cutting path id: polyline126940)


(Start cutting path id: polyline126942)
(Change tool to Default tool)

G00 Z3.000000
G00 X202.218718 Y97.325276

G00 Z4.875000 (Fast pre-penetrate)
G01 Z-0.125000 F400.0(Penetrate)
G01 X174.506543 Y89.347871 Z-0.125000 F800.000000
G01 X137.871663 Y92.764396 Z-0.125000
G01 X120.652230 Y93.588113 Z-0.125000
G01 X89.855318 Y79.573799 Z-0.125000
G01 X70.922132 Y86.196739 Z-0.125000
G01 X29.344897 Y101.454934 Z-0.125000
G01 X13.225667 Y86.876721 Z-0.125000
G00 Z3.000000

(End cutting path id: polyline126942)


(Start cutting path id: polyline126944)
(Change tool to Default tool)

G00 Z3.000000
G00 X202.450904 Y96.831920

G00 Z4.875000 (Fast pre-penetrate)
G01 Z-0.125000 F400.0(Penetrate)
G01 X174.904557 Y88.904261 Z-0.125000 F800.000000
G01 X137.473593 Y92.221278 Z-0.125000
G01 X120.254197 Y92.055524 Z-0.125000
G01 X89.678396 Y78.400518 Z-0.125000
G01 X71.154318 Y84.857611 Z-0.125000
G01 X29.145880 Y100.248521 Z-0.125000
G01 X13.573937 Y86.151274 Z-0.125000
G00 Z3.000000

(End cutting path id: polyline126944)


(Start cutting path id: polyline126946)
(Change tool to Default tool)

G00 Z3.000000
G00 X202.683109 Y96.338584

G00 Z4.875000 (Fast pre-penetrate)
G01 Z-0.125000 F400.0(Penetrate)
G01 X175.302590 Y88.460688 Z-0.125000 F800.000000
G01 X137.075560 Y91.678178 Z-0.125000
G01 X119.856183 Y90.522748 Z-0.125000
G01 X89.501492 Y77.227105 Z-0.125000
G01 X71.386523 Y83.518370 Z-0.125000
G01 X28.946864 Y99.041882 Z-0.125000
G01 X13.922244 Y85.425620 Z-0.125000
G00 Z3.000000

(End cutting path id: polyline126946)


(Start cutting path id: polyline126948)
(Change tool to Default tool)

G00 Z3.000000
G00 X202.915295 Y95.845210

G00 Z4.875000 (Fast pre-penetrate)
G01 Z-0.125000 F400.0(Penetrate)
G01 X175.700661 Y88.017059 Z-0.125000 F800.000000
G01 X136.677527 Y91.135078 Z-0.125000
G01 X119.458150 Y88.990085 Z-0.125000
G01 X89.324570 Y76.053787 Z-0.125000
G01 X71.618709 Y82.179166 Z-0.125000
G01 X28.747810 Y97.835394 Z-0.125000
G01 X14.270513 Y84.700079 Z-0.125000
G00 Z3.000000

(End cutting path id: polyline126948)


(Start cutting path id: polyline126950)
(Change tool to Default tool)

G00 Z3.000000
G00 X203.379629 Y83.365700

G00 Z4.875000 (Fast pre-penetrate)
G01 Z-0.125000 F400.0(Penetrate)
G01 X177.292830 Y77.527789 Z-0.125000 F800.000000
G01 X135.881423 Y77.958954 Z-0.125000
G01 X116.605505 Y70.285668 Z-0.125000
G01 X87.411763 Y64.702056 Z-0.125000
G01 X70.789417 Y66.614863 Z-0.125000
G01 X29.344897 Y81.839832 Z-0.125000
G01 X15.663610 Y73.149332 Z-0.125000
G00 Z3.000000

(End cutting path id: polyline126950)


(Start cutting path id: polyline126952)
(Change tool to Default tool)

G00 Z3.000000
G00 X203.611815 Y84.787799

G00 Z4.875000 (Fast pre-penetrate)
G01 Z-0.125000 F400.0(Penetrate)
G01 X177.558204 Y78.684532 Z-0.125000 F800.000000
G01 X135.483390 Y79.430816 Z-0.125000
G01 X116.550223 Y71.359460 Z-0.125000
G01 X87.494714 Y65.029564 Z-0.125000
G01 X71.237214 Y67.423337 Z-0.125000
G01 X28.980052 Y82.897086 Z-0.125000
G01 X15.895796 Y74.107059 Z-0.125000
G00 Z3.000000

(End cutting path id: polyline126952)


(Start cutting path id: polyline126954)
(Change tool to Default tool)

G00 Z3.000000
G00 X203.844001 Y86.209898

G00 Z4.875000 (Fast pre-penetrate)
G01 Z-0.125000 F400.0(Penetrate)
G01 X177.823522 Y79.841257 Z-0.125000 F800.000000
G01 X135.085376 Y80.902735 Z-0.125000
G01 X116.494941 Y72.433308 Z-0.125000
G01 X87.577610 Y65.357053 Z-0.125000
G01 X71.685010 Y68.231811 Z-0.125000
G01 X28.615151 Y83.954340 Z-0.125000
G01 X16.127982 Y75.064786 Z-0.125000
G00 Z3.000000

(End cutting path id: polyline126954)


(Start cutting path id: polyline126956)
(Change tool to Default tool)

G00 Z3.000000
G00 X203.147481 Y95.351874

G00 Z4.875000 (Fast pre-penetrate)
G01 Z-0.125000 F400.0(Penetrate)
G01 X176.098694 Y87.573486 Z-0.125000 F800.000000
G01 X136.279456 Y90.591978 Z-0.125000
G01 X119.060061 Y87.457365 Z-0.125000
G01 X89.147666 Y74.880468 Z-0.125000
G01 X71.850895 Y80.840000 Z-0.125000
G01 X28.548793 Y96.628887 Z-0.125000
G01 X14.618821 Y83.974557 Z-0.125000
G00 Z3.000000

(End cutting path id: polyline126956)


(Start cutting path id: polyline126958)
(Change tool to Default tool)

G00 Z3.000000
G00 X203.379667 Y94.858537

G00 Z4.875000 (Fast pre-penetrate)
G01 Z-0.125000 F400.0(Penetrate)
G01 X176.496727 Y87.129875 Z-0.125000 F800.000000
G01 X135.881423 Y90.048878 Z-0.125000
G01 X118.662047 Y85.924720 Z-0.125000
G01 X88.970744 Y73.707093 Z-0.125000
G01 X72.083081 Y79.500797 Z-0.125000
G01 X28.349777 Y95.422399 Z-0.125000
G01 X14.967071 Y83.248978 Z-0.125000
G00 Z3.000000

(End cutting path id: polyline126958)


(Start cutting path id: polyline126960)
(Change tool to Default tool)

G00 Z3.000000
G00 X203.611871 Y94.365144

G00 Z4.875000 (Fast pre-penetrate)
G01 Z-0.125000 F400.0(Penetrate)
G01 X176.894760 Y86.686302 Z-0.125000 F800.000000
G01 X135.483390 Y89.505778 Z-0.125000
G01 X118.264014 Y84.392000 Z-0.125000
G01 X88.793841 Y72.533774 Z-0.125000
G01 X72.315285 Y78.161593 Z-0.125000
G01 X28.150760 Y94.215891 Z-0.125000
G01 X15.315341 Y82.523456 Z-0.125000
G00 Z3.000000

(End cutting path id: polyline126960)


(Start cutting path id: polyline126962)
(Change tool to Default tool)

G00 Z3.000000
G00 X204.076206 Y87.631997

G00 Z4.875000 (Fast pre-penetrate)
G01 Z-0.125000 F400.0(Penetrate)
G01 X178.088878 Y80.998038 Z-0.125000 F800.000000
G01 X134.687343 Y82.374597 Z-0.125000
G01 X116.439658 Y73.507137 Z-0.125000
G01 X87.660543 Y65.684561 Z-0.125000
G01 X72.132807 Y69.040229 Z-0.125000
G01 X28.250287 Y85.011594 Z-0.125000
G01 X16.360224 Y76.022551 Z-0.125000
G00 Z3.000000

(End cutting path id: polyline126962)


(Start cutting path id: polyline126964)
(Change tool to Default tool)

G00 Z3.000000
G00 X203.844057 Y93.871808

G00 Z4.875000 (Fast pre-penetrate)
G01 Z-0.125000 F400.0(Penetrate)
G01 X177.292774 Y86.242673 Z-0.125000 F800.000000
G01 X135.085376 Y88.962622 Z-0.125000
G01 X117.865981 Y82.859336 Z-0.125000
G01 X88.616918 Y71.360455 Z-0.125000
G01 X72.547415 Y76.822427 Z-0.125000
G01 X27.951744 Y93.009347 Z-0.125000
G01 X15.663648 Y81.797915 Z-0.125000
G00 Z3.000000

(End cutting path id: polyline126964)


(Start cutting path id: polyline126966)
(Change tool to Default tool)

G00 Z3.000000
G00 X204.076206 Y93.378415

G00 Z4.875000 (Fast pre-penetrate)
G01 Z-0.125000 F400.0(Penetrate)
G01 X177.690863 Y85.799100 Z-0.125000 F800.000000
G01 X134.687343 Y88.419522 Z-0.125000
G01 X117.467966 Y81.326691 Z-0.125000
G01 X88.440015 Y70.187080 Z-0.125000
G01 X72.779657 Y75.483224 Z-0.125000
G01 X27.752727 Y91.802840 Z-0.125000
G01 X16.011917 Y81.072336 Z-0.125000
G00 Z3.000000

(End cutting path id: polyline126966)


(Start cutting path id: polyline126968)
(Change tool to Default tool)

G00 Z3.000000
G00 X204.308391 Y89.054152

G00 Z4.875000 (Fast pre-penetrate)
G01 Z-0.125000 F400.0(Penetrate)
G01 X178.354252 Y82.154782 Z-0.125000 F800.000000
G01 X134.289272 Y83.846422 Z-0.125000
G01 X116.384376 Y74.580986 Z-0.125000
G01 X87.743438 Y66.012069 Z-0.125000
G01 X72.580603 Y69.848703 Z-0.125000
G01 X27.885442 Y86.068848 Z-0.125000
G01 X16.592373 Y76.980278 Z-0.125000
G00 Z3.000000

(End cutting path id: polyline126968)


(Start cutting path id: polyline126970)
(Change tool to Default tool)

G00 Z3.000000
G00 X204.308391 Y92.885079

G00 Z4.875000 (Fast pre-penetrate)
G01 Z-0.125000 F400.0(Penetrate)
G01 X178.088878 Y85.355490 Z-0.125000 F800.000000
G01 X134.289272 Y87.876403 Z-0.125000
G01 X117.069877 Y79.793972 Z-0.125000
G01 X88.263149 Y69.013761 Z-0.125000
G01 X73.011843 Y74.144020 Z-0.125000
G01 X27.553729 Y90.596352 Z-0.125000
G01 X16.360224 Y80.346814 Z-0.125000
G00 Z3.000000

(End cutting path id: polyline126970)


(Start cutting path id: polyline126972)
(Change tool to Default tool)

G00 Z3.000000
G00 X204.540577 Y90.476251

G00 Z4.875000 (Fast pre-penetrate)
