%
(Header)
(Generated by gcodetools from Inkscape.)
(Using default header. To add your own header create file "header" in the output dir.)
M3
(Header end.)
G21 (All units in mm)

(Start cutting path id: polyline8708)
(Change tool to Default tool)

G00 Z3.000000
G00 X136.554874 Y131.772369

G00 Z4.875000 (Fast pre-penetrate)
G01 Z-0.125000 F400.0(Penetrate)
G01 X135.977982 Y132.656090 Z-0.125000 F800.000000
G01 X135.127930 Y133.448672 Z-0.125000
G01 X131.131543 Y135.842866 Z-0.125000
G01 X129.321853 Y137.282453 Z-0.125000
G01 X127.924578 Y138.962497 Z-0.125000
G01 X126.877800 Y141.019934 Z-0.125000
G01 X126.282073 Y143.126521 Z-0.125000
G01 X125.959248 Y145.724407 Z-0.125000
G01 X126.046066 Y156.094669 Z-0.125000
G01 X125.675962 Y162.335608 Z-0.125000
G01 X124.957168 Y165.207041 Z-0.125000
G01 X124.287073 Y166.358891 Z-0.125000
G01 X123.511841 Y167.153538 Z-0.125000
G01 X122.542657 Y167.754682 Z-0.125000
G01 X121.382293 Y168.160197 Z-0.125000
G01 X118.280851 Y168.438000 Z-0.125000
G01 X108.767736 Y167.614587 Z-0.125000
G01 X98.436691 Y167.374129 Z-0.125000
G01 X95.282165 Y167.038598 Z-0.125000
G01 X92.721495 Y166.529431 Z-0.125000
G01 X90.129285 Y165.521997 Z-0.125000
G01 X87.591964 Y163.699213 Z-0.125000
G01 X80.961764 Y157.197369 Z-0.125000
G01 X76.833087 Y152.786503 Z-0.125000
G01 X73.073805 Y148.239411 Z-0.125000
G01 X71.608418 Y146.168816 Z-0.125000
G01 X69.979458 Y142.917991 Z-0.125000
G01 X68.045410 Y138.161788 Z-0.125000
G01 X66.701671 Y134.114962 Z-0.125000
G01 X66.140065 Y131.295194 Z-0.125000
G01 X66.071372 Y128.312562 Z-0.125000
G01 X66.510105 Y125.567098 Z-0.125000
G01 X67.545338 Y122.601107 Z-0.125000
G01 X69.059874 Y119.885249 Z-0.125000
G01 X71.081191 Y117.332835 Z-0.125000
G01 X73.603289 Y114.993531 Z-0.125000
G01 X80.986533 Y109.876384 Z-0.125000
G01 X87.693037 Y107.552818 Z-0.125000
G01 X90.816086 Y106.222431 Z-0.125000
G01 X94.728429 Y104.020513 Z-0.125000
G01 X102.099868 Y98.899818 Z-0.125000
G01 X104.324942 Y97.909348 Z-0.125000
G01 X105.909848 Y97.773188 Z-0.125000
G01 X106.882645 Y98.094981 Z-0.125000
G01 X107.840026 Y98.757723 Z-0.125000
G01 X112.672210 Y103.763607 Z-0.125000
G01 X116.265920 Y106.660712 Z-0.125000
G01 X119.655808 Y108.768459 Z-0.125000
G01 X127.958957 Y113.219574 Z-0.125000
G01 X132.818747 Y116.557862 Z-0.125000
G01 X135.306016 Y118.638132 Z-0.125000
G01 X137.383770 Y120.712984 Z-0.125000
G01 X138.747375 Y122.465527 Z-0.125000
G01 X139.560082 Y124.036953 Z-0.125000
G01 X139.842723 Y125.396494 Z-0.125000
G01 X139.658380 Y126.670637 Z-0.125000
G01 X136.711740 Y132.367386 Z-0.125000
G01 X135.477651 Y133.567289 Z-0.125000
G01 X131.921932 Y135.676455 Z-0.125000
G01 X130.071736 Y137.117203 Z-0.125000
G01 X128.476832 Y139.026740 Z-0.125000
G01 X127.321241 Y141.417967 Z-0.125000
G01 X126.758796 Y143.624207 Z-0.125000
G01 X126.488475 Y146.011757 Z-0.125000
G01 X126.539753 Y155.720050 Z-0.125000
G01 X126.086572 Y162.477767 Z-0.125000
G01 X125.382291 Y165.553732 Z-0.125000
G01 X124.739995 Y166.811814 Z-0.125000
G01 X123.997659 Y167.691278 Z-0.125000
G01 X123.067433 Y168.366276 Z-0.125000
G01 X121.949510 Y168.830486 Z-0.125000
G01 X118.938691 Y169.171758 Z-0.125000
G01 X108.549402 Y168.132591 Z-0.125000
G01 X97.825936 Y167.850659 Z-0.125000
G01 X92.658866 Y167.087295 Z-0.125000
G01 X90.152892 Y166.151135 Z-0.125000
G01 X87.659045 Y164.407687 Z-0.125000
G01 X82.703149 Y159.787129 Z-0.125000
G01 X77.255824 Y154.223574 Z-0.125000
G01 X71.030880 Y146.671081 Z-0.125000
G01 X69.581683 Y143.961222 Z-0.125000
G01 X67.628737 Y139.341631 Z-0.125000
G01 X66.096528 Y135.070989 Z-0.125000
G01 X65.324457 Y132.005151 Z-0.125000
G01 X65.109412 Y129.054705 Z-0.125000
G01 X65.431979 Y126.311821 Z-0.125000
G01 X66.383039 Y123.311129 Z-0.125000
G01 X67.876612 Y120.525997 Z-0.125000
G01 X69.950948 Y117.869737 Z-0.125000
G01 X72.415190 Y115.553718 Z-0.125000
G01 X78.088009 Y111.606545 Z-0.125000
G01 X80.906552 Y109.416882 Z-0.125000
G01 X88.098938 Y106.586213 Z-0.125000
G01 X91.456447 Y104.996921 Z-0.125000
G01 X94.872200 Y102.950062 Z-0.125000
G01 X100.276117 Y99.151434 Z-0.125000
G01 X102.548211 Y97.855426 Z-0.125000
G01 X104.436012 Y97.127409 Z-0.125000
G01 X106.017435 Y96.995828 Z-0.125000
G01 X107.086853 Y97.294336 Z-0.125000
G01 X108.260182 Y98.042219 Z-0.125000
G01 X113.324439 Y103.132857 Z-0.125000
G01 X116.972780 Y106.036669 Z-0.125000
G01 X120.379310 Y108.129968 Z-0.125000
G01 X128.142397 Y112.215688 Z-0.125000
G01 X133.048498 Y115.530046 Z-0.125000
G01 X135.573693 Y117.637342 Z-0.125000
G01 X137.506321 Y119.565649 Z-0.125000
G01 X138.962936 Y121.419329 Z-0.125000
G01 X139.861686 Y123.119111 Z-0.125000
G01 X140.213020 Y124.620940 Z-0.125000
G01 X140.045448 Y126.182497 Z-0.125000
G01 X137.183367 Y132.432596 Z-0.125000
G01 X136.072153 Y133.530007 Z-0.125000
G01 X132.525270 Y135.661684 Z-0.125000
G01 X130.654175 Y137.144099 Z-0.125000
G01 X129.035793 Y139.118847 Z-0.125000
G01 X127.862658 Y141.590699 Z-0.125000
G01 X127.346460 Y143.568349 Z-0.125000
G01 X127.039051 Y146.000921 Z-0.125000
G01 X127.026409 Y155.880076 Z-0.125000
G01 X126.468222 Y162.828650 Z-0.125000
G01 X125.625845 Y166.266978 Z-0.125000
G01 X124.936012 Y167.563890 Z-0.125000
G01 X124.158588 Y168.461995 Z-0.125000
G01 X123.200175 Y169.140927 Z-0.125000
G01 X122.061999 Y169.594881 Z-0.125000
G01 X119.290735 Y169.882747 Z-0.125000
G01 X109.252716 Y168.682844 Z-0.125000
G01 X98.537377 Y168.392270 Z-0.125000
G01 X92.601396 Y167.608782 Z-0.125000
G01 X90.188238 Y166.748216 Z-0.125000
G01 X87.881442 Y165.207493 Z-0.125000
G01 X83.167681 Y161.043405 Z-0.125000
G01 X78.047438 Y156.011399 Z-0.125000
G01 X70.569057 Y147.273516 Z-0.125000
G01 X69.256085 Y145.034510 Z-0.125000
G01 X67.537533 Y141.150999 Z-0.125000
G01 X65.668760 Y136.284630 Z-0.125000
G01 X64.651265 Y132.964725 Z-0.125000
G01 X64.227626 Y130.069362 Z-0.125000
G01 X64.355272 Y127.348150 Z-0.125000
G01 X65.127214 Y124.319078 Z-0.125000
G01 X66.513459 Y121.453450 Z-0.125000
G01 X68.571283 Y118.666512 Z-0.125000
G01 X71.350545 Y116.004125 Z-0.125000
G01 X77.501506 Y111.698717 Z-0.125000
G01 X79.897958 Y109.596710 Z-0.125000
G01 X81.174745 Y108.737886 Z-0.125000
G01 X88.288892 Y105.653923 Z-0.125000
G01 X91.416586 Y104.095398 Z-0.125000
G01 X94.399218 Y102.295511 Z-0.125000
G01 X99.626661 Y98.707477 Z-0.125000
G01 X101.873407 Y97.425788 Z-0.125000
G01 X104.262634 Y96.456216 Z-0.125000
G01 X106.158046 Y96.243881 Z-0.125000
G01 X107.477275 Y96.572446 Z-0.125000
G01 X108.894415 Y97.452169 Z-0.125000
G01 X114.252149 Y102.686642 Z-0.125000
G01 X117.985696 Y105.570266 Z-0.125000
G01 X121.117196 Y107.462324 Z-0.125000
G01 X128.604414 Y111.380278 Z-0.125000
G01 X133.269219 Y114.501328 Z-0.125000
G01 X135.819117 Y116.624620 Z-0.125000
G01 X137.778384 Y118.600528 Z-0.125000
G01 X139.121801 Y120.322885 Z-0.125000
G01 X140.100660 Y122.143670 Z-0.125000
G01 X140.517140 Y123.787465 Z-0.125000
G01 X140.404200 Y125.530397 Z-0.125000
G01 X137.711755 Y132.421631 Z-0.125000
G01 X136.655173 Y133.524267 Z-0.125000
G01 X132.939428 Y135.809584 Z-0.125000
G01 X131.064785 Y137.381848 Z-0.125000
G01 X129.462657 Y139.474051 Z-0.125000
G01 X128.413041 Y141.790264 Z-0.125000
G01 X127.888136 Y143.822739 Z-0.125000
G01 X127.573373 Y146.312007 Z-0.125000
G01 X127.497392 Y156.315196 Z-0.125000
G01 X126.890635 Y162.903213 Z-0.125000
G01 X125.924418 Y166.767180 Z-0.125000
G01 X125.209946 Y168.135106 Z-0.125000
G01 X124.421427 Y169.084424 Z-0.125000
G01 X123.461466 Y169.802509 Z-0.125000
G01 X122.330902 Y170.281360 Z-0.125000
G01 X119.597370 Y170.574709 Z-0.125000
G01 X109.334696 Y169.164663 Z-0.125000
G01 X98.455783 Y168.848353 Z-0.125000
G01 X92.546957 Y168.095761 Z-0.125000
G01 X90.231712 Y167.313757 Z-0.125000
G01 X88.115386 Y165.974726 Z-0.125000
G01 X83.685878 Y162.291167 Z-0.125000
G01 X79.225346 Y158.128499 Z-0.125000
G01 X75.533080 Y154.192162 Z-0.125000
G01 X70.264872 Y148.016755 Z-0.125000
G01 X69.000663 Y146.112378 Z-0.125000
G01 X67.689367 Y143.354337 Z-0.125000
G01 X65.425077 Y137.743503 Z-0.125000
G01 X64.010839 Y133.609601 Z-0.125000
G01 X63.434011 Y130.754293 Z-0.125000
G01 X63.408340 Y128.060429 Z-0.125000
G01 X64.033931 Y125.028454 Z-0.125000
G01 X65.490223 Y121.846580 Z-0.125000
G01 X67.573589 Y119.025135 Z-0.125000
G01 X70.226495 Y116.490975 Z-0.125000
G01 X76.857920 Y111.846681 Z-0.125000
G01 X79.914986 Y109.066064 Z-0.125000
G01 X81.581614 Y107.903765 Z-0.125000
G01 X91.155294 Y103.313136 Z-0.125000
G01 X98.938183 Y98.307445 Z-0.125000
G01 X101.327023 Y96.962223 Z-0.125000
G01 X104.083517 Y95.826498 Z-0.125000
G01 X106.334842 Y95.518508 Z-0.125000
G01 X107.939421 Y95.870229 Z-0.125000
G01 X109.471630 Y96.766980 Z-0.125000
G01 X115.014545 Y102.030350 Z-0.125000
G01 X118.756155 Y104.893398 Z-0.125000
G01 X121.866691 Y106.766621 Z-0.125000
G01 X129.072881 Y110.551446 Z-0.125000
G01 X133.216393 Y113.275044 Z-0.125000
G01 X135.559503 Y115.167425 Z-0.125000
G01 X137.620552 Y117.170359 Z-0.125000
G01 X139.233258 Y119.183935 Z-0.125000
G01 X140.197540 Y120.906744 Z-0.125000
G01 X140.735797 Y122.707210 Z-0.125000
G01 X140.728379 Y124.661963 Z-0.125000
G01 X138.224341 Y132.443174 Z-0.125000
G01 X137.230130 Y133.550648 Z-0.125000
G01 X133.551022 Y135.861184 Z-0.125000
G01 X131.663027 Y137.477954 Z-0.125000
G01 X130.041291 Y139.635238 Z-0.125000
G01 X128.882862 Y142.305494 Z-0.125000
G01 X128.383241 Y144.411629 Z-0.125000
G01 X128.113887 Y146.640830 Z-0.125000
G01 X127.974889 Y156.450518 Z-0.125000
G01 X127.372132 Y162.669205 Z-0.125000
G01 X126.295167 Y167.022924 Z-0.125000
G01 X125.573793 Y168.497212 Z-0.125000
G01 X124.647050 Y169.685634 Z-0.125000
G01 X123.679542 Y170.442676 Z-0.125000
G01 X122.552654 Y170.946941 Z-0.125000
G01 X119.856791 Y171.247771 Z-0.125000
G01 X109.411193 Y169.622875 Z-0.125000
G01 X98.374061 Y169.280764 Z-0.125000
G01 X92.339717 Y168.516562 Z-0.125000
G01 X90.164373 Y167.794930 Z-0.125000
G01 X88.081330 Y166.513306 Z-0.125000
G01 X83.626731 Y162.993513 Z-0.125000
G01 X79.630861 Y159.422572 Z-0.125000
G01 X75.725033 Y155.352655 Z-0.125000
G01 X69.986875 Y148.732711 Z-0.125000
G01 X68.567993 Y146.757834 Z-0.125000
G01 X67.382474 Y144.372025 Z-0.125000
G01 X64.737115 Y137.822258 Z-0.125000
G01 X63.197553 Y133.398039 Z-0.125000
G01 X62.648008 Y130.830726 Z-0.125000
G01 X62.577832 Y128.148989 Z-0.125000
G01 X63.178783 Y125.128946 Z-0.125000
G01 X64.647008 Y121.959521 Z-0.125000
G01 X66.781716 Y119.150588 Z-0.125000
G01 X69.522988 Y116.624362 Z-0.125000
G01 X76.286833 Y111.948979 Z-0.125000
G01 X80.216074 Y108.234911 Z-0.125000
G01 X82.178308 Y106.854278 Z-0.125000
G01 X91.118271 Y102.413096 Z-0.125000
G01 X98.410246 Y97.830464 Z-0.125000
G01 X100.944406 Y96.447315 Z-0.125000
G01 X104.094611 Y95.180913 Z-0.125000
G01 X106.731456 Y94.826676 Z-0.125000
G01 X108.476775 Y95.187685 Z-0.125000
G01 X110.124182 Y96.096175 Z-0.125000
G01 X116.048746 Y101.557174 Z-0.125000
G01 X119.820929 Y104.369589 Z-0.125000
G01 X129.829020 Y109.892896 Z-0.125000
G01 X133.701114 Y112.462403 Z-0.125000
G01 X136.023455 Y114.368199 Z-0.125000
G01 X138.047351 Y116.402416 Z-0.125000
G01 X139.460493 Y118.241002 Z-0.125000
G01 X140.425162 Y120.039276 Z-0.125000
G01 X140.957356 Y121.950491 Z-0.125000
G01 X140.965160 Y123.884796 Z-0.125000
G01 X139.495001 Y128.872942 Z-0.125000
G01 X138.725316 Y132.496967 Z-0.125000
G01 X137.800508 Y133.608891 Z-0.125000
G01 X134.171452 Y135.945938 Z-0.125000
G01 X132.274170 Y137.607987 Z-0.125000
G01 X130.634502 Y139.829642 Z-0.125000
G01 X129.457046 Y142.570849 Z-0.125000
G01 X128.944976 Y144.722328 Z-0.125000
G01 X128.662916 Y146.988359 Z-0.125000
G01 X128.435745 Y156.870932 Z-0.125000
G01 X127.835310 Y162.667528 Z-0.125000
G01 X127.240486 Y165.443887 Z-0.125000
G01 X126.567681 Y167.476363 Z-0.125000
G01 X125.673962 Y169.216005 Z-0.125000
G01 X124.686137 Y170.415908 Z-0.125000
G01 X123.679542 Y171.167662 Z-0.125000
G01 X122.527693 Y171.653608 Z-0.125000
G01 X119.824477 Y171.888648 Z-0.125000
G01 X109.796713 Y170.097663 Z-0.125000
G01 X96.677053 Y169.565340 Z-0.125000
G01 X92.589850 Y169.006379 Z-0.125000
G01 X90.217135 Y168.306548 Z-0.125000
G01 X88.459883 Y167.315498 Z-0.125000
G01 X85.678234 Y165.325271 Z-0.125000
G01 X79.620734 Y160.295909 Z-0.125000
G01 X75.114149 Y155.615946 Z-0.125000
G01 X68.767687 Y148.245151 Z-0.125000
G01 X67.340678 Y145.898623 Z-0.125000
G01 X65.398568 Y141.214855 Z-0.125000
G01 X62.788297 Y134.286663 Z-0.125000
G01 X61.915605 Y130.894452 Z-0.125000
G01 X61.794731 Y128.226325 Z-0.125000
G01 X62.269713 Y125.518207 Z-0.125000
G01 X63.346226 Y122.897938 Z-0.125000
G01 X64.940163 Y120.489103 Z-0.125000
G01 X66.672324 Y118.593562 Z-0.125000
G01 X68.567413 Y116.952218 Z-0.125000
G01 X76.230588 Y111.636216 Z-0.125000
G01 X80.980921 Y106.899557 Z-0.125000
G01 X83.421233 Y105.352706 Z-0.125000
G01 X91.304678 Y101.403663 Z-0.125000
G01 X97.873537 Y97.386185 Z-0.125000
G01 X100.972722 Y95.774575 Z-0.125000
G01 X103.290805 Y94.830610 Z-0.125000
G01 X105.177703 Y94.317509 Z-0.125000
G01 X106.805567 Y94.150066 Z-0.125000
G01 X108.352418 Y94.311575 Z-0.125000
G01 X109.807226 Y94.827063 Z-0.125000
G01 X111.364075 Y95.815146 Z-0.125000
G01 X116.669241 Y100.684031 Z-0.125000
G01 X120.097701 Y103.292689 Z-0.125000
G01 X130.878250 Y109.417398 Z-0.125000
G01 X134.975709 Y112.281866 Z-0.125000
G01 X137.406926 Y114.484816 Z-0.125000
G01 X139.187269 Y116.583017 Z-0.125000
G01 X140.428968 Y118.693860 Z-0.125000
G01 X141.111899 Y120.954216 Z-0.125000
G01 X141.076682 Y123.643048 Z-0.125000
G01 X139.812601 Y128.432791 Z-0.125000
G01 X139.404893 Y131.863250 Z-0.125000
G01 X139.118060 Y132.803280 Z-0.125000
G01 X138.256204 Y133.791170 Z-0.125000
G01 X134.803105 Y136.064103 Z-0.125000
G01 X132.900276 Y137.772657 Z-0.125000
G01 X131.244355 Y140.058361 Z-0.125000
G01 X130.143138 Y142.566721 Z-0.125000
G01 X129.580758 Y144.737937 Z-0.125000
G01 X129.222780 Y147.355625 Z-0.125000
G01 X128.876412 Y157.589016 Z-0.125000
G01 X128.263529 Y162.932947 Z-0.125000
G01 X127.661287 Y165.524642 Z-0.125000
G01 X126.832714 Y167.912837 Z-0.125000
G01 X125.874494 Y169.725624 Z-0.125000
G01 X124.846228 Y170.980223 Z-0.125000
G01 X123.819896 Y171.768290 Z-0.125000
G01 X122.663208 Y172.278360 Z-0.125000
G01 X121.384292 Y172.519979 Z-0.125000
G01 X119.993855 Y172.522559 Z-0.125000
G01 X109.862052 Y170.524463 Z-0.125000
G01 X96.578690 Y169.958342 Z-0.125000
G01 X92.233872 Y169.346684 Z-0.125000
G01 X89.848579 Y168.608411 Z-0.125000
G01 X84.653708 Y165.230778 Z-0.125000
G01 X79.394144 Y160.954588 Z-0.125000
G01 X74.705280 Y156.104344 Z-0.125000
G01 X68.139129 Y148.491866 Z-0.125000
G01 X66.958125 Y146.612579 Z-0.125000
G01 X65.730874 Y143.707799 Z-0.125000
G01 X62.081887 Y134.054138 Z-0.125000
G01 X61.153080 Y130.368709 Z-0.125000
G01 X61.104640 Y127.696582 Z-0.125000
G01 X61.583944 Y125.304517 Z-0.125000
G01 X62.553902 Y122.993915 Z-0.125000
G01 X64.153128 Y120.600753 Z-0.125000
G01 X65.676565 Y118.942252 Z-0.125000
G01 X67.594100 Y117.284460 Z-0.125000
G01 X75.586680 Y111.791146 Z-0.125000
G01 X81.246857 Y105.874708 Z-0.125000
G01 X83.556748 Y104.400550 Z-0.125000
G01 X90.645740 Y100.881273 Z-0.125000
G01 X97.546520 Y96.852637 Z-0.125000
G01 X100.826112 Y95.226837 Z-0.125000
G01 X103.296933 Y94.258620 Z-0.125000
G01 X105.555869 Y93.670827 Z-0.125000
G01 X107.532294 Y93.505190 Z-0.125000
G01 X109.189183 Y93.712559 Z-0.125000
G01 X110.731906 Y94.275906 Z-0.125000
G01 X112.361124 Y95.311333 Z-0.125000
G01 X117.547286 Y99.998519 Z-0.125000
G01 X120.669433 Y102.379684 Z-0.125000
G01 X131.366067 Y108.613013 Z-0.125000
G01 X135.452754 Y111.503345 Z-0.125000
G01 X137.833210 Y113.724097 Z-0.125000
G01 X139.548020 Y115.855903 Z-0.125000
G01 X140.709416 Y118.023442 Z-0.125000
G01 X141.270441 Y120.146283 Z-0.125000
G01 X141.263991 Y122.596141 Z-0.125000
G01 X140.042158 Y128.102613 Z-0.125000
G01 X139.842916 Y131.969160 Z-0.125000
G01 X139.625421 Y132.919897 Z-0.125000
G01 X138.833677 Y133.910818 Z-0.125000
G01 X135.255125 Y136.365707 Z-0.125000
G01 X133.360552 Y138.180687 Z-0.125000
G01 X131.727721 Y140.588297 Z-0.125000
G01 X130.654691 Y143.195149 Z-0.125000
G01 X129.795415 Y147.743660 Z-0.125000
G01 X129.313726 Y158.317679 Z-0.125000
G01 X128.696262 Y163.192110 Z-0.125000
G01 X128.017459 Y165.863850 Z-0.125000
G01 X127.095940 Y168.332994 Z-0.125000
G01 X126.062384 Y170.214602 Z-0.125000
G01 X124.983549 Y171.521705 Z-0.125000
G01 X123.929288 Y172.345376 Z-0.125000
G01 X122.760862 Y172.880085 Z-0.125000
G01 X121.487170 Y173.134153 Z-0.125000
G01 X120.118018 Y173.136733 Z-0.125000
G01 X109.921457 Y170.940813 Z-0.125000
G01 X96.739812 Y170.365920 Z-0.125000
G01 X91.907628 Y169.673701 Z-0.125000
G01 X89.489633 Y168.904920 Z-0.125000
G01 X84.172857 Y165.576049 Z-0.125000
G01 X79.172907 Y161.608623 Z-0.125000
G01 X74.529129 Y156.850034 Z-0.125000
G01 X67.533857 Y148.758382 Z-0.125000
G01 X66.536679 Y147.207016 Z-0.125000
G01 X65.634704 Y145.138807 Z-0.125000
G01 X61.331811 Y133.538844 Z-0.125000
G01 X60.482662 Y130.131863 Z-0.125000
G01 X60.415453 Y127.764824 Z-0.125000
G01 X60.852766 Y125.383594 Z-0.125000
G01 X61.797053 Y123.084087 Z-0.125000
G01 X63.388668 Y120.706663 Z-0.125000
G01 X64.920619 Y119.063384 Z-0.125000
G01 X66.860536 Y117.423910 Z-0.125000
G01 X73.152882 Y113.294846 Z-0.125000
G01 X75.034168 Y111.857259 Z-0.125000
G01 X77.894314 Y108.899201 Z-0.125000
G01 X80.126483 Y106.023834 Z-0.125000
G01 X81.275559 Y104.962155 Z-0.125000
G01 X83.929110 Y103.286755 Z-0.125000
G01 X90.439790 Y100.133067 Z-0.125000
G01 X97.463250 Y96.227562 Z-0.125000
G01 X100.940794 Y94.608213 Z-0.125000
G01 X103.574737 Y93.636964 Z-0.125000
G01 X106.004728 Y93.046656 Z-0.125000
G01 X108.136276 Y92.880180 Z-0.125000
G01 X109.913652 Y93.089161 Z-0.125000
G01 X111.549320 Y93.654960 Z-0.125000
G01 X113.246006 Y94.689935 Z-0.125000
G01 X118.447907 Y99.308042 Z-0.125000
G01 X121.511874 Y101.629995 Z-0.125000
G01 X131.854465 Y107.815851 Z-0.125000
G01 X135.676635 Y110.535515 Z-0.125000
G01 X138.039289 Y112.751816 Z-0.125000
G01 X139.735652 Y114.901876 Z-0.125000
G01 X140.875763 Y117.119339 Z-0.125000
G01 X141.409246 Y119.326417 Z-0.125000
G01 X141.336296 Y122.149604 Z-0.125000
G01 X140.188574 Y128.077522 Z-0.125000
G01 X140.172191 Y132.952599 Z-0.125000
G01 X139.417729 Y134.058202 Z-0.125000
G01 X136.107112 Y136.399054 Z-0.125000
G01 X134.203380 Y138.206423 Z-0.125000
G01 X132.670912 Y140.353515 Z-0.125000
G01 X131.599301 Y142.630641 Z-0.125000
G01 X130.856771 Y145.157577 Z-0.125000
G01 X130.420167 Y147.816675 Z-0.125000
G01 X129.744524 Y159.065046 Z-0.125000
G01 X129.062109 Y163.756232 Z-0.125000
G01 X128.282105 Y166.488924 Z-0.125000
G01 X127.363811 Y168.736831 Z-0.125000
G01 X126.245501 Y170.682102 Z-0.125000
G01 X125.106165 Y172.038999 Z-0.125000
G01 X124.015332 Y172.897372 Z-0.125000
G01 X122.827555 Y173.457171 Z-0.125000
G01 X121.552832 Y173.725300 Z-0.125000
G01 X120.200966 Y173.731105 Z-0.125000
G01 X118.290203 Y173.413956 Z-0.125000
G01 X113.253101 Y172.005846 Z-0.125000
G01 X110.284982 Y171.396896 Z-0.125000
G01 X107.433737 Y171.113417 Z-0.125000
G01 X100.508060 Y171.014989 Z-0.125000
G01 X96.375062 Y170.714739 Z-0.125000
G01 X91.076733 Y169.881393 Z-0.125000
G01 X88.728076 Y169.010378 Z-0.125000
G01 X83.379759 Y165.730076 Z-0.125000
G01 X78.697281 Y162.020910 Z-0.125000
G01 X73.858776 Y157.049728 Z-0.125000
G01 X66.951933 Y149.047925 Z-0.125000
G01 X66.005646 Y147.569831 Z-0.125000
G01 X65.252281 Y145.825093 Z-0.125000
G01 X60.633916 Y133.025355 Z-0.125000
G01 X59.830498 Y129.605668 Z-0.125000
G01 X59.829208 Y127.237919 Z-0.125000
G01 X60.350049 Y124.876685 Z-0.125000
G01 X61.382831 Y122.622199 Z-0.125000
G01 X62.855571 Y120.562504 Z-0.125000
G01 X64.415000 Y118.962440 Z-0.125000
G01 X66.129552 Y117.559490 Z-0.125000
G01 X72.306765 Y113.577939 Z-0.125000
G01 X74.435281 Y111.946528 Z-0.125000
G01 X77.568006 Y108.649004 Z-0.125000
G01 X79.970069 Y105.247183 Z-0.125000
G01 X81.495054 Y103.851908 Z-0.125000
G01 X84.364295 Y102.132970 Z-0.125000
G01 X90.895486 Y99.088417 Z-0.125000
G01 X97.664040 Y95.512832 Z-0.125000
G01 X101.362692 Y93.915219 Z-0.125000
G01 X104.177171 Y92.962547 Z-0.125000
G01 X106.786152 Y92.405521 Z-0.125000
G01 X109.060569 Y92.283099 Z-0.125000
G01 X110.933792 Y92.538714 Z-0.125000
G01 X112.429430 Y93.055234 Z-0.125000
G01 X113.993631 Y93.954823 Z-0.125000
G01 X121.631716 Y100.364947 Z-0.125000
G01 X132.636662 Y107.215803 Z-0.125000
G01 X136.158841 Y109.803950 Z-0.125000
G01 X138.459316 Y112.037796 Z-0.125000
G01 X140.076473 Y114.212237 Z-0.125000
G01 X141.036627 Y116.220847 Z-0.125000
G01 X141.537215 Y118.500681 Z-0.125000
G01 X141.451817 Y121.231504 Z-0.125000
G01 X140.347633 Y127.531332 Z-0.125000
G01 X140.365241 Y129.407974 Z-0.125000
G01 X140.731669 Y132.390413 Z-0.125000
G01 X140.652462 Y133.232338 Z-0.125000
G01 X139.909545 Y134.324460 Z-0.125000
G01 X136.782303 Y136.613647 Z-0.125000
G01 X135.068138 Y138.260216 Z-0.125000
G01 X133.497357 Y140.412082 Z-0.125000
G01 X132.372210 Y142.701140 Z-0.125000
G01 X131.568857 Y145.241621 Z-0.125000
G01 X131.072525 Y147.910265 Z-0.125000
G01 X130.195318 Y159.519903 Z-0.125000
G01 X129.490199 Y164.013202 Z-0.125000
G01 X128.757409 Y166.514338 Z-0.125000
G01 X127.641550 Y169.125318 Z-0.125000
G01 X126.431198 Y171.128574 Z-0.125000
G01 X125.221878 Y172.531847 Z-0.125000
G01 X124.085896 Y173.423760 Z-0.125000
G01 X122.870255 Y174.008909 Z-0.125000
G01 X121.587275 Y174.292775 Z-0.125000
G01 X120.018946 Y174.282455 Z-0.125000
G01 X110.635606 Y171.857494 Z-0.125000
G01 X107.486111 Y171.521060 Z-0.125000
G01 X100.459040 Y171.419020 Z-0.125000
G01 X96.008183 Y171.056592 Z-0.125000
G01 X90.329301 Y170.097018 Z-0.125000
G01 X87.564745 Y168.935299 Z-0.125000
G01 X82.235327 Y165.663640 Z-0.125000
G01 X77.928951 Y162.152878 Z-0.125000
G01 X72.897976 Y156.925564 Z-0.125000
G01 X66.285385 Y149.215239 Z-0.125000
G01 X65.428044 Y147.828414 Z-0.125000
G01 X64.818773 Y146.368445 Z-0.125000
G01 X62.971156 Y140.595521 Z-0.125000
G01 X59.896095 Y132.238965 Z-0.125000
G01 X59.236512 Y129.085407 Z-0.125000
G01 X59.303915 Y126.718690 Z-0.125000
G01 X59.802182 Y124.667381 Z-0.125000
G01 X60.698739 Y122.707984 Z-0.125000
G01 X62.145549 Y120.658546 Z-0.125000
G01 X63.693174 Y119.072543 Z-0.125000
G01 X65.404695 Y117.687524 Z-0.125000
G01 X71.620866 Y113.737319 Z-0.125000
G01 X73.946754 Y111.910407 Z-0.125000
G01 X77.106505 Y108.530581 Z-0.125000
G01 X79.694523 Y104.546579 Z-0.125000
G01 X81.436101 Y102.921553 Z-0.125000
G01 X84.643517 Y101.069808 Z-0.125000
G01 X90.744555 Y98.394585 Z-0.125000
G01 X97.692356 Y94.937294 Z-0.125000
G01 X101.874116 Y93.241899 Z-0.125000
G01 X104.883839 Y92.308447 Z-0.125000
G01 X107.399552 Y91.820179 Z-0.125000
G01 X109.826641 Y91.698918 Z-0.125000
G01 X111.805258 Y91.958468 Z-0.125000
G01 X113.363462 Y92.477697 Z-0.125000
G01 X114.966105 Y93.374705 Z-0.125000
G01 X122.262983 Y99.449104 Z-0.125000
G01 X132.842548 Y106.249263 Z-0.125000
G01 X136.394784 Y108.888236 Z-0.125000
G01 X138.674812 Y111.120921 Z-0.125000
G01 X140.265395 Y113.300845 Z-0.125000
G01 X141.198781 Y115.334868 Z-0.125000
G01 X141.662475 Y117.674752 Z-0.125000
G01 X141.562242 Y120.271220 Z-0.125000
G01 X140.454252 Y127.105758 Z-0.125000
G01 X140.548165 Y129.165388 Z-0.125000
G01 X141.194782 Y132.570627 Z-0.125000
G01 X141.154792 Y133.532007 Z-0.125000
G01 X140.521526 Y134.520219 Z-0.125000
G01 X137.474135 Y136.856750 Z-0.125000
G01 X135.766485 Y138.554080 Z-0.125000
G01 X134.189060 Y140.766254 Z-0.125000
G01 X133.050175 Y143.105107 Z-0.125000
G01 X132.227020 Y145.680612 Z-0.125000
G01 X131.703792 Y148.362736 Z-0.125000
G01 X130.644564 Y159.989209 Z-0.125000
G01 X129.837276 Y164.591513 Z-0.125000
G01 X129.023731 Y167.137670 Z-0.125000
G01 X127.934318 Y169.498453 Z-0.125000
G01 X126.627344 Y171.553052 Z-0.125000
G01 X125.339914 Y172.998766 Z-0.125000
G01 X124.150009 Y173.922736 Z-0.125000
G01 X122.897667 Y174.533427 Z-0.125000
G01 X121.598305 Y174.834644 Z-0.125000
G01 X120.038167 Y174.833354 Z-0.125000
G01 X117.971055 Y174.400233 Z-0.125000
G01 X112.684852 Y172.706902 Z-0.125000
G01 X110.071485 Y172.178255 Z-0.125000
G01 X107.208372 Y171.922059 Z-0.125000
G01 X98.476424 Y171.713787 Z-0.125000
G01 X90.472492 Y170.522141 Z-0.125000
G01 X88.674928 Y169.984980 Z-0.125000
G01 X85.967584 Y168.670654 Z-0.125000
G01 X81.295683 Y165.741880 Z-0.125000
G01 X77.105537 Y162.216734 Z-0.125000
G01 X71.633767 Y156.457549 Z-0.125000
G01 X65.535954 Y149.250650 Z-0.125000
G01 X64.449701 Y147.096204 Z-0.125000
G01 X62.397230 Y140.188265 Z-0.125000
G01 X59.484130 Y132.302692 Z-0.125000
G01 X58.719412 Y128.869072 Z-0.125000
G01 X58.751856 Y126.800993 Z-0.125000
G01 X59.200586 Y124.750973 Z-0.125000
G01 X60.055862 Y122.792609 Z-0.125000
G01 X61.466682 Y120.748717 Z-0.125000
G01 X64.440348 Y117.988999 Z-0.125000
G01 X70.901879 Y113.899861 Z-0.125000
G01 X73.258083 Y112.027927 Z-0.125000
G01 X76.709375 Y108.289220 Z-0.125000
G01 X79.413752 Y103.803468 Z-0.125000
G01 X81.409785 Y101.947273 Z-0.125000
G01 X84.749234 Y100.106945 Z-0.125000
G01 X90.838403 Y97.630448 Z-0.125000
G01 X98.043883 Y94.265844 Z-0.125000
G01 X102.479712 Y92.584380 Z-0.125000
G01 X105.697900 Y91.671247 Z-0.125000
G01 X108.378734 Y91.217937 Z-0.125000
G01 X110.930116 Y91.147825 Z-0.125000
G01 X112.973427 Y91.459169 Z-0.125000
G01 X114.555753 Y92.019872 Z-0.125000
G01 X116.159365 Y92.949002 Z-0.125000
G01 X122.682558 Y98.383233 Z-0.125000
G01 X133.052497 Y105.280594 Z-0.125000
G01 X136.883504 Y108.215367 Z-0.125000
G01 X138.899596 Y110.239199 Z-0.125000
G01 X140.462637 Y112.419510 Z-0.125000
G01 X141.367902 Y114.468884 Z-0.125000
G01 X141.792444 Y116.855209 Z-0.125000
G01 X141.678601 Y119.277396 Z-0.125000
G01 X140.723284 Y124.504259 Z-0.125000
G01 X140.530621 Y126.849368 Z-0.125000
G01 X140.695935 Y128.890357 Z-0.125000
G01 X141.672860 Y132.767611 Z-0.125000
G01 X141.682471 Y133.847866 Z-0.125000
G01 X141.052946 Y134.829370 Z-0.125000
G01 X138.182480 Y137.126039 Z-0.125000
G01 X136.483214 Y138.877873 Z-0.125000
G01 X135.064332 Y140.876098 Z-0.125000
G01 X133.877136 Y143.227658 Z-0.125000
G01 X132.994963 Y145.815289 Z-0.125000
G01 X132.410782 Y148.501928 Z-0.125000
G01 X131.093036 Y160.475736 Z-0.125000
G01 X130.173517 Y165.179758 Z-0.125000
G01 X129.279605 Y167.763583 Z-0.125000
G01 X128.245855 Y169.856947 Z-0.125000
G01 X126.841163 Y171.955600 Z-0.125000
G01 X125.468915 Y173.439305 Z-0.125000
G01 X124.217154 Y174.393332 Z-0.125000
G01 X122.699780 Y175.104256 Z-0.125000
G01 X121.372231 Y175.373868 Z-0.125000
G01 X119.809835 Y175.335361 Z-0.125000
G01 X117.783358 Y174.860896 Z-0.125000
G01 X112.944144 Y173.201943 Z-0.125000
G01 X110.413789 Y172.648400 Z-0.125000
G01 X107.257199 Y172.353503 Z-0.125000
G01 X98.395927 Y172.129945 Z-0.125000
G01 X89.856899 Y170.808587 Z-0.125000
G01 X87.743476 Y170.119722 Z-0.125000
G01 X84.704664 Y168.620924 Z-0.125000
G01 X80.313921 Y165.767486 Z-0.125000
G01 X76.221236 Y162.204995 Z-0.125000
G01 X70.334146 Y155.942254 Z-0.125000
G01 X64.908364 Y149.449118 Z-0.125000
G01 X63.984265 Y147.547901 Z-0.125000
G01 X62.052798 Y140.347710 Z-0.125000
G01 X58.842414 Y131.544488 Z-0.125000
G01 X58.228886 Y128.373644 Z-0.125000
G01 X58.321573 Y126.303629 Z-0.125000
G01 X58.837190 Y124.268510 Z-0.125000
G01 X59.755806 Y122.345234 Z-0.125000
G01 X61.019758 Y120.597206 Z-0.125000
G01 X63.741356 Y118.092716 Z-0.125000
G01 X70.153029 Y114.060402 Z-0.125000
G01 X72.685125 Y112.001095 Z-0.125000
G01 X76.158735 Y108.204338 Z-0.125000
G01 X79.130918 Y103.020045 Z-0.125000
G01 X81.229699 Y101.072195 Z-0.125000
G01 X84.671059 Y99.242122 Z-0.125000
G01 X90.970823 Y96.902237 Z-0.125000
G01 X98.486744 Y93.608971 Z-0.125000
G01 X103.183735 Y91.938601 Z-0.125000
G01 X106.301624 Y91.115253 Z-0.125000
G01 X109.147580 Y90.664330 Z-0.125000
G01 X111.831704 Y90.604151 Z-0.125000
G01 X113.951706 Y90.926524 Z-0.125000
G01 X115.781585 Y91.593782 Z-0.125000
G01 X117.366040 Y92.550195 Z-0.125000
G01 X122.917985 Y97.190748 Z-0.125000
G01 X132.974129 Y104.099203 Z-0.125000
G01 X137.128800 Y107.355511 Z-0.125000
G01 X139.134894 Y109.396629 Z-0.125000
G01 X140.671232 Y111.574940 Z-0.125000
G01 X141.548632 Y113.630442 Z-0.125000
G01 X141.933958 Y116.049017 Z-0.125000
G01 X141.772449 Y118.539833 Z-0.125000
G01 X140.718640 Y124.313466 Z-0.125000
G01 X140.597959 Y126.573177 Z-0.125000
G01 X140.855639 Y128.776321 Z-0.125000
G01 X142.170481 Y132.977432 Z-0.125000
G01 X142.237755 Y134.176302 Z-0.125000
G01 X141.702466 Y135.060346 Z-0.125000
G01 X138.907079 Y137.418807 Z-0.125000
G01 X137.217488 Y139.229594 Z-0.125000
G01 X135.796606 Y141.286192 Z-0.125000
G01 X134.599284 Y143.689094 Z-0.125000
G01 X133.699179 Y146.308911 Z-0.125000
G01 X133.087843 Y149.001742 Z-0.125000
G01 X131.541960 Y160.982001 Z-0.125000
G01 X130.600962 Y165.439566 Z-0.125000
G01 X129.800833 Y167.755585 Z-0.125000
G01 X128.748379 Y169.910998 Z-0.125000
G01 X127.278025 Y172.091180 Z-0.125000
G01 X125.832763 Y173.659961 Z-0.125000
G01 X124.520113 Y174.693323 Z-0.125000
G01 X122.944624 Y175.496097 Z-0.125000
G01 X121.359588 Y175.863879 Z-0.125000
G01 X119.791001 Y175.840981 Z-0.125000
G01 X117.804256 Y175.375416 Z-0.125000
G01 X113.178797 Y173.703112 Z-0.125000
G01 X110.450490 Y173.086293 Z-0.125000
G01 X107.637881 Y172.818100 Z-0.125000
G01 X98.636643 Y172.595251 Z-0.125000
G01 X89.334897 Y171.135669 Z-0.125000
G01 X86.730689 Y170.251948 Z-0.125000
G01 X83.539333 Y168.642919 Z-0.125000
G01 X79.560426 Y165.938800 Z-0.125000
G01 X74.966894 Y161.811026 Z-0.125000
G01 X68.283482 Y154.567168 Z-0.125000
G01 X64.300189 Y149.667516 Z-0.125000
G01 X63.391312 Y147.566542 Z-0.125000
G01 X61.478808 Y139.679485 Z-0.125000
G01 X58.337891 Y131.085954 Z-0.125000
G01 X57.788863 Y127.894470 Z-0.125000
G01 X57.942955 Y125.821230 Z-0.125000
G01 X58.414712 Y124.082684 Z-0.125000
G01 X59.182784 Y122.433728 Z-0.125000
G01 X60.402230 Y120.679315 Z-0.125000
G01 X63.060038 Y118.183210 Z-0.125000
G01 X69.378055 Y114.213333 Z-0.125000
G01 X72.071789 Y111.971747 Z-0.125000
G01 X75.676013 Y107.968395 Z-0.125000
G01 X78.716244 Y102.369945 Z-0.125000
G01 X79.767602 Y101.211580 Z-0.125000
G01 X81.075027 Y100.173638 Z-0.125000
G01 X84.631198 Y98.376783 Z-0.125000
G01 X90.935283 Y96.288322 Z-0.125000
G01 X99.935683 Y92.626886 Z-0.125000
G01 X105.631206 Y90.865442 Z-0.125000
G01 X109.318119 Y90.191670 Z-0.125000
G01 X112.484320 Y90.063572 Z-0.125000
G01 X114.960623 Y90.419292 Z-0.125000
G01 X117.226783 Y91.310754 Z-0.125000
G01 X118.926436 Y92.453122 Z-0.125000
G01 X123.785646 Y96.494594 Z-0.125000
G01 X131.424763 Y101.824335 Z-0.125000
G01 X135.519319 Y104.921714 Z-0.125000
G01 X138.764210 Y107.895445 Z-0.125000
G01 X140.752115 Y110.523647 Z-0.125000
G01 X141.744714 Y112.826121 Z-0.125000
G01 X142.093790 Y115.540495 Z-0.125000
G01 X141.883519 Y117.806075 Z-0.125000
G01 X140.787720 Y123.574549 Z-0.125000
G01 X140.699031 Y126.778805 Z-0.125000
G01 X141.186397 Y129.275748 Z-0.125000
G01 X142.645915 Y133.056896 Z-0.125000
G01 X142.866893 Y134.077359 Z-0.125000
G01 X142.754985 Y134.716752 Z-0.125000
G01 X142.369981 Y135.302288 Z-0.125000
G01 X139.646964 Y137.731505 Z-0.125000
G01 X137.968080 Y139.606083 Z-0.125000
G01 X136.715029 Y141.438607 Z-0.125000
G01 X135.617102 Y143.541130 Z-0.125000
G01 X134.626051 Y146.157141 Z-0.125000
G01 X133.923834 Y148.853585 Z-0.125000
G01 X131.930962 Y161.856434 Z-0.125000
G01 X130.589675 Y167.060915 Z-0.125000
G01 X129.448983 Y169.637258 Z-0.125000
G01 X127.970245 Y171.930316 Z-0.125000
G01 X126.022523 Y174.043094 Z-0.125000
G01 X124.163812 Y175.383801 Z-0.125000
G01 X122.045938 Y176.208763 Z-0.125000
G01 X119.987598 Y176.343698 Z-0.125000
G01 X117.806385 Y175.873102 Z-0.125000
G01 X113.146740 Y174.135846 Z-0.125000
G01 X110.485965 Y173.542248 Z-0.125000
G01 X107.353563 Y173.279472 Z-0.125000
G01 X100.260443 Y173.188462 Z-0.125000
G01 X96.670152 Y172.818294 Z-0.125000
G01 X91.178321 Y171.673862 Z-0.125000
G01 X88.254255 Y171.350392 Z-0.125000
G01 X85.727642 Y170.415844 Z-0.125000
G01 X82.854661 Y168.943942 Z-0.125000
G01 X78.748107 Y166.036840 Z-0.125000
G01 X74.266806 Y161.944348 Z-0.125000
G01 X67.709040 Y154.860387 Z-0.125000
G01 X63.804567 Y150.061034 Z-0.125000
G01 X62.955289 Y148.090995 Z-0.125000
G01 X62.025450 Y143.041832 Z-0.125000
G01 X61.126442 Y139.604729 Z-0.125000
G01 X57.873552 Y130.650705 Z-0.125000
G01 X57.399087 Y127.731090 Z-0.125000
G01 X57.553759 Y125.649336 Z-0.125000
G01 X58.027515 Y123.907694 Z-0.125000
G01 X58.795910 Y122.262931 Z-0.125000
G01 X60.009680 Y120.524449 Z-0.125000
G01 X62.871116 Y117.907986 Z-0.125000
G01 X69.538274 Y113.650695 Z-0.125000
G01 X72.908296 Y110.425670 Z-0.125000
G01 X75.270563 Y107.535080 Z-0.125000
G01 X78.159605 Y101.885869 Z-0.125000
G01 X79.382018 Y100.481886 Z-0.125000
G01 X80.737754 Y99.397826 Z-0.125000
G01 X82.516742 Y98.377364 Z-0.125000
G01 X84.396416 Y97.598198 Z-0.125000
G01 X90.731655 Y95.765674 Z-0.125000
G01 X99.974125 Y92.202215 Z-0.125000
G01 X106.288273 Y90.321961 Z-0.125000
G01 X109.820901 Y89.699144 Z-0.125000
G01 X113.149255 Y89.543569 Z-0.125000
G01 X115.986890 Y89.939021 Z-0.125000
G01 X118.253696 Y90.843318 Z-0.125000
G01 X119.921034 Y91.969368 Z-0.125000
G01 X124.059192 Y95.391249 Z-0.125000
G01 X130.803881 Y100.168736 Z-0.125000
G01 X135.477716 Y103.796889 Z-0.125000
G01 X138.804329 Y106.885044 Z-0.125000
G01 X140.990638 Y109.767830 Z-0.125000
G01 X141.958533 Y112.061790 Z-0.125000
G01 X142.273940 Y114.502295 Z-0.125000
G01 X142.068442 Y116.788903 Z-0.125000
G01 X140.837901 Y123.078153 Z-0.125000
G01 X140.785591 Y126.489455 Z-0.125000
G01 X141.381769 Y129.168290 Z-0.125000
G01 X143.185655 Y133.275811 Z-0.125000
G01 X143.481583 Y134.424049 Z-0.125000
G01 X143.056525 Y135.550615 Z-0.125000
G01 X140.219083 Y138.248090 Z-0.125000
G01 X138.365403 Y140.512509 Z-0.125000
G01 X136.986770 Y142.789441 Z-0.125000
G01 X135.842208 Y145.356110 Z-0.125000
G01 X134.439709 Y150.399662 Z-0.125000
G01 X132.145040 Y163.475848 Z-0.125000
G01 X131.375871 Y166.305098 Z-0.125000
G01 X130.470284 Y168.676846 Z-0.125000
G01 X129.303083 Y170.857350 Z-0.125000
G01 X127.869366 Y172.786108 Z-0.125000
G01 X126.247565 Y174.400556 Z-0.125000
G01 X124.532691 Y175.628774 Z-0.125000
G01 X123.294603 Y176.241787 Z-0.125000
G01 X121.831603 Y176.680003 Z-0.125000
G01 X119.296798 Y176.719994 Z-0.125000
G01 X117.589470 Y176.283583 Z-0.125000
G01 X113.349207 Y174.651721 Z-0.125000
G01 X110.803630 Y174.061799 Z-0.125000
G01 X108.067390 Y173.806313 Z-0.125000
G01 X98.817825 Y173.581915 Z-0.125000
G01 X95.401814 Y173.064041 Z-0.125000
G01 X90.908128 Y171.984496 Z-0.125000
G01 X88.269284 Y171.848787 Z-0.125000
G01 X85.573486 Y170.969645 Z-0.125000
G01 X82.423023 Y169.393253 Z-0.125000
G01 X78.519066 Y166.593867 Z-0.125000
G01 X73.533113 Y162.029102 Z-0.125000
G01 X66.893431 Y154.872836 Z-0.125000
G01 X63.230835 Y150.322003 Z-0.125000
G01 X62.451862 Y148.328809 Z-0.125000
G01 X61.775123 Y143.653748 Z-0.125000
G01 X61.066456 Y140.479356 Z-0.125000
G01 X60.006326 Y137.115139 Z-0.125000
G01 X57.610455 Y130.812859 Z-0.125000
G01 X57.042205 Y127.591059 Z-0.125000
G01 X57.148309 Y125.792914 Z-0.125000
G01 X57.571110 Y124.030761 Z-0.125000
G01 X58.291064 Y122.363229 Z-0.125000
G01 X59.451299 Y120.601850 Z-0.125000
G01 X60.656297 Y119.282750 Z-0.125000
G01 X62.218306 Y117.971068 Z-0.125000
G01 X68.702864 Y113.780728 Z-0.125000
G01 X72.614626 Y109.992485 Z-0.125000
G01 X74.825316 Y107.059389 Z-0.125000
G01 X77.586066 Y101.406694 Z-0.125000
G01 X78.815897 Y99.917120 Z-0.125000
G01 X80.195176 Y98.763593 Z-0.125000
G01 X82.019379 Y97.689273 Z-0.125000
G01 X83.951621 Y96.896432 Z-0.125000
G01 X90.996301 Y95.119121 Z-0.125000
G01 X100.710721 Y91.552888 Z-0.125000
G01 X107.003970 Y89.779189 Z-0.125000
G01 X110.702880 Y89.174884 Z-0.125000
G01 X114.140435 Y89.054591 Z-0.125000
G01 X117.016318 Y89.487066 Z-0.125000
G01 X119.264677 Y90.408069 Z-0.125000
G01 X124.537464 Y94.487597 Z-0.125000
G01 X130.787304 Y98.946065 Z-0.125000
G01 X135.150569 Y102.419739 Z-0.125000
G01 X138.841933 Y105.886383 Z-0.125000
G01 X141.242771 Y109.060195 Z-0.125000
G01 X142.191379 Y111.342480 Z-0.125000
G01 X142.480406 Y113.774149 Z-0.125000
G01 X142.239174 Y116.075205 Z-0.125000
G01 X140.912206 Y122.561762 Z-0.125000
G01 X140.886599 Y126.172048 Z-0.125000
G01 X141.586494 Y129.036129 Z-0.125000
G01 X143.819888 Y133.635466 Z-0.125000
G01 X144.129878 Y134.769384 Z-0.125000
G01 X143.682309 Y135.902852 Z-0.125000
G01 X140.986575 Y138.596651 Z-0.125000
G01 X139.143924 Y140.946081 Z-0.125000
G01 X137.767161 Y143.290030 Z-0.125000
G01 X136.746634 Y145.570058 Z-0.125000
G01 X135.325172 Y150.301298 Z-0.125000
G01 X132.564744 Y164.066802 Z-0.125000
G01 X131.714434 Y166.921529 Z-0.125000
G01 X130.738219 Y169.298115 Z-0.125000
G01 X129.498326 Y171.464041 Z-0.125000
G01 X128.213670 Y173.107385 Z-0.125000
G01 X126.513243 Y174.733120 Z-0.125000
G01 X124.705939 Y175.980753 Z-0.125000
G01 X121.877334 Y177.072940 Z-0.125000
G01 X119.280544 Y177.155695 Z-0.125000
G01 X117.380230 Y176.678907 Z-0.125000
G01 X113.311861 Y175.105869 Z-0.125000
G01 X111.107815 Y174.602184 Z-0.125000
G01 X108.118087 Y174.337087 Z-0.125000
G01 X99.091823 Y174.143328 Z-0.125000
G01 X95.550358 Y173.591397 Z-0.125000
G01 X90.712305 Y172.318931 Z-0.125000
G01 X87.788110 Y172.244046 Z-0.125000
G01 X85.136366 Y171.414957 Z-0.125000
G01 X82.244679 Y169.991302 Z-0.125000
G01 X78.272416 Y167.124448 Z-0.125000
G01 X73.110312 Y162.404817 Z-0.125000
G01 X67.064164 Y155.992500 Z-0.125000
G01 X64.066568 Y152.536305 Z-0.125000
G01 X62.767076 Y150.760026 Z-0.125000
G01 X61.999972 Y148.758704 Z-0.125000
G01 X61.442043 Y143.774880 Z-0.125000
G01 X60.770592 Y140.500060 Z-0.125000
G01 X59.715751 Y137.061539 Z-0.125000
G01 X57.288984 Y130.723397 Z-0.125000
G01 X56.712285 Y127.476829 Z-0.125000
G01 X56.818453 Y125.660753 Z-0.125000
G01 X57.241383 Y123.882732 Z-0.125000
G01 X57.958048 Y122.205397 Z-0.125000
G01 X59.105383 Y120.444275 Z-0.125000
G01 X60.288580 Y119.136527 Z-0.125000
G01 X61.810921 Y117.849162 Z-0.125000
G01 X67.848942 Y113.891992 Z-0.125000
G01 X71.950593 Y109.893025 Z-0.125000
G01 X74.098782 Y106.982247 Z-0.125000
G01 X76.991243 Y100.930874 Z-0.125000
G01 X78.236296 Y99.363125 Z-0.125000
G01 X79.868481 Y97.980299 Z-0.125000
G01 X81.772665 Y96.884629 Z-0.125000
G01 X83.771471 Y96.108559 Z-0.125000
G01 X91.312676 Y94.496240 Z-0.125000
G01 X101.529426 Y90.895499 Z-0.125000
G01 X107.771978 Y89.234289 Z-0.125000
G01 X111.621497 Y88.658687 Z-0.125000
G01 X115.144514 Y88.585736 Z-0.125000
G01 X118.034652 Y89.064782 Z-0.125000
G01 X120.246826 Y90.006295 Z-0.125000
G01 X130.258916 Y97.345356 Z-0.125000
G01 X135.112966 Y101.280080 Z-0.125000
G01 X139.111158 Y105.148433 Z-0.125000
G01 X141.508061 Y108.400677 Z-0.125000
G01 X142.443383 Y110.671933 Z-0.125000
G01 X142.714350 Y113.083478 Z-0.125000
G01 X142.443963 Y115.383630 Z-0.125000
G01 X141.062105 Y121.701390 Z-0.125000
G01 X140.891759 Y123.961939 Z-0.125000
G01 X141.009924 Y125.824778 Z-0.125000
G01 X141.905965 Y129.121076 Z-0.125000
G01 X144.432643 Y133.847930 Z-0.125000
G01 X144.810680 Y135.109044 Z-0.125000
G01 X144.412261 Y136.152533 Z-0.125000
G01 X141.763548 Y138.953661 Z-0.125000
G01 X140.113625 Y141.118878 Z-0.125000
G01 X138.720995 Y143.490175 Z-0.125000
G01 X137.672216 Y145.796196 Z-0.125000
G01 X136.173483 Y150.555237 Z-0.125000
G01 X133.090294 Y164.313451 Z-0.125000
G01 X132.186126 Y167.193270 Z-0.125000
G01 X131.173598 Y169.590044 Z-0.125000
G01 X129.903131 Y171.769193 Z-0.125000
G01 X128.588934 Y173.414279 Z-0.125000
G01 X126.822910 Y175.042529 Z-0.125000
G01 X124.925886 Y176.303514 Z-0.125000
G01 X121.960475 Y177.434466 Z-0.125000
G01 X120.452518 Y177.616228 Z-0.125000
G01 X119.060339 Y177.536183 Z-0.125000
G01 X117.383133 Y177.129314 Z-0.125000
G01 X113.494462 Y175.640900 Z-0.125000
G01 X111.399228 Y175.163532 Z-0.125000
G01 X108.495867 Y174.912238 Z-0.125000
G01 X99.022614 Y174.707772 Z-0.125000
G01 X95.416068 Y174.094114 Z-0.125000
G01 X90.399994 Y172.648335 Z-0.125000
G01 X88.505162 Y172.776240 Z-0.125000
G01 X87.223860 Y172.638467 Z-0.125000
G01 X84.655579 Y171.855430 Z-0.125000
G01 X82.038084 Y170.570967 Z-0.125000
G01 X78.006093 Y167.627229 Z-0.125000
G01 X72.327856 Y162.407462 Z-0.125000
G01 X66.239719 Y155.977149 Z-0.125000
G01 X63.499737 Y152.821591 Z-0.125000
G01 X62.225272 Y151.059695 Z-0.125000
G01 X61.556918 Y149.217754 Z-0.125000
G01 X61.166174 Y144.216902 Z-0.125000
G01 X60.496078 Y140.560497 Z-0.125000
G01 X59.335327 Y136.737101 Z-0.125000
G01 X56.986864 Y130.668894 Z-0.125000
G01 X56.402941 Y127.390011 Z-0.125000
G01 X56.509883 Y125.550070 Z-0.125000
G01 X56.933071 Y123.749216 Z-0.125000
G01 X57.645543 Y122.054852 Z-0.125000
G01 X58.777204 Y120.285733 Z-0.125000
G01 X59.934666 Y118.983081 Z-0.125000
G01 X61.410760 Y117.713969 Z-0.125000
G01 X66.982571 Y113.979841 Z-0.125000
G01 X71.250892 Y109.780149 Z-0.125000
G01 X73.454358 Y106.682964 Z-0.125000
G01 X76.370941 Y100.457892 Z-0.125000
G01 X77.638957 Y98.821192 Z-0.125000
G01 X79.314938 Y97.359739 Z-0.125000
G01 X81.286137 Y96.201568 Z-0.125000
G01 X83.361118 Y95.399440 Z-0.125000
G01 X91.459737 Y93.950759 Z-0.125000
G01 X102.067037 Y90.335893 Z-0.125000
G01 X108.584748 Y88.685196 Z-0.125000
G01 X112.565010 Y88.150423 Z-0.125000
G01 X115.817835 Y88.113786 Z-0.125000
G01 X118.774021 Y88.597411 Z-0.125000
G01 X120.999289 Y89.528218 Z-0.125000
G01 X130.048773 Y96.013292 Z-0.125000
G01 X135.077748 Y100.150096 Z-0.125000
G01 X139.390123 Y104.435638 Z-0.125000
G01 X140.829064 Y106.268484 Z-0.125000
G01 X141.919574 Y108.037152 Z-0.125000
G01 X142.776722 Y110.309311 Z-0.125000
G01 X142.964676 Y112.710794 Z-0.125000
G01 X142.685776 Y114.719082 Z-0.125000
G01 X141.212649 Y121.138687 Z-0.125000
G01 X141.031273 Y123.489924 Z-0.125000
G01 X141.163371 Y125.446289 Z-0.125000
G01 X141.557727 Y127.282231 Z-0.125000
G01 X142.158549 Y128.942022 Z-0.125000
G01 X145.080744 Y134.049107 Z-0.125000
G01 X145.519799 Y135.328539 Z-0.125000
G01 X145.079454 Y136.505028 Z-0.125000
G01 X142.547293 Y139.314799 Z-0.125000
G01 X140.907239 Y141.568511 Z-0.125000
G01 X138.614504 Y146.029624 Z-0.125000
G01 X137.138668 Y150.493316 Z-0.125000
G01 X133.747877 Y164.209412 Z-0.125000
G01 X131.792867 Y169.546829 Z-0.125000
G01 X130.532076 Y171.770225 Z-0.125000
G01 X129.229617 Y173.451495 Z-0.125000
G01 X127.450822 Y175.119672 Z-0.125000
G01 X125.485234 Y176.441222 Z-0.125000
G01 X122.363216 Y177.701691 Z-0.125000
G01 X120.773343 Y177.958597 Z-0.125000
G01 X119.089042 Y177.924605 Z-0.125000
G01 X117.204531 Y177.499482 Z-0.125000
G01 X113.465759 Y176.124912 Z-0.125000
G01 X111.429995 Y175.710303 Z-0.125000
G01 X108.549144 Y175.510609 Z-0.125000
G01 X101.185896 Y175.485583 Z-0.125000
G01 X97.196218 Y175.049689 Z-0.125000
G01 X94.415279 Y174.396299 Z-0.125000
G01 X90.156182 Y173.008570 Z-0.125000
G01 X87.865769 Y173.187817 Z-0.125000
G01 X85.977001 Y172.893243 Z-0.125000
G01 X83.892732 Y172.193349 Z-0.125000
G01 X81.799755 Y171.130380 Z-0.125000
G01 X77.718744 Y168.101566 Z-0.125000
G01 X71.882738 Y162.722998 Z-0.125000
G01 X66.179088 Y156.804045 Z-0.125000
G01 X63.114347 Y153.317342 Z-0.125000
G01 X61.791442 Y151.533387 Z-0.125000
G01 X61.121217 Y149.702411 Z-0.125000
G01 X60.865602 Y144.420917 Z-0.125000
G01 X60.236399 Y140.662473 Z-0.125000
G01 X59.077519 Y136.761805 Z-0.125000
G01 X56.697128 Y130.651157 Z-0.125000
G01 X56.107787 Y127.331832 Z-0.125000
G01 X56.216599 Y125.461511 Z-0.125000
G01 X56.640819 Y123.630471 Z-0.125000
G01 X57.349034 Y121.911274 Z-0.125000
G01 X58.463667 Y120.125513 Z-0.125000
G01 X60.809938 Y117.727449 Z-0.125000
G01 X66.268873 Y113.903021 Z-0.125000
G01 X70.518682 Y109.649342 Z-0.125000
G01 X72.776264 Y106.365041 Z-0.125000
G01 X75.721937 Y99.992779 Z-0.125000
G01 X77.020397 Y98.291514 Z-0.125000
G01 X78.745914 Y96.756273 Z-0.125000
G01 X80.792773 Y95.531279 Z-0.125000
G01 X83.223797 Y94.616533 Z-0.125000
G01 X85.290135 Y94.186315 Z-0.125000
G01 X91.426390 Y93.467199 Z-0.125000
G01 X102.653024 Y89.759517 Z-0.125000
G01 X109.016386 Y88.203700 Z-0.125000
G01 X113.126293 Y87.675118 Z-0.125000
G01 X116.468129 Y87.654091 Z-0.125000
G01 X119.213205 Y88.082633 Z-0.125000
G01 X121.708665 Y89.085615 Z-0.125000
G01 X129.880879 Y94.763272 Z-0.125000
G01 X134.746345 Y98.774816 Z-0.125000
G01 X139.205200 Y103.195487 Z-0.125000
G01 X140.936845 Y105.384440 Z-0.125000
G01 X142.075472 Y107.215029 Z-0.125000
G01 X143.001570 Y109.484608 Z-0.125000
G01 X143.266474 Y111.831265 Z-0.125000
G01 X142.966224 Y114.086074 Z-0.125000
G01 X141.410988 Y120.563859 Z-0.125000
G01 X141.213939 Y122.993593 Z-0.125000
G01 X141.354034 Y125.036259 Z-0.125000
G01 X141.780576 Y126.968694 Z-0.125000
G01 X142.562257 Y128.998912 Z-0.125000
G01 X145.765481 Y134.234611 Z-0.125000
G01 X146.262845 Y135.646140 Z-0.125000
G01 X145.847590 Y136.739488 Z-0.125000
G01 X143.510995 Y139.453153 Z-0.125000
G01 X141.884486 Y141.734213 Z-0.125000
G01 X139.568531 Y146.264728 Z-0.125000
G01 X138.139910 Y150.439394 Z-0.125000
G01 X134.336767 Y164.484958 Z-0.125000
G01 X132.274492 Y169.835017 Z-0.125000
G01 X130.984869 Y172.060026 Z-0.125000
G01 X129.663383 Y173.737233 Z-0.125000
G01 X127.856530 Y175.392122 Z-0.125000
G01 X125.825345 Y176.709351 Z-0.125000
G01 X124.027458 Y177.536505 Z-0.125000
G01 X122.274915 Y178.064894 Z-0.125000
G01 X120.636925 Y178.302965 Z-0.125000
G01 X118.925856 Y178.263878 Z-0.125000
G01 X117.245876 Y177.919380 Z-0.125000
G01 X113.644813 Y176.680906 Z-0.125000
G01 X111.713023 Y176.316285 Z-0.125000
G01 X108.925118 Y176.151293 Z-0.125000
G01 X101.538714 Y176.160452 Z-0.125000
G01 X97.441513 Y175.731265 Z-0.125000
G01 X94.255511 Y174.944617 Z-0.125000
G01 X89.798010 Y173.368806 Z-0.125000
G01 X87.404655 Y173.609070 Z-0.125000
G01 X85.432036 Y173.322817 Z-0.125000
G01 X83.351508 Y172.625824 Z-0.125000
G01 X81.527305 Y171.668121 Z-0.125000
G01 X77.409399 Y168.547200 Z-0.125000
G01 X71.063582 Y162.652241 Z-0.125000
G01 X65.353224 Y156.763539 Z-0.125000
G01 X62.409808 Y153.416995 Z-0.125000
G01 X61.280082 Y151.864661 Z-0.125000
G01 X60.672165 Y150.050649 Z-0.125000
G01 X60.597473 Y144.956400 Z-0.125000
G01 X59.985170 Y140.806696 Z-0.125000
G01 X58.826225 Y136.830691 Z-0.125000
G01 X56.412939 Y130.671023 Z-0.125000
G01 X55.833015 Y127.619053 Z-0.125000
G01 X55.891516 Y125.712869 Z-0.125000
G01 X56.267619 Y123.831841 Z-0.125000
G01 X56.929717 Y122.055175 Z-0.125000
G01 X57.990298 Y120.203688 Z-0.125000
G01 X59.069843 Y118.852725 Z-0.125000
G01 X60.430868 Y117.559490 Z-0.125000
G01 X65.387990 Y113.937013 Z-0.125000
G01 X69.758414 Y109.496605 Z-0.125000
G01 X71.929566 Y106.293317 Z-0.125000
G01 X75.187938 Y99.309590 Z-0.125000
G01 X76.576246 Y97.561755 Z-0.125000
G01 X78.157154 Y96.172930 Z-0.125000
G01 X80.286767 Y94.879050 Z-0.125000
G01 X82.828925 Y93.917928 Z-0.125000
G01 X85.241308 Y93.461716 Z-0.125000
G01 X89.715514 Y93.242028 Z-0.125000
G01 X91.657560 Y92.927201 Z-0.125000
G01 X102.897610 Y89.275053 Z-0.125000
G01 X109.449571 Y87.709884 Z-0.125000
G01 X113.672354 Y87.197492 Z-0.125000
G01 X117.087591 Y87.203942 Z-0.125000
G01 X119.870014 Y87.660477 Z-0.125000
G01 X122.367022 Y88.676618 Z-0.125000
G01 X129.969244 Y93.770867 Z-0.125000
G01 X134.706354 Y97.692756 Z-0.125000
G01 X139.499451 Y102.520424 Z-0.125000
G01 X141.049850 Y104.510652 Z-0.125000
G01 X142.378302 Y106.677804 Z-0.125000
G01 X143.305045 Y108.967636 Z-0.125000
G01 X143.582591 Y111.275787 Z-0.125000
G01 X143.285179 Y113.488412 Z-0.125000
G01 X141.609456 Y120.333786 Z-0.125000
G01 X141.447689 Y122.831567 Z-0.125000
G01 X141.642996 Y124.941121 Z-0.125000
G01 X142.142553 Y126.941023 Z-0.125000
G01 X142.881599 Y128.760453 Z-0.125000
G01 X143.902191 Y130.587817 Z-0.125000
G01 X146.487371 Y134.400893 Z-0.125000
G01 X147.030400 Y135.834868 Z-0.125000
G01 X146.631078 Y136.958789 Z-0.125000
G01 X144.298224 Y139.799262 Z-0.125000
G01 X142.679132 Y142.180685 Z-0.125000
G01 X140.528944 Y146.495833 Z-0.125000
G01 X139.274925 Y150.038523 Z-0.125000
G01 X135.199332 Y164.050483 Z-0.125000
G01 X132.949425 Y169.788576 Z-0.125000
G01 X131.664511 Y172.044868 Z-0.125000
G01 X130.123916 Y174.014004 Z-0.125000
G01 X128.576807 Y175.438820 Z-0.125000
G01 X126.528465 Y176.790364 Z-0.125000
G01 X123.122323 Y178.185510 Z-0.125000
G01 X119.762750 Y178.642044 Z-0.125000
G01 X117.717890 Y178.413970 Z-0.125000
G01 X114.004016 Y177.288437 Z-0.125000
G01 X111.990117 Y176.941424 Z-0.125000
G01 X99.569449 Y176.724831 Z-0.125000
G01 X94.993203 Y175.815052 Z-0.125000
G01 X89.417393 Y173.749165 Z-0.125000
G01 X86.884910 Y174.035934 Z-0.125000
G01 X84.840437 Y173.752326 Z-0.125000
G01 X83.021394 Y173.150600 Z-0.125000
G01 X81.493248 Y172.353632 Z-0.125000
G01 X77.433006 Y169.273475 Z-0.125000
G01 X70.605500 Y162.914823 Z-0.125000
G01 X64.791811 Y157.000578 Z-0.125000
G01 X61.888192 Y153.726081 Z-0.125000
G01 X60.785492 Y152.210449 Z-0.125000
G01 X60.250267 Y150.577877 Z-0.125000
G01 X60.307543 Y145.239686 Z-0.125000
G01 X59.736004 Y140.993360 Z-0.125000
G01 X58.574866 Y136.944341 Z-0.125000
G01 X56.127653 Y130.729073 Z-0.125000
G01 X55.546310 Y127.626277 Z-0.125000
G01 X55.610036 Y125.676942 Z-0.125000
G01 X56.083599 Y123.436969 Z-0.125000
G01 X56.787041 Y121.643597 Z-0.125000
G01 X57.867683 Y119.796819 Z-0.125000
G01 X60.057281 Y117.375212 Z-0.125000
G01 X64.513556 Y113.938819 Z-0.125000
G01 X68.975765 Y109.318326 Z-0.125000
G01 X71.196905 Y105.946046 Z-0.125000
G01 X74.485205 Y98.860150 Z-0.125000
G01 X75.915116 Y97.046267 Z-0.125000
G01 X77.545431 Y95.611582 Z-0.125000
G01 X80.055984 Y94.108592 Z-0.125000
G01 X82.719532 Y93.156951 Z-0.125000
G01 X85.217056 Y92.750082 Z-0.125000
G01 X89.751118 Y92.699449 Z-0.125000
G01 X91.698131 Y92.436352 Z-0.125000
G01 X103.553258 Y88.655397 Z-0.125000
G01 X110.319102 Y87.129831 Z-0.125000
G01 X114.197195 Y86.714577 Z-0.125000
G01 X117.669128 Y86.759663 Z-0.125000
G01 X120.475867 Y87.256252 Z-0.125000
G01 X122.967521 Y88.298064 Z-0.125000
G01 X126.180549 Y90.509399 Z-0.125000
G01 X130.064382 Y92.859088 Z-0.125000
G01 X134.366372 Y96.390103 Z-0.125000
G01 X139.547117 Y101.580975 Z-0.125000
G01 X141.165886 Y103.647700 Z-0.125000
G01 X142.557033 Y105.900509 Z-0.125000
G01 X143.623226 Y108.497750 Z-0.125000
G01 X143.914317 Y111.028298 Z-0.125000
G01 X143.641480 Y112.928548 Z-0.125000
G01 X141.914737 Y119.748250 Z-0.125000
G01 X141.732652 Y122.301502 Z-0.125000
G01 X141.927766 Y124.482071 Z-0.125000
G01 X142.449510 Y126.568275 Z-0.125000
G01 X143.383671 Y128.777869 Z-0.125000
G01 X144.495208 Y130.658961 Z-0.125000
G01 X147.245961 Y134.544471 Z-0.125000
G01 X147.823628 Y136.001860 Z-0.125000
G01 X147.427982 Y137.158934 Z-0.125000
G01 X145.082937 Y140.135955 Z-0.125000
G01 X143.648381 Y142.316975 Z-0.125000
G01 X141.637965 Y146.355674 Z-0.125000
G01 X140.329960 Y149.966605 Z-0.125000
G01 X136.374015 Y162.927981 Z-0.125000
G01 X133.656867 Y169.744781 Z-0.125000
G01 X132.369437 Y172.024228 Z-0.125000
G01 X130.849870 Y174.023486 Z-0.125000
G01 X129.329012 Y175.473779 Z-0.125000
G01 X127.295312 Y176.849962 Z-0.125000
G01 X123.780099 Y178.331797 Z-0.125000
G01 X121.921065 Y178.760725 Z-0.125000
G01 X119.953994 Y178.940681 Z-0.125000
G01 X117.839732 Y178.780720 Z-0.125000
G01 X114.180489 Y177.846430 Z-0.125000
G01 X112.264760 Y177.582881 Z-0.125000
G01 X100.293661 Y177.530378 Z-0.125000
G01 X97.613149 Y177.167434 Z-0.125000
G01 X95.169934 Y176.564096 Z-0.125000
G01 X89.201510 Y174.192348 Z-0.125000
G01 X88.523416 Y174.131976 Z-0.125000
G01 X86.615233 Y174.464605 Z-0.125000
G01 X85.040969 Y174.352309 Z-0.125000
G01 X83.114533 Y173.848625 Z-0.125000
G01 X81.146365 Y172.850738 Z-0.125000
G01 X77.082188 Y169.672927 Z-0.125000
G01 X69.764800 Y162.784403 Z-0.125000
G01 X63.990844 Y156.962394 Z-0.125000
G01 X61.382896 Y154.041489 Z-0.125000
G01 X60.307543 Y152.568813 Z-0.125000
G01 X59.820371 Y150.964815 Z-0.125000
G01 X60.017678 Y145.555416 Z-0.125000
G01 X59.483033 Y141.220982 Z-0.125000
G01 X58.317445 Y137.101723 Z-0.125000
G01 X55.835530 Y130.823824 Z-0.125000
G01 X55.255026 Y127.662526 Z-0.125000
G01 X55.326363 Y125.663462 Z-0.125000
G01 X55.715688 Y123.682523 Z-0.125000
G01 X56.513430 Y121.517886 Z-0.125000
G01 X57.579688 Y119.626731 Z-0.125000
G01 X59.331264 Y117.514533 Z-0.125000
G01 X63.399246 Y114.155089 Z-0.125000
G01 X68.368687 Y108.867209 Z-0.125000
G01 X70.449408 Y105.572782 Z-0.125000
G01 X73.756542 Y98.426320 Z-0.125000
G01 X75.229669 Y96.542260 Z-0.125000
G01 X76.909198 Y95.071842 Z-0.125000
G01 X79.522952 Y93.498804 Z-0.125000
G01 X82.319113 Y92.488726 Z-0.125000
G01 X85.213573 Y92.054251 Z-0.125000
G01 X89.817038 Y92.157194 Z-0.125000
G01 X91.770307 Y91.936795 Z-0.125000
G01 X103.835383 Y88.123848 Z-0.125000
G01 X110.302139 Y86.673426 Z-0.125000
G01 X114.271887 Y86.242691 Z-0.125000
G01 X117.847923 Y86.283972 Z-0.125000
G01 X120.748511 Y86.787076 Z-0.125000
G01 X123.315824 Y87.838498 Z-0.125000
G01 X126.551105 Y89.996685 Z-0.125000
G01 X130.160101 Y92.032643 Z-0.125000
G01 X134.310902 Y95.406213 Z-0.125000
G01 X139.581625 Y100.660617 Z-0.125000
G01 X141.279729 Y102.798551 Z-0.125000
G01 X142.745632 Y105.136629 Z-0.125000
G01 X143.955855 Y108.069854 Z-0.125000
G01 X144.279390 Y110.562218 Z-0.125000
G01 X143.969142 Y112.686090 Z-0.125000
G01 X142.729830 Y117.036326 Z-0.125000
G01 X142.226339 Y119.521724 Z-0.125000
G01 X142.082374 Y122.125932 Z-0.125000
G01 X142.330701 Y124.360939 Z-0.125000
G01 X142.920622 Y126.504677 Z-0.125000
G01 X143.943665 Y128.776901 Z-0.125000
G01 X145.140858 Y130.708110 Z-0.125000
G01 X147.940632 Y134.507706 Z-0.125000
G01 X148.641107 Y136.144987 Z-0.125000
G01 X148.236431 Y137.337472 Z-0.125000
G01 X146.036254 Y140.212324 Z-0.125000
G01 X144.607955 Y142.427787 Z-0.125000
G01 X142.746793 Y146.184618 Z-0.125000
G01 X141.512899 Y149.507233 Z-0.125000
G01 X137.880360 Y161.188209 Z-0.125000
G01 X136.003589 Y166.151780 Z-0.125000
G01 X134.400235 Y169.708660 Z-0.125000
G01 X132.900276 Y172.310159 Z-0.125000
G01 X131.363874 Y174.288776 Z-0.125000
G01 X129.838953 Y175.719784 Z-0.125000
G01 X127.799189 Y177.070747 Z-0.125000
G01 X124.201997 Y178.542068 Z-0.125000
G01 X122.266724 Y178.992798 Z-0.125000
G01 X120.211673 Y179.215131 Z-0.125000
G01 X117.802386 Y179.100578 Z-0.125000
G01 X112.748256 Y178.245946 Z-0.125000
G01 X100.648736 Y178.336634 Z-0.125000
G01 X97.899725 Y177.986783 Z-0.125000
G01 X95.029710 Y177.259476 Z-0.125000
G01 X88.778128 Y174.617342 Z-0.125000
G01 X88.076169 Y174.564387 Z-0.125000
G01 X86.155990 Y174.899080 Z-0.125000
G01 X84.573018 Y174.816261 Z-0.125000
G01 X82.696634 Y174.345214 Z-0.125000
G01 X81.024846 Y173.494195 Z-0.125000
G01 X77.062258 Y170.365082 Z-0.125000
G01 X68.537033 Y162.260078 Z-0.125000
G01 X62.980057 Y156.688976 Z-0.125000
G01 X59.845720 Y152.938208 Z-0.125000
G01 X59.400473 Y151.366911 Z-0.125000
G01 X59.723104 Y145.901139 Z-0.125000
G01 X59.221097 Y141.487692 Z-0.125000
G01 X58.048800 Y137.301223 Z-0.125000
G01 X55.531604 Y130.953793 Z-0.125000
G01 X54.973223 Y128.063719 Z-0.125000
G01 X54.999281 Y126.015699 Z-0.125000
G01 X55.436336 Y123.628923 Z-0.125000
G01 X56.239948 Y121.396560 Z-0.125000
G01 X57.294983 Y119.451870 Z-0.125000
G01 X58.986573 Y117.298521 Z-0.125000
G01 X62.469019 Y114.196950 Z-0.125000
G01 X67.564494 Y108.616754 Z-0.125000
G01 X69.536791 Y105.479707 Z-0.125000
G01 X73.006144 Y98.008873 Z-0.125000
G01 X74.305829 Y96.282968 Z-0.125000
G01 X75.978069 Y94.755854 Z-0.125000
G01 X78.964248 Y92.919654 Z-0.125000
G01 X81.900118 Y91.845721 Z-0.125000
G01 X84.947444 Y91.387638 Z-0.125000
G01 X89.909209 Y91.615970 Z-0.125000
G01 X91.870218 Y91.428080 Z-0.125000
G01 X104.125764 Y87.567016 Z-0.125000
G01 X110.713458 Y86.126268 Z-0.125000
G01 X114.735129 Y85.734621 Z-0.125000
G01 X118.335418 Y85.835629 Z-0.125000
G01 X121.235683 Y86.402717 Z-0.125000
G01 X123.592854 Y87.397960 Z-0.125000
G01 X126.730158 Y89.450624 Z-0.125000
G01 X130.440291 Y91.418211 Z-0.125000
G01 X134.241886 Y94.484952 Z-0.125000
G01 X137.231162 Y97.280081 Z-0.125000
G01 X139.871232 Y100.080564 Z-0.125000
G01 X141.825404 Y102.584667 Z-0.125000
G01 X143.097225 Y104.677966 Z-0.125000
G01 X144.304545 Y107.676465 Z-0.125000
G01 X144.663877 Y110.141868 Z-0.125000
G01 X144.396136 Y112.197628 Z-0.125000
G01 X143.084711 Y116.790967 Z-0.125000
G01 X142.599861 Y119.298295 Z-0.125000
G01 X142.496918 Y121.946105 Z-0.125000
G01 X142.798071 Y124.229809 Z-0.125000
G01 X143.453525 Y126.426116 Z-0.125000
G01 X144.386461 Y128.442917 Z-0.125000
G01 X145.837141 Y130.734233 Z-0.125000
G01 X148.764496 Y134.599039 Z-0.125000
G01 X149.480516 Y136.262958 Z-0.125000
G01 X149.138148 Y137.359854 Z-0.125000
G01 X145.734714 Y142.197069 Z-0.125000
G01 X143.848139 Y145.974476 Z-0.125000
G01 X142.459702 Y149.746981 Z-0.125000
G01 X139.457590 Y159.583436 Z-0.125000
G01 X137.322237 Y165.059593 Z-0.125000
G01 X135.360583 Y169.340040 Z-0.125000
G01 X133.861398 Y171.984883 Z-0.125000
G01 X132.368340 Y174.024647 Z-0.125000
G01 X130.645016 Y175.741005 Z-0.125000
G01 X128.648790 Y177.113511 Z-0.125000
G01 X125.033214 Y178.631401 Z-0.125000
G01 X120.830297 Y179.446430 Z-0.125000
G01 X118.249697 Y179.456943 Z-0.125000
G01 X113.400936 Y178.902626 Z-0.125000
G01 X105.127973 Y179.214808 Z-0.125000
G01 X101.017808 Y179.177398 Z-0.125000
G01 X98.203973 Y178.847156 Z-0.125000
G01 X95.232693 Y178.104819 Z-0.125000
G01 X92.698920 Y177.131894 Z-0.125000
G01 X88.335074 Y175.067749 Z-0.125000
G01 X85.501439 Y175.349810 Z-0.125000
G01 X84.067334 Y175.281633 Z-0.125000
G01 X82.455144 Y174.911335 Z-0.125000
G01 X80.853016 Y174.115721 Z-0.125000
G01 X76.665902 Y170.723382 Z-0.125000
G01 X65.884127 Y160.345703 Z-0.125000
G01 X61.820338 Y156.247341 Z-0.125000
G01 X59.399763 Y153.316955 Z-0.125000
G01 X58.993539 Y151.931162 Z-0.125000
G01 X59.420274 Y146.585812 Z-0.125000
G01 X59.014889 Y142.152047 Z-0.125000
G01 X57.883227 Y137.878889 Z-0.125000
G01 X55.212197 Y131.116076 Z-0.125000
G01 X54.657751 Y128.162469 Z-0.125000
G01 X54.695806 Y126.053819 Z-0.125000
G01 X55.149890 Y123.587513 Z-0.125000
G01 X55.963822 Y121.278524 Z-0.125000
G01 X57.011632 Y119.271720 Z-0.125000
G01 X58.646591 Y117.066642 Z-0.125000
G01 X61.592651 Y114.196498 Z-0.125000
G01 X66.759206 Y108.331791 Z-0.125000
G01 X68.778071 Y105.062905 Z-0.125000
G01 X72.239749 Y97.607486 Z-0.125000
G01 X73.571620 Y95.818113 Z-0.125000
G01 X75.287268 Y94.254556 Z-0.125000
G01 X78.377487 Y92.373464 Z-0.125000
G01 X81.795756 Y91.148148 Z-0.125000
G01 X84.964278 Y90.727669 Z-0.125000
G01 X90.023246 Y91.076230 Z-0.125000
G01 X91.993736 Y90.910205 Z-0.125000
G01 X104.001472 Y87.102418 Z-0.125000
G01 X110.650183 Y85.625809 Z-0.125000
G01 X114.731130 Y85.226873 Z-0.125000
G01 X118.404369 Y85.339491 Z-0.125000
G01 X121.375972 Y85.935153 Z-0.125000
G01 X123.795385 Y86.968257 Z-0.125000
G01 X126.995900 Y89.034144 Z-0.125000
G01 X130.508017 Y90.749922 Z-0.125000
G01 X133.882232 Y93.391669 Z-0.125000
G01 X137.138926 Y96.388233 Z-0.125000
G01 X139.868587 Y99.220127 Z-0.125000
G01 X141.941247 Y101.790795 Z-0.125000
G01 X143.305690 Y103.953239 Z-0.125000
G01 X144.598087 Y107.048940 Z-0.125000
G01 X145.064941 Y110.004675 Z-0.125000
G01 X144.793459 Y112.010706 Z-0.125000
G01 X143.583236 Y116.212784 Z-0.125000
G01 X143.081551 Y118.702955 Z-0.125000
G01 X142.954743 Y121.371792 Z-0.125000
G01 X143.243512 Y123.702647 Z-0.125000
G01 X143.903997 Y125.967646 Z-0.125000
G01 X145.045785 Y128.394736 Z-0.125000
G01 X146.386879 Y130.472942 Z-0.125000
G01 X149.618612 Y134.665410 Z-0.125000
G01 X150.138422 Y135.572867 Z-0.125000
G01 X150.339147 Y136.355839 Z-0.125000
G01 X150.046637 Y137.351597 Z-0.125000
G01 X147.029239 Y141.629335 Z-0.125000
G01 X144.936263 Y145.718473 Z-0.125000
G01 X143.516284 Y149.578635 Z-0.125000
G01 X140.612407 Y159.323370 Z-0.125000
G01 X138.727703 Y164.016040 Z-0.125000
G01 X136.556164 Y168.637436 Z-0.125000
G01 X134.853222 Y171.659478 Z-0.125000
G01 X133.158987 Y174.023615 Z-0.125000
G01 X131.207396 Y175.977077 Z-0.125000
G01 X129.223554 Y177.320816 Z-0.125000
G01 X125.596239 Y178.805746 Z-0.125000
G01 X121.248906 Y179.671408 Z-0.125000
G01 X118.788083 Y179.773963 Z-0.125000
G01 X114.346385 Y179.517961 Z-0.125000
G01 X106.745968 Y180.010680 Z-0.125000
G01 X101.400296 Y180.047445 Z-0.125000
G01 X98.125541 Y179.671924 Z-0.125000
G01 X95.098532 Y178.877858 Z-0.125000
G01 X92.507999 Y177.833466 Z-0.125000
G01 X87.980064 Y175.571820 Z-0.125000
G01 X83.528820 Y175.751067 Z-0.125000
G01 X82.163667 Y175.461331 Z-0.125000
G01 X80.630683 Y174.717705 Z-0.125000
G01 X76.930999 Y171.703790 Z-0.125000
G01 X63.498383 Y158.702295 Z-0.125000
G01 X60.596118 Y155.724307 Z-0.125000
G01 X58.969222 Y153.703442 Z-0.125000
G01 X58.585444 Y152.352479 Z-0.125000
G01 X59.101513 Y146.984812 Z-0.125000
G01 X58.723024 Y142.492223 Z-0.125000
G01 X57.584074 Y138.156757 Z-0.125000
G01 X54.875634 Y131.306546 Z-0.125000
G01 X54.351696 Y128.637064 Z-0.125000
G01 X54.346536 Y126.476555 Z-0.125000
G01 X54.761661 Y123.915563 Z-0.125000
G01 X55.547922 Y121.488087 Z-0.125000
G01 X56.728281 Y119.085701 Z-0.125000
G01 X58.311382 Y116.819218 Z-0.125000
G01 X60.682743 Y114.266804 Z-0.125000
G01 X66.162125 Y107.729162 Z-0.125000
G01 X68.028060 Y104.615723 Z-0.125000
G01 X71.464001 Y97.221128 Z-0.125000
G01 X72.822769 Y95.371060 Z-0.125000
G01 X74.576860 Y93.770803 Z-0.125000
G01 X78.113422 Y91.696789 Z-0.125000
G01 X81.695780 Y90.480697 Z-0.125000
G01 X84.989498 Y90.093242 Z-0.125000
G01 X90.154763 Y90.538812 Z-0.125000
G01 X92.136540 Y90.383623 Z-0.125000
G01 X105.582573 Y86.148908 Z-0.125000
G01 X109.636300 Y85.256672 Z-0.125000
G01 X113.791293 Y84.743635 Z-0.125000
G01 X118.033814 Y84.784528 Z-0.125000
G01 X121.446987 Y85.457591 Z-0.125000
G01 X123.712115 Y86.423873 Z-0.125000
G01 X127.349363 Y88.729831 Z-0.125000
G01 X130.380499 Y90.061766 Z-0.125000
G01 X134.051868 Y92.850897 Z-0.125000
G01 X139.525509 Y98.064794 Z-0.125000
G01 X142.502852 Y101.664503 Z-0.125000
G01 X144.274423 Y104.747627 Z-0.125000
G01 X145.192136 Y107.485479 Z-0.125000
G01 X145.487678 Y109.892638 Z-0.125000
G01 X145.282437 Y111.588356 Z-0.125000
G01 X144.048671 Y115.982646 Z-0.125000
G01 X143.575044 Y118.477010 Z-0.125000
G01 X143.489904 Y121.173518 Z-0.125000
G01 X143.825822 Y123.541395 Z-0.125000
G01 X144.542294 Y125.849675 Z-0.125000
G01 X145.754581 Y128.327333 Z-0.125000
G01 X147.162562 Y130.448883 Z-0.125000
G01 X150.385781 Y134.543246 Z-0.125000
G01 X151.207904 Y136.298498 Z-0.125000
G01 X150.886498 Y137.448606 Z-0.125000
G01 X147.950565 Y141.622240 Z-0.125000
G01 X145.845333 Y145.794971 Z-0.125000
G01 X144.434126 Y149.756334 Z-0.125000
G01 X141.792573 Y159.069045 Z-0.125000
G01 X140.053381 Y163.369938 Z-0.125000
G01 X138.010909 Y167.602203 Z-0.125000
G01 X135.885617 Y171.341426 Z-0.125000
G01 X133.970726 Y174.026259 Z-0.125000
G01 X132.051578 Y175.993331 Z-0.125000
G01 X129.827537 Y177.521412 Z-0.125000
G01 X126.216089 Y178.969900 Z-0.125000
G01 X121.745753 Y179.879228 Z-0.125000
G01 X115.085947 Y180.067634 Z-0.125000
G01 X107.178380 Y180.860216 Z-0.125000
G01 X101.372690 Y180.922137 Z-0.125000
G01 X98.047173 Y180.523975 Z-0.125000
G01 X94.964565 Y179.679535 Z-0.125000
G01 X92.317464 Y178.565546 Z-0.125000
G01 X87.505147 Y176.075118 Z-0.125000
G01 X82.962634 Y176.226887 Z-0.125000
G01 X81.629087 Y175.932959 Z-0.125000
G01 X80.359330 Y175.303176 Z-0.125000
G01 X78.608593 Y173.990074 Z-0.125000
G01 X76.150027 Y171.712175 Z-0.125000
G01 X61.257507 Y157.200852 Z-0.125000
G01 X58.553517 Y154.095992 Z-0.125000
G01 X58.183542 Y152.779730 Z-0.125000
G01 X58.768819 Y147.401872 Z-0.125000
G01 X58.413873 Y142.859166 Z-0.125000
G01 X57.267699 Y138.463586 Z-0.125000
G01 X54.522235 Y131.519914 Z-0.125000
G01 X54.003006 Y128.787479 Z-0.125000
G01 X54.012488 Y126.559051 Z-0.125000
G01 X54.451543 Y123.905565 Z-0.125000
G01 X55.258702 Y121.385144 Z-0.125000
G01 X56.443447 Y118.893296 Z-0.125000
G01 X57.685017 Y116.953637 Z-0.125000
G01 X60.022193 Y114.088202 Z-0.125000
G01 X61.260409 Y112.236328 Z-0.125000
G01 X63.943178 Y109.245311 Z-0.125000
G01 X65.586651 Y107.061647 Z-0.125000
G01 X67.466131 Y103.794954 Z-0.125000
G01 X70.686061 Y96.848315 Z-0.125000
G01 X72.064952 Y94.941551 Z-0.125000
G01 X73.568459 Y93.523959 Z-0.125000
G01 X77.119341 Y91.379511 Z-0.125000
G01 X81.228345 Y89.928379 Z-0.125000
G01 X85.019039 Y89.486486 Z-0.125000
G01 X90.083554 Y89.993718 Z-0.125000
G01 X92.061268 Y89.891356 Z-0.125000
G01 X105.454346 Y85.637096 Z-0.125000
G01 X109.525875 Y84.719060 Z-0.125000
G01 X113.707056 Y84.192607 Z-0.125000
G01 X117.991953 Y84.246659 Z-0.125000
G01 X121.452727 Y84.964549 Z-0.125000
G01 X123.759523 Y85.986108 Z-0.125000
G01 X127.341945 Y88.293549 Z-0.125000
G01 X130.576839 Y89.645351 Z-0.125000
G01 X134.190544 Y92.370497 Z-0.125000
G01 X139.743844 Y97.596650 Z-0.125000
G01 X142.838255 Y101.256086 Z-0.125000
G01 X144.678196 Y104.397196 Z-0.125000
G01 X145.604294 Y107.171298 Z-0.125000
G01 X145.932860 Y109.800660 Z-0.125000
G01 X145.745422 Y111.444585 Z-0.125000
G01 X144.568739 Y115.756637 Z-0.125000
G01 X144.127878 Y118.249387 Z-0.125000
G01 X144.084082 Y120.967954 Z-0.125000
G01 X144.463668 Y123.368728 Z-0.125000
G01 X145.230192 Y125.716933 Z-0.125000
G01 X146.505108 Y128.242514 Z-0.125000
G01 X147.972366 Y130.406119 Z-0.125000
G01 X151.283434 Y134.565885 Z-0.125000
G01 X151.858263 Y135.520751 Z-0.125000
G01 X152.097947 Y136.345519 Z-0.125000
G01 X151.812726 Y137.385138 Z-0.125000
G01 X148.859635 Y141.577735 Z-0.125000
G01 X146.731892 Y145.831285 Z-0.125000
G01 X145.329716 Y149.898686 Z-0.125000
G01 X142.869538 Y159.120903 Z-0.125000
G01 X141.578818 Y162.410558 Z-0.125000
G01 X139.739909 Y166.240791 Z-0.125000
G01 X137.382932 Y170.381981 Z-0.125000
G01 X135.028728 Y173.760066 Z-0.125000
G01 X132.906017 Y176.009456 Z-0.125000
G01 X130.456094 Y177.716462 Z-0.125000
G01 X127.232424 Y179.026145 Z-0.125000
G01 X122.653340 Y180.026741 Z-0.125000
G01 X115.851826 Y180.545196 Z-0.125000
G01 X108.716265 Y181.639705 Z-0.125000
G01 X101.773947 Y181.835786 Z-0.125000
G01 X98.381930 Y181.476648 Z-0.125000
G01 X95.202701 Y180.636722 Z-0.125000
G01 X92.436210 Y179.476939 Z-0.125000
G01 X87.134720 Y176.637691 Z-0.125000
G01 X86.210235 Y176.523267 Z-0.125000
G01 X82.372713 Y176.710319 Z-0.125000
G01 X81.257822 Y176.469603 Z-0.125000
G01 X80.041342 Y175.875682 Z-0.125000
G01 X76.961701 Y173.291212 Z-0.125000
G01 X68.340500 Y164.557779 Z-0.125000
G01 X60.390878 Y157.059725 Z-0.125000
G01 X58.151808 Y154.493250 Z-0.125000
G01 X57.786283 Y153.210142 Z-0.125000
G01 X58.420968 Y147.832671 Z-0.125000
G01 X58.087759 Y143.247201 Z-0.125000
G01 X56.935844 Y138.791958 Z-0.125000
G01 X54.256687 Y132.073844 Z-0.125000
G01 X53.671538 Y129.320576 Z-0.125000
G01 X53.635870 Y127.043063 Z-0.125000
G01 X54.038288 Y124.291085 Z-0.125000
G01 X54.826613 Y121.640114 Z-0.125000
G01 X56.001296 Y118.987338 Z-0.125000
G01 X60.409970 Y112.082946 Z-0.125000
G01 X63.365189 Y108.650036 Z-0.125000
G01 X65.041235 Y106.329824 Z-0.125000
G01 X66.761141 Y103.276564 Z-0.125000
G01 X69.913732 Y96.487435 Z-0.125000
G01 X71.305265 Y94.528748 Z-0.125000
G01 X72.826832 Y93.082066 Z-0.125000
G01 X74.350205 Y92.029612 Z-0.125000
G01 X76.452728 Y90.925750 Z-0.125000
G01 X80.726725 Y89.417083 Z-0.125000
G01 X84.723692 Y88.908432 Z-0.125000
G01 X90.234550 Y89.462750 Z-0.125000
G01 X92.228131 Y89.353292 Z-0.125000
G01 X105.758272 Y84.996735 Z-0.125000
G01 X109.869340 Y84.083344 Z-0.125000
G01 X113.599791 Y83.623197 Z-0.125000
G01 X117.510779 Y83.647320 Z-0.125000
G01 X121.094620 Y84.349795 Z-0.125000
G01 X123.510938 Y85.405991 Z-0.125000
G01 X127.416056 Y87.951310 Z-0.125000
G01 X130.905404 Y89.368644 Z-0.125000
G01 X134.564840 Y92.180220 Z-0.125000
G01 X140.259977 Y97.503576 Z-0.125000
G01 X143.165079 Y100.878629 Z-0.125000
G01 X145.094805 Y104.071791 Z-0.125000
G01 X146.040834 Y106.876466 Z-0.125000
G01 X146.401327 Y109.723002 Z-0.125000
G01 X146.241237 Y111.312617 Z-0.125000
G01 X145.141181 Y115.532497 Z-0.125000
G01 X144.736053 Y118.018605 Z-0.125000
G01 X144.731538 Y120.754716 Z-0.125000
G01 X145.149372 Y123.185159 Z-0.125000
G01 X145.958789 Y125.571097 Z-0.125000
G01 X147.287370 Y128.143442 Z-0.125000
G01 X148.806099 Y130.349294 Z-0.125000
G01 X152.072598 Y134.403473 Z-0.125000
G01 X152.986377 Y136.245736 Z-0.125000
G01 X152.745016 Y137.300578 Z-0.125000
G01 X149.569979 Y141.809034 Z-0.125000
G01 X147.595554 Y145.825802 Z-0.125000
G01 X146.199505 Y150.001371 Z-0.125000
G01 X143.945600 Y159.153089 Z-0.125000
G01 X142.679390 Y162.482218 Z-0.125000
G01 X141.172401 Y165.609976 Z-0.125000
G01 X138.540716 Y170.093341 Z-0.125000
G01 X135.889036 Y173.779416 Z-0.125000
G01 X133.520835 Y176.245399 Z-0.125000
G01 X131.104647 Y177.906932 Z-0.125000
G01 X127.936382 Y179.184622 Z-0.125000
G01 X123.663159 Y180.147679 Z-0.125000
G01 X116.697815 Y180.945421 Z-0.125000
G01 X109.820965 Y182.409970 Z-0.125000
G01 X106.065036 Y182.709704 Z-0.125000
G01 X102.187653 Y182.756015 Z-0.125000
G01 X98.310012 Y182.365980 Z-0.125000
G01 X95.075570 Y181.483098 Z-0.125000
G01 X92.253609 Y180.261910 Z-0.125000
G01 X86.636260 Y177.193363 Z-0.125000
G01 X81.763119 Y177.201748 Z-0.125000
G01 X80.664159 Y176.936780 Z-0.125000
G01 X79.681171 Y176.439158 Z-0.125000
G01 X77.035038 Y174.200088 Z-0.125000
G01 X68.733179 Y165.550378 Z-0.125000
G01 X59.768319 Y157.161314 Z-0.125000
G01 X57.693402 Y154.774408 Z-0.125000
G01 X57.399151 Y153.352495 Z-0.125000
G01 X57.943793 Y149.772007 Z-0.125000
G01 X58.073826 Y147.620980 Z-0.125000
G01 X57.747518 Y143.649942 Z-0.125000
G01 X56.593862 Y139.133037 Z-0.125000
G01 X53.882003 Y132.317333 Z-0.125000
G01 X53.298338 Y129.502016 Z-0.125000
G01 X53.276150 Y127.154455 Z-0.125000
G01 X53.704305 Y124.303275 Z-0.125000
G01 X54.520107 Y121.548717 Z-0.125000
G01 X55.712141 Y118.791708 Z-0.125000
G01 X58.700771 Y113.888702 Z-0.125000
G01 X59.676406 Y111.778891 Z-0.125000
G01 X63.038236 Y107.709812 Z-0.125000
G01 X64.943710 Y104.857471 Z-0.125000
G01 X69.518021 Y95.532569 Z-0.125000
G01 X70.782295 Y93.870456 Z-0.125000
G01 X72.081787 Y92.659137 Z-0.125000
G01 X75.391114 Y90.665942 Z-0.125000
G01 X80.189693 Y88.948487 Z-0.125000
G01 X82.568214 Y88.500015 Z-0.125000
G01 X84.740913 Y88.359211 Z-0.125000
G01 X90.390641 Y88.937393 Z-0.125000
G01 X92.401896 Y88.812327 Z-0.125000
G01 X103.411808 Y85.102516 Z-0.125000
G01 X107.419547 Y84.009813 Z-0.125000
G01 X110.677403 Y83.363776 Z-0.125000
G01 X114.389406 Y82.991802 Z-0.125000
G01 X117.399451 Y83.066816 Z-0.125000
G01 X120.350543 Y83.609458 Z-0.125000
G01 X122.943850 Y84.660172 Z-0.125000
G01 X127.093554 Y87.437757 Z-0.125000
G01 X130.845032 Y88.945133 Z-0.125000
G01 X133.144991 Y90.547584 Z-0.125000
G01 X140.765918 Y97.454297 Z-0.125000
G01 X143.211713 Y100.188860 Z-0.125000
G01 X144.843769 Y102.512878 Z-0.125000
G01 X146.213437 Y105.520472 Z-0.125000
G01 X146.877599 Y109.220930 Z-0.125000
G01 X146.769367 Y111.187808 Z-0.125000
G01 X145.762321 Y115.308100 Z-0.125000
G01 X145.393636 Y117.783694 Z-0.125000
G01 X145.423371 Y120.534189 Z-0.125000
G01 X145.872101 Y122.992367 Z-0.125000
G01 X146.715574 Y125.415199 Z-0.125000
G01 X148.087886 Y128.035016 Z-0.125000
G01 X149.650669 Y130.285116 Z-0.125000
G01 X152.985603 Y134.407085 Z-0.125000
G01 X153.612870 Y135.407101 Z-0.125000
G01 X153.890867 Y136.270247 Z-0.125000
G01 X153.604614 Y137.342438 Z-0.125000
G01 X150.457828 Y141.699512 Z-0.125000
G01 X148.436963 Y145.778459 Z-0.125000
G01 X146.929780 Y150.492349 Z-0.125000
G01 X144.907109 Y159.487911 Z-0.125000
G01 X143.792733 Y162.544267 Z-0.125000
G01 X142.464410 Y165.339590 Z-0.125000
G01 X139.763387 Y169.824116 Z-0.125000
G01 X136.776692 Y173.810441 Z-0.125000
G01 X134.394559 Y176.268426 Z-0.125000
G01 X131.767776 Y178.093725 Z-0.125000
G01 X129.656352 Y179.018985 Z-0.125000
G01 X127.288410 Y179.714945 Z-0.125000
G01 X123.692120 Y180.433610 Z-0.125000
G01 X117.300572 Y181.341067 Z-0.125000
G01 X111.166768 Y183.076969 Z-0.125000
G01 X107.331375 Y183.546598 Z-0.125000
G01 X102.613099 Y183.675083 Z-0.125000
G01 X98.667539 Y183.338132 Z-0.125000
G01 X94.947537 Y182.334762 Z-0.125000
G01 X92.070363 Y181.056620 Z-0.125000
G01 X87.462447 Y178.334893 Z-0.125000
G01 X86.260996 Y177.810504 Z-0.125000
G01 X85.180871 Y177.659959 Z-0.125000
G01 X81.317678 Y177.724653 Z-0.125000
G01 X79.480123 Y177.116930 Z-0.125000
G01 X77.285300 Y175.332588 Z-0.125000
G01 X67.910991 Y165.331269 Z-0.125000
G01 X59.179365 Y157.294572 Z-0.125000
G01 X57.316333 Y155.181213 Z-0.125000
G01 X57.005698 Y153.785293 Z-0.125000
G01 X57.557306 Y150.220221 Z-0.125000
G01 X57.704819 Y147.726761 Z-0.125000
G01 X57.332845 Y143.675098 Z-0.125000
G01 X56.123589 Y139.113558 Z-0.125000
G01 X53.506353 Y132.564112 Z-0.125000
G01 X52.923461 Y129.684875 Z-0.125000
G01 X52.913335 Y127.265461 Z-0.125000
G01 X53.365419 Y124.313144 Z-0.125000
G01 X54.208440 Y121.452740 Z-0.125000
G01 X55.420211 Y118.588273 Z-0.125000
G01 X58.123943 Y113.779567 Z-0.125000
G01 X58.966771 Y111.450841 Z-0.125000
G01 X62.547452 Y106.967734 Z-0.125000
G01 X64.483435 Y103.976781 Z-0.125000
G01 X68.778910 Y95.177107 Z-0.125000
G01 X70.039379 Y93.483001 Z-0.125000
G01 X71.339515 Y92.254460 Z-0.125000
G01 X72.893074 Y91.183881 Z-0.125000
G01 X75.067902 Y90.083632 Z-0.125000
G01 X80.040568 Y88.418616 Z-0.125000
G01 X84.397190 Y87.844561 Z-0.125000
G01 X90.548796 Y88.417971 Z-0.125000
G01 X92.579014 Y88.271103 Z-0.125000
G01 X103.231981 Y84.593930 Z-0.125000
G01 X107.272099 Y83.467944 Z-0.125000
G01 X110.540662 Y82.795720 Z-0.125000
G01 X114.262469 Y82.401622 Z-0.125000
G01 X117.273998 Y82.473798 Z-0.125000
G01 X120.218510 Y83.040435 Z-0.125000
G01 X122.552848 Y84.009619 Z-0.125000
G01 X127.019120 Y87.090421 Z-0.125000
G01 X130.911468 Y88.643400 Z-0.125000
G01 X132.972646 Y90.055574 Z-0.125000
G01 X140.916785 Y97.099480 Z-0.125000
G01 X143.489452 Y99.856102 Z-0.125000
G01 X145.227805 Y102.209081 Z-0.125000
G01 X146.102238 Y103.786763 Z-0.125000
G01 X146.774914 Y105.528147 Z-0.125000
G01 X147.389733 Y109.166104 Z-0.125000
G01 X147.328393 Y111.065773 Z-0.125000
G01 X146.363272 Y115.411107 Z-0.125000
G01 X146.092241 Y117.544590 Z-0.125000
G01 X146.148679 Y120.307405 Z-0.125000
G01 X146.618371 Y122.792867 Z-0.125000
G01 X147.485258 Y125.253626 Z-0.125000
G01 X148.672841 Y127.561518 Z-0.125000
G01 X150.267874 Y129.917076 Z-0.125000
G01 X153.904928 Y134.404054 Z-0.125000
G01 X154.535098 Y135.416711 Z-0.125000
G01 X154.798841 Y136.290564 Z-0.125000
G01 X154.463374 Y137.381719 Z-0.125000
G01 X150.942033 Y142.226545 Z-0.125000
G01 X149.093449 Y146.115474 Z-0.125000
G01 X147.744163 Y150.520729 Z-0.125000
G01 X145.856556 Y159.800093 Z-0.125000
G01 X144.906206 Y162.585096 Z-0.125000
G01 X143.596587 Y165.416410 Z-0.125000
G01 X141.049205 Y169.570307 Z-0.125000
G01 X137.935830 Y173.578239 Z-0.125000
G01 X135.028663 Y176.507594 Z-0.125000
G01 X132.440387 Y178.277552 Z-0.125000
G01 X130.387594 Y179.180043 Z-0.125000
G01 X127.725852 Y179.951791 Z-0.125000
G01 X117.596952 Y181.798247 Z-0.125000
G01 X113.375007 Y183.356321 Z-0.125000
G01 X111.275387 Y183.920765 Z-0.125000
G01 X107.382911 Y184.454958 Z-0.125000
G01 X102.602908 Y184.594150 Z-0.125000
G01 X98.601619 Y184.241461 Z-0.125000
G01 X95.218439 Y183.336519 Z-0.125000
G01 X91.885182 Y181.852234 Z-0.125000
G01 X87.335123 Y179.115220 Z-0.125000
G01 X85.890248 Y178.453316 Z-0.125000
G01 X84.726465 Y178.268522 Z-0.125000
G01 X80.863014 Y178.262072 Z-0.125000
G01 X79.045841 Y177.671957 Z-0.125000
G01 X76.709762 Y175.682181 Z-0.125000
G01 X67.102864 Y165.118482 Z-0.125000
G01 X63.646605 Y161.815799 Z-0.125000
G01 X58.465925 Y157.312116 Z-0.125000
G01 X56.884179 Y155.475464 Z-0.125000
G01 X56.620501 Y154.064774 Z-0.125000
G01 X57.160564 Y150.668435 Z-0.125000
G01 X57.327491 Y148.171040 Z-0.125000
G01 X56.981381 Y144.083321 Z-0.125000
G01 X56.021034 Y140.205035 Z-0.125000
G01 X53.242932 Y133.156162 Z-0.125000
G01 X52.588639 Y130.268669 Z-0.125000
G01 X52.639272 Y126.511127 Z-0.125000
G01 X53.485777 Y122.593754 Z-0.125000
G01 X54.968450 Y118.714243 Z-0.125000
G01 X57.646575 Y113.547752 Z-0.125000
G01 X58.223919 Y111.217414 Z-0.125000
G01 X63.004825 Y104.833606 Z-0.125000
G01 X64.853861 Y101.553691 Z-0.125000
G01 X67.881837 Y95.140922 Z-0.125000
G01 X69.085287 Y93.378575 Z-0.125000
G01 X70.606790 Y91.866812 Z-0.125000
G01 X72.162219 Y90.790880 Z-0.125000
G01 X74.358397 Y89.694694 Z-0.125000
G01 X79.451227 Y88.027227 Z-0.125000
G01 X82.024410 Y87.540183 Z-0.125000
G01 X84.390611 Y87.356486 Z-0.125000
G01 X90.478233 Y87.893001 Z-0.125000
G01 X92.522834 Y87.777997 Z-0.125000
G01 X94.523704 Y87.211102 Z-0.125000
G01 X103.028288 Y84.077603 Z-0.125000
G01 X107.103236 Y82.919303 Z-0.125000
G01 X110.386054 Y82.221924 Z-0.125000
G01 X113.668549 Y81.831438 Z-0.125000
G01 X116.735225 Y81.838855 Z-0.125000
G01 X119.401289 Y82.265977 Z-0.125000
G01 X121.861789 Y83.189625 Z-0.125000
G01 X123.331433 Y84.075216 Z-0.125000
G01 X126.880444 Y86.731283 Z-0.125000
G01 X130.754473 Y88.273425 Z-0.125000
G01 X132.774564 Y89.608779 Z-0.125000
G01 X141.745746 Y97.455329 Z-0.125000
G01 X144.041963 Y99.885579 Z-0.125000
G01 X145.816630 Y102.244298 Z-0.125000
G01 X147.270020 Y105.268468 Z-0.125000
G01 X147.910316 Y108.897331 Z-0.125000
G01 X147.890128 Y111.155880 Z-0.125000
G01 X147.068843 Y115.178648 Z-0.125000
G01 X146.804004 Y117.681331 Z-0.125000
G01 X146.944615 Y120.490780 Z-0.125000
G01 X147.491837 Y123.011846 Z-0.125000
G01 X148.439801 Y125.496083 Z-0.125000
G01 X149.702398 Y127.807587 Z-0.125000
G01 X151.355224 Y130.141667 Z-0.125000
G01 X154.706734 Y134.204812 Z-0.125000
G01 X155.469904 Y135.412583 Z-0.125000
G01 X155.707782 Y136.159628 Z-0.125000
G01 X155.328132 Y137.415711 Z-0.125000
G01 X153.062165 Y140.230255 Z-0.125000
G01 X151.608710 Y142.423078 Z-0.125000
G01 X149.731939 Y146.438170 Z-0.125000
G01 X148.428384 Y150.958752 Z-0.125000
G01 X146.692934 Y160.440132 Z-0.125000
G01 X145.728909 Y163.314016 Z-0.125000
G01 X144.553646 Y165.837340 Z-0.125000
G01 X142.151196 Y169.657705 Z-0.125000
G01 X139.148633 Y173.358679 Z-0.125000
G01 X135.914965 Y176.541327 Z-0.125000
G01 X133.117320 Y178.458605 Z-0.125000
G01 X131.129479 Y179.339681 Z-0.125000
G01 X128.545460 Y180.105689 Z-0.125000
G01 X118.328323 Y182.137133 Z-0.125000
G01 X113.530002 Y184.116588 Z-0.125000
G01 X111.386070 Y184.771269 Z-0.125000
G01 X107.840800 Y185.339969 Z-0.125000
G01 X103.045704 Y185.531278 Z-0.125000
G01 X98.981592 Y185.235414 Z-0.125000
G01 X95.096597 Y184.209211 Z-0.125000
G01 X92.043853 Y182.838060 Z-0.125000
G01 X87.036937 Y179.809310 Z-0.125000
G01 X85.524078 Y179.116897 Z-0.125000
G01 X84.277090 Y178.902949 Z-0.125000
G01 X80.223943 Y178.796071 Z-0.125000
G01 X78.590597 Y178.232853 Z-0.125000
G01 X76.352494 Y176.282551 Z-0.125000
G01 X70.218110 Y169.098550 Z-0.125000
G01 X66.706896 Y165.319143 Z-0.125000
G01 X62.927038 Y161.717177 Z-0.125000
G01 X57.948953 Y157.519356 Z-0.125000
G01 X56.524266 Y155.885623 Z-0.125000
G01 X56.224017 Y154.489961 Z-0.125000
G01 X56.946100 Y148.615900 Z-0.125000
G01 X56.621211 Y144.499349 Z-0.125000
G01 X55.414148 Y139.821193 Z-0.125000
G01 X52.757308 Y133.091662 Z-0.125000
G01 X52.217955 Y130.482165 Z-0.125000
G01 X52.236209 Y127.054415 Z-0.125000
G01 X53.034983 Y122.978371 Z-0.125000
G01 X54.512689 Y118.866012 Z-0.125000
G01 X57.147535 Y113.453453 Z-0.125000
G01 X57.579559 Y110.844666 Z-0.125000
G01 X62.412001 Y104.267679 Z-0.125000
G01 X64.110622 Y101.310137 Z-0.125000
G01 X67.382345 Y94.490693 Z-0.125000
G01 X68.613015 Y92.747954 Z-0.125000
G01 X69.889738 Y91.495354 Z-0.125000
G01 X71.437685 Y90.416841 Z-0.125000
G01 X73.643989 Y89.326912 Z-0.125000
G01 X78.830990 Y87.674022 Z-0.125000
G01 X81.504085 Y87.146021 Z-0.125000
G01 X83.988386 Y86.909626 Z-0.125000
G01 X86.515193 Y86.955035 Z-0.125000
G01 X90.632002 Y87.387446 Z-0.125000
G01 X92.693825 Y87.240901 Z-0.125000
G01 X102.795313 Y83.547151 Z-0.125000
G01 X106.903736 Y82.357955 Z-0.125000
G01 X110.202808 Y81.636904 Z-0.125000
G01 X113.505814 Y81.229003 Z-0.125000
G01 X116.590486 Y81.231583 Z-0.125000
G01 X119.258743 Y81.670509 Z-0.125000
G01 X121.423444 Y82.487730 Z-0.125000
G01 X123.130901 Y83.552956 Z-0.125000
G01 X126.683524 Y86.355374 Z-0.125000
G01 X130.721901 Y87.995557 Z-0.125000
G01 X132.548426 Y89.193847 Z-0.125000
G01 X142.220147 Y97.487837 Z-0.125000
G01 X144.592475 Y99.927569 Z-0.125000
G01 X146.411712 Y102.286868 Z-0.125000
G01 X147.869229 Y105.287625 Z-0.125000
G01 X148.472825 Y108.835862 Z-0.125000
G01 X148.514557 Y111.019591 Z-0.125000
G01 X147.750291 Y115.275011 Z-0.125000
G01 X147.543695 Y117.823942 Z-0.125000
G01 X147.693272 Y120.263996 Z-0.125000
G01 X148.250169 Y122.817442 Z-0.125000
G01 X149.223804 Y125.339605 Z-0.125000
G01 X150.524522 Y127.686585 Z-0.125000
G01 X152.227206 Y130.053301 Z-0.125000
G01 X155.654246 Y134.164757 Z-0.125000
G01 X156.421028 Y135.389363 Z-0.125000
G01 X156.646458 Y136.149760 Z-0.125000
G01 X156.585634 Y136.715300 Z-0.125000
G01 X156.205726 Y137.440866 Z-0.125000
G01 X153.786699 Y140.357514 Z-0.125000
G01 X152.483402 Y142.262472 Z-0.125000
G01 X150.522071 Y146.303428 Z-0.125000
G01 X149.095384 Y151.377231 Z-0.125000
G01 X147.607551 Y160.701617 Z-0.125000
G01 X146.685387 Y163.668059 Z-0.125000
G01 X145.512897 Y166.245370 Z-0.125000
G01 X143.286469 Y169.745942 Z-0.125000
G01 X140.157098 Y173.431565 Z-0.125000
G01 X136.808426 Y176.581705 Z-0.125000
G01 X133.793608 Y178.637400 Z-0.125000
G01 X131.875105 Y179.498482 Z-0.125000
G01 X129.713629 Y180.176253 Z-0.125000
G01 X118.919535 Y182.507495 Z-0.125000
G01 X113.689254 Y184.882209 Z-0.125000
G01 X111.183796 Y185.715427 Z-0.125000
G01 X107.898786 Y186.273872 Z-0.125000
G01 X103.499981 Y186.481757 Z-0.125000
G01 X99.832740 Y186.303929 Z-0.125000
G01 X96.253156 Y185.539341 Z-0.125000
G01 X92.226777 Y183.855361 Z-0.125000
G01 X85.490860 Y179.905480 Z-0.125000
G01 X84.004575 Y179.574850 Z-0.125000
G01 X79.773085 Y179.375028 Z-0.125000
G01 X78.122775 Y178.804005 Z-0.125000
G01 X75.963169 Y176.883309 Z-0.125000
G01 X70.132324 Y169.752198 Z-0.125000
G01 X66.318925 Y165.533156 Z-0.125000
G01 X62.581250 Y161.955958 Z-0.125000
G01 X57.458234 Y157.753428 Z-0.125000
G01 X56.107013 Y156.183550 Z-0.125000
G01 X55.834176 Y154.756412 Z-0.125000
G01 X56.555678 Y149.065275 Z-0.125000
G01 X56.245108 Y144.926794 Z-0.125000
G01 X55.040884 Y140.197618 Z-0.125000
G01 X52.382431 Y133.380237 Z-0.125000
G01 X51.850173 Y130.712303 Z-0.125000
G01 X51.885584 Y127.176902 Z-0.125000
G01 X52.586124 Y123.410911 Z-0.125000
G01 X54.053059 Y119.053773 Z-0.125000
G01 X56.724024 Y113.230991 Z-0.125000
G01 X57.019888 Y110.327242 Z-0.125000
G01 X60.926168 Y105.062389 Z-0.125000
G01 X62.550290 Y102.570348 Z-0.125000
G01 X67.108669 Y93.541181 Z-0.125000
G01 X68.171315 Y92.131135 Z-0.125000
G01 X69.477257 Y90.909109 Z-0.125000
G01 X71.417303 Y89.676117 Z-0.125000
G01 X73.742481 Y88.663460 Z-0.125000
G01 X76.806384 Y87.704531 Z-0.125000
G01 X80.492394 Y86.868798 Z-0.125000
G01 X84.741816 Y86.456575 Z-0.125000
G01 X90.779063 Y86.885181 Z-0.125000
G01 X93.084762 Y86.640337 Z-0.125000
G01 X102.081099 Y83.145571 Z-0.125000
G01 X106.666633 Y81.779192 Z-0.125000
G01 X109.982539 Y81.036211 Z-0.125000
G01 X113.309862 Y80.613023 Z-0.125000
G01 X116.420785 Y80.613475 Z-0.125000
G01 X119.102329 Y81.066655 Z-0.125000
G01 X121.255678 Y81.913934 Z-0.125000
G01 X122.712615 Y82.853835 Z-0.125000
G01 X126.436939 Y85.960179 Z-0.125000
G01 X130.640694 Y87.714528 Z-0.125000
G01 X132.291391 Y88.795557 Z-0.125000
G01 X142.684808 Y97.528860 Z-0.125000
G01 X145.141116 Y99.972655 Z-0.125000
G01 X147.012727 Y102.327697 Z-0.125000
G01 X148.395167 Y105.028075 Z-0.125000
G01 X149.002632 Y108.147319 Z-0.125000
G01 X149.148919 Y111.078931 Z-0.125000
G01 X148.454443 Y115.374794 Z-0.125000
G01 X148.293514 Y117.979001 Z-0.125000
G01 X148.510493 Y120.470075 Z-0.125000
G01 X149.018628 Y122.628971 Z-0.125000
G01 X150.022450 Y125.184352 Z-0.125000
G01 X151.363673 Y127.559648 Z-0.125000
G01 X152.866019 Y129.637918 Z-0.125000
G01 X156.619238 Y134.101095 Z-0.125000
G01 X157.308684 Y135.177157 Z-0.125000
G01 X157.602871 Y136.119896 Z-0.125000
G01 X157.210901 Y137.297869 Z-0.125000
G01 X154.519231 Y140.490063 Z-0.125000
G01 X153.153433 Y142.457780 Z-0.125000
G01 X151.139985 Y146.603872 Z-0.125000
G01 X149.836301 Y151.308796 Z-0.125000
G01 X148.841059 Y159.006350 Z-0.125000
G01 X148.318217 Y161.691958 Z-0.125000
G01 X147.484678 Y164.375243 Z-0.125000
G01 X146.271746 Y167.002993 Z-0.125000
G01 X144.192765 Y170.160873 Z-0.125000
G01 X141.203361 Y173.512771 Z-0.125000
G01 X137.712594 Y176.628919 Z-0.125000
G01 X134.464736 Y178.813873 Z-0.125000
G01 X132.618086 Y179.656766 Z-0.125000
G01 X130.228988 Y180.421161 Z-0.125000
G01 X119.320663 Y182.933972 Z-0.125000
G01 X117.404805 Y183.730102 Z-0.125000
G01 X113.603339 Y185.772639 Z-0.125000
G01 X111.294414 Y186.602438 Z-0.125000
G01 X107.957481 Y187.224803 Z-0.125000
G01 X103.965223 Y187.446298 Z-0.125000
G01 X99.786687 Y187.264922 Z-0.125000
G01 X96.154470 Y186.468922 Z-0.125000
G01 X92.059269 Y184.711025 Z-0.125000
G01 X85.314839 Y180.655363 Z-0.125000
G01 X83.755603 Y180.271585 Z-0.125000
G01 X79.337706 Y179.980107 Z-0.125000
G01 X77.651212 Y179.389992 Z-0.125000
G01 X75.547141 Y177.487485 Z-0.125000
G01 X69.669791 Y169.989947 Z-0.125000
G01 X65.938437 Y165.764326 Z-0.125000
G01 X61.912767 Y161.919580 Z-0.125000
G01 X56.990089 Y158.011108 Z-0.125000
G01 X55.694209 Y156.479543 Z-0.125000
G01 X55.442658 Y155.013834 Z-0.125000
G01 X56.012261 Y151.439410 Z-0.125000
G01 X56.153905 Y149.174475 Z-0.125000
G01 X55.845915 Y145.366946 Z-0.125000
G01 X54.648269 Y140.590232 Z-0.125000
G01 X52.005103 Y133.686034 Z-0.125000
G01 X51.484262 Y130.959791 Z-0.125000
G01 X51.492066 Y127.795203 Z-0.125000
G01 X52.139651 Y123.898277 Z-0.125000
G01 X53.588268 Y119.291844 Z-0.125000
G01 X56.313092 Y113.014914 Z-0.125000
G01 X56.481761 Y112.160734 Z-0.125000
G01 X56.300127 Y110.610400 Z-0.125000
G01 X56.440738 Y109.910118 Z-0.125000
G01 X62.072793 Y101.930503 Z-0.125000
G01 X66.493141 Y93.208616 Z-0.125000
G01 X67.527278 Y91.790508 Z-0.125000
G01 X68.801937 Y90.566740 Z-0.125000
G01 X70.714118 Y89.339618 Z-0.125000
G01 X73.033556 Y88.339603 Z-0.125000
G01 X76.123195 Y87.399830 Z-0.125000
G01 X79.884477 Y86.559324 Z-0.125000
G01 X84.318628 Y86.051834 Z-0.125000
G01 X90.910450 Y86.383818 Z-0.125000
G01 X92.986915 Y86.141039 Z-0.125000
G01 X101.783171 Y82.578482 Z-0.125000
G01 X105.919846 Y81.307823 Z-0.125000
G01 X109.718990 Y80.417135 Z-0.125000
G01 X113.072951 Y79.980725 Z-0.125000
G01 X116.217609 Y79.982015 Z-0.125000
G01 X118.569877 Y80.357924 Z-0.125000
G01 X120.803594 Y81.186304 Z-0.125000
G01 X122.512277 Y82.309451 Z-0.125000
G01 X126.152492 Y85.546473 Z-0.125000
G01 X130.318772 Y87.324816 Z-0.125000
G01 X132.000171 Y88.398169 Z-0.125000
G01 X143.531313 Y97.917217 Z-0.125000
G01 X146.006842 Y100.355659 Z-0.125000
G01 X147.619419 Y102.357625 Z-0.125000
G01 X149.027916 Y105.030203 Z-0.125000
G01 X149.576558 Y107.661372 Z-0.125000
G01 X149.826691 Y110.921615 Z-0.125000
G01 X149.164464 Y115.485863 Z-0.125000
G01 X149.048041 Y117.752540 Z-0.125000
G01 X149.275985 Y120.267802 Z-0.125000
G01 X149.802567 Y122.450756 Z-0.125000
G01 X150.839542 Y125.032647 Z-0.125000
G01 X152.222175 Y127.427293 Z-0.125000
G01 X153.767542 Y129.517818 Z-0.125000
G01 X157.460776 Y133.822840 Z-0.125000
G01 X158.294639 Y135.104013 Z-0.125000
G01 X158.564702 Y135.915300 Z-0.125000
G01 X158.521745 Y136.520638 Z-0.125000
G01 X158.132420 Y137.293031 Z-0.125000
G01 X155.264857 Y140.630158 Z-0.125000
G01 X153.831914 Y142.664955 Z-0.125000
G01 X151.758029 Y146.911088 Z-0.125000
G01 X151.006856 Y149.284448 Z-0.125000
G01 X150.392876 Y152.168136 Z-0.125000
G01 X149.192264 Y161.901971 Z-0.125000
G01 X148.410453 Y164.678460 Z-0.125000
G01 X147.219387 Y167.374968 Z-0.125000
G01 X145.367320 Y170.229179 Z-0.125000
G01 X142.577350 Y173.320559 Z-0.125000
G01 X138.632048 Y176.682583 Z-0.125000
G01 X135.126833 Y178.987702 Z-0.125000
G01 X131.075686 Y180.583122 Z-0.125000
G01 X119.731596 Y183.352580 Z-0.125000
G01 X117.710150 Y184.254039 Z-0.125000
G01 X113.766332 Y186.574832 Z-0.125000
G01 X111.408258 Y187.504090 Z-0.125000
G01 X108.431818 Y188.137614 Z-0.125000
G01 X104.440462 Y188.422448 Z-0.125000
G01 X100.210197 Y188.296608 Z-0.125000
G01 X96.506643 Y187.558142 Z-0.125000
G01 X92.279409 Y185.798439 Z-0.125000
G01 X84.970148 Y181.347002 Z-0.125000
G01 X83.337253 Y180.957806 Z-0.125000
G01 X78.924645 Y180.613244 Z-0.125000
G01 X77.184422 Y179.994491 Z-0.125000
G01 X75.110537 Y178.097789 Z-0.125000
G01 X69.545756 Y170.671266 Z-0.125000
G01 X65.564398 Y166.016265 Z-0.125000
G01 X61.604326 Y162.207704 Z-0.125000
G01 X56.540327 Y158.288589 Z-0.125000
G01 X55.344101 Y156.886025 Z-0.125000
G01 X55.039723 Y155.426444 Z-0.125000
G01 X55.584430 Y151.897750 Z-0.125000
G01 X55.723815 Y149.640620 Z-0.125000
G01 X55.416986 Y145.818643 Z-0.125000
G01 X54.476053 Y141.777686 Z-0.125000
G01 X51.845271 Y134.716301 Z-0.125000
G01 X51.159953 Y131.651753 Z-0.125000
G01 X51.105966 Y128.456269 Z-0.125000
G01 X51.695178 Y124.442854 Z-0.125000
G01 X53.116511 Y119.590095 Z-0.125000
G01 X55.954275 Y112.637779 Z-0.125000
G01 X56.070828 Y111.644085 Z-0.125000
G01 X55.774513 Y110.092977 Z-0.125000
G01 X55.956727 Y109.331742 Z-0.125000
G01 X61.645864 Y101.269566 Z-0.125000
G01 X66.103945 Y92.582252 Z-0.125000
G01 X67.145177 Y91.200135 Z-0.125000
G01 X68.155190 Y90.238175 Z-0.125000
G01 X70.027962 Y89.019760 Z-0.125000
G01 X72.329275 Y88.034128 Z-0.125000
G01 X75.432265 Y87.113384 Z-0.125000
G01 X79.249147 Y86.279844 Z-0.125000
G01 X84.277864 Y85.654253 Z-0.125000
G01 X90.775773 Y85.882391 Z-0.125000
G01 X92.866106 Y85.634710 Z-0.125000
G01 X101.452412 Y81.988496 Z-0.125000
G01 X105.592699 Y80.690488 Z-0.125000
G01 X109.407775 Y79.778387 Z-0.125000
G01 X112.789020 Y79.330495 Z-0.125000
G01 X115.541127 Y79.304631 Z-0.125000
G01 X117.988212 Y79.638550 Z-0.125000
G01 X120.323323 Y80.444870 Z-0.125000
G01 X122.304650 Y81.758875 Z-0.125000
G01 X125.845211 Y85.119157 Z-0.125000
G01 X127.064916 Y85.789446 Z-0.125000
G01 X130.138945 Y87.004507 Z-0.125000
G01 X131.671412 Y87.986591 Z-0.125000
G01 X135.691019 Y91.398216 Z-0.125000
G01 X143.994233 Y97.944888 Z-0.125000
G01 X146.563288 Y100.376428 Z-0.125000
G01 X148.231142 Y102.367816 Z-0.125000
G01 X149.572236 Y104.741370 Z-0.125000
G01 X150.171897 Y107.162912 Z-0.125000
G01 X150.514976 Y110.953091 Z-0.125000
G01 X149.918733 Y115.265336 Z-0.125000
G01 X149.824627 Y117.954556 Z-0.125000
G01 X150.140486 Y120.522256 Z-0.125000
G01 X150.753756 Y122.727851 Z-0.125000
G01 X151.676888 Y124.887327 Z-0.125000
G01 X153.100156 Y127.291325 Z-0.125000
G01 X154.686416 Y129.384302 Z-0.125000
G01 X158.453117 Y133.706287 Z-0.125000
G01 X159.293945 Y135.006230 Z-0.125000
G01 X159.556462 Y135.837513 Z-0.125000
G01 X159.496606 Y136.465361 Z-0.125000
G01 X159.071354 Y137.275745 Z-0.125000
G01 X156.276999 Y140.471680 Z-0.125000
G01 X154.523037 Y142.887869 Z-0.125000
G01 X153.363382 Y144.951885 Z-0.125000
G01 X152.381749 Y147.231849 Z-0.125000
G01 X151.111863 Y152.070483 Z-0.125000
G01 X150.344178 Y160.011784 Z-0.125000
G01 X149.867455 Y162.893602 Z-0.125000
G01 X149.028755 Y165.752587 Z-0.125000
G01 X147.951855 Y168.098857 Z-0.125000
G01 X146.021419 Y170.949521 Z-0.125000
G01 X143.405150 Y173.681891 Z-0.125000
G01 X139.572014 Y176.741666 Z-0.125000
G01 X135.776676 Y179.158693 Z-0.125000
G01 X131.620135 Y180.837577 Z-0.125000
G01 X120.147947 Y183.770479 Z-0.125000
G01 X118.019817 Y184.784491 Z-0.125000
G01 X113.934678 Y187.389860 Z-0.125000
G01 X111.525649 Y188.418836 Z-0.125000
G01 X108.498511 Y189.111959 Z-0.125000
G01 X104.453169 Y189.417369 Z-0.125000
G01 X99.695225 Y189.232381 Z-0.125000
G01 X95.962452 Y188.384845 Z-0.125000
G01 X91.740636 Y186.497818 Z-0.125000
G01 X86.065882 Y182.796199 Z-0.125000
G01 X84.631456 Y182.055862 Z-0.125000
G01 X83.109566 Y181.670214 Z-0.125000
G01 X78.538868 Y181.274696 Z-0.125000
G01 X76.730532 Y180.620661 Z-0.125000
G01 X75.793017 Y179.926507 Z-0.125000
G01 X74.660259 Y178.716800 Z-0.125000
G01 X69.067292 Y170.938104 Z-0.125000
G01 X65.195585 Y166.292262 Z-0.125000
G01 X61.310591 Y162.522595 Z-0.125000
G01 X56.104239 Y158.581163 Z-0.125000
G01 X54.931620 Y157.174923 Z-0.125000
G01 X54.645367 Y155.680447 Z-0.125000
G01 X55.263346 Y150.114182 Z-0.125000
G01 X54.952002 Y146.278854 Z-0.125000
G01 X54.024421 Y142.203003 Z-0.125000
G01 X51.448851 Y135.058669 Z-0.125000
G01 X50.788817 Y131.938006 Z-0.125000
G01 X50.754052 Y128.659446 Z-0.125000
G01 X51.251609 Y125.043225 Z-0.125000
G01 X52.635854 Y119.954587 Z-0.125000
G01 X55.546181 Y112.435699 Z-0.125000
G01 X55.656864 Y111.248632 Z-0.125000
G01 X55.276440 Y109.672304 Z-0.125000
G01 X55.451301 Y108.871531 Z-0.125000
G01 X56.216793 Y107.570362 Z-0.125000
G01 X60.785685 Y101.357029 Z-0.125000
G01 X62.589184 Y98.255845 Z-0.125000
G01 X65.385474 Y92.562902 Z-0.125000
G01 X66.349628 Y91.140343 Z-0.125000
G01 X67.539920 Y89.922574 Z-0.125000
G01 X69.362252 Y88.715769 Z-0.125000
G01 X71.633057 Y87.745875 Z-0.125000
G01 X74.736434 Y86.843707 Z-0.125000
G01 X78.593241 Y86.022035 Z-0.125000
G01 X84.229682 Y85.265702 Z-0.125000
G01 X90.852658 Y85.384641 Z-0.125000
G01 X92.716658 Y85.122898 Z-0.125000
G01 X101.089597 Y81.375613 Z-0.125000
G01 X105.218983 Y80.051224 Z-0.125000
G01 X109.046766 Y79.119837 Z-0.125000
G01 X112.454198 Y78.661690 Z-0.125000
G01 X115.244361 Y78.639630 Z-0.125000
G01 X117.733177 Y78.991094 Z-0.125000
G01 X120.102796 Y79.833019 Z-0.125000
G01 X122.086574 Y81.201526 Z-0.125000
G01 X125.531094 Y84.686617 Z-0.125000
G01 X126.749444 Y85.375482 Z-0.125000
G01 X129.706534 Y86.553261 Z-0.125000
G01 X131.302276 Y87.547794 Z-0.125000
G01 X135.502291 Y91.150728 Z-0.125000
G01 X144.864667 Y98.298609 Z-0.125000
G01 X147.446816 Y100.710282 Z-0.125000
G01 X149.076872 Y102.663680 Z-0.125000
G01 X150.230980 Y104.697058 Z-0.125000
G01 X150.838381 Y107.071193 Z-0.125000
G01 X151.221191 Y110.782036 Z-0.125000
G01 X150.646686 Y115.427104 Z-0.125000
G01 X150.604889 Y117.777373 Z-0.125000
G01 X150.855925 Y119.924917 Z-0.125000
G01 X151.428109 Y122.142638 Z-0.125000
G01 X152.321506 Y124.327334 Z-0.125000
G01 X153.735614 Y126.773580 Z-0.125000
G01 X155.619997 Y129.239176 Z-0.125000
G01 X159.306781 Y133.371723 Z-0.125000
G01 X160.209659 Y134.705013 Z-0.125000
G01 X160.558864 Y135.738827 Z-0.125000
G01 X160.484044 Y136.392798 Z-0.125000
G01 X160.025574 Y137.247623 Z-0.125000
G01 X156.806354 Y140.943824 Z-0.125000
G01 X155.229511 Y143.130197 Z-0.125000
G01 X154.023351 Y145.249942 Z-0.125000
G01 X153.014757 Y147.572024 Z-0.125000
G01 X152.256102 Y150.006209 Z-0.125000
G01 X151.753385 Y152.453229 Z-0.125000
G01 X151.067680 Y160.491474 Z-0.125000
G01 X150.611210 Y163.472558 Z-0.125000
G01 X149.770446 Y166.417264 Z-0.125000
G01 X148.664521 Y168.802815 Z-0.125000
G01 X146.657201 Y171.644901 Z-0.125000
G01 X144.241270 Y174.030903 Z-0.125000
G01 X140.831386 Y176.606279 Z-0.125000
G01 X136.412070 Y179.326459 Z-0.125000
G01 X134.290971 Y180.335118 Z-0.125000
G01 X131.886199 Y181.190265 Z-0.125000
G01 X122.953073 Y183.430432 Z-0.125000
G01 X120.565910 Y184.195150 Z-0.125000
G01 X118.331935 Y185.326360 Z-0.125000
G01 X114.108765 Y188.216692 Z-0.125000
G01 X111.646974 Y189.343322 Z-0.125000
G01 X108.566559 Y190.094301 Z-0.125000
G01 X104.943179 Y190.406935 Z-0.125000
G01 X100.131377 Y190.287803 Z-0.125000
G01 X96.331137 Y189.513023 Z-0.125000
G01 X91.986512 Y187.649732 Z-0.125000
G01 X85.801043 Y183.576913 Z-0.125000
G01 X84.304632 Y182.789684 Z-0.125000
G01 X82.699537 Y182.371334 Z-0.125000
G01 X78.182244 Y181.962207 Z-0.125000
G01 X76.296314 Y181.270439 Z-0.125000
G01 X75.145625 Y180.386138 Z-0.125000
G01 X74.011771 Y179.104319 Z-0.125000
G01 X68.585344 Y171.222229 Z-0.125000
G01 X64.474727 Y166.206025 Z-0.125000
G01 X60.708930 Y162.595416 Z-0.125000
G01 X55.677504 Y158.884186 Z-0.125000
G01 X54.518494 Y157.458919 Z-0.125000
G01 X54.236950 Y156.102280 Z-0.125000
G01 X54.687421 Y152.542110 Z-0.125000
G01 X54.762435 Y150.236411 Z-0.125000
G01 X54.378786 Y146.333163 Z-0.125000
G01 X53.302144 Y141.836575 Z-0.125000
G01 X50.932589 Y135.045898 Z-0.125000
G01 X50.412199 Y132.232193 Z-0.125000
G01 X50.440773 Y128.358744 Z-0.125000
G01 X51.264960 Y123.529011 Z-0.125000
G01 X52.467378 Y119.402011 Z-0.125000
G01 X55.213358 Y111.893573 Z-0.125000
G01 X55.238578 Y110.852793 Z-0.125000
G01 X54.812230 Y109.362767 Z-0.125000
G01 X54.982188 Y108.395711 Z-0.125000
G01 X55.765096 Y107.027655 Z-0.125000
G01 X59.416985 Y102.170058 Z-0.125000
G01 X61.175010 Y99.510444 Z-0.125000
G01 X65.245250 Y91.656670 Z-0.125000
G01 X66.243331 Y90.320929 Z-0.125000
G01 X67.219610 Y89.401990 Z-0.125000
G01 X68.719505 Y88.426743 Z-0.125000
G01 X70.947675 Y87.473554 Z-0.125000
G01 X77.429394 Y85.870072 Z-0.125000
G01 X83.723482 Y84.922302 Z-0.125000
G01 X90.644063 Y84.896501 Z-0.125000
G01 X92.306435 Y84.669911 Z-0.125000
G01 X93.917851 Y84.068121 Z-0.125000
G01 X97.965128 Y81.940895 Z-0.125000
G01 X100.696337 Y80.740992 Z-0.125000
G01 X104.325522 Y79.526964 Z-0.125000
G01 X108.635252 Y78.442646 Z-0.125000
G01 X112.066034 Y77.974759 Z-0.125000
G01 X114.896896 Y77.957731 Z-0.125000
G01 X117.435120 Y78.328738 Z-0.125000
G01 X119.546866 Y79.058239 Z-0.125000
G01 X121.644487 Y80.442419 Z-0.125000
G01 X125.214912 Y84.252012 Z-0.125000
G01 X130.494730 Y86.787076 Z-0.125000
G01 X135.609813 Y91.143826 Z-0.125000
G01 X144.463345 Y97.583234 Z-0.125000
G01 X147.672116 Y100.331923 Z-0.125000
G01 X149.704656 Y102.606662 Z-0.125000
G01 X150.901011 Y104.617465 Z-0.125000
G01 X151.525311 Y106.950899 Z-0.125000
G01 X151.925988 Y110.809126 Z-0.125000
G01 X151.419531 Y115.262176 Z-0.125000
G01 X151.400825 Y117.631279 Z-0.125000
G01 X151.673985 Y119.793787 Z-0.125000
G01 X152.271647 Y122.020603 Z-0.125000
G01 X153.193036 Y124.205622 Z-0.125000
G01 X154.641911 Y126.640773 Z-0.125000
G01 X156.287190 Y128.765549 Z-0.125000
G01 X160.308086 Y133.207247 Z-0.125000
G01 X161.220768 Y134.559177 Z-0.125000
G01 X161.566814 Y135.621565 Z-0.125000
G01 X161.479674 Y136.305206 Z-0.125000
G01 X160.991469 Y137.210857 Z-0.125000
G01 X157.603774 Y141.122619 Z-0.125000
G01 X155.688496 Y143.811839 Z-0.125000
G01 X154.470211 Y146.033365 Z-0.125000
G01 X153.483676 Y148.423044 Z-0.125000
G01 X152.773654 Y150.886834 Z-0.125000
G01 X152.333051 Y153.330177 Z-0.125000
G01 X151.815886 Y160.523273 Z-0.125000
G01 X151.418692 Y163.596464 Z-0.125000
G01 X150.641719 Y166.640501 Z-0.125000
G01 X149.572752 Y169.096035 Z-0.125000
G01 X147.847170 Y171.653028 Z-0.125000
G01 X145.408729 Y174.094952 Z-0.125000
G01 X142.159000 Y176.470893 Z-0.125000
G01 X137.261864 Y179.366643 Z-0.125000
G01 X134.764985 Y180.593765 Z-0.125000
G01 X132.174516 Y181.557918 Z-0.125000
G01 X123.480365 Y183.797440 Z-0.125000
G01 X120.981551 Y184.632850 Z-0.125000
G01 X118.644440 Y185.883064 Z-0.125000
G01 X114.288528 Y189.053134 Z-0.125000
G01 X111.772363 Y190.273484 Z-0.125000
G01 X109.061536 Y191.005048 Z-0.125000
G01 X105.441381 Y191.391277 Z-0.125000
G01 X100.092355 Y191.289367 Z-0.125000
G01 X96.246770 Y190.505299 Z-0.125000
G01 X93.966291 Y189.657762 Z-0.125000
G01 X91.453287 Y188.382845 Z-0.125000
G01 X85.555296 Y184.392199 Z-0.125000
G01 X83.995158 Y183.553628 Z-0.125000
G01 X82.299634 Y183.092063 Z-0.125000
G01 X77.852905 Y182.670745 Z-0.125000
G01 X75.886800 Y181.944341 Z-0.125000
G01 X74.697476 Y181.036690 Z-0.125000
G01 X73.556978 Y179.747454 Z-0.125000
G01 X68.099526 Y171.525833 Z-0.125000
G01 X64.121845 Y166.542331 Z-0.125000
G01 X60.442865 Y162.974615 Z-0.125000
G01 X55.375383 Y159.298151 Z-0.125000
G01 X54.104272 Y157.744205 Z-0.125000
G01 X53.824791 Y156.374214 Z-0.125000
G01 X54.222050 Y150.713908 Z-0.125000
G01 X53.826275 Y146.793374 Z-0.125000
G01 X52.781818 Y142.258344 Z-0.125000
G01 X50.512949 Y135.388718 Z-0.125000
G01 X50.068540 Y132.973175 Z-0.125000
G01 X50.036161 Y129.098759 Z-0.125000
G01 X50.789269 Y124.162664 Z-0.125000
G01 X51.958018 Y119.849322 Z-0.125000
G01 X54.793008 Y111.731934 Z-0.125000
G01 X54.837514 Y110.598145 Z-0.125000
G01 X54.362339 Y108.932226 Z-0.125000
G01 X54.546617 Y107.906474 Z-0.125000
G01 X55.521606 Y106.223011 Z-0.125000
G01 X60.399069 Y99.585587 Z-0.125000
G01 X62.007712 Y96.863021 Z-0.125000
G01 X64.780008 Y91.351776 Z-0.125000
G01 X65.730100 Y90.023711 Z-0.125000
G01 X66.659617 Y89.113609 Z-0.125000
G01 X68.101332 Y88.151906 Z-0.125000
G01 X70.275063 Y87.216197 Z-0.125000
G01 X76.247874 Y85.729203 Z-0.125000
G01 X83.171358 Y84.608765 Z-0.125000
G01 X90.387416 Y84.420101 Z-0.125000
G01 X92.083908 Y84.159519 Z-0.125000
G01 X93.684488 Y83.523544 Z-0.125000
G01 X97.962548 Y81.141411 Z-0.125000
G01 X100.695563 Y79.918804 Z-0.125000
G01 X104.333972 Y78.709871 Z-0.125000
G01 X108.174525 Y77.748749 Z-0.125000
G01 X111.624012 Y77.271123 Z-0.125000
G01 X114.496348 Y77.259449 Z-0.125000
G01 X117.090752 Y77.651354 Z-0.125000
G01 X119.256679 Y78.415427 Z-0.125000
G01 X121.609334 Y80.061544 Z-0.125000
