%
(Header)
(Generated by gcodetools from Inkscape.)
(Using default header. To add your own header create file "header" in the output dir.)
M3
(Header end.)
G21 (All units in mm)

(Start cutting path id: polyline83764)
(Change tool to Default tool)

G00 Z3.000000
G00 X11.286517 Y235.898952

G00 Z4.875000 (Fast pre-penetrate)
G01 Z-0.125000 F400.0(Penetrate)
G01 X12.197291 Y235.523536 Z-0.125000 F800.000000
G01 X13.119469 Y234.815353 Z-0.125000
G01 X14.091732 Y233.766043 Z-0.125000
G01 X16.953621 Y230.143346 Z-0.125000
G01 X17.935250 Y229.312000 Z-0.125000
G01 X18.724580 Y229.023975 Z-0.125000
G01 X19.096478 Y229.133115 Z-0.125000
G01 X19.574659 Y229.552691 Z-0.125000
G01 X22.124842 Y232.062658 Z-0.125000
G01 X24.435975 Y234.561168 Z-0.125000
G01 X25.130452 Y235.021675 Z-0.125000
G01 X25.737644 Y235.161427 Z-0.125000
G01 X26.481440 Y234.979315 Z-0.125000
G01 X27.145543 Y234.506479 Z-0.125000
G01 X27.926539 Y233.652484 Z-0.125000
G01 X29.584178 Y231.397046 Z-0.125000
G01 X30.271327 Y230.591074 Z-0.125000
G01 X31.050550 Y229.963509 Z-0.125000
G01 X31.794346 Y229.734909 Z-0.125000
G01 X32.416724 Y229.845770 Z-0.125000
G01 X33.122579 Y230.284342 Z-0.125000
G01 X33.742417 Y230.895212 Z-0.125000
G01 X36.080088 Y233.682117 Z-0.125000
G01 X36.894739 Y234.272561 Z-0.125000
G01 X37.638561 Y234.455917 Z-0.125000
G01 X38.245752 Y234.336590 Z-0.125000
G01 X38.860511 Y233.989351 Z-0.125000
G01 X39.551205 Y233.384700 Z-0.125000
G01 X41.109652 Y231.689569 Z-0.125000
G01 X41.809183 Y231.037743 Z-0.125000
G01 X42.526441 Y230.579749 Z-0.125000
G01 X43.270236 Y230.391684 Z-0.125000
G01 X43.907776 Y230.476218 Z-0.125000
G01 X44.530154 Y230.759375 Z-0.125000
G01 X45.236009 Y231.268247 Z-0.125000
G01 X47.535738 Y233.262515 Z-0.125000
G01 X48.370629 Y233.701538 Z-0.125000
G01 X49.114452 Y233.847720 Z-0.125000
G01 X49.858247 Y233.753449 Z-0.125000
G01 X50.632417 Y233.431981 Z-0.125000
G01 X53.091531 Y231.752514 Z-0.125000
G01 X53.911236 Y231.297775 Z-0.125000
G01 X54.639871 Y231.042320 Z-0.125000
G01 X55.383666 Y230.948128 Z-0.125000
G01 X56.127489 Y231.020703 Z-0.125000
G01 X56.977541 Y231.278883 Z-0.125000
G01 X59.649194 Y232.615663 Z-0.125000
G01 X60.590342 Y233.006240 Z-0.125000
G01 X61.546651 Y233.257515 Z-0.125000
G01 X62.396730 Y233.339456 Z-0.125000
G01 X63.246782 Y233.293127 Z-0.125000
G01 X64.309374 Y233.086911 Z-0.125000
G01 X67.603379 Y232.024822 Z-0.125000
G01 X68.878484 Y231.691554 Z-0.125000
G01 X70.153563 Y231.483856 Z-0.125000
G01 X71.428667 Y231.408344 Z-0.125000
G01 X73.766364 Y231.547197 Z-0.125000
G01 X79.079270 Y232.323166 Z-0.125000
G01 X82.054506 Y232.638417 Z-0.125000
G01 X85.561024 Y232.829790 Z-0.125000
G01 X90.236391 Y232.909297 Z-0.125000
G01 X100.012125 Y232.898528 Z-0.125000
G01 X106.918931 Y232.766369 Z-0.125000
G01 X112.656864 Y232.517449 Z-0.125000
G01 X124.664037 Y231.797890 Z-0.125000
G01 X131.995870 Y231.584583 Z-0.125000
G01 X137.733802 Y231.598076 Z-0.125000
G01 X142.409169 Y231.768441 Z-0.125000
G01 X146.021944 Y232.060938 Z-0.125000
G01 X152.184929 Y232.778884 Z-0.125000
G01 X154.735139 Y232.927871 Z-0.125000
G01 X156.222730 Y232.899640 Z-0.125000
G01 X157.816604 Y232.759728 Z-0.125000
G01 X162.385715 Y231.998338 Z-0.125000
G01 X164.085846 Y231.805218 Z-0.125000
G01 X165.998490 Y231.792386 Z-0.125000
G01 X168.123673 Y232.029505 Z-0.125000
G00 Z3.000000

(End cutting path id: polyline83764)


(Start cutting path id: polyline83760)
(Change tool to Default tool)

G00 Z3.000000
G00 X11.286517 Y230.998664

G00 Z4.875000 (Fast pre-penetrate)
G01 Z-0.125000 F400.0(Penetrate)
G01 X14.120069 Y227.576415 Z-0.125000 F800.000000
G01 X14.952421 Y226.844499 Z-0.125000
G01 X15.476110 Y226.503848 Z-0.125000
G01 X15.749345 Y226.427543 Z-0.125000
G01 X16.022580 Y226.525279 Z-0.125000
G01 X16.625988 Y226.956576 Z-0.125000
G01 X17.662015 Y227.907223 Z-0.125000
G01 X18.299554 Y228.372254 Z-0.125000
G01 X22.045150 Y232.001460 Z-0.125000
G01 X22.671312 Y232.383226 Z-0.125000
G01 X23.293691 Y232.516127 Z-0.125000
G01 X23.931230 Y232.384285 Z-0.125000
G01 X24.675052 Y231.905786 Z-0.125000
G01 X25.503858 Y231.036261 Z-0.125000
G01 X27.161497 Y228.840301 Z-0.125000
G01 X27.942493 Y227.942386 Z-0.125000
G01 X28.773575 Y227.299661 Z-0.125000
G01 X29.137906 Y227.149510 Z-0.125000
G01 X29.562932 Y227.088180 Z-0.125000
G01 X30.094215 Y227.169645 Z-0.125000
G01 X30.483840 Y227.382872 Z-0.125000
G01 X34.158606 Y231.245784 Z-0.125000
G01 X34.875838 Y231.680547 Z-0.125000
G01 X35.513377 Y231.810563 Z-0.125000
G01 X36.242012 Y231.653163 Z-0.125000
G01 X36.947867 Y231.221072 Z-0.125000
G01 X37.638561 Y230.598932 Z-0.125000
G01 X39.267836 Y228.886947 Z-0.125000
G01 X39.976231 Y228.284783 Z-0.125000
G01 X40.720053 Y227.875658 Z-0.125000
G01 X41.357592 Y227.745404 Z-0.125000
G01 X42.101388 Y227.860021 Z-0.125000
G01 X42.799676 Y228.201069 Z-0.125000
G01 X43.482749 Y228.699358 Z-0.125000
G01 X45.258789 Y230.233992 Z-0.125000
G01 X46.078494 Y230.794167 Z-0.125000
G01 X46.776755 Y231.094443 Z-0.125000
G01 X47.520577 Y231.203028 Z-0.125000
G01 X48.264373 Y231.093940 Z-0.125000
G01 X49.084077 Y230.756941 Z-0.125000
G01 X51.452122 Y229.206855 Z-0.125000
G01 X52.408457 Y228.683986 Z-0.125000
G01 X53.258509 Y228.395061 Z-0.125000
G01 X54.002331 Y228.302986 Z-0.125000
G01 X54.852384 Y228.378445 Z-0.125000
G01 X55.702462 Y228.618872 Z-0.125000
G01 X58.571415 Y229.950545 Z-0.125000
G01 X59.634007 Y230.360489 Z-0.125000
G01 X60.696599 Y230.614595 Z-0.125000
G01 X61.652908 Y230.694129 Z-0.125000
G01 X62.609243 Y230.640392 Z-0.125000
G01 X63.671808 Y230.454390 Z-0.125000
G01 X67.284610 Y229.429713 Z-0.125000
G01 X68.878484 Y229.062895 Z-0.125000
G01 X70.366076 Y228.850805 Z-0.125000
G01 X71.959950 Y228.763784 Z-0.125000
G01 X74.616416 Y228.860621 Z-0.125000
G01 X83.329584 Y229.616085 Z-0.125000
G01 X90.236391 Y229.799679 Z-0.125000
G01 X97.461941 Y229.644607 Z-0.125000
G01 X109.894141 Y228.966957 Z-0.125000
G01 X115.100817 Y228.785162 Z-0.125000
G01 X120.094953 Y228.781934 Z-0.125000
G01 X132.952179 Y229.075727 Z-0.125000
G01 X145.915688 Y228.769578 Z-0.125000
G01 X149.528463 Y229.017440 Z-0.125000
G01 X155.691447 Y230.084662 Z-0.125000
G01 X158.135400 Y230.283919 Z-0.125000
G01 X160.473071 Y230.107257 Z-0.125000
G01 X165.360951 Y229.199314 Z-0.125000
G01 X166.742312 Y229.122876 Z-0.125000
G01 X168.123673 Y229.200425 Z-0.125000
G00 Z3.000000

(End cutting path id: polyline83760)


(Start cutting path id: polyline83758)
(Change tool to Default tool)

G00 Z3.000000
G00 X11.286517 Y227.760406

G00 Z4.875000 (Fast pre-penetrate)
G01 Z-0.125000 F400.0(Penetrate)
G01 X12.349083 Y226.528375 Z-0.125000 F800.000000
G01 X13.199161 Y225.726530 Z-0.125000
G01 X13.836701 Y225.297429 Z-0.125000
G01 X14.155497 Y225.206995 Z-0.125000
G01 X14.474266 Y225.223875 Z-0.125000
G01 X15.111805 Y225.653478 Z-0.125000
G01 X17.662015 Y227.907223 Z-0.125000
G01 X18.299554 Y228.372254 Z-0.125000
G01 X20.690353 Y230.671057 Z-0.125000
G01 X21.396234 Y231.084706 Z-0.125000
G01 X22.018586 Y231.192603 Z-0.125000
G01 X22.656152 Y231.042029 Z-0.125000
G01 X23.399947 Y230.552100 Z-0.125000
G01 X24.228754 Y229.682628 Z-0.125000
G01 X25.886392 Y227.510772 Z-0.125000
G01 X26.667389 Y226.623519 Z-0.125000
G01 X27.498470 Y225.984154 Z-0.125000
G01 X28.287827 Y225.758783 Z-0.125000
G01 X28.773575 Y225.860382 Z-0.125000
G01 X29.208735 Y226.134755 Z-0.125000
G01 X32.963194 Y229.921652 Z-0.125000
G01 X33.706990 Y230.363559 Z-0.125000
G01 X34.344555 Y230.487595 Z-0.125000
G01 X35.058003 Y230.337021 Z-0.125000
G01 X35.832173 Y229.864529 Z-0.125000
G01 X38.063587 Y227.641317 Z-0.125000
G01 X38.974361 Y226.885642 Z-0.125000
G01 X39.657461 Y226.538641 Z-0.125000
G01 X40.295001 Y226.422092 Z-0.125000
G01 X41.038823 Y226.543985 Z-0.125000
G01 X41.797806 Y226.921201 Z-0.125000
G01 X44.200008 Y228.886921 Z-0.125000
G01 X44.985554 Y229.425903 Z-0.125000
G01 X45.714190 Y229.752054 Z-0.125000
G01 X46.457985 Y229.879478 Z-0.125000
G01 X47.201781 Y229.795975 Z-0.125000
G01 X48.082207 Y229.459161 Z-0.125000
G01 X50.632417 Y227.837082 Z-0.125000
G01 X51.558378 Y227.351625 Z-0.125000
G01 X52.408457 Y227.072411 Z-0.125000
G01 X53.152253 Y226.980786 Z-0.125000
G01 X54.002331 Y227.047408 Z-0.125000
G01 X54.958640 Y227.308286 Z-0.125000
G01 X57.827620 Y228.601356 Z-0.125000
G01 X58.996468 Y229.038580 Z-0.125000
G01 X60.059033 Y229.285330 Z-0.125000
G01 X61.121625 Y229.371478 Z-0.125000
G01 X62.077934 Y229.320202 Z-0.125000
G01 X63.246782 Y229.126130 Z-0.125000
G01 X67.072097 Y228.108121 Z-0.125000
G01 X68.772228 Y227.746515 Z-0.125000
G01 X70.472359 Y227.526356 Z-0.125000
G01 X72.172490 Y227.442033 Z-0.125000
G01 X74.828929 Y227.505454 Z-0.125000
G01 X83.010815 Y228.027767 Z-0.125000
G01 X88.217464 Y228.136987 Z-0.125000
G01 X93.955423 Y228.025597 Z-0.125000
G01 X105.856340 Y227.496670 Z-0.125000
G01 X111.594272 Y227.454204 Z-0.125000
G01 X116.482152 Y227.631580 Z-0.125000
G01 X127.001734 Y228.285180 Z-0.125000
G01 X132.314640 Y228.414429 Z-0.125000
G01 X137.627546 Y228.260679 Z-0.125000
G01 X145.915688 Y227.543263 Z-0.125000
G01 X148.890923 Y227.442192 Z-0.125000
G01 X151.759903 Y227.670342 Z-0.125000
G01 X157.179065 Y228.753280 Z-0.125000
G01 X159.410479 Y228.960792 Z-0.125000
G01 X161.535662 Y228.793708 Z-0.125000
G01 X165.998490 Y227.898862 Z-0.125000
G01 X167.061082 Y227.808110 Z-0.125000
G01 X168.123673 Y227.818588 Z-0.125000
G00 Z3.000000

(End cutting path id: polyline83758)


(Start cutting path id: polyline83756)
(Change tool to Default tool)

G00 Z3.000000
G00 X11.286517 Y224.685343

G00 Z4.875000 (Fast pre-penetrate)
G01 Z-0.125000 F400.0(Penetrate)
G01 X12.379457 Y223.889848 Z-0.125000 F800.000000
G01 X12.561622 Y223.846773 Z-0.125000
G01 X12.834857 Y223.939245 Z-0.125000
G01 X13.745631 Y224.552178 Z-0.125000
G01 X14.474266 Y225.223875 Z-0.125000
G01 X15.191498 Y225.720286 Z-0.125000
G01 X17.662015 Y227.907223 Z-0.125000
G01 X18.299554 Y228.372254 Z-0.125000
G01 X19.335582 Y229.389761 Z-0.125000
G01 X19.999685 Y229.762267 Z-0.125000
G01 X20.530968 Y229.869027 Z-0.125000
G01 X21.274790 Y229.718770 Z-0.125000
G01 X22.033773 Y229.222968 Z-0.125000
G01 X22.889911 Y228.331799 Z-0.125000
G01 X24.547550 Y226.182089 Z-0.125000
G01 X25.312591 Y225.319390 Z-0.125000
G01 X26.132296 Y224.683147 Z-0.125000
G01 X26.587696 Y224.496060 Z-0.125000
G01 X27.012722 Y224.428406 Z-0.125000
G01 X27.407401 Y224.535748 Z-0.125000
G01 X27.862801 Y224.869598 Z-0.125000
G01 X31.688089 Y228.592070 Z-0.125000
G01 X32.431911 Y229.034188 Z-0.125000
G01 X33.069451 Y229.164495 Z-0.125000
G01 X33.782899 Y229.027044 Z-0.125000
G01 X34.511534 Y228.607706 Z-0.125000
G01 X35.194608 Y228.019750 Z-0.125000
G01 X36.947867 Y226.233418 Z-0.125000
G01 X37.790352 Y225.555027 Z-0.125000
G01 X38.488613 Y225.209641 Z-0.125000
G01 X39.126179 Y225.098992 Z-0.125000
G01 X39.869974 Y225.220409 Z-0.125000
G01 X40.704866 Y225.637418 Z-0.125000
G01 X43.084288 Y227.567869 Z-0.125000
G01 X43.892615 Y228.110370 Z-0.125000
G01 X44.651598 Y228.438691 Z-0.125000
G01 X45.395394 Y228.556668 Z-0.125000
G01 X46.139216 Y228.470838 Z-0.125000
G01 X46.989268 Y228.156354 Z-0.125000
G01 X49.630547 Y226.515172 Z-0.125000
G01 X50.602069 Y226.018021 Z-0.125000
G01 X51.452122 Y225.748252 Z-0.125000
G01 X52.195944 Y225.657976 Z-0.125000
G01 X53.045996 Y225.718645 Z-0.125000
G01 X54.002331 Y225.964469 Z-0.125000
G01 X57.083797 Y227.304873 Z-0.125000
G01 X58.252646 Y227.721909 Z-0.125000
G01 X59.315237 Y227.959452 Z-0.125000
G01 X60.484086 Y228.048722 Z-0.125000
G01 X61.440395 Y227.997578 Z-0.125000
G01 X62.609243 Y227.815730 Z-0.125000
G01 X66.647044 Y226.808516 Z-0.125000
G01 X68.453432 Y226.447069 Z-0.125000
G01 X70.366076 Y226.213415 Z-0.125000
G01 X72.385003 Y226.119859 Z-0.125000
G01 X75.041442 Y226.158091 Z-0.125000
G01 X82.054506 Y226.459742 Z-0.125000
G01 X85.986051 Y226.521046 Z-0.125000
G01 X90.555161 Y226.458578 Z-0.125000
G01 X100.437177 Y226.138459 Z-0.125000
G01 X105.750083 Y226.156980 Z-0.125000
G01 X111.169246 Y226.445243 Z-0.125000
G01 X123.495215 Y227.504581 Z-0.125000
G01 X127.320503 Y227.688281 Z-0.125000
G01 X131.252048 Y227.760909 Z-0.125000
G01 X135.714902 Y227.697038 Z-0.125000
G01 X139.540190 Y227.471137 Z-0.125000
G01 X142.621682 Y227.129640 Z-0.125000
G01 X148.040845 Y226.322794 Z-0.125000
G01 X150.272285 Y226.129199 Z-0.125000
G01 X151.866159 Y226.140126 Z-0.125000
G01 X153.353777 Y226.289748 Z-0.125000
G01 X154.841395 Y226.565549 Z-0.125000
G01 X158.454170 Y227.413141 Z-0.125000
G01 X160.473071 Y227.636025 Z-0.125000
G01 X162.385715 Y227.502411 Z-0.125000
G01 X166.211003 Y226.670033 Z-0.125000
G01 X168.123673 Y226.477443 Z-0.125000
G00 Z3.000000

(End cutting path id: polyline83756)


(Start cutting path id: polyline83754)
(Change tool to Default tool)

G00 Z3.000000
G00 X11.286517 Y222.744521

G00 Z4.875000 (Fast pre-penetrate)
G01 Z-0.125000 F400.0(Penetrate)
G01 X11.924057 Y223.094590 Z-0.125000 F800.000000
G01 X12.721007 Y223.829787 Z-0.125000
G01 X15.111805 Y225.653478 Z-0.125000
G01 X17.844154 Y228.050098 Z-0.125000
G01 X18.512067 Y228.428399 Z-0.125000
G01 X19.149633 Y228.547064 Z-0.125000
G01 X19.847894 Y228.390087 Z-0.125000
G01 X20.610660 Y227.893253 Z-0.125000
G01 X21.487303 Y226.986501 Z-0.125000
G01 X23.208680 Y224.782127 Z-0.125000
G01 X23.895829 Y224.018144 Z-0.125000
G01 X24.675052 Y223.399866 Z-0.125000
G01 X25.100078 Y223.197831 Z-0.125000
G01 X25.418848 Y223.140760 Z-0.125000
G01 X25.843900 Y223.206059 Z-0.125000
G01 X26.268927 Y223.465218 Z-0.125000
G01 X27.225235 Y224.385068 Z-0.125000
G01 X27.862801 Y224.869598 Z-0.125000
G01 X30.412984 Y227.313763 Z-0.125000
G01 X31.156806 Y227.730455 Z-0.125000
G01 X31.794346 Y227.841659 Z-0.125000
G01 X32.507794 Y227.688677 Z-0.125000
G01 X33.281964 Y227.226663 Z-0.125000
G01 X35.593070 Y224.977813 Z-0.125000
G01 X36.424178 Y224.293760 Z-0.125000
G01 X37.107252 Y223.927868 Z-0.125000
G01 X37.851074 Y223.776368 Z-0.125000
G01 X38.594870 Y223.889530 Z-0.125000
G01 X39.429761 Y224.292913 Z-0.125000
G01 X41.809183 Y226.196271 Z-0.125000
G01 X42.708580 Y226.796530 Z-0.125000
G01 X43.482749 Y227.122073 Z-0.125000
G01 X44.226572 Y227.233939 Z-0.125000
G01 X45.076624 Y227.121200 Z-0.125000
G01 X45.896329 Y226.803647 Z-0.125000
G01 X48.537608 Y225.181806 Z-0.125000
G01 X49.448408 Y224.720347 Z-0.125000
G01 X50.283273 Y224.446080 Z-0.125000
G01 X51.133352 Y224.335326 Z-0.125000
G01 X51.983404 Y224.392476 Z-0.125000
G01 X52.939740 Y224.627240 Z-0.125000
G01 X56.233745 Y226.016301 Z-0.125000
G01 X57.402593 Y226.412911 Z-0.125000
G01 X58.465159 Y226.638600 Z-0.125000
G01 X59.634007 Y226.725569 Z-0.125000
G01 X60.696599 Y226.671091 Z-0.125000
G01 X61.865421 Y226.496361 Z-0.125000
G01 X66.115761 Y225.497427 Z-0.125000
G01 X68.134662 Y225.124101 Z-0.125000
G01 X70.153563 Y224.898914 Z-0.125000
G01 X72.491259 Y224.798479 Z-0.125000
G01 X83.754637 Y224.990539 Z-0.125000
G01 X95.655554 Y224.797579 Z-0.125000
G01 X100.330921 Y224.852639 Z-0.125000
G01 X105.643827 Y225.187654 Z-0.125000
G01 X118.288539 Y226.442730 Z-0.125000
G01 X122.432623 Y226.648946 Z-0.125000
G01 X127.214247 Y226.721388 Z-0.125000
G01 X136.777493 Y226.708900 Z-0.125000
G01 X141.134064 Y226.541948 Z-0.125000
G01 X144.321813 Y226.180369 Z-0.125000
G01 X150.166028 Y225.055574 Z-0.125000
G01 X152.503698 Y224.801310 Z-0.125000
G01 X153.778803 Y224.818772 Z-0.125000
G01 X155.053908 Y224.965034 Z-0.125000
G01 X159.622992 Y226.074377 Z-0.125000
G01 X161.535662 Y226.311973 Z-0.125000
G01 X163.448306 Y226.167457 Z-0.125000
G01 X166.742312 Y225.401066 Z-0.125000
G01 X168.123673 Y225.189664 Z-0.125000
G00 Z3.000000

(End cutting path id: polyline83754)


(Start cutting path id: polyline83752)
(Change tool to Default tool)

G00 Z3.000000
G00 X11.286517 Y222.744521

G00 Z4.875000 (Fast pre-penetrate)
G01 Z-0.125000 F400.0(Penetrate)
G01 X11.924057 Y223.094590 Z-0.125000 F800.000000
G01 X12.641315 Y223.765494 Z-0.125000
G01 X13.836701 Y224.624171 Z-0.125000
G01 X16.386910 Y226.782613 Z-0.125000
G01 X17.024449 Y227.118422 Z-0.125000
G01 X17.662015 Y227.224202 Z-0.125000
G01 X18.390624 Y227.049154 Z-0.125000
G01 X19.176197 Y226.525597 Z-0.125000
G01 X19.999685 Y225.675677 Z-0.125000
G01 X21.699816 Y223.525093 Z-0.125000
G01 X22.443639 Y222.699568 Z-0.125000
G01 X23.217782 Y222.086132 Z-0.125000
G01 X23.931230 Y221.801944 Z-0.125000
G01 X24.310748 Y221.892246 Z-0.125000
G01 X24.834437 Y222.240384 Z-0.125000
G01 X27.225235 Y224.385068 Z-0.125000
G01 X27.862801 Y224.869598 Z-0.125000
G01 X29.058214 Y226.019979 Z-0.125000
G01 X29.775445 Y226.410371 Z-0.125000
G01 X30.412984 Y226.518797 Z-0.125000
G01 X31.141619 Y226.361185 Z-0.125000
G01 X31.927166 Y225.891233 Z-0.125000
G01 X34.238299 Y223.654580 Z-0.125000
G01 X35.149073 Y222.922982 Z-0.125000
G01 X35.832173 Y222.580638 Z-0.125000
G01 X36.575969 Y222.452924 Z-0.125000
G01 X37.319791 Y222.584501 Z-0.125000
G01 X38.154656 Y222.999605 Z-0.125000
G01 X40.534078 Y224.891850 Z-0.125000
G01 X41.433501 Y225.481817 Z-0.125000
G01 X42.207645 Y225.801116 Z-0.125000
G01 X42.951467 Y225.910997 Z-0.125000
G01 X43.801519 Y225.801275 Z-0.125000
G01 X44.621250 Y225.490813 Z-0.125000
G01 X47.262503 Y223.891144 Z-0.125000
G01 X48.264373 Y223.388727 Z-0.125000
G01 X49.114452 Y223.117874 Z-0.125000
G01 X49.964504 Y223.012173 Z-0.125000
G01 X50.920839 Y223.085859 Z-0.125000
G01 X51.877148 Y223.331710 Z-0.125000
G01 X55.064897 Y224.656689 Z-0.125000
G01 X56.340002 Y225.084995 Z-0.125000
G01 X57.508850 Y225.323517 Z-0.125000
G01 X58.677672 Y225.402839 Z-0.125000
G01 X59.740264 Y225.349975 Z-0.125000
G01 X60.909112 Y225.184796 Z-0.125000
G01 X65.371939 Y224.191657 Z-0.125000
G01 X67.603379 Y223.806266 Z-0.125000
G01 X69.941049 Y223.572613 Z-0.125000
G01 X72.597516 Y223.476040 Z-0.125000
G01 X82.054506 Y223.546842 Z-0.125000
G01 X91.830239 Y223.470827 Z-0.125000
G01 X95.868067 Y223.555864 Z-0.125000
G01 X100.862203 Y223.911993 Z-0.125000
G01 X111.806811 Y225.132329 Z-0.125000
G01 X114.888277 Y225.330899 Z-0.125000
G01 X117.863513 Y225.401939 Z-0.125000
G01 X130.827022 Y225.099600 Z-0.125000
G01 X134.333540 Y225.150215 Z-0.125000
G01 X140.709038 Y225.391488 Z-0.125000
G01 X143.578017 Y225.357807 Z-0.125000
G01 X146.659510 Y225.011627 Z-0.125000
G01 X152.184929 Y223.739141 Z-0.125000
G01 X154.416342 Y223.473420 Z-0.125000
G01 X155.478934 Y223.501598 Z-0.125000
G01 X156.647783 Y223.659131 Z-0.125000
G01 X160.685584 Y224.731195 Z-0.125000
G01 X162.491971 Y224.986332 Z-0.125000
G01 X163.448306 Y224.966886 Z-0.125000
G01 X164.404615 Y224.841076 Z-0.125000
G01 X168.123673 Y223.963031 Z-0.125000
G00 Z3.000000

(End cutting path id: polyline83752)


(Start cutting path id: polyline83750)
(Change tool to Default tool)

G00 Z3.000000
G00 X11.286517 Y222.744521

G00 Z4.875000 (Fast pre-penetrate)
G01 Z-0.125000 F400.0(Penetrate)
G01 X11.924057 Y223.094590 Z-0.125000 F800.000000
G01 X12.641315 Y223.765494 Z-0.125000
G01 X13.836701 Y224.624171 Z-0.125000
G01 X14.838571 Y225.492797 Z-0.125000
G01 X15.430575 Y225.791882 Z-0.125000
G01 X16.068141 Y225.901208 Z-0.125000
G01 X16.811936 Y225.734256 Z-0.125000
G01 X17.662015 Y225.176012 Z-0.125000
G01 X18.441239 Y224.384724 Z-0.125000
G01 X20.148460 Y222.250624 Z-0.125000
G01 X20.929456 Y221.389776 Z-0.125000
G01 X21.760538 Y220.739431 Z-0.125000
G01 X22.443639 Y220.516494 Z-0.125000
G01 X22.853478 Y220.588857 Z-0.125000
G01 X23.217782 Y220.829601 Z-0.125000
G01 X27.589566 Y224.681268 Z-0.125000
G01 X28.287827 Y225.071317 Z-0.125000
G01 X28.925366 Y225.195327 Z-0.125000
G01 X29.669189 Y225.052002 Z-0.125000
G01 X30.492677 Y224.571281 Z-0.125000
G01 X32.883502 Y222.272346 Z-0.125000
G01 X33.691829 Y221.628801 Z-0.125000
G01 X34.344555 Y221.286166 Z-0.125000
G01 X35.088351 Y221.130961 Z-0.125000
G01 X35.832173 Y221.233461 Z-0.125000
G01 X36.697413 Y221.639384 Z-0.125000
G01 X39.179307 Y223.587985 Z-0.125000
G01 X40.067300 Y224.163162 Z-0.125000
G01 X40.826310 Y224.474497 Z-0.125000
G01 X41.570105 Y224.587791 Z-0.125000
G01 X42.420184 Y224.484551 Z-0.125000
G01 X43.255049 Y224.175968 Z-0.125000
G01 X45.987424 Y222.539839 Z-0.125000
G01 X46.898199 Y222.086900 Z-0.125000
G01 X47.839347 Y221.788424 Z-0.125000
G01 X48.689399 Y221.688782 Z-0.125000
G01 X49.645734 Y221.764347 Z-0.125000
G01 X50.602069 Y222.007234 Z-0.125000
G01 X53.789792 Y223.312210 Z-0.125000
G01 X55.064897 Y223.740385 Z-0.125000
G01 X56.233745 Y223.986024 Z-0.125000
G01 X57.508850 Y224.079739 Z-0.125000
G01 X58.571415 Y224.032405 Z-0.125000
G01 X59.846520 Y223.859659 Z-0.125000
G01 X64.415630 Y222.883665 Z-0.125000
G01 X66.753301 Y222.499570 Z-0.125000
G01 X69.409767 Y222.252978 Z-0.125000
G01 X72.491259 Y222.154527 Z-0.125000
G01 X87.579925 Y222.150558 Z-0.125000
G01 X92.255292 Y222.268324 Z-0.125000
G01 X96.930659 Y222.638396 Z-0.125000
G01 X106.600135 Y223.816002 Z-0.125000
G01 X109.150345 Y224.003751 Z-0.125000
G01 X111.700528 Y224.078866 Z-0.125000
G01 X116.269639 Y223.932525 Z-0.125000
G01 X126.257911 Y223.134437 Z-0.125000
G01 X130.614509 Y223.003442 Z-0.125000
G01 X135.183619 Y223.153831 Z-0.125000
G01 X143.259248 Y223.979303 Z-0.125000
G01 X144.853122 Y224.071193 Z-0.125000
G01 X146.340714 Y224.060239 Z-0.125000
G01 X148.890923 Y223.750201 Z-0.125000
G01 X153.885060 Y222.426545 Z-0.125000
G01 X154.947652 Y222.232949 Z-0.125000
G01 X156.010217 Y222.148839 Z-0.125000
G01 X156.966552 Y222.183578 Z-0.125000
G01 X158.029144 Y222.344365 Z-0.125000
G01 X161.748176 Y223.404788 Z-0.125000
G01 X163.342050 Y223.656776 Z-0.125000
G01 X164.192102 Y223.657306 Z-0.125000
G01 X165.148437 Y223.545069 Z-0.125000
G01 X168.123673 Y222.796591 Z-0.125000
G00 Z3.000000

(End cutting path id: polyline83750)


(Start cutting path id: polyline83748)
(Change tool to Default tool)

G00 Z3.000000
G00 X11.286517 Y222.744521

G00 Z4.875000 (Fast pre-penetrate)
G01 Z-0.125000 F400.0(Penetrate)
G01 X11.924057 Y223.094590 Z-0.125000 F800.000000
G01 X12.880392 Y223.961020 Z-0.125000
G01 X13.563466 Y224.382819 Z-0.125000
G01 X14.368010 Y224.578213 Z-0.125000
G01 X15.111805 Y224.444334 Z-0.125000
G01 X15.829064 Y224.036374 Z-0.125000
G01 X16.528594 Y223.410344 Z-0.125000
G01 X18.724580 Y220.762979 Z-0.125000
G01 X19.503804 Y219.946661 Z-0.125000
G01 X20.212198 Y219.423025 Z-0.125000
G01 X20.849764 Y219.181090 Z-0.125000
G01 X21.214068 Y219.313885 Z-0.125000
G01 X21.942704 Y219.812676 Z-0.125000
G01 X22.762408 Y220.553324 Z-0.125000
G01 X23.399947 Y220.978958 Z-0.125000
G01 X26.132296 Y223.386029 Z-0.125000
G01 X26.800209 Y223.749989 Z-0.125000
G01 X27.437775 Y223.872597 Z-0.125000
G01 X28.181571 Y223.729590 Z-0.125000
G01 X28.955741 Y223.286651 Z-0.125000
G01 X29.775445 Y222.578865 Z-0.125000
G01 X31.449012 Y220.913633 Z-0.125000
G01 X32.234559 Y220.295382 Z-0.125000
G01 X32.963194 Y219.931077 Z-0.125000
G01 X33.706990 Y219.806644 Z-0.125000
G01 X34.450812 Y219.936581 Z-0.125000
G01 X35.240142 Y220.318903 Z-0.125000
G01 X37.790352 Y222.312060 Z-0.125000
G01 X38.610057 Y222.837045 Z-0.125000
G01 X39.444948 Y223.169494 Z-0.125000
G01 X40.188744 Y223.265723 Z-0.125000
G01 X41.038823 Y223.145972 Z-0.125000
G01 X41.888875 Y222.818948 Z-0.125000
G01 X44.439085 Y221.288150 Z-0.125000
G01 X45.501650 Y220.755280 Z-0.125000
G01 X46.457985 Y220.458973 Z-0.125000
G01 X47.308064 Y220.365337 Z-0.125000
G01 X48.264373 Y220.444818 Z-0.125000
G01 X49.220708 Y220.687626 Z-0.125000
G01 X52.408457 Y221.981781 Z-0.125000
G01 X53.683535 Y222.408103 Z-0.125000
G01 X54.852384 Y222.655938 Z-0.125000
G01 X56.127489 Y222.756295 Z-0.125000
G01 X57.190080 Y222.716925 Z-0.125000
G01 X58.465159 Y222.555503 Z-0.125000
G01 X63.246782 Y221.567814 Z-0.125000
G01 X65.796992 Y221.169829 Z-0.125000
G01 X68.559688 Y220.933265 Z-0.125000
G01 X72.066233 Y220.833332 Z-0.125000
G01 X84.179663 Y220.833120 Z-0.125000
G01 X89.173799 Y220.975969 Z-0.125000
G01 X93.636653 Y221.356942 Z-0.125000
G01 X102.456078 Y222.506846 Z-0.125000
G01 X104.687491 Y222.685148 Z-0.125000
G01 X106.812675 Y222.755448 Z-0.125000
G01 X109.044089 Y222.717136 Z-0.125000
G01 X111.275502 Y222.571325 Z-0.125000
G01 X122.432623 Y221.222322 Z-0.125000
G01 X125.726629 Y220.969222 Z-0.125000
G01 X129.020634 Y220.848149 Z-0.125000
G01 X133.270975 Y220.885852 Z-0.125000
G01 X136.990006 Y221.137973 Z-0.125000
G01 X140.071499 Y221.549955 Z-0.125000
G01 X145.490661 Y222.536744 Z-0.125000
G01 X147.828332 Y222.753755 Z-0.125000
G01 X149.315949 Y222.700891 Z-0.125000
G01 X150.697311 Y222.490204 Z-0.125000
G01 X152.078672 Y222.137514 Z-0.125000
G01 X155.266421 Y221.143317 Z-0.125000
G01 X156.222730 Y220.937234 Z-0.125000
G01 X157.179065 Y220.832697 Z-0.125000
G01 X158.135400 Y220.849101 Z-0.125000
G01 X159.197966 Y221.009332 Z-0.125000
G01 X162.704484 Y222.066474 Z-0.125000
G01 X164.192102 Y222.327776 Z-0.125000
G01 X165.042181 Y222.337671 Z-0.125000
G01 X165.892233 Y222.243242 Z-0.125000
G01 X168.123673 Y221.678463 Z-0.125000
G00 Z3.000000

(End cutting path id: polyline83748)


(Start cutting path id: polyline83744)
(Change tool to Default tool)

G00 Z3.000000
G00 X11.286517 Y221.904787

G00 Z4.875000 (Fast pre-penetrate)
G01 Z-0.125000 F400.0(Penetrate)
G01 X12.015126 Y221.650549 Z-0.125000 F800.000000
G01 X12.800699 Y221.100217 Z-0.125000
G01 X13.624188 Y220.276676 Z-0.125000
G01 X16.068141 Y217.463550 Z-0.125000
G01 X16.842311 Y216.853527 Z-0.125000
G01 X17.555759 Y216.527376 Z-0.125000
G01 X17.935250 Y216.657365 Z-0.125000
G01 X19.574659 Y217.984249 Z-0.125000
G01 X20.212198 Y218.376123 Z-0.125000
G01 X20.929456 Y219.050122 Z-0.125000
G01 X23.035643 Y220.758058 Z-0.125000
G01 X23.718717 Y221.116171 Z-0.125000
G01 X24.356283 Y221.226714 Z-0.125000
G01 X25.100078 Y221.075028 Z-0.125000
G01 X25.950157 Y220.572691 Z-0.125000
G01 X28.340955 Y218.285742 Z-0.125000
G01 X29.137906 Y217.656960 Z-0.125000
G01 X29.881702 Y217.284454 Z-0.125000
G01 X30.625497 Y217.161079 Z-0.125000
G01 X31.369320 Y217.292074 Z-0.125000
G01 X32.143489 Y217.665824 Z-0.125000
G01 X34.636761 Y219.617097 Z-0.125000
G01 X35.513377 Y220.186612 Z-0.125000
G01 X36.257199 Y220.496650 Z-0.125000
G01 X37.000995 Y220.618279 Z-0.125000
G01 X37.851074 Y220.524563 Z-0.125000
G01 X38.701126 Y220.216853 Z-0.125000
G01 X41.433501 Y218.587154 Z-0.125000
G01 X42.420184 Y218.099687 Z-0.125000
G01 X43.376493 Y217.807931 Z-0.125000
G01 X44.226572 Y217.719216 Z-0.125000
G01 X45.076624 Y217.786077 Z-0.125000
G01 X46.032959 Y218.018222 Z-0.125000
G01 X49.326965 Y219.350371 Z-0.125000
G01 X50.602069 Y219.772672 Z-0.125000
G01 X51.770891 Y220.015585 Z-0.125000
G01 X52.939740 Y220.109380 Z-0.125000
G01 X54.108588 Y220.068264 Z-0.125000
G01 X55.277410 Y219.921923 Z-0.125000
G01 X60.484086 Y218.865760 Z-0.125000
G01 X63.565552 Y218.440523 Z-0.125000
G01 X67.178353 Y218.228618 Z-0.125000
G01 X72.810029 Y218.178612 Z-0.125000
G01 X80.354375 Y218.207187 Z-0.125000
G01 X84.710946 Y218.377737 Z-0.125000
G01 X88.642517 Y218.764531 Z-0.125000
G01 X96.718119 Y219.927558 Z-0.125000
G01 X98.949559 Y220.089457 Z-0.125000
G01 X101.074716 Y220.093796 Z-0.125000
G01 X102.987360 Y219.965579 Z-0.125000
G01 X105.006261 Y219.710336 Z-0.125000
G01 X111.700528 Y218.474733 Z-0.125000
G01 X114.356995 Y218.070001 Z-0.125000
G01 X117.119717 Y217.810630 Z-0.125000
G01 X119.988697 Y217.719534 Z-0.125000
G01 X129.870686 Y217.935116 Z-0.125000
G01 X138.477624 Y217.722100 Z-0.125000
G01 X141.240321 Y217.791897 Z-0.125000
G01 X142.727939 Y217.949721 Z-0.125000
G01 X144.215557 Y218.216527 Z-0.125000
G01 X145.809431 Y218.621735 Z-0.125000
G01 X149.634719 Y219.777090 Z-0.125000
G01 X150.803567 Y220.013998 Z-0.125000
G01 X151.759903 Y220.105094 Z-0.125000
G01 X152.822468 Y220.074005 Z-0.125000
G01 X153.991316 Y219.871017 Z-0.125000
G01 X157.922861 Y218.501324 Z-0.125000
G01 X158.879196 Y218.271004 Z-0.125000
G01 X159.729275 Y218.181602 Z-0.125000
G01 X160.579327 Y218.215812 Z-0.125000
G01 X161.429406 Y218.369112 Z-0.125000
G01 X164.404615 Y219.363759 Z-0.125000
G01 X165.573464 Y219.636570 Z-0.125000
G01 X166.848568 Y219.686179 Z-0.125000
G01 X168.123673 Y219.475413 Z-0.125000
G00 Z3.000000

(End cutting path id: polyline83744)


(Start cutting path id: polyline83742)
(Change tool to Default tool)

G00 Z3.000000
G00 X11.286517 Y219.545289

G00 Z4.875000 (Fast pre-penetrate)
G01 Z-0.125000 F400.0(Penetrate)
G01 X14.314881 Y216.182201 Z-0.125000 F800.000000
G01 X15.032113 Y215.603002 Z-0.125000
G01 X15.749345 Y215.259759 Z-0.125000
G01 X16.068141 Y215.339636 Z-0.125000
G01 X16.933380 Y215.827633 Z-0.125000
G01 X17.662015 Y216.491419 Z-0.125000
G01 X18.777709 Y217.298741 Z-0.125000
G01 X19.574659 Y217.984249 Z-0.125000
G01 X20.212198 Y218.376123 Z-0.125000
G01 X21.407611 Y219.431651 Z-0.125000
G01 X22.033773 Y219.769179 Z-0.125000
G01 X22.656152 Y219.902317 Z-0.125000
G01 X23.491017 Y219.753225 Z-0.125000
G01 X24.276590 Y219.301052 Z-0.125000
G01 X24.993822 Y218.690554 Z-0.125000
G01 X26.747081 Y216.958487 Z-0.125000
G01 X27.589566 Y216.300628 Z-0.125000
G01 X28.287827 Y215.958999 Z-0.125000
G01 X29.031649 Y215.838269 Z-0.125000
G01 X29.775445 Y215.971937 Z-0.125000
G01 X30.504080 Y216.323171 Z-0.125000
G01 X32.963194 Y218.248594 Z-0.125000
G01 X33.873968 Y218.851394 Z-0.125000
G01 X34.663325 Y219.181725 Z-0.125000
G01 X35.407121 Y219.296184 Z-0.125000
G01 X36.257199 Y219.193261 Z-0.125000
G01 X37.061717 Y218.896029 Z-0.125000
G01 X39.794066 Y217.255270 Z-0.125000
G01 X40.720053 Y216.793202 Z-0.125000
G01 X41.676362 Y216.491340 Z-0.125000
G01 X42.526441 Y216.396407 Z-0.125000
G01 X43.482749 Y216.478798 Z-0.125000
G01 X44.439085 Y216.727242 Z-0.125000
G01 X47.626834 Y218.037933 Z-0.125000
G01 X48.901939 Y218.461292 Z-0.125000
G01 X50.070760 Y218.700846 Z-0.125000
G01 X51.239609 Y218.787497 Z-0.125000
G01 X53.471022 Y218.598505 Z-0.125000
G01 X58.465159 Y217.560758 Z-0.125000
G01 X61.334138 Y217.138933 Z-0.125000
G01 X64.734400 Y216.912556 Z-0.125000
G01 X69.516023 Y216.855565 Z-0.125000
G01 X78.335448 Y216.873662 Z-0.125000
G01 X82.692045 Y217.032332 Z-0.125000
G01 X86.623590 Y217.426323 Z-0.125000
G01 X94.380449 Y218.607633 Z-0.125000
G01 X96.505606 Y218.769505 Z-0.125000
G01 X98.418250 Y218.770034 Z-0.125000
G01 X100.118381 Y218.645945 Z-0.125000
G01 X102.031052 Y218.379563 Z-0.125000
G01 X108.087753 Y217.126974 Z-0.125000
G01 X110.425450 Y216.723141 Z-0.125000
G01 X112.656864 Y216.479857 Z-0.125000
G01 X114.888277 Y216.396037 Z-0.125000
G01 X118.288539 Y216.535737 Z-0.125000
G01 X126.151655 Y217.261726 Z-0.125000
G01 X129.976969 Y217.399865 Z-0.125000
G01 X134.333540 Y217.223652 Z-0.125000
G01 X141.452834 Y216.454589 Z-0.125000
G01 X144.003043 Y216.426781 Z-0.125000
G01 X145.278148 Y216.564312 Z-0.125000
G01 X146.553253 Y216.822121 Z-0.125000
G01 X147.934588 Y217.227568 Z-0.125000
G01 X151.441133 Y218.448116 Z-0.125000
G01 X152.609955 Y218.706799 Z-0.125000
G01 X153.566290 Y218.787603 Z-0.125000
G01 X154.522599 Y218.729765 Z-0.125000
G01 X155.585191 Y218.504102 Z-0.125000
G01 X159.622992 Y217.031036 Z-0.125000
G01 X160.473071 Y216.881970 Z-0.125000
G01 X161.216866 Y216.860036 Z-0.125000
G01 X162.704484 Y217.117978 Z-0.125000
G01 X165.148437 Y217.991102 Z-0.125000
G01 X166.104746 Y218.254891 Z-0.125000
G01 X167.061082 Y218.373848 Z-0.125000
G01 X168.123673 Y218.312544 Z-0.125000
G00 Z3.000000

(End cutting path id: polyline83742)


(Start cutting path id: polyline83740)
(Change tool to Default tool)

G00 Z3.000000
G00 X11.286517 Y216.230514

G00 Z4.875000 (Fast pre-penetrate)
G01 Z-0.125000 F400.0(Penetrate)
G01 X12.278254 Y215.132388 Z-0.125000 F800.000000
G01 X13.039777 Y214.454500 Z-0.125000
G01 X13.745631 Y214.023362 Z-0.125000
G01 X14.261753 Y214.013361 Z-0.125000
G01 X14.656405 Y214.151712 Z-0.125000
G01 X15.111805 Y214.435927 Z-0.125000
G01 X15.988448 Y215.208932 Z-0.125000
G01 X17.024449 Y215.895472 Z-0.125000
G01 X17.662015 Y216.491419 Z-0.125000
G01 X19.756798 Y218.114212 Z-0.125000
G01 X20.424711 Y218.462457 Z-0.125000
G01 X21.062277 Y218.580884 Z-0.125000
G01 X21.806073 Y218.444677 Z-0.125000
G01 X22.671312 Y217.950409 Z-0.125000
G01 X25.153207 Y215.598372 Z-0.125000
G01 X25.950157 Y214.981894 Z-0.125000
G01 X26.693953 Y214.623595 Z-0.125000
G01 X27.331492 Y214.515381 Z-0.125000
G01 X28.075314 Y214.626612 Z-0.125000
G01 X28.773575 Y214.950805 Z-0.125000
G01 X31.414854 Y217.000768 Z-0.125000
G01 X32.234559 Y217.536548 Z-0.125000
G01 X32.963194 Y217.846560 Z-0.125000
G01 X33.706990 Y217.972422 Z-0.125000
G01 X34.557068 Y217.877516 Z-0.125000
G01 X35.407121 Y217.561948 Z-0.125000
G01 X38.063587 Y215.948257 Z-0.125000
G01 X39.126179 Y215.420890 Z-0.125000
G01 X39.976231 Y215.163107 Z-0.125000
G01 X40.826310 Y215.073122 Z-0.125000
G01 X41.676362 Y215.145750 Z-0.125000
G01 X42.632697 Y215.389351 Z-0.125000
G01 X45.714190 Y216.675542 Z-0.125000
G01 X46.989268 Y217.117290 Z-0.125000
G01 X48.158116 Y217.370443 Z-0.125000
G01 X49.326965 Y217.464238 Z-0.125000
G01 X50.389530 Y217.423757 Z-0.125000
G01 X51.558378 Y217.270404 Z-0.125000
G01 X56.446258 Y216.217629 Z-0.125000
G01 X58.996468 Y215.822130 Z-0.125000
G01 X61.971677 Y215.596176 Z-0.125000
G01 X65.903248 Y215.532570 Z-0.125000
G01 X76.847830 Y215.539740 Z-0.125000
G01 X80.991914 Y215.673223 Z-0.125000
G01 X85.029715 Y216.083644 Z-0.125000
G01 X92.467805 Y217.286729 Z-0.125000
G01 X94.380449 Y217.444103 Z-0.125000
G01 X96.186836 Y217.448416 Z-0.125000
G01 X97.886967 Y217.311944 Z-0.125000
G01 X99.587098 Y217.050298 Z-0.125000
G01 X105.112544 Y215.789983 Z-0.125000
G01 X107.131445 Y215.400755 Z-0.125000
G01 X109.044089 Y215.161466 Z-0.125000
G01 X110.956733 Y215.073360 Z-0.125000
G01 X112.550607 Y215.115640 Z-0.125000
G01 X114.356995 Y215.274073 Z-0.125000
G01 X123.176419 Y216.634453 Z-0.125000
G01 X125.726629 Y216.901390 Z-0.125000
G01 X128.276839 Y217.048525 Z-0.125000
G01 X131.783357 Y217.047202 Z-0.125000
G01 X135.183619 Y216.795848 Z-0.125000
G01 X138.052572 Y216.365530 Z-0.125000
G01 X143.365504 Y215.289339 Z-0.125000
G01 X145.703174 Y215.073069 Z-0.125000
G01 X147.084536 Y215.156809 Z-0.125000
G01 X148.465897 Y215.431976 Z-0.125000
G01 X149.740976 Y215.842529 Z-0.125000
G01 X152.822468 Y217.052785 Z-0.125000
G01 X153.778803 Y217.318955 Z-0.125000
G01 X154.628856 Y217.446987 Z-0.125000
G01 X155.585191 Y217.442648 Z-0.125000
G01 X156.647783 Y217.248576 Z-0.125000
G01 X157.604091 Y216.929066 Z-0.125000
G01 X160.260558 Y215.838137 Z-0.125000
G01 X161.110610 Y215.617872 Z-0.125000
G01 X161.854432 Y215.535560 Z-0.125000
G01 X163.235793 Y215.681081 Z-0.125000
G01 X166.529799 Y216.827995 Z-0.125000
G01 X167.379851 Y217.007462 Z-0.125000
G01 X168.123673 Y217.054822 Z-0.125000
G00 Z3.000000

(End cutting path id: polyline83740)


(Start cutting path id: polyline83738)
(Change tool to Default tool)

G00 Z3.000000
G00 X11.286517 Y213.105921

G00 Z4.875000 (Fast pre-penetrate)
G01 Z-0.125000 F400.0(Penetrate)
G01 X11.741891 Y212.812260 Z-0.125000 F800.000000
G01 X12.136570 Y212.666316 Z-0.125000
G01 X12.455339 Y212.636259 Z-0.125000
G01 X12.743761 Y212.729207 Z-0.125000
G01 X14.474266 Y214.075750 Z-0.125000
G01 X15.111805 Y214.435927 Z-0.125000
G01 X16.227526 Y215.391283 Z-0.125000
G01 X17.024449 Y215.895472 Z-0.125000
G01 X18.026319 Y216.768781 Z-0.125000
G01 X18.724580 Y217.136578 Z-0.125000
G01 X19.362146 Y217.257651 Z-0.125000
G01 X20.105942 Y217.129064 Z-0.125000
G01 X20.929456 Y216.678109 Z-0.125000
G01 X21.646688 Y216.081130 Z-0.125000
G01 X23.399947 Y214.356234 Z-0.125000
G01 X24.310748 Y213.644823 Z-0.125000
G01 X24.993822 Y213.313248 Z-0.125000
G01 X25.737644 Y213.192651 Z-0.125000
G01 X26.375183 Y213.293722 Z-0.125000
G01 X27.134166 Y213.630483 Z-0.125000
G01 X29.695753 Y215.644806 Z-0.125000
G01 X30.595150 Y216.234773 Z-0.125000
G01 X31.369320 Y216.549707 Z-0.125000
G01 X32.113115 Y216.650910 Z-0.125000
G01 X32.856937 Y216.554628 Z-0.125000
G01 X33.691829 Y216.243663 Z-0.125000
G01 X36.333082 Y214.620791 Z-0.125000
G01 X37.334952 Y214.113082 Z-0.125000
G01 X38.169843 Y213.848870 Z-0.125000
G01 X39.019922 Y213.750604 Z-0.125000
G01 X39.869974 Y213.820639 Z-0.125000
G01 X40.826310 Y214.067997 Z-0.125000
G01 X43.907776 Y215.380065 Z-0.125000
G01 X45.076624 Y215.792073 Z-0.125000
G01 X46.245472 Y216.050968 Z-0.125000
G01 X47.308064 Y216.140450 Z-0.125000
G01 X48.370629 Y216.102323 Z-0.125000
G01 X49.539478 Y215.943124 Z-0.125000
G01 X54.108588 Y214.908128 Z-0.125000
G01 X56.446258 Y214.511227 Z-0.125000
G01 X59.102724 Y214.277679 Z-0.125000
G01 X62.290473 Y214.209655 Z-0.125000
G01 X76.210291 Y214.212036 Z-0.125000
G01 X79.823066 Y214.321203 Z-0.125000
G01 X83.754637 Y214.731730 Z-0.125000
G01 X90.873930 Y215.960771 Z-0.125000
G01 X92.680318 Y216.120765 Z-0.125000
G01 X94.274192 Y216.129840 Z-0.125000
G01 X95.868067 Y216.001305 Z-0.125000
G01 X97.568198 Y215.722488 Z-0.125000
G01 X102.774847 Y214.429286 Z-0.125000
G01 X104.581235 Y214.054451 Z-0.125000
G01 X106.281366 Y213.828153 Z-0.125000
G01 X107.875240 Y213.750524 Z-0.125000
G01 X109.681628 Y213.823073 Z-0.125000
G01 X111.700528 Y214.080724 Z-0.125000
G01 X118.288539 Y215.471663 Z-0.125000
G01 X121.157519 Y215.965058 Z-0.125000
G01 X124.026498 Y216.280097 Z-0.125000
G01 X127.107990 Y216.447234 Z-0.125000
G01 X132.739666 Y216.450171 Z-0.125000
G01 X135.077362 Y216.328224 Z-0.125000
G01 X137.096263 Y216.122220 Z-0.125000
G01 X140.284012 Y215.527014 Z-0.125000
G01 X145.703174 Y214.021828 Z-0.125000
G01 X146.872023 Y213.818549 Z-0.125000
G01 X147.828332 Y213.751265 Z-0.125000
G01 X148.997180 Y213.818787 Z-0.125000
G01 X150.272285 Y214.094323 Z-0.125000
G01 X151.441133 Y214.510751 Z-0.125000
G01 X154.310086 Y215.740136 Z-0.125000
G01 X155.160165 Y215.994268 Z-0.125000
G01 X155.903960 Y216.118780 Z-0.125000
G01 X156.860296 Y216.119839 Z-0.125000
G01 X157.816604 Y215.938255 Z-0.125000
G01 X158.772940 Y215.604431 Z-0.125000
G01 X161.323149 Y214.508846 Z-0.125000
G01 X162.066945 Y214.305461 Z-0.125000
G01 X162.810741 Y214.213783 Z-0.125000
G01 X163.554563 Y214.245056 Z-0.125000
G01 X164.404615 Y214.420978 Z-0.125000
G01 X166.954825 Y215.375646 Z-0.125000
G01 X168.123673 Y215.674704 Z-0.125000
G00 Z3.000000

(End cutting path id: polyline83738)


(Start cutting path id: polyline83736)
(Change tool to Default tool)

G00 Z3.000000
G00 X11.286517 Y211.660821

G00 Z4.875000 (Fast pre-penetrate)
G01 Z-0.125000 F400.0(Penetrate)
G01 X12.561622 Y212.654092 Z-0.125000 F800.000000
G01 X13.358546 Y213.167013 Z-0.125000
G01 X14.394574 Y214.018176 Z-0.125000
G01 X15.111805 Y214.435927 Z-0.125000
G01 X16.307218 Y215.452507 Z-0.125000
G01 X17.024449 Y215.821389 Z-0.125000
G01 X17.662015 Y215.935451 Z-0.125000
G01 X18.390624 Y215.808610 Z-0.125000
G01 X19.210328 Y215.364428 Z-0.125000
G01 X19.973121 Y214.731175 Z-0.125000
G01 X21.806073 Y212.944419 Z-0.125000
G01 X22.580243 Y212.346224 Z-0.125000
G01 X23.293691 Y211.993349 Z-0.125000
G01 X24.037486 Y211.869154 Z-0.125000
G01 X24.675052 Y211.966759 Z-0.125000
G01 X25.312591 Y212.236395 Z-0.125000
G01 X28.136036 Y214.424391 Z-0.125000
G01 X28.864671 Y214.897095 Z-0.125000
G01 X29.669189 Y215.229279 Z-0.125000
G01 X30.412984 Y215.328312 Z-0.125000
G01 X31.156806 Y215.227083 Z-0.125000
G01 X31.961324 Y214.920881 Z-0.125000
G01 X34.602603 Y213.277979 Z-0.125000
G01 X35.513377 Y212.808556 Z-0.125000
G01 X36.363456 Y212.529236 Z-0.125000
G01 X37.213508 Y212.427742 Z-0.125000
G01 X38.063587 Y212.500528 Z-0.125000
G01 X39.019922 Y212.757968 Z-0.125000
G01 X41.995132 Y214.058764 Z-0.125000
G01 X43.163980 Y214.480085 Z-0.125000
G01 X44.332828 Y214.738901 Z-0.125000
G01 X45.395394 Y214.819175 Z-0.125000
G01 X46.457985 Y214.764750 Z-0.125000
G01 X47.520577 Y214.603487 Z-0.125000
G01 X51.770891 Y213.581667 Z-0.125000
G01 X53.896075 Y213.190005 Z-0.125000
G01 X56.233745 Y212.956828 Z-0.125000
G01 X58.890211 Y212.886740 Z-0.125000
G01 X66.540788 Y212.999426 Z-0.125000
G01 X75.466495 Y212.887243 Z-0.125000
G01 X78.866757 Y212.963707 Z-0.125000
G01 X82.692045 Y213.364260 Z-0.125000
G01 X89.598826 Y214.636692 Z-0.125000
G01 X91.298957 Y214.797612 Z-0.125000
G01 X92.786574 Y214.807216 Z-0.125000
G01 X94.274192 Y214.680216 Z-0.125000
G01 X95.868067 Y214.401134 Z-0.125000
G01 X102.349821 Y212.732832 Z-0.125000
G01 X103.943696 Y212.501772 Z-0.125000
G01 X105.431314 Y212.427186 Z-0.125000
G01 X107.131445 Y212.514710 Z-0.125000
G01 X109.044089 Y212.808133 Z-0.125000
G01 X115.100817 Y214.333454 Z-0.125000
G01 X117.544743 Y214.836955 Z-0.125000
G01 X119.988697 Y215.154799 Z-0.125000
G01 X122.538880 Y215.302859 Z-0.125000
G01 X135.821158 Y215.326063 Z-0.125000
G01 X139.115164 Y215.162763 Z-0.125000
G01 X140.602782 Y214.950567 Z-0.125000
G01 X141.984143 Y214.648387 Z-0.125000
G01 X143.578017 Y214.173222 Z-0.125000
G01 X147.509562 Y212.790485 Z-0.125000
G01 X148.678410 Y212.523335 Z-0.125000
G01 X149.634719 Y212.429805 Z-0.125000
G01 X150.697311 Y212.488463 Z-0.125000
G01 X151.866159 Y212.759687 Z-0.125000
G01 X152.913564 Y213.161272 Z-0.125000
G01 X155.585191 Y214.396927 Z-0.125000
G01 X156.435269 Y214.670982 Z-0.125000
G01 X157.179065 Y214.799834 Z-0.125000
G01 X158.029144 Y214.798247 Z-0.125000
G01 X158.985453 Y214.605471 Z-0.125000
G01 X162.279458 Y213.197281 Z-0.125000
G01 X163.660820 Y212.895286 Z-0.125000
G01 X164.404615 Y212.913648 Z-0.125000
G01 X165.254694 Y213.086368 Z-0.125000
G01 X168.123673 Y214.165787 Z-0.125000
G00 Z3.000000

(End cutting path id: polyline83736)


(Start cutting path id: polyline83734)
(Change tool to Default tool)

G00 Z3.000000
G00 X11.286517 Y211.660821

G00 Z4.875000 (Fast pre-penetrate)
G01 Z-0.125000 F400.0(Penetrate)
G01 X14.656405 Y214.196056 Z-0.125000 F800.000000
G01 X15.324319 Y214.513555 Z-0.125000
G01 X15.961884 Y214.612298 Z-0.125000
G01 X16.599423 Y214.504004 Z-0.125000
G01 X17.297684 Y214.163459 Z-0.125000
G01 X18.140170 Y213.505309 Z-0.125000
G01 X20.576529 Y211.223201 Z-0.125000
G01 X21.396234 Y210.740311 Z-0.125000
G01 X22.231099 Y210.547721 Z-0.125000
G01 X22.868665 Y210.616724 Z-0.125000
G01 X23.399947 Y210.811722 Z-0.125000
G01 X26.952001 Y213.463690 Z-0.125000
G01 X27.756545 Y213.849214 Z-0.125000
G01 X28.606597 Y214.004709 Z-0.125000
G01 X29.350419 Y213.921392 Z-0.125000
G01 X30.230845 Y213.590002 Z-0.125000
G01 X32.781029 Y211.980782 Z-0.125000
G01 X33.706990 Y211.491964 Z-0.125000
G01 X34.557068 Y211.206135 Z-0.125000
G01 X35.407121 Y211.104588 Z-0.125000
G01 X36.257199 Y211.183725 Z-0.125000
G01 X37.107252 Y211.416876 Z-0.125000
G01 X40.082488 Y212.746538 Z-0.125000
G01 X41.251336 Y213.175480 Z-0.125000
G01 X42.313928 Y213.414980 Z-0.125000
G01 X43.376493 Y213.496551 Z-0.125000
G01 X44.332828 Y213.444957 Z-0.125000
G01 X45.395394 Y213.277344 Z-0.125000
G01 X49.433221 Y212.246846 Z-0.125000
G01 X51.345865 Y211.865582 Z-0.125000
G01 X53.364766 Y211.637829 Z-0.125000
G01 X55.702462 Y211.563852 Z-0.125000
G01 X65.371939 Y211.809332 Z-0.125000
G01 X75.147699 Y211.570810 Z-0.125000
G01 X78.335448 Y211.619335 Z-0.125000
G01 X80.248092 Y211.774195 Z-0.125000
G01 X82.054506 Y212.025099 Z-0.125000
G01 X88.642517 Y213.322694 Z-0.125000
G01 X90.130108 Y213.472209 Z-0.125000
G01 X91.511470 Y213.486762 Z-0.125000
G01 X92.999088 Y213.353332 Z-0.125000
G01 X94.486705 Y213.073456 Z-0.125000
G01 X100.543434 Y211.401742 Z-0.125000
G01 X101.924795 Y211.184096 Z-0.125000
G01 X103.306130 Y211.104403 Z-0.125000
G01 X105.006261 Y211.205024 Z-0.125000
G01 X106.706392 Y211.502283 Z-0.125000
G01 X112.338094 Y213.109387 Z-0.125000
G01 X114.356995 Y213.582779 Z-0.125000
G01 X116.269639 Y213.871412 Z-0.125000
G01 X118.288539 Y213.998915 Z-0.125000
G01 X120.732492 Y213.954756 Z-0.125000
G01 X126.789221 Y213.511315 Z-0.125000
G01 X129.976969 Y213.409186 Z-0.125000
G01 X133.164692 Y213.507399 Z-0.125000
G01 X139.115164 Y213.978754 Z-0.125000
G01 X141.665373 Y213.944755 Z-0.125000
G01 X143.046708 Y213.752403 Z-0.125000
G01 X144.321813 Y213.440036 Z-0.125000
G01 X145.703174 Y212.962041 Z-0.125000
G01 X149.315949 Y211.485429 Z-0.125000
G01 X150.378541 Y211.207485 Z-0.125000
G01 X151.334850 Y211.105488 Z-0.125000
G01 X152.291185 Y211.171475 Z-0.125000
G01 X153.247521 Y211.408832 Z-0.125000
G01 X154.279738 Y211.826847 Z-0.125000
G01 X156.860296 Y213.092321 Z-0.125000
G01 X157.604091 Y213.343384 Z-0.125000
G01 X158.347914 Y213.478639 Z-0.125000
G01 X159.197966 Y213.468929 Z-0.125000
G01 X160.048045 Y213.285282 Z-0.125000
G01 X163.023280 Y211.954429 Z-0.125000
G01 X164.404615 Y211.586950 Z-0.125000
G01 X165.148437 Y211.576763 Z-0.125000
G01 X165.892233 Y211.701435 Z-0.125000
G01 X168.123673 Y212.551117 Z-0.125000
G00 Z3.000000

(End cutting path id: polyline83734)


(Start cutting path id: polyline83732)
(Change tool to Default tool)

G00 Z3.000000
G00 X11.286517 Y211.660821

G00 Z4.875000 (Fast pre-penetrate)
G01 Z-0.125000 F400.0(Penetrate)
G01 X12.561622 Y212.654092 Z-0.125000 F800.000000
G01 X13.199161 Y213.048797 Z-0.125000
G01 X13.942957 Y213.275042 Z-0.125000
G01 X14.686779 Y213.225936 Z-0.125000
G01 X15.293971 Y212.987335 Z-0.125000
G01 X15.988448 Y212.525479 Z-0.125000
G01 X18.219862 Y210.414900 Z-0.125000
G01 X18.937094 Y209.830674 Z-0.125000
G01 X19.787172 Y209.369400 Z-0.125000
G01 X20.530968 Y209.224250 Z-0.125000
G01 X21.168534 Y209.299656 Z-0.125000
G01 X21.760538 Y209.554450 Z-0.125000
G01 X24.675052 Y211.773666 Z-0.125000
G01 X25.403687 Y212.250339 Z-0.125000
G01 X26.162670 Y212.572283 Z-0.125000
G01 X26.906466 Y212.682112 Z-0.125000
G01 X27.650288 Y212.584957 Z-0.125000
G01 X28.500340 Y212.253567 Z-0.125000
G01 X31.050550 Y210.623550 Z-0.125000
G01 X32.006859 Y210.125473 Z-0.125000
G01 X32.856937 Y209.858006 Z-0.125000
G01 X33.600733 Y209.781330 Z-0.125000
G01 X34.450812 Y209.869012 Z-0.125000
G01 X35.300864 Y210.115551 Z-0.125000
G01 X38.169843 Y211.437063 Z-0.125000
G01 X39.232435 Y211.840605 Z-0.125000
G01 X40.295001 Y212.091748 Z-0.125000
G01 X41.251336 Y212.172948 Z-0.125000
G01 X42.207645 Y212.125244 Z-0.125000
G01 X43.270236 Y211.950222 Z-0.125000
G01 X47.095525 Y210.912528 Z-0.125000
G01 X48.795656 Y210.545181 Z-0.125000
G01 X50.495786 Y210.325603 Z-0.125000
G01 X52.302200 Y210.242498 Z-0.125000
G01 X54.639871 Y210.292768 Z-0.125000
G01 X60.696599 Y210.617491 Z-0.125000
G01 X63.990604 Y210.684563 Z-0.125000
G01 X67.922149 Y210.608972 Z-0.125000
G01 X75.041442 Y210.260410 Z-0.125000
G01 X78.122935 Y210.285069 Z-0.125000
G01 X79.823066 Y210.425986 Z-0.125000
G01 X81.523197 Y210.673450 Z-0.125000
G01 X87.686182 Y211.979353 Z-0.125000
G01 X88.961286 Y212.131382 Z-0.125000
G01 X90.130108 Y212.173213 Z-0.125000
G01 X91.617726 Y212.072486 Z-0.125000
G01 X93.105344 Y211.802426 Z-0.125000
G01 X97.780711 Y210.388230 Z-0.125000
G01 X99.268329 Y210.022550 Z-0.125000
G01 X100.649690 Y209.823636 Z-0.125000
G01 X102.031052 Y209.788791 Z-0.125000
G01 X103.412386 Y209.921744 Z-0.125000
G01 X105.006261 Y210.257500 Z-0.125000
G01 X109.787884 Y211.785440 Z-0.125000
G01 X111.594272 Y212.266478 Z-0.125000
G01 X113.400686 Y212.572892 Z-0.125000
G01 X115.207073 Y212.682006 Z-0.125000
G01 X116.694691 Y212.634910 Z-0.125000
G01 X118.288539 Y212.476134 Z-0.125000
G01 X126.045398 Y211.304560 Z-0.125000
G01 X128.064299 Y211.138852 Z-0.125000
G01 X130.083226 Y211.080591 Z-0.125000
G01 X132.102127 Y211.137661 Z-0.125000
G01 X134.014771 Y211.301332 Z-0.125000
G01 X136.246184 Y211.620234 Z-0.125000
G01 X141.240321 Y212.531670 Z-0.125000
G01 X142.727939 Y212.671475 Z-0.125000
G01 X144.003043 Y212.654463 Z-0.125000
G01 X145.171892 Y212.494972 Z-0.125000
G01 X146.340714 Y212.184590 Z-0.125000
G01 X147.615819 Y211.688841 Z-0.125000
G01 X150.803567 Y210.216595 Z-0.125000
G01 X151.759903 Y209.920236 Z-0.125000
G01 X152.716211 Y209.785457 Z-0.125000
G01 X153.566290 Y209.828399 Z-0.125000
G01 X154.522599 Y210.063243 Z-0.125000
G01 X155.463747 Y210.457207 Z-0.125000
G01 X158.029144 Y211.778720 Z-0.125000
G01 X158.772940 Y212.035339 Z-0.125000
G01 X159.516735 Y212.163079 Z-0.125000
G01 X160.260558 Y212.143923 Z-0.125000
G01 X161.110610 Y211.947391 Z-0.125000
G01 X163.979589 Y210.617623 Z-0.125000
G01 X165.148437 Y210.282450 Z-0.125000
G01 X165.785977 Y210.241995 Z-0.125000
G01 X166.529799 Y210.329360 Z-0.125000
G01 X168.123673 Y210.881386 Z-0.125000
G00 Z3.000000

(End cutting path id: polyline83732)


(Start cutting path id: polyline83728)
(Change tool to Default tool)

G00 Z3.000000
G00 X11.286517 Y210.538275

G00 Z4.875000 (Fast pre-penetrate)
G01 Z-0.125000 F400.0(Penetrate)
G01 X11.924057 Y210.246308 Z-0.125000 F800.000000
G01 X12.561622 Y209.796570 Z-0.125000
G01 X14.713343 Y207.767906 Z-0.125000
G01 X15.476110 Y207.154629 Z-0.125000
G01 X16.295841 Y206.719602 Z-0.125000
G01 X17.024449 Y206.578182 Z-0.125000
G01 X17.662015 Y206.654488 Z-0.125000
G01 X18.299554 Y206.912483 Z-0.125000
G01 X21.214068 Y209.160062 Z-0.125000
G01 X21.942704 Y209.631708 Z-0.125000
G01 X22.656152 Y209.929628 Z-0.125000
G01 X23.399947 Y210.036679 Z-0.125000
G01 X24.143769 Y209.932883 Z-0.125000
G01 X24.948287 Y209.611494 Z-0.125000
G01 X27.498470 Y207.952214 Z-0.125000
G01 X28.318175 Y207.510546 Z-0.125000
G01 X29.137906 Y207.229215 Z-0.125000
G01 X29.881702 Y207.136108 Z-0.125000
G01 X30.731780 Y207.218314 Z-0.125000
G01 X31.581833 Y207.472843 Z-0.125000
G01 X34.344555 Y208.808908 Z-0.125000
G01 X35.407121 Y209.227610 Z-0.125000
G01 X36.363456 Y209.456210 Z-0.125000
G01 X37.319791 Y209.527621 Z-0.125000
G01 X38.169843 Y209.466926 Z-0.125000
G01 X39.126179 Y209.283834 Z-0.125000
G01 X42.526441 Y208.244975 Z-0.125000
G01 X44.014059 Y207.878872 Z-0.125000
G01 X45.501650 Y207.662443 Z-0.125000
G01 X46.989268 Y207.595080 Z-0.125000
G01 X49.220708 Y207.702104 Z-0.125000
G01 X56.340002 Y208.405921 Z-0.125000
G01 X61.440395 Y208.578138 Z-0.125000
G01 X66.222018 Y208.442963 Z-0.125000
G01 X74.828929 Y207.673450 Z-0.125000
G01 X77.910422 Y207.617305 Z-0.125000
G01 X79.398040 Y207.740495 Z-0.125000
G01 X80.991914 Y207.997828 Z-0.125000
G01 X86.517333 Y209.332544 Z-0.125000
G01 X87.792438 Y209.496612 Z-0.125000
G01 X88.961286 Y209.521509 Z-0.125000
G01 X90.236391 Y209.395276 Z-0.125000
G01 X91.511470 Y209.116327 Z-0.125000
G01 X95.443041 Y207.770763 Z-0.125000
G01 X96.718119 Y207.406591 Z-0.125000
G01 X97.993224 Y207.185215 Z-0.125000
G01 X99.268329 Y207.142564 Z-0.125000
G01 X100.543434 Y207.286629 Z-0.125000
G01 X101.924795 Y207.629608 Z-0.125000
G01 X106.068853 Y209.186785 Z-0.125000
G01 X107.556471 Y209.652239 Z-0.125000
G01 X109.044089 Y209.946218 Z-0.125000
G01 X110.425450 Y210.036652 Z-0.125000
G01 X111.913068 Y209.938439 Z-0.125000
G01 X113.506942 Y209.642556 Z-0.125000
G01 X119.138618 Y207.969439 Z-0.125000
G01 X121.688828 Y207.361639 Z-0.125000
G01 X124.239011 Y206.977596 Z-0.125000
G01 X127.214247 Y206.762385 Z-0.125000
G01 X130.083226 Y206.703885 Z-0.125000
G01 X132.952179 Y206.749261 Z-0.125000
G01 X135.183619 Y206.885707 Z-0.125000
G01 X137.096263 Y207.122350 Z-0.125000
G01 X138.690137 Y207.438553 Z-0.125000
G01 X140.177755 Y207.847016 Z-0.125000
G01 X145.384405 Y209.712459 Z-0.125000
G01 X146.446997 Y209.950636 Z-0.125000
G01 X147.403305 Y210.035964 Z-0.125000
G01 X148.465897 Y209.954658 Z-0.125000
G01 X149.634719 Y209.636126 Z-0.125000
G01 X150.727685 Y209.145007 Z-0.125000
G01 X153.460034 Y207.644954 Z-0.125000
G01 X154.310086 Y207.316818 Z-0.125000
G01 X155.053908 Y207.160370 Z-0.125000
G01 X155.903960 Y207.160635 Z-0.125000
G01 X156.860296 Y207.393891 Z-0.125000
G01 X157.740722 Y207.793359 Z-0.125000
G01 X160.154301 Y209.142282 Z-0.125000
G01 X160.898097 Y209.409908 Z-0.125000
G01 X161.641919 Y209.524922 Z-0.125000
G01 X162.385715 Y209.471450 Z-0.125000
G01 X163.129537 Y209.260577 Z-0.125000
G01 X165.482394 Y208.086067 Z-0.125000
G01 X166.317286 Y207.759757 Z-0.125000
G01 X167.273595 Y207.597356 Z-0.125000
G01 X168.123673 Y207.670592 Z-0.125000
G00 Z3.000000

(End cutting path id: polyline83728)


(Start cutting path id: polyline83726)
(Change tool to Default tool)

G00 Z3.000000
G00 X11.286517 Y208.048284

G00 Z4.875000 (Fast pre-penetrate)
G01 Z-0.125000 F400.0(Penetrate)
G01 X12.960084 Y206.439911 Z-0.125000 F800.000000
G01 X13.745631 Y205.814066 Z-0.125000
G01 X14.580523 Y205.383775 Z-0.125000
G01 X15.324319 Y205.254817 Z-0.125000
G01 X15.961884 Y205.342209 Z-0.125000
G01 X16.477980 Y205.556415 Z-0.125000
G01 X20.121129 Y208.274715 Z-0.125000
G01 X20.849764 Y208.593669 Z-0.125000
G01 X21.593560 Y208.713446 Z-0.125000
G01 X22.337356 Y208.619307 Z-0.125000
G01 X23.126712 Y208.311174 Z-0.125000
G01 X25.676922 Y206.642952 Z-0.125000
G01 X26.496627 Y206.193611 Z-0.125000
G01 X27.331492 Y205.903654 Z-0.125000
G01 X28.075314 Y205.812955 Z-0.125000
G01 X28.925366 Y205.903151 Z-0.125000
G01 X29.775445 Y206.168978 Z-0.125000
G01 X32.431911 Y207.486231 Z-0.125000
G01 X33.494477 Y207.913797 Z-0.125000
G01 X34.450812 Y208.142026 Z-0.125000
G01 X35.300864 Y208.204759 Z-0.125000
G01 X36.150943 Y208.142397 Z-0.125000
G01 X37.107252 Y207.948828 Z-0.125000
G01 X40.401257 Y206.888141 Z-0.125000
G01 X41.676362 Y206.557042 Z-0.125000
G01 X43.057723 Y206.339396 Z-0.125000
G01 X44.439085 Y206.272165 Z-0.125000
G01 X46.564242 Y206.396995 Z-0.125000
G01 X51.452122 Y207.037868 Z-0.125000
G01 X54.002331 Y207.293138 Z-0.125000
G01 X56.977541 Y207.462656 Z-0.125000
G01 X60.271546 Y207.521262 Z-0.125000
G01 X63.459295 Y207.471599 Z-0.125000
G01 X66.328274 Y207.327084 Z-0.125000
G01 X69.197254 Y207.069460 Z-0.125000
G01 X74.935186 Y206.383078 Z-0.125000
G01 X76.529060 Y206.282510 Z-0.125000
G01 X78.016678 Y206.291189 Z-0.125000
G01 X79.398040 Y206.411309 Z-0.125000
G01 X80.885658 Y206.667135 Z-0.125000
G01 X86.198564 Y208.025477 Z-0.125000
G01 X87.367412 Y208.177348 Z-0.125000
G01 X88.429977 Y208.198515 Z-0.125000
G01 X89.598826 Y208.079029 Z-0.125000
G01 X90.873930 Y207.786453 Z-0.125000
G01 X94.592962 Y206.444303 Z-0.125000
G01 X95.868067 Y206.064891 Z-0.125000
G01 X97.036915 Y205.858146 Z-0.125000
G01 X98.099480 Y205.815892 Z-0.125000
G01 X99.374585 Y205.957602 Z-0.125000
G01 X100.649690 Y206.288464 Z-0.125000
G01 X104.687491 Y207.904060 Z-0.125000
G01 X106.068853 Y208.358746 Z-0.125000
G01 X107.343958 Y208.624387 Z-0.125000
G01 X108.619062 Y208.713711 Z-0.125000
G01 X110.000397 Y208.609333 Z-0.125000
G01 X111.594272 Y208.264475 Z-0.125000
G01 X116.694691 Y206.483964 Z-0.125000
G01 X118.926105 Y205.852748 Z-0.125000
G01 X121.051262 Y205.474924 Z-0.125000
G01 X123.388959 Y205.287599 Z-0.125000
G01 X135.927415 Y205.257701 Z-0.125000
G01 X139.008907 Y205.455318 Z-0.125000
G01 X140.602782 Y205.754165 Z-0.125000
G01 X142.196656 Y206.232716 Z-0.125000
G01 X147.297049 Y208.392295 Z-0.125000
G01 X148.253384 Y208.631902 Z-0.125000
G01 X149.103436 Y208.713182 Z-0.125000
G01 X150.059772 Y208.630896 Z-0.125000
G01 X151.122337 Y208.316254 Z-0.125000
G01 X152.184929 Y207.799365 Z-0.125000
G01 X154.735139 Y206.309868 Z-0.125000
G01 X155.478934 Y206.005968 Z-0.125000
G01 X156.222730 Y205.837799 Z-0.125000
G01 X157.072809 Y205.842509 Z-0.125000
G01 X157.922861 Y206.059546 Z-0.125000
G01 X158.742592 Y206.438006 Z-0.125000
G01 X161.110610 Y207.808969 Z-0.125000
G01 X161.854432 Y208.086252 Z-0.125000
G01 X162.598228 Y208.202536 Z-0.125000
G01 X163.235793 Y208.160573 Z-0.125000
G01 X163.873333 Y207.994786 Z-0.125000
G01 X166.742312 Y206.582071 Z-0.125000
G01 X167.486108 Y206.349953 Z-0.125000
G01 X168.123673 Y206.273224 Z-0.125000
G00 Z3.000000

(End cutting path id: polyline83726)


(Start cutting path id: polyline83724)
(Change tool to Default tool)

G00 Z3.000000
G00 X11.286517 Y205.049712

G00 Z4.875000 (Fast pre-penetrate)
G01 Z-0.125000 F400.0(Penetrate)
G01 X12.106222 Y204.421116 Z-0.125000 F800.000000
G01 X12.774135 Y204.082265 Z-0.125000
G01 X13.411674 Y203.938702 Z-0.125000
G01 X14.155497 Y204.003392 Z-0.125000
G01 X15.020736 Y204.427704 Z-0.125000
G01 X18.299554 Y206.912483 Z-0.125000
G01 X19.149633 Y207.287185 Z-0.125000
G01 X19.893429 Y207.390372 Z-0.125000
G01 X20.637225 Y207.277766 Z-0.125000
G01 X21.487303 Y206.919838 Z-0.125000
G01 X23.855348 Y205.337843 Z-0.125000
G01 X24.675052 Y204.880194 Z-0.125000
G01 X25.525104 Y204.579628 Z-0.125000
G01 X26.268927 Y204.490040 Z-0.125000
G01 X27.012722 Y204.563568 Z-0.125000
G01 X27.862801 Y204.820001 Z-0.125000
G01 X30.504080 Y206.149028 Z-0.125000
G01 X31.475576 Y206.558285 Z-0.125000
G01 X32.431911 Y206.807575 Z-0.125000
G01 X33.281964 Y206.881817 Z-0.125000
G01 X34.132042 Y206.822101 Z-0.125000
G01 X35.088351 Y206.622420 Z-0.125000
G01 X38.169843 Y205.582027 Z-0.125000
G01 X39.444948 Y205.229391 Z-0.125000
G01 X40.720053 Y205.015713 Z-0.125000
G01 X41.995132 Y204.949197 Z-0.125000
G01 X44.014059 Y205.086754 Z-0.125000
G01 X48.901939 Y205.841742 Z-0.125000
G01 X51.558378 Y206.140032 Z-0.125000
G01 X54.852384 Y206.328760 Z-0.125000
G01 X59.102724 Y206.393027 Z-0.125000
G01 X63.246782 Y206.340110 Z-0.125000
G01 X66.647044 Y206.169983 Z-0.125000
G01 X69.622280 Y205.869787 Z-0.125000
G01 X75.360239 Y205.065005 Z-0.125000
G01 X76.847830 Y204.959410 Z-0.125000
G01 X78.122935 Y204.964358 Z-0.125000
G01 X79.398040 Y205.077017 Z-0.125000
G01 X80.779401 Y205.324323 Z-0.125000
G01 X85.773537 Y206.682428 Z-0.125000
G01 X86.942386 Y206.850782 Z-0.125000
G01 X88.004951 Y206.875282 Z-0.125000
G01 X89.173799 Y206.745107 Z-0.125000
G01 X90.342648 Y206.458617 Z-0.125000
G01 X93.849166 Y205.128690 Z-0.125000
G01 X95.017988 Y204.758698 Z-0.125000
G01 X96.186836 Y204.535972 Z-0.125000
G01 X97.249428 Y204.494617 Z-0.125000
G01 X98.418250 Y204.636407 Z-0.125000
G01 X99.587098 Y204.955547 Z-0.125000
G01 X103.412386 Y206.578394 Z-0.125000
G01 X104.687491 Y207.028608 Z-0.125000
G01 X105.856340 Y207.294540 Z-0.125000
G01 X107.025188 Y207.390690 Z-0.125000
G01 X108.406549 Y207.279168 Z-0.125000
G01 X109.894141 Y206.919150 Z-0.125000
G01 X114.569508 Y205.082944 Z-0.125000
G01 X116.482152 Y204.464666 Z-0.125000
G01 X118.182283 Y204.112163 Z-0.125000
G01 X119.988697 Y203.945978 Z-0.125000
G01 X122.220110 Y203.975029 Z-0.125000
G01 X127.639273 Y204.421037 Z-0.125000
G01 X130.401996 Y204.521208 Z-0.125000
G01 X133.270975 Y204.425402 Z-0.125000
G01 X138.690137 Y203.957196 Z-0.125000
G01 X140.071499 Y203.936585 Z-0.125000
G01 X141.240321 Y204.016833 Z-0.125000
G01 X142.515426 Y204.240168 Z-0.125000
G01 X143.790530 Y204.625083 Z-0.125000
G01 X145.171892 Y205.216241 Z-0.125000
G01 X148.572154 Y206.925050 Z-0.125000
G01 X149.634719 Y207.269326 Z-0.125000
G01 X150.591054 Y207.390055 Z-0.125000
G01 X151.547390 Y207.296128 Z-0.125000
G01 X152.503698 Y206.983470 Z-0.125000
G01 X153.460034 Y206.488091 Z-0.125000
G01 X155.828078 Y205.023228 Z-0.125000
G01 X156.541526 Y204.706389 Z-0.125000
G01 X157.285322 Y204.519620 Z-0.125000
G01 X158.135400 Y204.518562 Z-0.125000
G01 X158.985453 Y204.746685 Z-0.125000
G01 X159.835531 Y205.161922 Z-0.125000
G01 X162.112480 Y206.514073 Z-0.125000
G01 X162.810741 Y206.772624 Z-0.125000
G01 X163.448306 Y206.876870 Z-0.125000
G01 X164.192102 Y206.825435 Z-0.125000
G01 X164.935924 Y206.601915 Z-0.125000
G01 X167.212873 Y205.418620 Z-0.125000
G01 X168.123673 Y205.070350 Z-0.125000
G00 Z3.000000

(End cutting path id: polyline83724)


(Start cutting path id: polyline83722)
(Change tool to Default tool)

G00 Z3.000000
G00 X11.286517 Y202.682012

G00 Z4.875000 (Fast pre-penetrate)
G01 Z-0.125000 F400.0(Penetrate)
G01 X12.136570 Y202.627693 Z-0.125000 F800.000000
G01 X12.986648 Y202.887143 Z-0.125000
G01 X16.386910 Y205.484158 Z-0.125000
G01 X17.236963 Y205.910771 Z-0.125000
G01 X18.087041 Y206.067325 Z-0.125000
G01 X18.830837 Y205.969667 Z-0.125000
G01 X19.665729 Y205.630657 Z-0.125000
G01 X22.033773 Y204.041387 Z-0.125000
G01 X22.974921 Y203.516613 Z-0.125000
G01 X23.718717 Y203.258433 Z-0.125000
G01 X24.462539 Y203.167151 Z-0.125000
G01 X25.206335 Y203.243166 Z-0.125000
G01 X26.056414 Y203.506797 Z-0.125000
G01 X28.682506 Y204.854344 Z-0.125000
G01 X29.669189 Y205.268046 Z-0.125000
G01 X30.519241 Y205.486433 Z-0.125000
G01 X31.369320 Y205.558982 Z-0.125000
G01 X32.219372 Y205.490613 Z-0.125000
G01 X33.069451 Y205.305035 Z-0.125000
G01 X36.150943 Y204.225589 Z-0.125000
G01 X37.319791 Y203.892982 Z-0.125000
G01 X38.488613 Y203.690153 Z-0.125000
G01 X39.657461 Y203.626388 Z-0.125000
G01 X41.570105 Y203.771962 Z-0.125000
G01 X46.351729 Y204.612754 Z-0.125000
G01 X49.114452 Y204.943773 Z-0.125000
G01 X52.408457 Y205.110381 Z-0.125000
G01 X57.508850 Y205.148296 Z-0.125000
G01 X63.459295 Y205.121070 Z-0.125000
G01 X67.072097 Y204.969279 Z-0.125000
G01 X70.153563 Y204.638894 Z-0.125000
G01 X75.679008 Y203.754393 Z-0.125000
G01 X76.954086 Y203.644856 Z-0.125000
G01 X78.229191 Y203.637289 Z-0.125000
G01 X79.504296 Y203.753176 Z-0.125000
G01 X80.779401 Y203.995428 Z-0.125000
G01 X85.561024 Y205.365519 Z-0.125000
G01 X86.623590 Y205.525856 Z-0.125000
G01 X87.579925 Y205.555304 Z-0.125000
G01 X88.642517 Y205.446005 Z-0.125000
G01 X89.811339 Y205.160652 Z-0.125000
G01 X93.317857 Y203.776618 Z-0.125000
G01 X94.380449 Y203.429485 Z-0.125000
G01 X95.443041 Y203.216576 Z-0.125000
G01 X96.505606 Y203.172602 Z-0.125000
G01 X97.568198 Y203.307116 Z-0.125000
G01 X98.737046 Y203.642448 Z-0.125000
G01 X102.349821 Y205.263495 Z-0.125000
G01 X103.518669 Y205.701222 Z-0.125000
G01 X104.687491 Y205.980780 Z-0.125000
G01 X105.750083 Y206.067907 Z-0.125000
G01 X107.025188 Y205.954666 Z-0.125000
G01 X108.406549 Y205.593298 Z-0.125000
G01 X112.869377 Y203.673563 Z-0.125000
G01 X114.463251 Y203.107726 Z-0.125000
G01 X115.950869 Y202.765170 Z-0.125000
G01 X117.438487 Y202.617295 Z-0.125000
G01 X118.819848 Y202.638091 Z-0.125000
G01 X120.307466 Y202.792502 Z-0.125000
G01 X127.214247 Y203.960265 Z-0.125000
G01 X130.614509 Y204.169392 Z-0.125000
G01 X132.527153 Y204.103987 Z-0.125000
G01 X134.546053 Y203.889648 Z-0.125000
G01 X141.027808 Y202.697993 Z-0.125000
G01 X142.196656 Y202.611448 Z-0.125000
G01 X143.259248 Y202.646743 Z-0.125000
G01 X144.428070 Y202.843090 Z-0.125000
G01 X145.490661 Y203.178793 Z-0.125000
G01 X146.720232 Y203.741932 Z-0.125000
G01 X150.090119 Y205.607639 Z-0.125000
G01 X151.122337 Y205.960539 Z-0.125000
G01 X151.972416 Y206.067510 Z-0.125000
G01 X152.822468 Y205.979775 Z-0.125000
G01 X153.733269 Y205.670292 Z-0.125000
G01 X154.644043 Y205.175786 Z-0.125000
G01 X157.012087 Y203.654778 Z-0.125000
G01 X157.710348 Y203.348655 Z-0.125000
G01 X158.347914 Y203.194271 Z-0.125000
G01 X159.091709 Y203.188027 Z-0.125000
G01 X159.941788 Y203.409721 Z-0.125000
G01 X160.746306 Y203.807257 Z-0.125000
G01 X162.932184 Y205.148693 Z-0.125000
G01 X163.660820 Y205.437697 Z-0.125000
G01 X164.298359 Y205.552473 Z-0.125000
G01 X164.935924 Y205.524533 Z-0.125000
G01 X165.679720 Y205.322683 Z-0.125000
G01 X168.123673 Y204.051970 Z-0.125000
G00 Z3.000000

(End cutting path id: polyline83722)


(Start cutting path id: polyline83720)
(Change tool to Default tool)

G00 Z3.000000
G00 X11.286517 Y201.577801

G00 Z4.875000 (Fast pre-penetrate)
G01 Z-0.125000 F400.0(Penetrate)
G01 X14.747501 Y204.212413 Z-0.125000 F800.000000
G01 X15.536832 Y204.597064 Z-0.125000
G01 X16.386910 Y204.745019 Z-0.125000
G01 X17.130706 Y204.637836 Z-0.125000
G01 X17.935250 Y204.301789 Z-0.125000
G01 X20.303294 Y202.699395 Z-0.125000
G01 X21.214068 Y202.188565 Z-0.125000
G01 X21.912329 Y201.941815 Z-0.125000
G01 X22.656152 Y201.844289 Z-0.125000
G01 X23.399947 Y201.918425 Z-0.125000
G01 X24.250026 Y202.186236 Z-0.125000
G01 X26.860931 Y203.549289 Z-0.125000
G01 X27.756545 Y203.932908 Z-0.125000
G01 X28.606597 Y204.160661 Z-0.125000
G01 X29.350419 Y204.235114 Z-0.125000
G01 X30.200471 Y204.179790 Z-0.125000
G01 X31.156806 Y203.967409 Z-0.125000
G01 X34.132042 Y202.884444 Z-0.125000
G01 X35.300864 Y202.545408 Z-0.125000
G01 X36.363456 Y202.360808 Z-0.125000
G01 X37.426048 Y202.303473 Z-0.125000
G01 X39.444948 Y202.487835 Z-0.125000
G01 X43.376493 Y203.271635 Z-0.125000
G01 X45.395394 Y203.580113 Z-0.125000
G01 X47.733090 Y203.771247 Z-0.125000
G01 X50.389530 Y203.825857 Z-0.125000
G01 X57.190080 Y203.766326 Z-0.125000
G01 X64.415630 Y203.825037 Z-0.125000
G01 X67.178353 Y203.751695 Z-0.125000
G01 X70.472359 Y203.420728 Z-0.125000
G01 X76.104034 Y202.427457 Z-0.125000
G01 X78.335448 Y202.310405 Z-0.125000
G01 X79.504296 Y202.411608 Z-0.125000
G01 X80.779401 Y202.658940 Z-0.125000
G01 X85.454768 Y204.058875 Z-0.125000
G01 X86.411077 Y204.204899 Z-0.125000
G01 X87.367412 Y204.230061 Z-0.125000
G01 X88.429977 Y204.103140 Z-0.125000
G01 X89.492569 Y203.821492 Z-0.125000
G01 X93.742910 Y202.129325 Z-0.125000
G01 X94.699219 Y201.913372 Z-0.125000
G01 X95.655554 Y201.844183 Z-0.125000
G01 X96.718119 Y201.952874 Z-0.125000
G01 X97.886967 Y202.283021 Z-0.125000
G01 X101.499742 Y203.974156 Z-0.125000
G01 X102.668591 Y204.422174 Z-0.125000
G01 X103.837439 Y204.688451 Z-0.125000
G01 X104.900004 Y204.740230 Z-0.125000
G01 X106.068853 Y204.584126 Z-0.125000
G01 X107.237701 Y204.232177 Z-0.125000
G01 X111.290689 Y202.338742 Z-0.125000
G01 X112.763120 Y201.767904 Z-0.125000
G01 X114.250738 Y201.405558 Z-0.125000
G01 X115.632099 Y201.286548 Z-0.125000
G01 X117.013461 Y201.362510 Z-0.125000
G01 X118.501079 Y201.616827 Z-0.125000
G01 X123.495215 Y202.963502 Z-0.125000
G01 X125.726629 Y203.462161 Z-0.125000
G01 X127.851786 Y203.777042 Z-0.125000
G01 X129.870686 Y203.921663 Z-0.125000
G01 X132.633409 Y203.873614 Z-0.125000
G01 X135.289876 Y203.542912 Z-0.125000
G01 X137.733802 Y202.979430 Z-0.125000
G01 X142.302913 Y201.600899 Z-0.125000
G01 X143.471761 Y201.368357 Z-0.125000
G01 X144.428070 Y201.287289 Z-0.125000
G01 X145.809431 Y201.403573 Z-0.125000
G01 X147.084536 Y201.789944 Z-0.125000
G01 X148.359641 Y202.425869 Z-0.125000
G01 X151.365224 Y204.241835 Z-0.125000
G01 X152.184929 Y204.571584 Z-0.125000
G01 X153.034981 Y204.736076 Z-0.125000
G01 X153.885060 Y204.687419 Z-0.125000
G01 X154.826208 Y204.381773 Z-0.125000
G01 X155.645913 Y203.932749 Z-0.125000
G01 X158.013957 Y202.351971 Z-0.125000
G01 X158.772940 Y202.009812 Z-0.125000
G01 X159.410479 Y201.862916 Z-0.125000
G01 X160.154301 Y201.877786 Z-0.125000
G01 X161.004353 Y202.134722 Z-0.125000
G01 X161.839245 Y202.581973 Z-0.125000
G01 X163.660820 Y203.743969 Z-0.125000
G01 X164.298359 Y204.037629 Z-0.125000
G01 X164.935924 Y204.205058 Z-0.125000
G01 X165.573464 Y204.226912 Z-0.125000
G01 X166.317286 Y204.071232 Z-0.125000
G01 X167.030734 Y203.770639 Z-0.125000
G01 X168.123673 Y203.160457 Z-0.125000
G00 Z3.000000

(End cutting path id: polyline83720)


(Start cutting path id: polyline83718)
(Change tool to Default tool)

G00 Z3.000000
G00 X11.286517 Y201.502289

G00 Z4.875000 (Fast pre-penetrate)
G01 Z-0.125000 F400.0(Penetrate)
G01 X12.481903 Y202.491539 Z-0.125000 F800.000000
G01 X13.199161 Y202.978398 Z-0.125000
G01 X13.942957 Y203.308306 Z-0.125000
G01 X14.686779 Y203.421865 Z-0.125000
G01 X15.430575 Y203.311508 Z-0.125000
G01 X16.204745 Y202.986071 Z-0.125000
G01 X18.663859 Y201.312689 Z-0.125000
G01 X19.483563 Y200.858003 Z-0.125000
G01 X20.212198 Y200.605565 Z-0.125000
G01 X20.956021 Y200.520951 Z-0.125000
G01 X21.699816 Y200.611703 Z-0.125000
G01 X22.443639 Y200.855119 Z-0.125000
G01 X25.843900 Y202.585995 Z-0.125000
G01 X26.693953 Y202.828723 Z-0.125000
G01 X27.437775 Y202.911432 Z-0.125000
G01 X28.181571 Y202.873094 Z-0.125000
G01 X28.925366 Y202.728129 Z-0.125000
G01 X32.750681 Y201.352218 Z-0.125000
G01 X33.813246 Y201.101314 Z-0.125000
G01 X34.875838 Y200.987728 Z-0.125000
G01 X36.788482 Y201.105097 Z-0.125000
G01 X41.782619 Y202.141257 Z-0.125000
G01 X44.757854 Y202.463652 Z-0.125000
G01 X47.308064 Y202.495534 Z-0.125000
G01 X56.446258 Y202.259711 Z-0.125000
G01 X66.115761 Y202.502889 Z-0.125000
G01 X68.240919 Y202.448359 Z-0.125000
G01 X70.153563 Y202.274872 Z-0.125000
G01 X71.959950 Y201.989466 Z-0.125000
G01 X75.997778 Y201.174259 Z-0.125000
G01 X78.122935 Y200.980558 Z-0.125000
G01 X79.185527 Y201.031014 Z-0.125000
G01 X80.354375 Y201.216434 Z-0.125000
G01 X81.629453 Y201.557561 Z-0.125000
G01 X84.923459 Y202.642457 Z-0.125000
G01 X85.986051 Y202.853462 Z-0.125000
G01 X86.942386 Y202.912861 Z-0.125000
G01 X88.004951 Y202.811843 Z-0.125000
G01 X89.173799 Y202.504794 Z-0.125000
G01 X93.317857 Y200.793233 Z-0.125000
G01 X94.274192 Y200.578392 Z-0.125000
G01 X95.124245 Y200.521454 Z-0.125000
G01 X96.186836 Y200.641495 Z-0.125000
G01 X97.355685 Y201.000719 Z-0.125000
G01 X100.649690 Y202.626529 Z-0.125000
G01 X101.818539 Y203.100529 Z-0.125000
G01 X102.881104 Y203.358948 Z-0.125000
G01 X103.837439 Y203.420543 Z-0.125000
G01 X105.006261 Y203.269095 Z-0.125000
G01 X106.175109 Y202.896113 Z-0.125000
G01 X110.015584 Y200.976986 Z-0.125000
G01 X111.381759 Y200.414536 Z-0.125000
G01 X112.763120 Y200.063804 Z-0.125000
G01 X114.144482 Y199.964110 Z-0.125000
G01 X115.313330 Y200.066450 Z-0.125000
G01 X116.694691 Y200.367599 Z-0.125000
G01 X122.113854 Y202.233412 Z-0.125000
G01 X124.770294 Y202.930535 Z-0.125000
G01 X127.851786 Y203.377759 Z-0.125000
G01 X131.358304 Y203.509098 Z-0.125000
G01 X134.439797 Y203.333548 Z-0.125000
G01 X137.202520 Y202.867299 Z-0.125000
G01 X139.646446 Y202.134563 Z-0.125000
G01 X144.215557 Y200.340241 Z-0.125000
G01 X145.384405 Y200.051237 Z-0.125000
G01 X146.446997 Y199.963210 Z-0.125000
G01 X147.509562 Y200.086294 Z-0.125000
G01 X148.632876 Y200.463589 Z-0.125000
G01 X149.725815 Y201.048662 Z-0.125000
G01 X152.549233 Y202.878862 Z-0.125000
G01 X153.353777 Y203.232980 Z-0.125000
G01 X154.097573 Y203.402789 Z-0.125000
G01 X154.947652 Y203.378394 Z-0.125000
G01 X155.797704 Y203.116219 Z-0.125000
G01 X156.738852 Y202.594118 Z-0.125000
G01 X159.106896 Y200.971271 Z-0.125000
G01 X159.835531 Y200.655386 Z-0.125000
G01 X160.473071 Y200.528677 Z-0.125000
G01 X161.216866 Y200.578022 Z-0.125000
G01 X161.930314 Y200.815829 Z-0.125000
G01 X164.480524 Y202.395654 Z-0.125000
G01 X165.573464 Y202.842667 Z-0.125000
G01 X166.211003 Y202.913178 Z-0.125000
G01 X166.742312 Y202.855446 Z-0.125000
G01 X167.379851 Y202.660025 Z-0.125000
G01 X168.123673 Y202.301542 Z-0.125000
G00 Z3.000000

(End cutting path id: polyline83718)


(Start cutting path id: polyline83716)
(Change tool to Default tool)

G00 Z3.000000
G00 X11.286517 Y201.502289

G00 Z4.875000 (Fast pre-penetrate)
G01 Z-0.125000 F400.0(Penetrate)
G01 X11.924057 Y201.854740 Z-0.125000 F800.000000
G01 X12.561622 Y202.056723 Z-0.125000
G01 X13.199161 Y202.092071 Z-0.125000
G01 X13.730444 Y201.994705 Z-0.125000
G01 X14.838571 Y201.478953 Z-0.125000
G01 X17.570919 Y199.630920 Z-0.125000
G01 X18.405811 Y199.303658 Z-0.125000
G01 X19.149633 Y199.198618 Z-0.125000
G01 X19.787172 Y199.253069 Z-0.125000
G01 X20.424711 Y199.428355 Z-0.125000
G01 X21.214068 Y199.777208 Z-0.125000
G01 X23.824973 Y201.179710 Z-0.125000
G01 X24.675052 Y201.463793 Z-0.125000
G01 X25.525104 Y201.585977 Z-0.125000
G01 X26.268927 Y201.556608 Z-0.125000
G01 X27.012722 Y201.413813 Z-0.125000
G01 X30.838037 Y200.004379 Z-0.125000
G01 X31.900602 Y199.757364 Z-0.125000
G01 X32.856937 Y199.662511 Z-0.125000
G01 X34.663325 Y199.789776 Z-0.125000
G01 X39.338692 Y200.834641 Z-0.125000
G01 X40.720053 Y201.041597 Z-0.125000
G01 X42.207645 Y201.157564 Z-0.125000
G01 X44.545341 Y201.156241 Z-0.125000
G01 X51.239609 Y200.765928 Z-0.125000
G01 X55.383666 Y200.672769 Z-0.125000
G01 X59.208981 Y200.755477 Z-0.125000
G01 X67.603379 Y201.180080 Z-0.125000
G01 X69.303510 Y201.128116 Z-0.125000
G01 X71.003641 Y200.953333 Z-0.125000
G01 X76.316547 Y199.859017 Z-0.125000
G01 X78.441704 Y199.657855 Z-0.125000
G01 X79.398040 Y199.711962 Z-0.125000
G01 X80.460631 Y199.890899 Z-0.125000
G01 X81.629453 Y200.215622 Z-0.125000
G01 X84.923459 Y201.341185 Z-0.125000
G01 X85.879794 Y201.533113 Z-0.125000
G01 X86.836103 Y201.589125 Z-0.125000
G01 X87.686182 Y201.509830 Z-0.125000
G01 X88.642517 Y201.278135 Z-0.125000
G01 X92.680318 Y199.550037 Z-0.125000
G01 X93.636653 Y199.290905 Z-0.125000
G01 X94.592962 Y199.198195 Z-0.125000
G01 X95.655554 Y199.312548 Z-0.125000
G01 X96.718119 Y199.641795 Z-0.125000
G01 X99.905868 Y201.274139 Z-0.125000
G01 X101.074716 Y201.774678 Z-0.125000
G01 X102.031052 Y202.024788 Z-0.125000
G01 X102.987360 Y202.098210 Z-0.125000
G01 X104.049952 Y201.963246 Z-0.125000
G01 X105.218800 Y201.578939 Z-0.125000
G01 X108.831576 Y199.665210 Z-0.125000
G01 X110.106680 Y199.100061 Z-0.125000
G01 X111.381759 Y198.746181 Z-0.125000
G01 X112.550607 Y198.640110 Z-0.125000
G01 X113.825712 Y198.758167 Z-0.125000
G01 X115.207073 Y199.116174 Z-0.125000
G01 X120.094953 Y201.124227 Z-0.125000
G01 X122.326367 Y201.854793 Z-0.125000
G01 X124.770294 Y202.345304 Z-0.125000
G01 X127.533016 Y202.590837 Z-0.125000
G01 X130.614509 Y202.660740 Z-0.125000
G01 X134.014771 Y202.617269 Z-0.125000
G01 X136.246184 Y202.471589 Z-0.125000
G01 X138.052572 Y202.208488 Z-0.125000
G01 X139.540190 Y201.846485 Z-0.125000
G01 X141.027808 Y201.329437 Z-0.125000
G01 X145.915688 Y199.056299 Z-0.125000
G01 X146.872023 Y198.767348 Z-0.125000
G01 X147.828332 Y198.642359 Z-0.125000
G01 X148.890923 Y198.739672 Z-0.125000
G01 X149.999050 Y199.124561 Z-0.125000
G01 X151.000920 Y199.691166 Z-0.125000
G01 X153.642173 Y201.508904 Z-0.125000
G01 X154.416342 Y201.881728 Z-0.125000
G01 X155.160165 Y202.074185 Z-0.125000
G01 X156.010217 Y202.057967 Z-0.125000
G01 X156.829921 Y201.799813 Z-0.125000
G01 X157.649626 Y201.339174 Z-0.125000
G01 X160.017670 Y199.670634 Z-0.125000
G01 X160.791840 Y199.324771 Z-0.125000
G01 X161.429406 Y199.203486 Z-0.125000
G01 X162.173202 Y199.268442 Z-0.125000
G01 X162.916997 Y199.541359 Z-0.125000
G01 X165.209159 Y201.005244 Z-0.125000
G01 X166.104746 Y201.434239 Z-0.125000
G01 X167.061082 Y201.589628 Z-0.125000
G01 X168.123673 Y201.364706 Z-0.125000
G00 Z3.000000

(End cutting path id: polyline83716)


(Start cutting path id: polyline83714)
(Change tool to Default tool)

G00 Z3.000000
G00 X11.286517 Y200.774554

G00 Z4.875000 (Fast pre-penetrate)
G01 Z-0.125000 F400.0(Penetrate)
G01 X12.030313 Y200.688776 Z-0.125000 F800.000000
G01 X12.834857 Y200.361646 Z-0.125000
G01 X15.293971 Y198.663552 Z-0.125000
G01 X16.113675 Y198.201696 Z-0.125000
G01 X16.811936 Y197.957539 Z-0.125000
G01 X17.555759 Y197.875730 Z-0.125000
G01 X18.299554 Y197.977620 Z-0.125000
G01 X19.028189 Y198.231514 Z-0.125000
G01 X21.396234 Y199.537099 Z-0.125000
G01 X22.337356 Y199.967946 Z-0.125000
G01 X23.187434 Y200.203398 Z-0.125000
G01 X23.931230 Y200.267242 Z-0.125000
G01 X24.675052 Y200.201176 Z-0.125000
G01 X25.525104 Y199.990409 Z-0.125000
G01 X28.181571 Y198.928902 Z-0.125000
G01 X29.244162 Y198.581902 Z-0.125000
G01 X30.200471 Y198.392645 Z-0.125000
G01 X31.156806 Y198.334781 Z-0.125000
G01 X32.963194 Y198.539886 Z-0.125000
G01 X37.638561 Y199.634730 Z-0.125000
G01 X39.019922 Y199.800624 Z-0.125000
G01 X40.507514 Y199.857059 Z-0.125000
G01 X42.632697 Y199.772102 Z-0.125000
G01 X49.433221 Y199.211106 Z-0.125000
G01 X54.427358 Y199.070745 Z-0.125000
G01 X59.102724 Y199.185521 Z-0.125000
G01 X66.753301 Y199.787606 Z-0.125000
G01 X69.516023 Y199.842401 Z-0.125000
G01 X70.897385 Y199.741013 Z-0.125000
G01 X72.278746 Y199.536305 Z-0.125000
G01 X76.954086 Y198.482948 Z-0.125000
G01 X78.866757 Y198.338088 Z-0.125000
G01 X79.929322 Y198.437651 Z-0.125000
G01 X80.991914 Y198.671357 Z-0.125000
G01 X85.135972 Y200.085685 Z-0.125000
G01 X85.986051 Y200.233931 Z-0.125000
G01 X86.836103 Y200.262136 Z-0.125000
G01 X87.792438 Y200.136671 Z-0.125000
G01 X88.748773 Y199.853937 Z-0.125000
G01 X91.617726 Y198.527239 Z-0.125000
G01 X92.680318 Y198.119596 Z-0.125000
G01 X93.530397 Y197.924968 Z-0.125000
G01 X94.380449 Y197.878481 Z-0.125000
G01 X95.336784 Y198.014874 Z-0.125000
G01 X96.293093 Y198.335284 Z-0.125000
G01 X99.359398 Y199.971121 Z-0.125000
G01 X100.437177 Y200.449963 Z-0.125000
G01 X101.393486 Y200.707905 Z-0.125000
G01 X102.349821 Y200.772887 Z-0.125000
G01 X103.412386 Y200.609189 Z-0.125000
G01 X104.459791 Y200.231603 Z-0.125000
G01 X107.829706 Y198.344438 Z-0.125000
G01 X109.044089 Y197.773918 Z-0.125000
G01 X110.212937 Y197.426891 Z-0.125000
G01 X111.275502 Y197.317301 Z-0.125000
G01 X112.550607 Y197.444856 Z-0.125000
G01 X113.825712 Y197.814240 Z-0.125000
G01 X118.394822 Y199.941117 Z-0.125000
G01 X120.307466 Y200.663111 Z-0.125000
G01 X122.220110 Y201.120602 Z-0.125000
G01 X124.345267 Y201.347720 Z-0.125000
G01 X131.464561 Y201.293824 Z-0.125000
G01 X136.883750 Y201.381957 Z-0.125000
G01 X138.371368 Y201.323405 Z-0.125000
G01 X139.646446 Y201.175291 Z-0.125000
G01 X140.921551 Y200.900733 Z-0.125000
G01 X142.196656 Y200.475840 Z-0.125000
G01 X143.714622 Y199.773848 Z-0.125000
G01 X147.297049 Y197.820088 Z-0.125000
G01 X148.359641 Y197.447925 Z-0.125000
G01 X149.315949 Y197.317777 Z-0.125000
G01 X150.272285 Y197.423531 Z-0.125000
G01 X151.274155 Y197.797572 Z-0.125000
G01 X152.275998 Y198.400794 Z-0.125000
G01 X154.644043 Y200.123680 Z-0.125000
G01 X155.372678 Y200.509918 Z-0.125000
G01 X156.116473 Y200.736507 Z-0.125000
G01 X156.966552 Y200.745264 Z-0.125000
G01 X157.816604 Y200.480179 Z-0.125000
G01 X158.651496 Y199.997341 Z-0.125000
G01 X160.928471 Y198.348910 Z-0.125000
G01 X161.641919 Y198.017281 Z-0.125000
G01 X162.385715 Y197.876550 Z-0.125000
G01 X163.023280 Y197.939203 Z-0.125000
G01 X163.751889 Y198.203760 Z-0.125000
G01 X166.028864 Y199.676720 Z-0.125000
G01 X166.757499 Y200.048565 Z-0.125000
G01 X167.486108 Y200.245256 Z-0.125000
G01 X168.123673 Y200.249753 Z-0.125000
G00 Z3.000000

(End cutting path id: polyline83714)


(Start cutting path id: polyline83712)
(Change tool to Default tool)

G00 Z3.000000
G00 X11.286517 Y199.007616

G00 Z4.875000 (Fast pre-penetrate)
G01 Z-0.125000 F400.0(Penetrate)
G01 X14.201031 Y197.017237 Z-0.125000 F800.000000
G01 X15.005549 Y196.677565 Z-0.125000
G01 X15.749345 Y196.554058 Z-0.125000
G01 X16.386910 Y196.600413 Z-0.125000
G01 X17.130706 Y196.815122 Z-0.125000
G01 X20.318455 Y198.525334 Z-0.125000
G01 X21.168534 Y198.821058 Z-0.125000
G01 X22.018586 Y198.942025 Z-0.125000
G01 X22.762408 Y198.900327 Z-0.125000
G01 X23.506204 Y198.737132 Z-0.125000
G01 X27.012722 Y197.358205 Z-0.125000
G01 X27.969058 Y197.117779 Z-0.125000
G01 X28.925366 Y197.015517 Z-0.125000
G01 X30.625497 Y197.157069 Z-0.125000
G01 X34.875838 Y198.224106 Z-0.125000
G01 X36.150943 Y198.430348 Z-0.125000
G01 X37.319791 Y198.521656 Z-0.125000
G01 X39.763718 Y198.455616 Z-0.125000
G01 X44.970367 Y197.890784 Z-0.125000
G01 X47.626834 Y197.680679 Z-0.125000
G01 X53.789792 Y197.519892 Z-0.125000
G01 X60.059033 Y197.698168 Z-0.125000
G01 X67.390866 Y198.424475 Z-0.125000
G01 X69.622280 Y198.534171 Z-0.125000
G01 X71.003641 Y198.477709 Z-0.125000
G01 X72.278746 Y198.319250 Z-0.125000
G01 X76.954086 Y197.215648 Z-0.125000
G01 X78.866757 Y197.011787 Z-0.125000
G01 X79.823066 Y197.075154 Z-0.125000
G01 X80.779401 Y197.259145 Z-0.125000
G01 X84.710946 Y198.656408 Z-0.125000
G01 X85.667281 Y198.877070 Z-0.125000
G01 X86.517333 Y198.944539 Z-0.125000
G01 X87.367412 Y198.872890 Z-0.125000
G01 X88.217464 Y198.663208 Z-0.125000
G01 X89.249682 Y198.255115 Z-0.125000
G01 X92.042779 Y196.921035 Z-0.125000
G01 X92.999088 Y196.641556 Z-0.125000
G01 X93.849166 Y196.552444 Z-0.125000
G01 X94.805475 Y196.653091 Z-0.125000
G01 X95.868067 Y197.001336 Z-0.125000
G01 X98.904024 Y198.675194 Z-0.125000
G01 X99.905868 Y199.132393 Z-0.125000
G01 X100.862203 Y199.393907 Z-0.125000
G01 X101.712256 Y199.450633 Z-0.125000
G01 X102.668591 Y199.307997 Z-0.125000
G01 X103.731183 Y198.918372 Z-0.125000
G01 X107.010001 Y196.997658 Z-0.125000
G01 X108.194010 Y196.420735 Z-0.125000
G01 X109.256602 Y196.097467 Z-0.125000
G01 X110.212937 Y195.994439 Z-0.125000
G01 X111.488015 Y196.136731 Z-0.125000
G01 X112.763120 Y196.554376 Z-0.125000
G01 X116.937552 Y198.709166 Z-0.125000
G01 X118.607335 Y199.410126 Z-0.125000
G01 X120.201210 Y199.840285 Z-0.125000
G01 X121.901341 Y200.042426 Z-0.125000
G01 X123.920241 Y200.017926 Z-0.125000
G01 X128.808121 Y199.554562 Z-0.125000
G01 X131.358304 Y199.447088 Z-0.125000
G01 X134.014771 Y199.548185 Z-0.125000
G01 X139.115164 Y200.039145 Z-0.125000
G01 X140.390268 Y200.052666 Z-0.125000
G01 X141.452834 Y199.963766 Z-0.125000
G01 X142.727939 Y199.698310 Z-0.125000
G01 X143.896787 Y199.280427 Z-0.125000
G01 X145.262961 Y198.587034 Z-0.125000
G01 X148.632876 Y196.544533 Z-0.125000
G01 X149.634719 Y196.147685 Z-0.125000
G01 X150.591054 Y195.995338 Z-0.125000
G01 X151.547390 Y196.109585 Z-0.125000
G01 X152.458164 Y196.472064 Z-0.125000
G01 X153.368938 Y197.043669 Z-0.125000
G01 X155.828078 Y198.885590 Z-0.125000
G01 X156.556687 Y199.253916 Z-0.125000
G01 X157.179065 Y199.424228 Z-0.125000
G01 X157.922861 Y199.425815 Z-0.125000
G01 X158.742592 Y199.171154 Z-0.125000
G01 X159.562297 Y198.689190 Z-0.125000
G01 X161.839245 Y197.013136 Z-0.125000
G01 X162.598228 Y196.668384 Z-0.125000
G01 X163.235793 Y196.554534 Z-0.125000
G01 X163.873333 Y196.615732 Z-0.125000
G01 X164.571594 Y196.870050 Z-0.125000
G01 X167.030734 Y198.460590 Z-0.125000
G01 X168.123673 Y198.894242 Z-0.125000
G00 Z3.000000

(End cutting path id: polyline83712)


(Start cutting path id: polyline83710)
(Change tool to Default tool)

G00 Z3.000000
G00 X11.286517 Y196.593587

G00 Z4.875000 (Fast pre-penetrate)
G01 Z-0.125000 F400.0(Penetrate)
G01 X12.197291 Y195.943453 Z-0.125000 F800.000000
G01 X12.925927 Y195.537848 Z-0.125000
G01 X13.624188 Y195.298982 Z-0.125000
G01 X14.261753 Y195.229661 Z-0.125000
G01 X15.005549 Y195.328483 Z-0.125000
G01 X15.749345 Y195.595236 Z-0.125000
G01 X18.830837 Y197.281899 Z-0.125000
G01 X19.574659 Y197.520924 Z-0.125000
G01 X20.318455 Y197.619375 Z-0.125000
G01 X21.062277 Y197.574740 Z-0.125000
G01 X21.912329 Y197.370270 Z-0.125000
G01 X25.525104 Y195.933717 Z-0.125000
G01 X26.375183 Y195.752107 Z-0.125000
G01 X27.225235 Y195.688925 Z-0.125000
G01 X28.925366 Y195.884160 Z-0.125000
G01 X33.069451 Y196.970856 Z-0.125000
G01 X35.088351 Y197.201916 Z-0.125000
G01 X37.426048 Y197.115424 Z-0.125000
G01 X42.420184 Y196.478652 Z-0.125000
G01 X45.182880 Y196.236215 Z-0.125000
G01 X48.370629 Y196.108262 Z-0.125000
G01 X52.939740 Y196.069051 Z-0.125000
G01 X57.508850 Y196.109373 Z-0.125000
G01 X60.802855 Y196.245290 Z-0.125000
G01 X63.565552 Y196.492437 Z-0.125000
G01 X68.347175 Y197.100184 Z-0.125000
G01 X70.578615 Y197.209721 Z-0.125000
G01 X72.810029 Y196.999907 Z-0.125000
G01 X77.272883 Y195.887494 Z-0.125000
G01 X78.229191 Y195.734645 Z-0.125000
G01 X79.185527 Y195.690142 Z-0.125000
G01 X80.035579 Y195.757901 Z-0.125000
G01 X80.885658 Y195.928663 Z-0.125000
G01 X84.710946 Y197.333520 Z-0.125000
G01 X85.667281 Y197.558997 Z-0.125000
G01 X86.517333 Y197.621254 Z-0.125000
G01 X87.261155 Y197.554050 Z-0.125000
G01 X88.111208 Y197.339684 Z-0.125000
G01 X89.067543 Y196.952150 Z-0.125000
G01 X91.830239 Y195.594892 Z-0.125000
G01 X92.786574 Y195.310571 Z-0.125000
G01 X93.636653 Y195.229503 Z-0.125000
G01 X94.592962 Y195.352296 Z-0.125000
G01 X95.534110 Y195.680140 Z-0.125000
G01 X98.448624 Y197.343389 Z-0.125000
G01 X99.374585 Y197.786089 Z-0.125000
G01 X100.224664 Y198.045962 Z-0.125000
G01 X101.074716 Y198.130153 Z-0.125000
G01 X102.031052 Y198.002094 Z-0.125000
G01 X103.093617 Y197.607125 Z-0.125000
G01 X106.281366 Y195.661778 Z-0.125000
G01 X107.450214 Y195.072499 Z-0.125000
G01 X108.512806 Y194.751957 Z-0.125000
G01 X109.469115 Y194.672476 Z-0.125000
G01 X110.425450 Y194.793602 Z-0.125000
G01 X111.488015 Y195.136184 Z-0.125000
G01 X112.656864 Y195.703159 Z-0.125000
G01 X115.207073 Y197.189110 Z-0.125000
G01 X116.482152 Y197.840857 Z-0.125000
G01 X117.969770 Y198.392831 Z-0.125000
G01 X119.351131 Y198.670696 Z-0.125000
G01 X120.519979 Y198.737767 Z-0.125000
G01 X121.901341 Y198.654768 Z-0.125000
G01 X128.276839 Y197.510684 Z-0.125000
G01 X129.976969 Y197.325979 Z-0.125000
G01 X131.677100 Y197.263061 Z-0.125000
G01 X133.164692 Y197.314866 Z-0.125000
G01 X134.758566 Y197.479278 Z-0.125000
G01 X140.390268 Y198.568434 Z-0.125000
G01 X142.409169 Y198.736709 Z-0.125000
G01 X143.896787 Y198.566635 Z-0.125000
G01 X145.262961 Y198.119384 Z-0.125000
G01 X146.629136 Y197.394374 Z-0.125000
G01 X149.999050 Y195.192038 Z-0.125000
G01 X150.909824 Y194.817150 Z-0.125000
G01 X151.866159 Y194.671444 Z-0.125000
G01 X152.716211 Y194.791618 Z-0.125000
G01 X153.551103 Y195.138354 Z-0.125000
G01 X154.370808 Y195.665668 Z-0.125000
G01 X156.738852 Y197.508674 Z-0.125000
G01 X157.497835 Y197.917216 Z-0.125000
G01 X158.135400 Y198.100731 Z-0.125000
G01 X158.879196 Y198.099408 Z-0.125000
G01 X159.729275 Y197.814558 Z-0.125000
G01 X160.552763 Y197.304363 Z-0.125000
G01 X162.658950 Y195.715621 Z-0.125000
G01 X163.342050 Y195.381638 Z-0.125000
G01 X163.979589 Y195.237969 Z-0.125000
G01 X164.617128 Y195.273529 Z-0.125000
G01 X165.360951 Y195.529302 Z-0.125000
G01 X168.123673 Y197.290657 Z-0.125000
G00 Z3.000000

(End cutting path id: polyline83710)


(Start cutting path id: polyline83708)
(Change tool to Default tool)

G00 Z3.000000
G00 X11.286517 Y194.261737

G00 Z4.875000 (Fast pre-penetrate)
G01 Z-0.125000 F400.0(Penetrate)
G01 X11.924057 Y194.014194 Z-0.125000 F800.000000
G01 X12.455339 Y193.916695 Z-0.125000
G01 X13.517931 Y194.026364 Z-0.125000
G01 X14.565336 Y194.467080 Z-0.125000
G01 X17.130706 Y195.925091 Z-0.125000
G01 X17.980785 Y196.207084 Z-0.125000
G01 X18.724580 Y196.297677 Z-0.125000
G01 X19.362146 Y196.256958 Z-0.125000
G01 X20.105942 Y196.087069 Z-0.125000
G01 X23.399947 Y194.722720 Z-0.125000
G01 X24.356283 Y194.467371 Z-0.125000
G01 X25.206335 Y194.370507 Z-0.125000
G01 X26.800209 Y194.508805 Z-0.125000
G01 X30.731780 Y195.588674 Z-0.125000
G01 X31.900602 Y195.795525 Z-0.125000
G01 X32.963194 Y195.880959 Z-0.125000
G01 X35.088351 Y195.791080 Z-0.125000
G01 X40.188744 Y195.065752 Z-0.125000
G01 X43.376493 Y194.803074 Z-0.125000
G01 X46.564242 Y194.729388 Z-0.125000
G01 X56.871284 Y194.727007 Z-0.125000
G01 X60.059033 Y194.768361 Z-0.125000
G01 X62.609243 Y194.910786 Z-0.125000
G01 X64.840657 Y195.154573 Z-0.125000
G01 X68.984741 Y195.757637 Z-0.125000
G01 X71.003641 Y195.888314 Z-0.125000
G01 X72.172490 Y195.835080 Z-0.125000
G01 X73.235055 Y195.689163 Z-0.125000
G01 X77.485396 Y194.577544 Z-0.125000
G01 X78.441704 Y194.414402 Z-0.125000
G01 X79.291783 Y194.365983 Z-0.125000
G01 X80.141835 Y194.426176 Z-0.125000
G01 X80.991914 Y194.597361 Z-0.125000
G01 X82.054506 Y194.945261 Z-0.125000
G01 X84.710946 Y196.005234 Z-0.125000
G01 X85.561024 Y196.219757 Z-0.125000
G01 X86.411077 Y196.298656 Z-0.125000
G01 X87.154899 Y196.239337 Z-0.125000
G01 X88.004951 Y196.025606 Z-0.125000
G01 X88.976447 Y195.621033 Z-0.125000
G01 X91.617726 Y194.283116 Z-0.125000
G01 X92.574061 Y193.988370 Z-0.125000
G01 X93.424114 Y193.906746 Z-0.125000
G01 X94.274192 Y194.015014 Z-0.125000
G01 X95.230528 Y194.351299 Z-0.125000
G01 X98.084320 Y196.027141 Z-0.125000
G01 X99.055816 Y196.498945 Z-0.125000
G01 X99.905868 Y196.746119 Z-0.125000
G01 X100.649690 Y196.806576 Z-0.125000
G01 X101.605999 Y196.659706 Z-0.125000
G01 X102.547147 Y196.291195 Z-0.125000
G01 X105.643827 Y194.328571 Z-0.125000
G01 X106.736766 Y193.754029 Z-0.125000
G01 X107.768984 Y193.427931 Z-0.125000
G01 X108.725319 Y193.351149 Z-0.125000
G01 X109.787884 Y193.523233 Z-0.125000
G01 X110.926385 Y193.967098 Z-0.125000
G01 X114.478438 Y196.101409 Z-0.125000
G01 X115.950869 Y196.832029 Z-0.125000
G01 X117.332230 Y197.259542 Z-0.125000
G01 X118.819848 Y197.414614 Z-0.125000
G01 X119.988697 Y197.338467 Z-0.125000
G01 X121.263775 Y197.104153 Z-0.125000
G01 X125.832885 Y195.795922 Z-0.125000
G01 X127.851786 Y195.325123 Z-0.125000
G01 X129.870686 Y195.031515 Z-0.125000
G01 X131.783357 Y194.934995 Z-0.125000
G01 X133.696001 Y195.021223 Z-0.125000
G01 X135.502389 Y195.273397 Z-0.125000
G01 X137.627546 Y195.773062 Z-0.125000
G01 X142.302913 Y197.183686 Z-0.125000
G01 X143.684274 Y197.397813 Z-0.125000
G01 X144.853122 Y197.375086 Z-0.125000
G01 X145.915688 Y197.147941 Z-0.125000
G01 X146.993466 Y196.700849 Z-0.125000
G01 X148.086406 Y196.046694 Z-0.125000
G01 X151.091989 Y193.931353 Z-0.125000
G01 X151.972416 Y193.525297 Z-0.125000
G01 X152.822468 Y193.352921 Z-0.125000
G01 X153.672547 Y193.434651 Z-0.125000
G01 X154.552973 Y193.789854 Z-0.125000
G01 X155.452370 Y194.387811 Z-0.125000
G01 X157.740722 Y196.219175 Z-0.125000
G01 X158.469331 Y196.610573 Z-0.125000
G01 X159.091709 Y196.783875 Z-0.125000
G01 X159.835531 Y196.767921 Z-0.125000
G01 X160.655236 Y196.473360 Z-0.125000
G01 X161.383845 Y196.012166 Z-0.125000
G01 X163.478654 Y194.406041 Z-0.125000
G01 X164.085846 Y194.093225 Z-0.125000
G01 X164.723411 Y193.923838 Z-0.125000
G01 X165.360951 Y193.936803 Z-0.125000
G01 X166.104746 Y194.172838 Z-0.125000
G01 X166.848568 Y194.594795 Z-0.125000
G01 X168.123673 Y195.492075 Z-0.125000
G00 Z3.000000

(End cutting path id: polyline83708)


(Start cutting path id: polyline83706)
(Change tool to Default tool)

G00 Z3.000000
G00 X11.286517 Y192.585181

G00 Z4.875000 (Fast pre-penetrate)
G01 Z-0.125000 F400.0(Penetrate)
G01 X11.924057 Y192.680986 Z-0.125000 F800.000000
G01 X12.652692 Y192.948612 Z-0.125000
G01 X14.929640 Y194.282719 Z-0.125000
G01 X15.749345 Y194.679302 Z-0.125000
G01 X16.493167 Y194.903775 Z-0.125000
G01 X17.236963 Y194.975556 Z-0.125000
G01 X17.980785 Y194.895281 Z-0.125000
G01 X18.724580 Y194.685388 Z-0.125000
G01 X22.018586 Y193.298206 Z-0.125000
G01 X22.868665 Y193.104610 Z-0.125000
G01 X23.718717 Y193.043227 Z-0.125000
G01 X25.312591 Y193.253253 Z-0.125000
G01 X29.137906 Y194.343361 Z-0.125000
G01 X30.200471 Y194.508620 Z-0.125000
G01 X31.263063 Y194.565373 Z-0.125000
G01 X33.175707 Y194.434034 Z-0.125000
G01 X38.807383 Y193.587421 Z-0.125000
G01 X40.720053 Y193.450658 Z-0.125000
G01 X42.951467 Y193.404197 Z-0.125000
G01 X51.133352 Y193.517042 Z-0.125000
G01 X59.208981 Y193.406499 Z-0.125000
G01 X61.865421 Y193.440472 Z-0.125000
G01 X64.946913 Y193.692461 Z-0.125000
G01 X69.941049 Y194.464884 Z-0.125000
G01 X71.959950 Y194.559102 Z-0.125000
G01 X73.022542 Y194.472002 Z-0.125000
G01 X74.085134 Y194.282084 Z-0.125000
G01 X78.016678 Y193.196209 Z-0.125000
G01 X79.610553 Y193.045105 Z-0.125000
G01 X80.566888 Y193.145700 Z-0.125000
G01 X81.523197 Y193.391577 Z-0.125000
G01 X85.029715 Y194.770769 Z-0.125000
G01 X85.773537 Y194.930471 Z-0.125000
G01 X86.517333 Y194.974392 Z-0.125000
G01 X87.367412 Y194.868347 Z-0.125000
G01 X88.323721 Y194.559420 Z-0.125000
G01 X90.889117 Y193.225842 Z-0.125000
G01 X91.830239 Y192.823411 Z-0.125000
G01 X92.574061 Y192.632991 Z-0.125000
G01 X93.317857 Y192.586583 Z-0.125000
G01 X94.167936 Y192.721811 Z-0.125000
G01 X95.078710 Y193.072966 Z-0.125000
G01 X97.719989 Y194.682715 Z-0.125000
G01 X98.630790 Y195.147085 Z-0.125000
G01 X99.480842 Y195.414261 Z-0.125000
G01 X100.224664 Y195.483952 Z-0.125000
G01 X101.180973 Y195.334648 Z-0.125000
G01 X102.091773 Y194.963517 Z-0.125000
G01 X105.006261 Y193.047143 Z-0.125000
G01 X106.099227 Y192.441856 Z-0.125000
G01 X107.025188 Y192.124409 Z-0.125000
G01 X107.981497 Y192.026752 Z-0.125000
G01 X109.044089 Y192.199339 Z-0.125000
G01 X110.106680 Y192.631403 Z-0.125000
G01 X113.567638 Y194.827045 Z-0.125000
G01 X114.888277 Y195.521893 Z-0.125000
G01 X116.163382 Y195.943877 Z-0.125000
G01 X117.438487 Y196.091461 Z-0.125000
G01 X118.607335 Y196.002852 Z-0.125000
G01 X119.988697 Y195.680167 Z-0.125000
G01 X124.664037 Y193.947148 Z-0.125000
G01 X126.789221 Y193.303682 Z-0.125000
G01 X128.808121 Y192.897256 Z-0.125000
G01 X130.933278 Y192.684796 Z-0.125000
G01 X132.420896 Y192.660243 Z-0.125000
G01 X133.908514 Y192.737686 Z-0.125000
G01 X136.671237 Y193.176312 Z-0.125000
G01 X139.115164 Y193.913573 Z-0.125000
G01 X143.578017 Y195.693237 Z-0.125000
G01 X144.640583 Y195.975389 Z-0.125000
G01 X145.596918 Y196.088974 Z-0.125000
G01 X146.872023 Y195.966208 Z-0.125000
G01 X148.086406 Y195.519856 Z-0.125000
G01 X149.270415 Y194.798365 Z-0.125000
G01 X152.093859 Y192.683817 Z-0.125000
G01 X152.928725 Y192.253235 Z-0.125000
G01 X153.778803 Y192.038341 Z-0.125000
G01 X154.628856 Y192.094565 Z-0.125000
G01 X155.463747 Y192.417858 Z-0.125000
G01 X156.328986 Y192.991289 Z-0.125000
G01 X158.651496 Y194.891577 Z-0.125000
G01 X159.410479 Y195.303057 Z-0.125000
G01 X160.048045 Y195.469374 Z-0.125000
G01 X160.791840 Y195.427622 Z-0.125000
G01 X161.566010 Y195.123326 Z-0.125000
G01 X162.294645 Y194.644377 Z-0.125000
G01 X164.207289 Y193.145859 Z-0.125000
G01 X164.844828 Y192.795868 Z-0.125000
G01 X165.360951 Y192.630583 Z-0.125000
G01 X165.998490 Y192.592192 Z-0.125000
G01 X166.636055 Y192.736999 Z-0.125000
G01 X167.303969 Y193.056985 Z-0.125000
G01 X168.123673 Y193.600994 Z-0.125000
G00 Z3.000000

(End cutting path id: polyline83706)


(Start cutting path id: polyline83704)
(Change tool to Default tool)

G00 Z3.000000
G00 X11.286517 Y191.673798

G00 Z4.875000 (Fast pre-penetrate)
G01 Z-0.125000 F400.0(Penetrate)
G01 X13.942957 Y193.225207 Z-0.125000 F800.000000
G01 X14.793036 Y193.539373 Z-0.125000
G01 X15.536832 Y193.649889 Z-0.125000
G01 X16.174397 Y193.617028 Z-0.125000
G01 X16.918193 Y193.445261 Z-0.125000
G01 X20.105942 Y192.067974 Z-0.125000
G01 X20.956021 Y191.828288 Z-0.125000
G01 X21.806073 Y191.724254 Z-0.125000
G01 X23.293691 Y191.863478 Z-0.125000
G01 X27.012722 Y192.961497 Z-0.125000
G01 X28.075314 Y193.160014 Z-0.125000
G01 X29.031649 Y193.237695 Z-0.125000
G01 X30.838037 Y193.144880 Z-0.125000
G01 X35.619634 Y192.342108 Z-0.125000
G01 X38.488613 Y192.101841 Z-0.125000
G01 X40.932566 Y192.095014 Z-0.125000
G01 X47.201781 Y192.320413 Z-0.125000
G01 X50.814583 Y192.370048 Z-0.125000
G01 X61.652908 Y192.081256 Z-0.125000
G01 X65.053170 Y192.256278 Z-0.125000
G01 X70.153563 Y193.091143 Z-0.125000
G01 X72.066233 Y193.242431 Z-0.125000
G01 X73.128798 Y193.188483 Z-0.125000
G01 X74.085134 Y193.042195 Z-0.125000
G01 X78.016678 Y191.924887 Z-0.125000
G01 X79.610553 Y191.720312 Z-0.125000
G01 X80.460631 Y191.779208 Z-0.125000
G01 X81.310684 Y191.963649 Z-0.125000
G01 X84.817202 Y193.370834 Z-0.125000
G01 X85.667281 Y193.588215 Z-0.125000
G01 X86.411077 Y193.652879 Z-0.125000
G01 X87.261155 Y193.563582 Z-0.125000
G01 X88.217464 Y193.261455 Z-0.125000
G01 X91.617726 Y191.529389 Z-0.125000
G01 X92.361548 Y191.321321 Z-0.125000
G01 X93.105344 Y191.262133 Z-0.125000
G01 X93.955423 Y191.392652 Z-0.125000
G01 X94.805475 Y191.719836 Z-0.125000
G01 X97.446754 Y193.363901 Z-0.125000
G01 X98.311994 Y193.818402 Z-0.125000
G01 X99.162072 Y194.093992 Z-0.125000
G01 X99.905868 Y194.160561 Z-0.125000
G01 X100.755947 Y194.025385 Z-0.125000
G01 X101.727443 Y193.617981 Z-0.125000
G01 X104.550887 Y191.695811 Z-0.125000
G01 X105.552731 Y191.123280 Z-0.125000
G01 X106.493879 Y190.792525 Z-0.125000
G01 X107.343958 Y190.703175 Z-0.125000
G01 X108.300266 Y190.848193 Z-0.125000
G01 X109.378045 Y191.289756 Z-0.125000
G01 X110.379915 Y191.892370 Z-0.125000
G01 X112.747933 Y193.529980 Z-0.125000
G01 X114.038225 Y194.238745 Z-0.125000
G01 X115.207073 Y194.636255 Z-0.125000
G01 X116.375895 Y194.768864 Z-0.125000
G01 X117.544743 Y194.651177 Z-0.125000
G01 X118.819848 Y194.292350 Z-0.125000
G01 X123.495215 Y192.219342 Z-0.125000
G01 X125.726629 Y191.426307 Z-0.125000
G01 X128.064299 Y190.901057 Z-0.125000
G01 X130.508252 Y190.637241 Z-0.125000
G01 X132.420896 Y190.587394 Z-0.125000
G01 X134.333540 Y190.662297 Z-0.125000
G01 X136.139928 Y190.866979 Z-0.125000
G01 X137.733802 Y191.187151 Z-0.125000
G01 X139.008907 Y191.557461 Z-0.125000
G01 X140.390268 Y192.081732 Z-0.125000
G01 X145.065635 Y194.312352 Z-0.125000
G01 X146.128201 Y194.643293 Z-0.125000
G01 X147.084536 Y194.767435 Z-0.125000
G01 X148.253384 Y194.633318 Z-0.125000
G01 X149.361484 Y194.189506 Z-0.125000
G01 X150.431670 Y193.499500 Z-0.125000
G01 X153.186799 Y191.343017 Z-0.125000
G01 X153.915407 Y190.949423 Z-0.125000
G01 X154.628856 Y190.735640 Z-0.125000
G01 X155.478934 Y190.743974 Z-0.125000
G01 X156.374548 Y191.071105 Z-0.125000
G01 X157.285322 Y191.685360 Z-0.125000
G01 X159.562297 Y193.586522 Z-0.125000
G01 X160.290905 Y193.984269 Z-0.125000
G01 X161.004353 Y194.155984 Z-0.125000
G01 X161.748176 Y194.078434 Z-0.125000
G01 X162.476784 Y193.762602 Z-0.125000
G01 X164.856232 Y191.935894 Z-0.125000
G01 X165.892233 Y191.382439 Z-0.125000
G01 X166.423542 Y191.269568 Z-0.125000
G01 X166.954825 Y191.287348 Z-0.125000
G01 X167.486108 Y191.432181 Z-0.125000
G01 X168.123673 Y191.746664 Z-0.125000
G00 Z3.000000

(End cutting path id: polyline83704)


(Start cutting path id: polyline83702)
(Change tool to Default tool)

G00 Z3.000000
G00 X11.286517 Y191.199057

G00 Z4.875000 (Fast pre-penetrate)
G01 Z-0.125000 F400.0(Penetrate)
G01 X12.880392 Y192.068450 Z-0.125000 F800.000000
G01 X13.517931 Y192.259003 Z-0.125000
G01 X14.155497 Y192.329329 Z-0.125000
G01 X14.899292 Y192.259347 Z-0.125000
G01 X15.643088 Y192.047733 Z-0.125000
G01 X18.830837 Y190.649333 Z-0.125000
G01 X19.574659 Y190.467829 Z-0.125000
G01 X20.318455 Y190.397926 Z-0.125000
G01 X21.062277 Y190.438513 Z-0.125000
G01 X21.912329 Y190.600570 Z-0.125000
G01 X25.525104 Y191.702585 Z-0.125000
G01 X27.225235 Y191.916024 Z-0.125000
G01 X28.925366 Y191.819266 Z-0.125000
G01 X33.494477 Y190.999297 Z-0.125000
G01 X36.150943 Y190.771067 Z-0.125000
G01 X38.807383 Y190.800357 Z-0.125000
G01 X46.032959 Y191.181462 Z-0.125000
G01 X50.070760 Y191.248878 Z-0.125000
G01 X54.427358 Y191.164899 Z-0.125000
G01 X62.928012 Y190.758315 Z-0.125000
G01 X65.903248 Y190.925716 Z-0.125000
G01 X70.791128 Y191.781695 Z-0.125000
G01 X72.597516 Y191.919305 Z-0.125000
G01 X74.403903 Y191.728540 Z-0.125000
G01 X78.229191 Y190.605677 Z-0.125000
G01 X79.079270 Y190.445816 Z-0.125000
G01 X79.929322 Y190.398323 Z-0.125000
G01 X80.779401 Y190.482593 Z-0.125000
G01 X81.735710 Y190.732491 Z-0.125000
G01 X85.135972 Y192.133802 Z-0.125000
G01 X85.879794 Y192.293637 Z-0.125000
G01 X86.517333 Y192.328747 Z-0.125000
G01 X87.367412 Y192.214712 Z-0.125000
G01 X88.217464 Y191.926210 Z-0.125000
G01 X91.511470 Y190.206553 Z-0.125000
G01 X92.255292 Y189.995151 Z-0.125000
G01 X92.892831 Y189.937657 Z-0.125000
G01 X93.742910 Y190.054762 Z-0.125000
G01 X94.623336 Y190.395942 Z-0.125000
G01 X97.264589 Y192.079510 Z-0.125000
G01 X98.099480 Y192.518453 Z-0.125000
G01 X98.843303 Y192.763854 Z-0.125000
G01 X99.587098 Y192.837672 Z-0.125000
G01 X100.437177 Y192.698846 Z-0.125000
G01 X101.363138 Y192.299934 Z-0.125000
G01 X104.186556 Y190.321144 Z-0.125000
G01 X105.112544 Y189.785787 Z-0.125000
G01 X105.962596 Y189.476383 Z-0.125000
G01 X106.812675 Y189.380181 Z-0.125000
G01 X107.768984 Y189.535650 Z-0.125000
G01 X108.831576 Y189.999438 Z-0.125000
G01 X112.019324 Y192.222332 Z-0.125000
G01 X113.294403 Y192.949988 Z-0.125000
G01 X114.463251 Y193.344799 Z-0.125000
G01 X115.525843 Y193.444970 Z-0.125000
G01 X116.588408 Y193.310350 Z-0.125000
G01 X117.757257 Y192.937738 Z-0.125000
G01 X122.675511 Y190.465501 Z-0.125000
G01 X124.026498 Y189.917311 Z-0.125000
G01 X125.407859 Y189.492179 Z-0.125000
G01 X127.001734 Y189.161265 Z-0.125000
G01 X128.808121 Y188.949096 Z-0.125000
G01 X130.933278 Y188.843236 Z-0.125000
G01 X133.483488 Y188.833579 Z-0.125000
G01 X136.990006 Y189.047098 Z-0.125000
G01 X138.477624 Y189.292366 Z-0.125000
G01 X139.752703 Y189.620872 Z-0.125000
G01 X140.921551 Y190.036532 Z-0.125000
G01 X142.075212 Y190.558184 Z-0.125000
G01 X146.446997 Y192.956179 Z-0.125000
G01 X147.509562 Y193.323553 Z-0.125000
G01 X148.465897 Y193.445790 Z-0.125000
G01 X149.528463 Y193.296195 Z-0.125000
G01 X150.545520 Y192.855690 Z-0.125000
G01 X151.627082 Y192.112239 Z-0.125000
G01 X154.097573 Y190.085057 Z-0.125000
G01 X154.841395 Y189.653601 Z-0.125000
G01 X155.585191 Y189.414577 Z-0.125000
G01 X156.435269 Y189.424446 Z-0.125000
G01 X157.285322 Y189.742845 Z-0.125000
G01 X158.161965 Y190.343316 Z-0.125000
G01 X160.393378 Y192.244662 Z-0.125000
G01 X161.110610 Y192.649104 Z-0.125000
G01 X161.854432 Y192.833651 Z-0.125000
G01 X162.598228 Y192.749831 Z-0.125000
G01 X163.296515 Y192.440851 Z-0.125000
G01 X165.573464 Y190.676453 Z-0.125000
G01 X166.423542 Y190.164643 Z-0.125000
G01 X167.273595 Y189.942473 Z-0.125000
G01 X168.123673 Y190.054524 Z-0.125000
G00 Z3.000000

(End cutting path id: polyline83702)


(Start cutting path id: polyline83698)
(Change tool to Default tool)

G00 Z3.000000
G00 X11.286517 Y189.680059

G00 Z4.875000 (Fast pre-penetrate)
G01 Z-0.125000 F400.0(Penetrate)
G01 X11.924057 Y189.648680 Z-0.125000 F800.000000
G01 X12.667879 Y189.465006 Z-0.125000
G01 X15.643088 Y188.097641 Z-0.125000
G01 X16.493167 Y187.847081 Z-0.125000
G01 X17.236963 Y187.755033 Z-0.125000
G01 X18.618324 Y187.897564 Z-0.125000
G01 X22.018586 Y188.998970 Z-0.125000
G01 X22.974921 Y189.195396 Z-0.125000
G01 X23.824973 Y189.269903 Z-0.125000
G01 X25.418848 Y189.169758 Z-0.125000
G01 X29.562932 Y188.337883 Z-0.125000
G01 X31.900602 Y188.119443 Z-0.125000
G01 X34.238299 Y188.179556 Z-0.125000
G01 X41.782619 Y188.778493 Z-0.125000
G01 X48.689399 Y188.908694 Z-0.125000
G01 X55.702462 Y188.769735 Z-0.125000
G01 X62.821756 Y188.195008 Z-0.125000
G01 X64.840657 Y188.112485 Z-0.125000
G01 X67.284610 Y188.272107 Z-0.125000
G01 X71.641180 Y189.126711 Z-0.125000
G01 X73.341311 Y189.273554 Z-0.125000
