%
(Header)
(Generated by gcodetools from Inkscape.)
(Using default header. To add your own header create file "header" in the output dir.)
M3
(Header end.)
G21 (All units in mm)

(Start cutting path id: polyline34597)
(Change tool to Default tool)

G00 Z3.000000
G00 X9.490017 Y217.487785

G00 Z4.875000 (Fast pre-penetrate)
G01 Z-0.125000 F400.0(Penetrate)
G01 X10.309722 Y217.998007 Z-0.125000 F800.000000
G01 X12.495601 Y219.665991 Z-0.125000
G01 X13.497471 Y220.307790 Z-0.125000
G01 X14.590410 Y220.749723 Z-0.125000
G01 X15.652976 Y220.850106 Z-0.125000
G01 X16.609311 Y220.652885 Z-0.125000
G01 X17.687063 Y220.140706 Z-0.125000
G01 X18.688933 Y219.462871 Z-0.125000
G01 X21.148047 Y217.561498 Z-0.125000
G01 X22.514248 Y216.739967 Z-0.125000
G01 X23.834861 Y216.306607 Z-0.125000
G01 X24.472427 Y216.245912 Z-0.125000
G01 X25.216222 Y216.299463 Z-0.125000
G01 X26.278814 Y216.593891 Z-0.125000
G01 X27.523545 Y217.213439 Z-0.125000
G01 X31.439929 Y219.974257 Z-0.125000
G01 X33.079338 Y220.931121 Z-0.125000
G01 X33.929417 Y221.286694 Z-0.125000
G01 X34.779469 Y221.528735 Z-0.125000
G01 X35.523291 Y221.642426 Z-0.125000
G01 X36.373343 Y221.659835 Z-0.125000
G01 X37.967218 Y221.386654 Z-0.125000
G01 X39.637001 Y220.739854 Z-0.125000
G01 X41.276410 Y219.855062 Z-0.125000
G01 X45.466003 Y217.315118 Z-0.125000
G01 X46.741108 Y216.660804 Z-0.125000
G01 X47.955491 Y216.147275 Z-0.125000
G01 X49.230596 Y215.742146 Z-0.125000
G01 X50.399444 Y215.499999 Z-0.125000
G01 X51.674522 Y215.378238 Z-0.125000
G01 X52.949627 Y215.399299 Z-0.125000
G01 X54.862271 Y215.671608 Z-0.125000
G01 X56.987428 Y216.249140 Z-0.125000
G01 X59.218868 Y217.067654 Z-0.125000
G01 X66.444419 Y220.012462 Z-0.125000
G01 X68.994628 Y220.843041 Z-0.125000
G01 X71.544811 Y221.487169 Z-0.125000
G01 X74.413791 Y221.992628 Z-0.125000
G01 X77.601540 Y222.325553 Z-0.125000
G01 X81.214315 Y222.500389 Z-0.125000
G01 X86.102195 Y222.558703 Z-0.125000
G01 X90.565048 Y222.504570 Z-0.125000
G01 X93.859054 Y222.329892 Z-0.125000
G01 X96.515494 Y222.004481 Z-0.125000
G01 X98.853190 Y221.496932 Z-0.125000
G01 X100.872091 Y220.840316 Z-0.125000
G01 X102.845457 Y219.982670 Z-0.125000
G01 X104.667031 Y219.019297 Z-0.125000
G01 X108.310180 Y216.894696 Z-0.125000
G01 X109.797772 Y216.146376 Z-0.125000
G01 X111.285390 Y215.607817 Z-0.125000
G01 X112.666751 Y215.378767 Z-0.125000
G01 X113.516830 Y215.394457 Z-0.125000
G01 X114.260626 Y215.514128 Z-0.125000
G01 X115.110704 Y215.774028 Z-0.125000
G01 X115.960757 Y216.160822 Z-0.125000
G01 X117.600166 Y217.216640 Z-0.125000
G01 X120.742380 Y219.775502 Z-0.125000
G01 X122.063019 Y220.714983 Z-0.125000
G01 X123.505103 Y221.418668 Z-0.125000
G01 X124.780181 Y221.663936 Z-0.125000
G01 X125.949029 Y221.544848 Z-0.125000
G01 X127.254482 Y221.042616 Z-0.125000
G01 X128.620683 Y220.184494 Z-0.125000
G01 X131.261935 Y218.125721 Z-0.125000
G01 X132.537040 Y217.244898 Z-0.125000
G01 X133.918402 Y216.565237 Z-0.125000
G01 X135.193506 Y216.268533 Z-0.125000
G01 X136.468611 Y216.310549 Z-0.125000
G01 X137.743690 Y216.661386 Z-0.125000
G01 X139.094703 Y217.292311 Z-0.125000
G01 X142.373522 Y219.238822 Z-0.125000
G01 X143.921862 Y220.021829 Z-0.125000
G01 X145.713062 Y220.623993 Z-0.125000
G01 X147.413193 Y220.850926 Z-0.125000
G01 X148.900811 Y220.795205 Z-0.125000
G01 X150.600942 Y220.506941 Z-0.125000
G01 X156.657670 Y218.801043 Z-0.125000
G01 X159.739162 Y218.122334 Z-0.125000
G01 X162.820628 Y217.705272 Z-0.125000
G01 X166.327173 Y217.489028 Z-0.125000
G00 Z3.000000

(End cutting path id: polyline34597)


(Start cutting path id: polyline34595)
(Change tool to Default tool)

G00 Z3.000000
G00 X9.490017 Y215.921692

G00 Z4.875000 (Fast pre-penetrate)
G01 Z-0.125000 F400.0(Penetrate)
G01 X10.765122 Y216.635219 Z-0.125000 F800.000000
G01 X13.042071 Y218.376704 Z-0.125000
G01 X13.952845 Y218.964925 Z-0.125000
G01 X15.015436 Y219.411330 Z-0.125000
G01 X16.078028 Y219.530180 Z-0.125000
G01 X17.034337 Y219.342909 Z-0.125000
G01 X18.142464 Y218.816362 Z-0.125000
G01 X19.132956 Y218.138024 Z-0.125000
G01 X21.512378 Y216.269962 Z-0.125000
G01 X22.878552 Y215.428535 Z-0.125000
G01 X23.622348 Y215.127281 Z-0.125000
G01 X24.259914 Y214.973850 Z-0.125000
G01 X24.897453 Y214.922282 Z-0.125000
G01 X25.534992 Y214.972527 Z-0.125000
G01 X26.597584 Y215.269733 Z-0.125000
G01 X27.796780 Y215.876130 Z-0.125000
G01 X31.713164 Y218.695739 Z-0.125000
G01 X33.261503 Y219.615773 Z-0.125000
G01 X34.035673 Y219.950179 Z-0.125000
G01 X34.885726 Y220.202909 Z-0.125000
G01 X36.373343 Y220.340122 Z-0.125000
G01 X37.860961 Y220.100701 Z-0.125000
G01 X39.545905 Y219.445355 Z-0.125000
G01 X41.094245 Y218.587709 Z-0.125000
G01 X45.192768 Y216.003210 Z-0.125000
G01 X47.530465 Y214.849284 Z-0.125000
G01 X48.699286 Y214.450293 Z-0.125000
G01 X49.868135 Y214.186265 Z-0.125000
G01 X51.036983 Y214.059795 Z-0.125000
G01 X52.312088 Y214.073950 Z-0.125000
G01 X54.224732 Y214.364409 Z-0.125000
G01 X56.349889 Y214.994143 Z-0.125000
G01 X58.368790 Y215.796623 Z-0.125000
G01 X64.956801 Y218.710396 Z-0.125000
G01 X67.188241 Y219.520735 Z-0.125000
G01 X69.313398 Y220.140229 Z-0.125000
G01 X71.757325 Y220.662543 Z-0.125000
G01 X74.413791 Y221.020894 Z-0.125000
G01 X77.282770 Y221.215574 Z-0.125000
G01 X80.789289 Y221.283810 Z-0.125000
G01 X94.177823 Y221.243170 Z-0.125000
G01 X97.046803 Y221.045765 Z-0.125000
G01 X99.384473 Y220.666564 Z-0.125000
G01 X101.722169 Y219.999233 Z-0.125000
G01 X103.938396 Y219.050994 Z-0.125000
G01 X105.851040 Y217.998324 Z-0.125000
G01 X109.676355 Y215.616892 Z-0.125000
G01 X111.224668 Y214.797770 Z-0.125000
G01 X112.666751 Y214.265667 Z-0.125000
G01 X113.941856 Y214.055244 Z-0.125000
G01 X114.791908 Y214.075114 Z-0.125000
G01 X115.535730 Y214.204601 Z-0.125000
G01 X117.053696 Y214.791684 Z-0.125000
G01 X118.670351 Y215.832633 Z-0.125000
G01 X121.858100 Y218.454994 Z-0.125000
G01 X123.155959 Y219.385903 Z-0.125000
G01 X124.567668 Y220.084297 Z-0.125000
G01 X125.842773 Y220.339672 Z-0.125000
G01 X127.011621 Y220.228997 Z-0.125000
G01 X128.347448 Y219.720389 Z-0.125000
G01 X129.622526 Y218.931006 Z-0.125000
G01 X132.457348 Y216.744333 Z-0.125000
G01 X133.721076 Y215.889704 Z-0.125000
G01 X135.087250 Y215.234570 Z-0.125000
G01 X136.362328 Y214.945327 Z-0.125000
G01 X137.637433 Y214.984724 Z-0.125000
G01 X138.912538 Y215.322411 Z-0.125000
G01 X140.369782 Y215.986382 Z-0.125000
G01 X143.648627 Y217.882913 Z-0.125000
G01 X145.288036 Y218.688886 Z-0.125000
G01 X147.094423 Y219.282213 Z-0.125000
G01 X148.794554 Y219.520629 Z-0.125000
G01 X150.388429 Y219.486551 Z-0.125000
G01 X152.088560 Y219.238531 Z-0.125000
G01 X158.251545 Y217.693842 Z-0.125000
G01 X161.120497 Y217.111760 Z-0.125000
G01 X163.670707 Y216.765473 Z-0.125000
G01 X166.327173 Y216.564231 Z-0.125000
G00 Z3.000000

(End cutting path id: polyline34595)


(Start cutting path id: polyline34593)
(Change tool to Default tool)

G00 Z3.000000
G00 X9.490017 Y214.445266

G00 Z4.875000 (Fast pre-penetrate)
G01 Z-0.125000 F400.0(Penetrate)
G01 X10.218626 Y214.714426 Z-0.125000 F800.000000
G01 X10.947261 Y215.126593 Z-0.125000
G01 X13.497471 Y217.062230 Z-0.125000
G01 X14.499341 Y217.702732 Z-0.125000
G01 X15.546719 Y218.115376 Z-0.125000
G01 X16.503054 Y218.206921 Z-0.125000
G01 X17.459390 Y218.014093 Z-0.125000
G01 X18.506794 Y217.512629 Z-0.125000
G01 X19.508638 Y216.820189 Z-0.125000
G01 X21.967752 Y214.871720 Z-0.125000
G01 X23.242856 Y214.089216 Z-0.125000
G01 X23.941144 Y213.804313 Z-0.125000
G01 X24.578683 Y213.649241 Z-0.125000
G01 X25.216222 Y213.599552 Z-0.125000
G01 X25.853788 Y213.655221 Z-0.125000
G01 X26.916353 Y213.968037 Z-0.125000
G01 X28.070015 Y214.571842 Z-0.125000
G01 X31.804233 Y217.328056 Z-0.125000
G01 X33.352573 Y218.280449 Z-0.125000
G01 X34.885726 Y218.862981 Z-0.125000
G01 X35.629548 Y218.992336 Z-0.125000
G01 X36.373343 Y219.018292 Z-0.125000
G01 X37.860961 Y218.773341 Z-0.125000
G01 X39.545905 Y218.087224 Z-0.125000
G01 X41.003176 Y217.245744 Z-0.125000
G01 X45.010629 Y214.625870 Z-0.125000
G01 X47.211695 Y213.505969 Z-0.125000
G01 X48.380517 Y213.098168 Z-0.125000
G01 X49.443109 Y212.855466 Z-0.125000
G01 X50.611957 Y212.732223 Z-0.125000
G01 X51.780779 Y212.755242 Z-0.125000
G01 X53.693449 Y213.078589 Z-0.125000
G01 X55.712350 Y213.731950 Z-0.125000
G01 X57.670529 Y214.573033 Z-0.125000
G01 X63.575439 Y217.385153 Z-0.125000
G01 X65.488110 Y218.151862 Z-0.125000
G01 X67.400754 Y218.782839 Z-0.125000
G01 X69.525911 Y219.312217 Z-0.125000
G01 X71.651068 Y219.667420 Z-0.125000
G01 X73.882508 Y219.877446 Z-0.125000
G01 X76.432691 Y219.960604 Z-0.125000
G01 X86.739734 Y219.770290 Z-0.125000
G01 X96.515494 Y219.956371 Z-0.125000
G01 X98.640677 Y219.849823 Z-0.125000
G01 X100.553321 Y219.588944 Z-0.125000
G01 X102.572222 Y219.078273 Z-0.125000
G01 X104.575962 Y218.285979 Z-0.125000
G01 X106.761841 Y217.097498 Z-0.125000
G01 X110.678198 Y214.522365 Z-0.125000
G01 X112.135468 Y213.671228 Z-0.125000
G01 X113.729343 Y212.999425 Z-0.125000
G01 X115.216961 Y212.729445 Z-0.125000
G01 X115.960757 Y212.749236 Z-0.125000
G01 X116.704579 Y212.878775 Z-0.125000
G01 X117.448374 Y213.117959 Z-0.125000
G01 X118.237731 Y213.486470 Z-0.125000
G01 X119.865764 Y214.562661 Z-0.125000
G01 X122.894101 Y217.086227 Z-0.125000
G01 X124.157829 Y218.009463 Z-0.125000
G01 X125.524003 Y218.715715 Z-0.125000
G01 X126.267799 Y218.933546 Z-0.125000
G01 X126.905365 Y219.015910 Z-0.125000
G01 X128.074186 Y218.910554 Z-0.125000
G01 X129.349291 Y218.439913 Z-0.125000
G01 X130.715466 Y217.607562 Z-0.125000
G01 X133.629980 Y215.378953 Z-0.125000
G01 X134.905085 Y214.534695 Z-0.125000
G01 X136.256072 Y213.904088 Z-0.125000
G01 X137.637433 Y213.613284 Z-0.125000
G01 X138.912538 Y213.675356 Z-0.125000
G01 X140.187643 Y214.020874 Z-0.125000
G01 X141.644887 Y214.676379 Z-0.125000
G01 X144.923732 Y216.521845 Z-0.125000
G01 X146.563141 Y217.311705 Z-0.125000
G01 X148.369528 Y217.910403 Z-0.125000
G01 X150.069659 Y218.178876 Z-0.125000
G01 X151.557277 Y218.196867 Z-0.125000
G01 X153.257408 Y218.021608 Z-0.125000
G01 X161.333037 Y216.305787 Z-0.125000
G01 X163.776964 Y215.935265 Z-0.125000
G01 X166.327173 Y215.694177 Z-0.125000
G00 Z3.000000

(End cutting path id: polyline34593)


(Start cutting path id: polyline34591)
(Change tool to Default tool)

G00 Z3.000000
G00 X9.490017 Y213.042976

G00 Z4.875000 (Fast pre-penetrate)
G01 Z-0.125000 F400.0(Penetrate)
G01 X10.340070 Y213.265543 Z-0.125000 F800.000000
G01 X11.220496 Y213.719753 Z-0.125000
G01 X13.873152 Y215.729948 Z-0.125000
G01 X14.954715 Y216.418367 Z-0.125000
G01 X15.865515 Y216.778861 Z-0.125000
G01 X16.821824 Y216.885991 Z-0.125000
G01 X17.778159 Y216.703376 Z-0.125000
G01 X18.871099 Y216.175638 Z-0.125000
G01 X19.850188 Y215.489575 Z-0.125000
G01 X22.240986 Y213.566665 Z-0.125000
G01 X23.516091 Y212.768841 Z-0.125000
G01 X24.791196 Y212.333787 Z-0.125000
G01 X25.428735 Y212.276479 Z-0.125000
G01 X26.066301 Y212.328443 Z-0.125000
G01 X27.128866 Y212.644408 Z-0.125000
G01 X28.252180 Y213.242551 Z-0.125000
G01 X31.986399 Y216.056020 Z-0.125000
G01 X33.443642 Y216.966927 Z-0.125000
G01 X34.885726 Y217.531600 Z-0.125000
G01 X35.629548 Y217.667966 Z-0.125000
G01 X36.373343 Y217.695112 Z-0.125000
G01 X37.860961 Y217.435212 Z-0.125000
G01 X39.454836 Y216.758462 Z-0.125000
G01 X40.912080 Y215.885100 Z-0.125000
G01 X44.737394 Y213.292954 Z-0.125000
G01 X46.892899 Y212.159374 Z-0.125000
G01 X47.955491 Y211.776205 Z-0.125000
G01 X49.018083 Y211.525301 Z-0.125000
G01 X50.080648 Y211.409943 Z-0.125000
G01 X51.249496 Y211.435608 Z-0.125000
G01 X53.055884 Y211.761494 Z-0.125000
G01 X55.074784 Y212.459650 Z-0.125000
G01 X56.941894 Y213.317745 Z-0.125000
G01 X62.406617 Y216.094702 Z-0.125000
G01 X64.106748 Y216.830428 Z-0.125000
G01 X65.806879 Y217.445584 Z-0.125000
G01 X67.613267 Y217.953372 Z-0.125000
G01 X69.525911 Y218.327148 Z-0.125000
G01 X71.438555 Y218.546064 Z-0.125000
G01 X73.563739 Y218.637081 Z-0.125000
G01 X76.326435 Y218.582127 Z-0.125000
G01 X83.020702 Y218.170171 Z-0.125000
G01 X86.420964 Y218.062618 Z-0.125000
G01 X90.352535 Y218.143527 Z-0.125000
G01 X98.109368 Y218.632106 Z-0.125000
G01 X100.128295 Y218.601097 Z-0.125000
G01 X101.934683 Y218.401681 Z-0.125000
G01 X103.953583 Y217.914451 Z-0.125000
G01 X105.942136 Y217.111733 Z-0.125000
G01 X108.036945 Y215.924073 Z-0.125000
G01 X111.862234 Y213.283455 Z-0.125000
G01 X113.319477 Y212.388027 Z-0.125000
G01 X114.898191 Y211.689713 Z-0.125000
G01 X115.641987 Y211.496700 Z-0.125000
G01 X116.385783 Y211.406768 Z-0.125000
G01 X117.129605 Y211.427538 Z-0.125000
G01 X117.873401 Y211.562502 Z-0.125000
G01 X119.330671 Y212.149796 Z-0.125000
G01 X120.879011 Y213.175320 Z-0.125000
G01 X124.009821 Y215.797258 Z-0.125000
G01 X125.250768 Y216.702238 Z-0.125000
G01 X126.586595 Y217.391688 Z-0.125000
G01 X127.861673 Y217.685852 Z-0.125000
G01 X129.136778 Y217.588829 Z-0.125000
G01 X130.442231 Y217.107129 Z-0.125000
G01 X131.808405 Y216.276206 Z-0.125000
G01 X134.722919 Y214.067071 Z-0.125000
G01 X135.998024 Y213.229374 Z-0.125000
G01 X137.424920 Y212.572283 Z-0.125000
G01 X138.806282 Y212.290158 Z-0.125000
G01 X140.081386 Y212.349266 Z-0.125000
G01 X141.462748 Y212.719205 Z-0.125000
G01 X142.919992 Y213.365344 Z-0.125000
G01 X146.198810 Y215.159507 Z-0.125000
G01 X147.838219 Y215.932698 Z-0.125000
G01 X149.644633 Y216.534651 Z-0.125000
G01 X151.451021 Y216.839451 Z-0.125000
G01 X153.151152 Y216.877736 Z-0.125000
G01 X154.957539 Y216.714647 Z-0.125000
G01 X162.395602 Y215.329184 Z-0.125000
G01 X166.327173 Y214.840076 Z-0.125000
G00 Z3.000000

(End cutting path id: polyline34591)


(Start cutting path id: polyline34589)
(Change tool to Default tool)

G00 Z3.000000
G00 X9.490017 Y211.697598

G00 Z4.875000 (Fast pre-penetrate)
G01 Z-0.125000 F400.0(Penetrate)
G01 X10.446326 Y211.851453 Z-0.125000 F800.000000
G01 X11.402661 Y212.290052 Z-0.125000
G01 X12.313435 Y212.908224 Z-0.125000
G01 X14.317175 Y214.482572 Z-0.125000
G01 X15.319045 Y215.111988 Z-0.125000
G01 X16.290541 Y215.481108 Z-0.125000
G01 X17.140594 Y215.563129 Z-0.125000
G01 X18.096929 Y215.375751 Z-0.125000
G01 X19.144334 Y214.866058 Z-0.125000
G01 X20.089265 Y214.199494 Z-0.125000
G01 X22.514248 Y212.227187 Z-0.125000
G01 X23.789326 Y211.425421 Z-0.125000
G01 X25.003709 Y211.010872 Z-0.125000
G01 X25.641275 Y210.953617 Z-0.125000
G01 X26.278814 Y211.009364 Z-0.125000
G01 X27.235149 Y211.294161 Z-0.125000
G01 X28.343249 Y211.882303 Z-0.125000
G01 X29.413435 Y212.639804 Z-0.125000
G01 X32.077468 Y214.747922 Z-0.125000
G01 X33.534738 Y215.672798 Z-0.125000
G01 X34.991982 Y216.235275 Z-0.125000
G01 X36.373343 Y216.370610 Z-0.125000
G01 X37.754705 Y216.120790 Z-0.125000
G01 X39.363766 Y215.416338 Z-0.125000
G01 X40.821010 Y214.508289 Z-0.125000
G01 X44.373063 Y212.012637 Z-0.125000
G01 X46.467873 Y210.858023 Z-0.125000
G01 X47.530465 Y210.455936 Z-0.125000
G01 X48.593030 Y210.196539 Z-0.125000
G01 X49.655622 Y210.083774 Z-0.125000
G01 X50.718214 Y210.114492 Z-0.125000
G01 X52.418345 Y210.436251 Z-0.125000
G01 X54.330989 Y211.127606 Z-0.125000
G01 X56.213285 Y212.040338 Z-0.125000
G01 X61.313678 Y214.789356 Z-0.125000
G01 X62.937900 Y215.539263 Z-0.125000
G01 X64.425518 Y216.118303 Z-0.125000
G01 X66.125649 Y216.638421 Z-0.125000
G01 X67.825780 Y217.003889 Z-0.125000
G01 X69.525911 Y217.222752 Z-0.125000
G01 X71.332298 Y217.313583 Z-0.125000
G01 X74.945073 Y217.168698 Z-0.125000
G01 X83.339472 Y216.320312 Z-0.125000
G01 X87.058530 Y216.170929 Z-0.125000
G01 X89.289943 Y216.213871 Z-0.125000
G01 X91.521357 Y216.358915 Z-0.125000
G01 X99.809499 Y217.276753 Z-0.125000
G01 X101.722169 Y217.305699 Z-0.125000
G01 X103.422300 Y217.148034 Z-0.125000
G01 X105.334945 Y216.695729 Z-0.125000
G01 X107.217214 Y215.922194 Z-0.125000
G01 X109.312024 Y214.691037 Z-0.125000
G01 X113.046243 Y212.003456 Z-0.125000
G01 X114.503513 Y211.074531 Z-0.125000
G01 X116.067013 Y210.364046 Z-0.125000
G01 X116.810835 Y210.169049 Z-0.125000
G01 X117.554631 Y210.082160 Z-0.125000
G01 X118.298453 Y210.110549 Z-0.125000
G01 X118.935992 Y210.228924 Z-0.125000
G01 X119.679788 Y210.475198 Z-0.125000
G01 X120.423610 Y210.831591 Z-0.125000
G01 X121.937792 Y211.844573 Z-0.125000
G01 X124.966156 Y214.398514 Z-0.125000
G01 X126.252638 Y215.350298 Z-0.125000
G01 X127.649160 Y216.074912 Z-0.125000
G01 X128.924265 Y216.364074 Z-0.125000
G01 X130.199370 Y216.263559 Z-0.125000
G01 X131.444101 Y215.812181 Z-0.125000
G01 X132.810275 Y214.998694 Z-0.125000
G01 X135.724789 Y212.811386 Z-0.125000
G01 X137.090963 Y211.917122 Z-0.125000
G01 X138.593768 Y211.237594 Z-0.125000
G01 X139.975130 Y210.966370 Z-0.125000
G01 X141.250208 Y211.024525 Z-0.125000
G01 X142.631570 Y211.381580 Z-0.125000
G01 X144.104000 Y212.011552 Z-0.125000
G01 X147.473915 Y213.800001 Z-0.125000
G01 X149.007067 Y214.512073 Z-0.125000
G01 X150.813455 Y215.129848 Z-0.125000
G01 X152.619842 Y215.474229 Z-0.125000
G01 X154.426230 Y215.564954 Z-0.125000
G01 X156.445157 Y215.434859 Z-0.125000
G01 X163.351937 Y214.334696 Z-0.125000
G01 X166.327173 Y213.968937 Z-0.125000
G00 Z3.000000

(End cutting path id: polyline34589)


(Start cutting path id: polyline34587)
(Change tool to Default tool)

G00 Z3.000000
G00 X9.490017 Y210.392489

G00 Z4.875000 (Fast pre-penetrate)
G01 Z-0.125000 F400.0(Penetrate)
G01 X10.340070 Y210.422599 Z-0.125000 F800.000000
G01 X11.296405 Y210.743538 Z-0.125000
G01 X12.313435 Y211.359778 Z-0.125000
G01 X14.431026 Y213.026889 Z-0.125000
G01 X15.410115 Y213.682896 Z-0.125000
G01 X16.503054 Y214.142186 Z-0.125000
G01 X17.459390 Y214.237515 Z-0.125000
G01 X18.415698 Y214.032304 Z-0.125000
G01 X19.417568 Y213.527771 Z-0.125000
G01 X20.408035 Y212.814032 Z-0.125000
G01 X22.719167 Y210.905992 Z-0.125000
G01 X23.971492 Y210.106025 Z-0.125000
G01 X25.216222 Y209.680628 Z-0.125000
G01 X26.385071 Y209.679041 Z-0.125000
G01 X27.432475 Y209.998128 Z-0.125000
G01 X28.525415 Y210.604182 Z-0.125000
G01 X32.168564 Y213.464483 Z-0.125000
G01 X33.534738 Y214.346999 Z-0.125000
G01 X34.885726 Y214.892675 Z-0.125000
G01 X35.629548 Y215.028989 Z-0.125000
G01 X36.267087 Y215.049467 Z-0.125000
G01 X37.648448 Y214.799913 Z-0.125000
G01 X39.181601 Y214.114775 Z-0.125000
G01 X40.547775 Y213.245593 Z-0.125000
G01 X44.190924 Y210.613231 Z-0.125000
G01 X46.149103 Y209.512195 Z-0.125000
G01 X47.211695 Y209.105002 Z-0.125000
G01 X48.168004 Y208.869840 Z-0.125000
G01 X49.124339 Y208.762764 Z-0.125000
G01 X50.186904 Y208.791259 Z-0.125000
G01 X51.887035 Y209.132704 Z-0.125000
G01 X53.754145 Y209.851549 Z-0.125000
G01 X55.484650 Y210.737505 Z-0.125000
G01 X60.311808 Y213.481496 Z-0.125000
G01 X61.875308 Y214.245902 Z-0.125000
G01 X63.256670 Y214.816317 Z-0.125000
G01 X64.850544 Y215.335191 Z-0.125000
G01 X66.338162 Y215.679651 Z-0.125000
G01 X67.932036 Y215.903568 Z-0.125000
G01 X69.525911 Y215.990907 Z-0.125000
G01 X71.332298 Y215.949976 Z-0.125000
G01 X73.457456 Y215.756830 Z-0.125000
G01 X82.914446 Y214.391502 Z-0.125000
G01 X85.145886 Y214.209707 Z-0.125000
G01 X87.377299 Y214.142345 Z-0.125000
G01 X89.927483 Y214.219947 Z-0.125000
G01 X92.477692 Y214.462993 Z-0.125000
G01 X101.297117 Y215.899308 Z-0.125000
G01 X103.209761 Y215.992759 Z-0.125000
G01 X104.909892 Y215.859832 Z-0.125000
G01 X106.716306 Y215.428509 Z-0.125000
G01 X108.492319 Y214.676855 Z-0.125000
G01 X110.496059 Y213.460302 Z-0.125000
G01 X114.230278 Y210.679323 Z-0.125000
G01 X115.687522 Y209.728809 Z-0.125000
G01 X117.235861 Y209.021737 Z-0.125000
G01 X117.979657 Y208.832693 Z-0.125000
G01 X118.723479 Y208.756599 Z-0.125000
G01 X119.361019 Y208.786338 Z-0.125000
G01 X120.104841 Y208.933737 Z-0.125000
G01 X121.516550 Y209.533388 Z-0.125000
G01 X123.053486 Y210.583439 Z-0.125000
G01 X126.002158 Y213.086658 Z-0.125000
G01 X127.254482 Y214.014974 Z-0.125000
G01 X128.605496 Y214.727046 Z-0.125000
G01 X129.880600 Y215.035524 Z-0.125000
G01 X131.155679 Y214.956863 Z-0.125000
G01 X132.430784 Y214.513449 Z-0.125000
G01 X133.903215 Y213.645140 Z-0.125000
G01 X136.817729 Y211.477121 Z-0.125000
G01 X138.183903 Y210.595080 Z-0.125000
G01 X139.656334 Y209.932459 Z-0.125000
G01 X141.143952 Y209.641682 Z-0.125000
G01 X142.419057 Y209.702007 Z-0.125000
G01 X143.906674 Y210.086287 Z-0.125000
G01 X145.379105 Y210.709195 Z-0.125000
G01 X148.657950 Y212.402526 Z-0.125000
G01 X150.282172 Y213.141745 Z-0.125000
G01 X152.088560 Y213.754836 Z-0.125000
G01 X153.788691 Y214.101308 Z-0.125000
G01 X155.701335 Y214.241537 Z-0.125000
G01 X157.826492 Y214.156553 Z-0.125000
G01 X166.327173 Y213.055676 Z-0.125000
G00 Z3.000000

(End cutting path id: polyline34587)


(Start cutting path id: polyline34585)
(Change tool to Default tool)

G00 Z3.000000
G00 X9.490017 Y209.112780

G00 Z4.875000 (Fast pre-penetrate)
G01 Z-0.125000 F400.0(Penetrate)
G01 X10.446326 Y209.074416 Z-0.125000 F800.000000
G01 X11.493731 Y209.386148 Z-0.125000
G01 X12.586670 Y210.044086 Z-0.125000
G01 X14.681480 Y211.702069 Z-0.125000
G01 X15.683350 Y212.376888 Z-0.125000
G01 X16.715567 Y212.812709 Z-0.125000
G01 X17.671903 Y212.915579 Z-0.125000
G01 X18.628211 Y212.711929 Z-0.125000
G01 X19.690803 Y212.163978 Z-0.125000
G01 X20.567420 Y211.522338 Z-0.125000
G01 X22.798860 Y209.652768 Z-0.125000
G01 X24.062561 Y208.815336 Z-0.125000
G01 X24.684940 Y208.536942 Z-0.125000
G01 X25.322479 Y208.362714 Z-0.125000
G01 X25.960045 Y208.307919 Z-0.125000
G01 X26.491327 Y208.354406 Z-0.125000
G01 X27.523545 Y208.671430 Z-0.125000
G01 X28.616484 Y209.287934 Z-0.125000
G01 X32.123003 Y212.098970 Z-0.125000
G01 X33.443642 Y212.983788 Z-0.125000
G01 X34.779469 Y213.553859 Z-0.125000
G01 X35.523291 Y213.701708 Z-0.125000
G01 X36.160830 Y213.727346 Z-0.125000
G01 X37.542192 Y213.473743 Z-0.125000
G01 X38.999436 Y212.807285 Z-0.125000
G01 X40.365610 Y211.915191 Z-0.125000
G01 X43.826594 Y209.333919 Z-0.125000
G01 X45.830334 Y208.168933 Z-0.125000
G01 X46.786642 Y207.790897 Z-0.125000
G01 X47.742978 Y207.545867 Z-0.125000
G01 X48.699286 Y207.438155 Z-0.125000
G01 X49.655622 Y207.465434 Z-0.125000
G01 X51.249496 Y207.788146 Z-0.125000
G01 X53.116606 Y208.530301 Z-0.125000
G01 X54.847084 Y209.458776 Z-0.125000
G01 X59.492103 Y212.225943 Z-0.125000
G01 X62.194104 Y213.510732 Z-0.125000
G01 X63.681722 Y214.023150 Z-0.125000
G01 X65.063057 Y214.363113 Z-0.125000
G01 X66.444419 Y214.574250 Z-0.125000
G01 X67.932036 Y214.667330 Z-0.125000
G01 X69.950937 Y214.601237 Z-0.125000
G01 X72.182377 Y214.329616 Z-0.125000
G01 X79.620440 Y212.858297 Z-0.125000
G01 X82.489420 Y212.389509 Z-0.125000
G01 X85.145886 Y212.113549 Z-0.125000
G01 X87.589812 Y212.023617 Z-0.125000
G01 X90.458792 Y212.138552 Z-0.125000
G01 X93.327745 Y212.495342 Z-0.125000
G01 X95.877954 Y212.993684 Z-0.125000
G01 X100.872091 Y214.181450 Z-0.125000
G01 X102.784735 Y214.527101 Z-0.125000
G01 X104.591122 Y214.669711 Z-0.125000
G01 X106.184997 Y214.575679 Z-0.125000
G01 X107.991384 Y214.153060 Z-0.125000
G01 X109.676355 Y213.425536 Z-0.125000
G01 X111.588999 Y212.236712 Z-0.125000
G01 X115.232121 Y209.442689 Z-0.125000
G01 X116.689392 Y208.456720 Z-0.125000
G01 X118.298453 Y207.697949 Z-0.125000
G01 X119.042249 Y207.507132 Z-0.125000
G01 X119.786045 Y207.433102 Z-0.125000
G01 X120.423610 Y207.467127 Z-0.125000
G01 X121.167406 Y207.621855 Z-0.125000
G01 X122.518420 Y208.204864 Z-0.125000
G01 X124.009821 Y209.225175 Z-0.125000
G01 X126.958493 Y211.733078 Z-0.125000
G01 X128.165282 Y212.637370 Z-0.125000
G01 X129.561804 Y213.388574 Z-0.125000
G01 X130.836909 Y213.708402 Z-0.125000
G01 X132.112014 Y213.644108 Z-0.125000
G01 X133.447841 Y213.188973 Z-0.125000
G01 X134.814015 Y212.398716 Z-0.125000
G01 X137.910668 Y210.127853 Z-0.125000
G01 X139.276842 Y209.261211 Z-0.125000
G01 X140.825182 Y208.586049 Z-0.125000
G01 X142.312800 Y208.315936 Z-0.125000
G01 X143.587905 Y208.382637 Z-0.125000
G01 X145.075523 Y208.760647 Z-0.125000
G01 X146.563141 Y209.373209 Z-0.125000
G01 X149.841959 Y211.018889 Z-0.125000
G01 X151.451021 Y211.739243 Z-0.125000
G01 X153.257408 Y212.357177 Z-0.125000
G01 X154.957539 Y212.725582 Z-0.125000
G01 X156.870183 Y212.906583 Z-0.125000
G01 X158.995340 Y212.878484 Z-0.125000
G01 X166.327173 Y212.083889 Z-0.125000
G00 Z3.000000

(End cutting path id: polyline34585)


(Start cutting path id: polyline34583)
(Change tool to Default tool)

G00 Z3.000000
G00 X9.490017 Y207.846195

G00 Z4.875000 (Fast pre-penetrate)
G01 Z-0.125000 F400.0(Penetrate)
G01 X10.552583 Y207.738616 Z-0.125000 F800.000000
G01 X11.083892 Y207.830585 Z-0.125000
G01 X11.675896 Y208.042913 Z-0.125000
G01 X12.768836 Y208.690982 Z-0.125000
G01 X14.988872 Y210.452311 Z-0.125000
G01 X15.865515 Y211.040373 Z-0.125000
G01 X16.928080 Y211.493922 Z-0.125000
G01 X17.884416 Y211.591473 Z-0.125000
G01 X18.840725 Y211.377320 Z-0.125000
G01 X19.872969 Y210.834925 Z-0.125000
G01 X23.060718 Y208.234524 Z-0.125000
G01 X24.244726 Y207.461174 Z-0.125000
G01 X25.428735 Y207.039534 Z-0.125000
G01 X26.066301 Y206.985057 Z-0.125000
G01 X26.597584 Y207.034640 Z-0.125000
G01 X27.614641 Y207.357563 Z-0.125000
G01 X28.707580 Y207.990472 Z-0.125000
G01 X32.123003 Y210.783834 Z-0.125000
G01 X33.443642 Y211.681670 Z-0.125000
G01 X34.779469 Y212.249174 Z-0.125000
G01 X35.523291 Y212.387365 Z-0.125000
G01 X36.160830 Y212.400171 Z-0.125000
G01 X37.435935 Y212.143579 Z-0.125000
G01 X38.908366 Y211.441905 Z-0.125000
G01 X40.274540 Y210.513589 Z-0.125000
G01 X43.553359 Y207.997748 Z-0.125000
G01 X45.466003 Y206.852051 Z-0.125000
G01 X46.361616 Y206.482799 Z-0.125000
G01 X47.317952 Y206.225518 Z-0.125000
G01 X48.168004 Y206.119606 Z-0.125000
G01 X49.124339 Y206.137095 Z-0.125000
G01 X50.718214 Y206.465098 Z-0.125000
G01 X52.479066 Y207.188204 Z-0.125000
G01 X54.209545 Y208.153085 Z-0.125000
G01 X58.672399 Y210.929936 Z-0.125000
G01 X61.237769 Y212.206629 Z-0.125000
G01 X62.619130 Y212.706797 Z-0.125000
G01 X63.894235 Y213.039589 Z-0.125000
G01 X65.169314 Y213.249006 Z-0.125000
G01 X66.550675 Y213.343992 Z-0.125000
G01 X68.569576 Y213.265358 Z-0.125000
G01 X70.907272 Y212.921691 Z-0.125000
G01 X78.876645 Y210.988833 Z-0.125000
G01 X82.064393 Y210.355474 Z-0.125000
G01 X85.039603 Y209.984105 Z-0.125000
G01 X87.802326 Y209.865387 Z-0.125000
G01 X90.565048 Y209.983893 Z-0.125000
G01 X93.221488 Y210.330074 Z-0.125000
G01 X96.409237 Y211.031695 Z-0.125000
G01 X101.615886 Y212.559477 Z-0.125000
G01 X103.528557 Y213.038266 Z-0.125000
G01 X105.653714 Y213.331609 Z-0.125000
G01 X107.460102 Y213.269617 Z-0.125000
G01 X109.160233 Y212.874542 Z-0.125000
G01 X110.860364 Y212.123603 Z-0.125000
G01 X112.773008 Y210.891704 Z-0.125000
G01 X116.233991 Y208.164594 Z-0.125000
G01 X117.691262 Y207.153014 Z-0.125000
G01 X119.254762 Y206.393634 Z-0.125000
G01 X119.998584 Y206.192790 Z-0.125000
G01 X120.742380 Y206.111086 Z-0.125000
G01 X121.379919 Y206.140534 Z-0.125000
G01 X122.123741 Y206.292008 Z-0.125000
G01 X123.520263 Y206.899438 Z-0.125000
G01 X124.966156 Y207.895196 Z-0.125000
G01 X127.914802 Y210.407703 Z-0.125000
G01 X129.167152 Y211.341839 Z-0.125000
G01 X130.518140 Y212.062696 Z-0.125000
G01 X131.793245 Y212.384243 Z-0.125000
G01 X133.068349 Y212.324897 Z-0.125000
G01 X134.449684 Y211.857988 Z-0.125000
G01 X135.815859 Y211.072018 Z-0.125000
G01 X138.912538 Y208.822903 Z-0.125000
G01 X140.369782 Y207.912685 Z-0.125000
G01 X141.994030 Y207.233156 Z-0.125000
G01 X143.481648 Y206.989502 Z-0.125000
G01 X144.863010 Y207.085281 Z-0.125000
G01 X146.350628 Y207.481759 Z-0.125000
G01 X147.838219 Y208.093104 Z-0.125000
G01 X152.619842 Y210.353146 Z-0.125000
G01 X154.319973 Y210.939805 Z-0.125000
G01 X156.020104 Y211.334299 Z-0.125000
G01 X157.932775 Y211.557686 Z-0.125000
G01 X159.951676 Y211.587584 Z-0.125000
G01 X162.289346 Y211.447699 Z-0.125000
G01 X166.327173 Y211.045692 Z-0.125000
G00 Z3.000000

(End cutting path id: polyline34583)


(Start cutting path id: polyline34581)
(Change tool to Default tool)

G00 Z3.000000
G00 X9.490017 Y206.582997

G00 Z4.875000 (Fast pre-penetrate)
G01 Z-0.125000 F400.0(Penetrate)
G01 X10.127557 Y206.431364 Z-0.125000 F800.000000
G01 X10.658839 Y206.409906 Z-0.125000
G01 X11.190148 Y206.486874 Z-0.125000
G01 X11.827688 Y206.704123 Z-0.125000
G01 X12.951001 Y207.366771 Z-0.125000
G01 X15.148257 Y209.118151 Z-0.125000
G01 X16.047654 Y209.724205 Z-0.125000
G01 X17.034337 Y210.155608 Z-0.125000
G01 X17.990672 Y210.271125 Z-0.125000
G01 X18.946981 Y210.070359 Z-0.125000
G01 X19.964038 Y209.543760 Z-0.125000
G01 X20.965908 Y208.791153 Z-0.125000
G01 X23.197322 Y206.888458 Z-0.125000
G01 X24.335796 Y206.139370 Z-0.125000
G01 X25.428735 Y205.731992 Z-0.125000
G01 X26.066301 Y205.662036 Z-0.125000
G01 X26.597584 Y205.701432 Z-0.125000
G01 X27.614641 Y206.013138 Z-0.125000
G01 X28.707580 Y206.646232 Z-0.125000
G01 X32.123003 Y209.482456 Z-0.125000
G01 X33.443642 Y210.388494 Z-0.125000
G01 X34.779469 Y210.947425 Z-0.125000
G01 X35.417008 Y211.063154 Z-0.125000
G01 X36.054574 Y211.077203 Z-0.125000
G01 X37.329679 Y210.810742 Z-0.125000
G01 X38.726201 Y210.127324 Z-0.125000
G01 X40.092375 Y209.176571 Z-0.125000
G01 X43.280124 Y206.667028 Z-0.125000
G01 X45.101699 Y205.542709 Z-0.125000
G01 X46.042847 Y205.144750 Z-0.125000
G01 X46.892899 Y204.909615 Z-0.125000
G01 X47.742978 Y204.797194 Z-0.125000
G01 X48.699286 Y204.816191 Z-0.125000
G01 X50.293161 Y205.165520 Z-0.125000
G01 X52.023666 Y205.917491 Z-0.125000
G01 X53.663075 Y206.874620 Z-0.125000
G01 X57.852694 Y209.590803 Z-0.125000
G01 X60.387717 Y210.908558 Z-0.125000
G01 X61.662795 Y211.390046 Z-0.125000
G01 X62.831643 Y211.712017 Z-0.125000
G01 X64.106748 Y211.932283 Z-0.125000
G01 X65.381853 Y212.021712 Z-0.125000
G01 X67.507010 Y211.912413 Z-0.125000
G01 X69.844680 Y211.498181 Z-0.125000
G01 X72.076121 Y210.916760 Z-0.125000
G01 X78.026566 Y209.161199 Z-0.125000
G01 X81.533084 Y208.346786 Z-0.125000
G01 X84.720833 Y207.880803 Z-0.125000
G01 X87.908582 Y207.715703 Z-0.125000
G01 X90.990074 Y207.864081 Z-0.125000
G01 X94.071567 Y208.333187 Z-0.125000
G01 X97.471829 Y209.219011 Z-0.125000
G01 X102.784735 Y211.060323 Z-0.125000
G01 X104.697379 Y211.629679 Z-0.125000
G01 X106.822562 Y211.994618 Z-0.125000
G01 X108.628950 Y211.960037 Z-0.125000
G01 X110.222824 Y211.596395 Z-0.125000
G01 X111.862234 Y210.872046 Z-0.125000
G01 X113.683808 Y209.690339 Z-0.125000
G01 X117.235861 Y206.840753 Z-0.125000
G01 X118.693105 Y205.816209 Z-0.125000
G01 X120.211097 Y205.071804 Z-0.125000
G01 X120.954893 Y204.868975 Z-0.125000
G01 X121.698715 Y204.787827 Z-0.125000
G01 X122.336254 Y204.819366 Z-0.125000
G01 X123.080050 Y204.974729 Z-0.125000
G01 X124.431064 Y205.565516 Z-0.125000
G01 X125.842773 Y206.534578 Z-0.125000
G01 X128.711752 Y208.980542 Z-0.125000
G01 X129.986857 Y209.948413 Z-0.125000
G01 X131.368192 Y210.707422 Z-0.125000
G01 X132.643297 Y211.051698 Z-0.125000
G01 X133.918402 Y211.018916 Z-0.125000
G01 X135.269389 Y210.595398 Z-0.125000
G01 X136.726659 Y209.782678 Z-0.125000
G01 X139.914408 Y207.494591 Z-0.125000
G01 X141.371652 Y206.595009 Z-0.125000
G01 X142.950339 Y205.933207 Z-0.125000
G01 X143.694161 Y205.757101 Z-0.125000
G01 X144.544214 Y205.666534 Z-0.125000
G01 X145.925575 Y205.759059 Z-0.125000
G01 X147.413193 Y206.141910 Z-0.125000
G01 X148.900811 Y206.733809 Z-0.125000
G01 X153.682434 Y208.946384 Z-0.125000
G01 X155.382565 Y209.537568 Z-0.125000
G01 X156.976440 Y209.928834 Z-0.125000
G01 X158.782827 Y210.185373 Z-0.125000
G01 X160.801728 Y210.274194 Z-0.125000
G01 X163.033168 Y210.201804 Z-0.125000
G01 X166.327173 Y209.940131 Z-0.125000
G00 Z3.000000

(End cutting path id: polyline34581)


(Start cutting path id: polyline34579)
(Change tool to Default tool)

G00 Z3.000000
G00 X9.490017 Y205.315909

G00 Z4.875000 (Fast pre-penetrate)
G01 Z-0.125000 F400.0(Penetrate)
G01 X10.127557 Y205.132791 Z-0.125000 F800.000000
G01 X10.765122 Y205.084848 Z-0.125000
G01 X11.402661 Y205.178458 Z-0.125000
G01 X11.933944 Y205.361602 Z-0.125000
G01 X13.042071 Y206.003322 Z-0.125000
G01 X15.227949 Y207.748194 Z-0.125000
G01 X16.229819 Y208.428013 Z-0.125000
G01 X17.140594 Y208.825364 Z-0.125000
G01 X18.096929 Y208.948924 Z-0.125000
G01 X19.053264 Y208.752313 Z-0.125000
G01 X20.055108 Y208.233545 Z-0.125000
G01 X21.045601 Y207.487791 Z-0.125000
G01 X23.277014 Y205.566442 Z-0.125000
G01 X24.426892 Y204.804628 Z-0.125000
G01 X25.534992 Y204.398996 Z-0.125000
G01 X26.066301 Y204.339941 Z-0.125000
G01 X26.703840 Y204.389286 Z-0.125000
G01 X27.614641 Y204.677549 Z-0.125000
G01 X28.707580 Y205.314321 Z-0.125000
G01 X32.043310 Y208.127976 Z-0.125000
G01 X33.352573 Y209.049413 Z-0.125000
G01 X34.673212 Y209.619483 Z-0.125000
G01 X35.310752 Y209.739525 Z-0.125000
G01 X35.948317 Y209.753944 Z-0.125000
G01 X37.223422 Y209.476450 Z-0.125000
G01 X38.544035 Y208.813881 Z-0.125000
G01 X39.773605 Y207.948271 Z-0.125000
G01 X43.097985 Y205.277941 Z-0.125000
G01 X44.828464 Y204.197225 Z-0.125000
G01 X45.724077 Y203.813156 Z-0.125000
G01 X46.574129 Y203.576963 Z-0.125000
G01 X47.424208 Y203.470416 Z-0.125000
G01 X48.274260 Y203.492482 Z-0.125000
G01 X49.761878 Y203.819559 Z-0.125000
G01 X51.477196 Y204.578595 Z-0.125000
G01 X53.025536 Y205.507652 Z-0.125000
G01 X57.215128 Y208.318608 Z-0.125000
G01 X59.643895 Y209.620145 Z-0.125000
G01 X60.918999 Y210.111634 Z-0.125000
G01 X62.087848 Y210.431912 Z-0.125000
G01 X63.256670 Y210.626671 Z-0.125000
G01 X64.531774 Y210.701787 Z-0.125000
G01 X66.550675 Y210.558885 Z-0.125000
G01 X68.888372 Y210.076471 Z-0.125000
G01 X71.013529 Y209.444462 Z-0.125000
G01 X77.389027 Y207.313087 Z-0.125000
G01 X79.407927 Y206.750398 Z-0.125000
G01 X81.426828 Y206.291082 Z-0.125000
G01 X83.552011 Y205.931673 Z-0.125000
G01 X85.677168 Y205.705533 Z-0.125000
G01 X87.802326 Y205.616343 Z-0.125000
G01 X89.821226 Y205.662512 Z-0.125000
G01 X92.796462 Y205.976519 Z-0.125000
G01 X95.771698 Y206.603687 Z-0.125000
G01 X98.853190 Y207.581718 Z-0.125000
G01 X103.741070 Y209.527461 Z-0.125000
G01 X105.441201 Y210.126319 Z-0.125000
G01 X107.353845 Y210.585502 Z-0.125000
G01 X108.947720 Y210.700146 Z-0.125000
G01 X109.904028 Y210.620718 Z-0.125000
G01 X110.754107 Y210.446094 Z-0.125000
G01 X111.710442 Y210.127880 Z-0.125000
G01 X112.590869 Y209.721639 Z-0.125000
G01 X114.594582 Y208.435686 Z-0.125000
G01 X118.192197 Y205.504821 Z-0.125000
G01 X119.694975 Y204.443711 Z-0.125000
G01 X120.529867 Y203.991644 Z-0.125000
G01 X121.273663 Y203.696766 Z-0.125000
G01 X122.017485 Y203.517855 Z-0.125000
G01 X122.761280 Y203.464119 Z-0.125000
G01 X124.036385 Y203.672187 Z-0.125000
G01 X125.341838 Y204.257947 Z-0.125000
G01 X126.799108 Y205.270189 Z-0.125000
G01 X129.668061 Y207.718137 Z-0.125000
G01 X130.897631 Y208.642140 Z-0.125000
G01 X132.218271 Y209.367786 Z-0.125000
G01 X133.493376 Y209.722829 Z-0.125000
G01 X134.768480 Y209.704679 Z-0.125000
G01 X136.149815 Y209.286294 Z-0.125000
G01 X137.728529 Y208.409413 Z-0.125000
G01 X140.825182 Y206.201785 Z-0.125000
G01 X142.373522 Y205.256536 Z-0.125000
G01 X144.012931 Y204.590025 Z-0.125000
G01 X145.606805 Y204.342005 Z-0.125000
G01 X146.988167 Y204.440377 Z-0.125000
G01 X148.582041 Y204.854423 Z-0.125000
G01 X150.069659 Y205.444284 Z-0.125000
G01 X154.745026 Y207.566637 Z-0.125000
G01 X156.338900 Y208.124431 Z-0.125000
G01 X157.826492 Y208.511330 Z-0.125000
G01 X159.526649 Y208.794963 Z-0.125000
G01 X161.439293 Y208.936939 Z-0.125000
G01 X163.564451 Y208.929821 Z-0.125000
G01 X166.327173 Y208.771759 Z-0.125000
G00 Z3.000000

(End cutting path id: polyline34579)


(Start cutting path id: polyline34577)
(Change tool to Default tool)

G00 Z3.000000
G00 X9.490017 Y204.039798

G00 Z4.875000 (Fast pre-penetrate)
G01 Z-0.125000 F400.0(Penetrate)
G01 X10.127557 Y203.833662 Z-0.125000 F800.000000
G01 X10.765122 Y203.760161 Z-0.125000
G01 X11.402661 Y203.827920 Z-0.125000
G01 X12.040201 Y204.034030 Z-0.125000
G01 X13.224236 Y204.728825 Z-0.125000
G01 X15.410115 Y206.480471 Z-0.125000
G01 X16.320889 Y207.097055 Z-0.125000
G01 X17.246850 Y207.503481 Z-0.125000
G01 X18.203185 Y207.625665 Z-0.125000
G01 X19.159521 Y207.424079 Z-0.125000
G01 X20.146204 Y206.906396 Z-0.125000
G01 X21.125293 Y206.163394 Z-0.125000
G01 X23.277014 Y204.290279 Z-0.125000
G01 X24.426892 Y203.507537 Z-0.125000
G01 X25.534992 Y203.083542 Z-0.125000
G01 X26.066301 Y203.017952 Z-0.125000
G01 X26.703840 Y203.062270 Z-0.125000
G01 X27.614641 Y203.349078 Z-0.125000
G01 X28.707580 Y203.992544 Z-0.125000
G01 X32.043310 Y206.845013 Z-0.125000
G01 X33.261503 Y207.713692 Z-0.125000
G01 X34.566956 Y208.292494 Z-0.125000
G01 X35.735804 Y208.435845 Z-0.125000
G01 X36.373343 Y208.360174 Z-0.125000
G01 X37.010883 Y208.181237 Z-0.125000
G01 X38.361896 Y207.503534 Z-0.125000
G01 X39.614221 Y206.603502 Z-0.125000
G01 X42.824750 Y203.966033 Z-0.125000
G01 X44.464159 Y202.908044 Z-0.125000
G01 X45.299025 Y202.529082 Z-0.125000
G01 X46.149103 Y202.272013 Z-0.125000
G01 X46.999156 Y202.150967 Z-0.125000
G01 X47.849234 Y202.165519 Z-0.125000
G01 X49.336852 Y202.496750 Z-0.125000
G01 X51.021796 Y203.265258 Z-0.125000
G01 X52.570136 Y204.227361 Z-0.125000
G01 X56.577589 Y207.005853 Z-0.125000
G01 X58.945634 Y208.316862 Z-0.125000
G01 X60.175177 Y208.804647 Z-0.125000
G01 X61.344026 Y209.130375 Z-0.125000
G01 X62.512874 Y209.320134 Z-0.125000
G01 X63.681722 Y209.379004 Z-0.125000
G01 X65.700623 Y209.204485 Z-0.125000
G01 X67.932036 Y208.686961 Z-0.125000
G01 X70.057194 Y207.985657 Z-0.125000
G01 X76.538948 Y205.582926 Z-0.125000
G01 X78.664131 Y204.930517 Z-0.125000
G01 X80.789289 Y204.401139 Z-0.125000
G01 X83.020702 Y203.987755 Z-0.125000
G01 X85.358399 Y203.712588 Z-0.125000
G01 X87.696069 Y203.597627 Z-0.125000
G01 X89.927483 Y203.639484 Z-0.125000
G01 X93.327745 Y204.008895 Z-0.125000
G01 X96.515494 Y204.730863 Z-0.125000
G01 X99.703242 Y205.836105 Z-0.125000
G01 X104.697379 Y208.037383 Z-0.125000
G01 X106.397510 Y208.706751 Z-0.125000
G01 X108.310180 Y209.229726 Z-0.125000
G01 X110.010311 Y209.377602 Z-0.125000
G01 X110.966620 Y209.295105 Z-0.125000
G01 X111.816699 Y209.111008 Z-0.125000
G01 X112.666751 Y208.819543 Z-0.125000
G01 X113.592712 Y208.381896 Z-0.125000
G01 X115.482602 Y207.144098 Z-0.125000
G01 X119.068813 Y204.182726 Z-0.125000
G01 X120.514680 Y203.148286 Z-0.125000
G01 X121.334384 Y202.693759 Z-0.125000
G01 X122.123741 Y202.374354 Z-0.125000
G01 X122.867537 Y202.194517 Z-0.125000
G01 X123.611359 Y202.141230 Z-0.125000
G01 X124.886464 Y202.352314 Z-0.125000
G01 X126.252638 Y202.977894 Z-0.125000
G01 X127.596032 Y203.916291 Z-0.125000
G01 X130.465011 Y206.360879 Z-0.125000
G01 X131.717336 Y207.304276 Z-0.125000
G01 X133.083510 Y208.052411 Z-0.125000
G01 X134.343428 Y208.399518 Z-0.125000
G01 X134.980993 Y208.437644 Z-0.125000
G01 X135.724789 Y208.365730 Z-0.125000
G01 X137.090963 Y207.932290 Z-0.125000
G01 X138.548234 Y207.126238 Z-0.125000
G01 X141.827052 Y204.816640 Z-0.125000
G01 X143.284296 Y203.941241 Z-0.125000
G01 X144.969266 Y203.264014 Z-0.125000
G01 X146.563141 Y203.019328 Z-0.125000
G01 X148.050759 Y203.130453 Z-0.125000
G01 X149.644633 Y203.549738 Z-0.125000
G01 X151.132225 Y204.133540 Z-0.125000
G01 X155.701335 Y206.176756 Z-0.125000
G01 X157.188953 Y206.704228 Z-0.125000
G01 X158.676571 Y207.109490 Z-0.125000
G01 X160.376702 Y207.419740 Z-0.125000
G01 X162.076833 Y207.583067 Z-0.125000
G01 X163.989477 Y207.627411 Z-0.125000
G01 X166.327173 Y207.548777 Z-0.125000
G00 Z3.000000

(End cutting path id: polyline34577)


(Start cutting path id: polyline34575)
(Change tool to Default tool)

G00 Z3.000000
G00 X9.490017 Y202.751279

G00 Z4.875000 (Fast pre-penetrate)
G01 Z-0.125000 F400.0(Penetrate)
G01 X10.127557 Y202.529955 Z-0.125000 F800.000000
G01 X10.765122 Y202.438859 Z-0.125000
G01 X11.402661 Y202.488204 Z-0.125000
G01 X12.040201 Y202.676799 Z-0.125000
G01 X13.315305 Y203.411255 Z-0.125000
G01 X15.501184 Y205.166313 Z-0.125000
G01 X16.411985 Y205.781866 Z-0.125000
G01 X17.353133 Y206.189615 Z-0.125000
G01 X18.309442 Y206.301136 Z-0.125000
G01 X19.265777 Y206.085924 Z-0.125000
G01 X20.237273 Y205.563955 Z-0.125000
G01 X21.125293 Y204.887549 Z-0.125000
G01 X23.356707 Y202.935879 Z-0.125000
G01 X24.517961 Y202.151893 Z-0.125000
G01 X25.641275 Y201.743773 Z-0.125000
G01 X26.703840 Y201.737715 Z-0.125000
G01 X27.614641 Y202.026348 Z-0.125000
G01 X28.696177 Y202.670608 Z-0.125000
G01 X31.963618 Y205.501857 Z-0.125000
G01 X33.170408 Y206.379585 Z-0.125000
G01 X34.460699 Y206.965610 Z-0.125000
G01 X35.629548 Y207.112745 Z-0.125000
G01 X36.267087 Y207.034084 Z-0.125000
G01 X36.904626 Y206.848823 Z-0.125000
G01 X38.270800 Y206.139106 Z-0.125000
G01 X39.534528 Y205.200947 Z-0.125000
G01 X42.562892 Y202.658993 Z-0.125000
G01 X44.281994 Y201.536102 Z-0.125000
G01 X45.086511 Y201.175238 Z-0.125000
G01 X45.936590 Y200.927323 Z-0.125000
G01 X46.680386 Y200.827231 Z-0.125000
G01 X47.530465 Y200.846017 Z-0.125000
G01 X49.018083 Y201.198362 Z-0.125000
G01 X50.566396 Y201.928056 Z-0.125000
G01 X52.114736 Y202.915506 Z-0.125000
G01 X56.031120 Y205.709582 Z-0.125000
G01 X58.308068 Y207.006065 Z-0.125000
G01 X59.431382 Y207.468371 Z-0.125000
G01 X60.600230 Y207.808492 Z-0.125000
G01 X61.769052 Y208.002484 Z-0.125000
G01 X62.937900 Y208.055295 Z-0.125000
G01 X64.956801 Y207.848285 Z-0.125000
G01 X67.081984 Y207.303906 Z-0.125000
G01 X69.100885 Y206.580457 Z-0.125000
G01 X75.688896 Y203.924784 Z-0.125000
G01 X77.920309 Y203.185301 Z-0.125000
G01 X80.151749 Y202.591418 Z-0.125000
G01 X82.595676 Y202.115089 Z-0.125000
G01 X85.039603 Y201.814470 Z-0.125000
G01 X87.589812 Y201.678025 Z-0.125000
G01 X90.140022 Y201.720278 Z-0.125000
G01 X92.052666 Y201.876171 Z-0.125000
G01 X93.859054 Y202.131970 Z-0.125000
G01 X95.559185 Y202.479817 Z-0.125000
G01 X97.259316 Y202.940985 Z-0.125000
G01 X100.553321 Y204.166163 Z-0.125000
G01 X105.668901 Y206.610513 Z-0.125000
G01 X107.460102 Y207.367247 Z-0.125000
G01 X109.266489 Y207.892682 Z-0.125000
G01 X110.966620 Y208.054898 Z-0.125000
G01 X111.816699 Y207.986556 Z-0.125000
G01 X112.666751 Y207.808862 Z-0.125000
G01 X113.516830 Y207.519250 Z-0.125000
G01 X114.412417 Y207.095256 Z-0.125000
G01 X116.279526 Y205.865765 Z-0.125000
G01 X119.786045 Y202.938604 Z-0.125000
G01 X121.334384 Y201.815872 Z-0.125000
G01 X122.154089 Y201.361028 Z-0.125000
G01 X122.973794 Y201.034241 Z-0.125000
G01 X123.717616 Y200.863030 Z-0.125000
G01 X124.461411 Y200.819744 Z-0.125000
G01 X125.736516 Y201.049349 Z-0.125000
G01 X126.981247 Y201.621060 Z-0.125000
G01 X128.392983 Y202.601816 Z-0.125000
G01 X131.261935 Y205.042197 Z-0.125000
G01 X132.537040 Y205.997369 Z-0.125000
G01 X133.918402 Y206.743228 Z-0.125000
G01 X135.193506 Y207.082132 Z-0.125000
G01 X136.468611 Y207.054880 Z-0.125000
G01 X137.849946 Y206.637210 Z-0.125000
G01 X139.367938 Y205.811446 Z-0.125000
G01 X142.646757 Y203.520131 Z-0.125000
G01 X144.195096 Y202.599303 Z-0.125000
G01 X145.925575 Y201.923240 Z-0.125000
G01 X147.519449 Y201.695117 Z-0.125000
G01 X149.007067 Y201.813121 Z-0.125000
G01 X150.600942 Y202.230395 Z-0.125000
G01 X152.088560 Y202.807053 Z-0.125000
G01 X156.551414 Y204.781610 Z-0.125000
G01 X158.039031 Y205.314612 Z-0.125000
G01 X159.420366 Y205.705137 Z-0.125000
G01 X161.014241 Y206.025441 Z-0.125000
G01 X162.608115 Y206.216020 Z-0.125000
G01 X164.308246 Y206.299681 Z-0.125000
G01 X166.327173 Y206.281451 Z-0.125000
G00 Z3.000000

(End cutting path id: polyline34575)


(Start cutting path id: polyline34573)
(Change tool to Default tool)

G00 Z3.000000
G00 X9.490017 Y201.448446

G00 Z4.875000 (Fast pre-penetrate)
G01 Z-0.125000 F400.0(Penetrate)
G01 X10.233813 Y201.193256 Z-0.125000 F800.000000
G01 X10.871379 Y201.114701 Z-0.125000
G01 X11.508918 Y201.176296 Z-0.125000
G01 X12.131297 Y201.369680 Z-0.125000
G01 X13.315305 Y202.050213 Z-0.125000
G01 X15.546719 Y203.837974 Z-0.125000
G01 X16.411985 Y204.428920 Z-0.125000
G01 X17.459390 Y204.882257 Z-0.125000
G01 X18.415698 Y204.974438 Z-0.125000
G01 X19.372034 Y204.738059 Z-0.125000
G01 X20.328342 Y204.207412 Z-0.125000
G01 X21.204985 Y203.528148 Z-0.125000
G01 X23.356707 Y201.632278 Z-0.125000
G01 X24.517961 Y200.837603 Z-0.125000
G01 X25.641275 Y200.422234 Z-0.125000
G01 X26.703840 Y200.415117 Z-0.125000
G01 X27.614641 Y200.708063 Z-0.125000
G01 X28.696177 Y201.362774 Z-0.125000
G01 X31.883926 Y204.160184 Z-0.125000
G01 X33.079338 Y205.045346 Z-0.125000
G01 X34.354443 Y205.637906 Z-0.125000
G01 X35.523291 Y205.789750 Z-0.125000
G01 X36.160830 Y205.709105 Z-0.125000
G01 X36.798370 Y205.518658 Z-0.125000
G01 X38.088662 Y204.839500 Z-0.125000
G01 X39.295451 Y203.937219 Z-0.125000
G01 X42.403508 Y201.289273 Z-0.125000
G01 X44.008759 Y200.224564 Z-0.125000
G01 X44.873998 Y199.831632 Z-0.125000
G01 X45.617821 Y199.611737 Z-0.125000
G01 X46.361616 Y199.505534 Z-0.125000
G01 X47.211695 Y199.522890 Z-0.125000
G01 X48.593030 Y199.848116 Z-0.125000
G01 X50.202091 Y200.617523 Z-0.125000
G01 X51.659362 Y201.568567 Z-0.125000
G01 X55.575719 Y204.431884 Z-0.125000
G01 X57.761598 Y205.702941 Z-0.125000
G01 X58.900099 Y206.177973 Z-0.125000
G01 X60.068921 Y206.514734 Z-0.125000
G01 X61.131512 Y206.685893 Z-0.125000
G01 X62.300361 Y206.730528 Z-0.125000
G01 X64.213005 Y206.510977 Z-0.125000
G01 X66.338162 Y205.925323 Z-0.125000
G01 X68.357063 Y205.146761 Z-0.125000
G01 X74.945073 Y202.304795 Z-0.125000
G01 X77.282770 Y201.487101 Z-0.125000
G01 X79.514184 Y200.866919 Z-0.125000
G01 X82.170650 Y200.334472 Z-0.125000
G01 X84.827090 Y200.007765 Z-0.125000
G01 X87.589813 Y199.862879 Z-0.125000
G01 X90.352535 Y199.907012 Z-0.125000
G01 X92.371436 Y200.067164 Z-0.125000
G01 X94.284080 Y200.333890 Z-0.125000
G01 X96.090467 Y200.704994 Z-0.125000
G01 X97.896855 Y201.207384 Z-0.125000
G01 X99.596986 Y201.808808 Z-0.125000
G01 X101.388213 Y202.574511 Z-0.125000
G01 X106.488606 Y205.173933 Z-0.125000
G01 X108.203897 Y205.953395 Z-0.125000
G01 X110.116568 Y206.555983 Z-0.125000
G01 X111.816699 Y206.732380 Z-0.125000
G01 X112.666751 Y206.664012 Z-0.125000
G01 X113.516830 Y206.481820 Z-0.125000
G01 X115.141052 Y205.814251 Z-0.125000
G01 X117.053696 Y204.548644 Z-0.125000
G01 X120.582995 Y201.579150 Z-0.125000
G01 X122.063019 Y200.502006 Z-0.125000
G01 X122.882724 Y200.043590 Z-0.125000
G01 X123.717616 Y199.709421 Z-0.125000
G01 X124.461411 Y199.538924 Z-0.125000
G01 X125.205234 Y199.497146 Z-0.125000
G01 X126.374056 Y199.696245 Z-0.125000
G01 X127.709882 Y200.295817 Z-0.125000
G01 X129.110214 Y201.265831 Z-0.125000
G01 X131.979193 Y203.700100 Z-0.125000
G01 X133.265675 Y204.663632 Z-0.125000
G01 X134.662197 Y205.417720 Z-0.125000
G01 X135.937302 Y205.757656 Z-0.125000
G01 X137.212407 Y205.734929 Z-0.125000
G01 X138.593768 Y205.325566 Z-0.125000
G01 X140.187643 Y204.463554 Z-0.125000
G01 X143.466461 Y202.186606 Z-0.125000
G01 X145.014801 Y201.274033 Z-0.125000
G01 X146.669397 Y200.623423 Z-0.125000
G01 X147.519449 Y200.443930 Z-0.125000
G01 X148.369528 Y200.372069 Z-0.125000
G01 X149.857146 Y200.488803 Z-0.125000
G01 X151.451021 Y200.900256 Z-0.125000
G01 X153.044895 Y201.513480 Z-0.125000
G01 X157.401466 Y203.426468 Z-0.125000
G01 X160.164189 Y204.328035 Z-0.125000
G01 X161.545550 Y204.627252 Z-0.125000
G01 X163.033168 Y204.839368 Z-0.125000
G01 X166.327173 Y204.980655 Z-0.125000
G00 Z3.000000

(End cutting path id: polyline34573)


(Start cutting path id: polyline34571)
(Change tool to Default tool)

G00 Z3.000000
G00 X9.490017 Y200.130637

G00 Z4.875000 (Fast pre-penetrate)
G01 Z-0.125000 F400.0(Penetrate)
G01 X10.233813 Y199.873754 Z-0.125000 F800.000000
G01 X10.871379 Y199.792103 Z-0.125000
G01 X11.508918 Y199.849386 Z-0.125000
G01 X12.131297 Y200.037954 Z-0.125000
G01 X13.394998 Y200.766245 Z-0.125000
G01 X15.626411 Y202.554773 Z-0.125000
G01 X16.503054 Y203.142042 Z-0.125000
G01 X17.459390 Y203.551854 Z-0.125000
G01 X18.415698 Y203.653454 Z-0.125000
G01 X19.372034 Y203.425304 Z-0.125000
G01 X20.328342 Y202.899895 Z-0.125000
G01 X21.204985 Y202.222034 Z-0.125000
G01 X23.356707 Y200.317989 Z-0.125000
G01 X24.517961 Y199.517096 Z-0.125000
G01 X25.641275 Y199.098843 Z-0.125000
G01 X26.703840 Y199.093948 Z-0.125000
G01 X27.614641 Y199.393059 Z-0.125000
G01 X28.696177 Y200.058988 Z-0.125000
G01 X31.804233 Y202.817689 Z-0.125000
G01 X33.079338 Y203.765452 Z-0.125000
G01 X34.354443 Y204.339147 Z-0.125000
G01 X35.523291 Y204.461755 Z-0.125000
G01 X36.692113 Y204.192410 Z-0.125000
G01 X37.997566 Y203.488857 Z-0.125000
G01 X39.136066 Y202.622665 Z-0.125000
G01 X42.164430 Y199.999431 Z-0.125000
G01 X43.735524 Y198.928266 Z-0.125000
G01 X44.555229 Y198.539276 Z-0.125000
G01 X45.299025 Y198.304115 Z-0.125000
G01 X46.042847 Y198.186455 Z-0.125000
G01 X46.892899 Y198.196245 Z-0.125000
G01 X48.274260 Y198.521523 Z-0.125000
G01 X49.837787 Y199.280056 Z-0.125000
G01 X51.295031 Y200.250467 Z-0.125000
G01 X55.120345 Y203.111773 Z-0.125000
G01 X57.306224 Y204.408548 Z-0.125000
G01 X58.368790 Y204.859741 Z-0.125000
G01 X59.431382 Y205.177664 Z-0.125000
G01 X60.493973 Y205.359776 Z-0.125000
G01 X61.662795 Y205.407481 Z-0.125000
G01 X63.575439 Y205.173722 Z-0.125000
G01 X65.594366 Y204.587908 Z-0.125000
G01 X67.613267 Y203.768336 Z-0.125000
G01 X74.201278 Y200.763441 Z-0.125000
G01 X76.538948 Y199.903572 Z-0.125000
G01 X78.876645 Y199.227563 Z-0.125000
G01 X81.639341 Y198.661858 Z-0.125000
G01 X84.508320 Y198.309195 Z-0.125000
G01 X87.589812 Y198.152350 Z-0.125000
G01 X90.671305 Y198.203388 Z-0.125000
G01 X92.902719 Y198.381876 Z-0.125000
G01 X94.921619 Y198.668790 Z-0.125000
G01 X96.834290 Y199.074713 Z-0.125000
G01 X98.640677 Y199.598270 Z-0.125000
G01 X100.340808 Y200.226681 Z-0.125000
G01 X102.116821 Y201.021674 Z-0.125000
G01 X107.308310 Y203.801250 Z-0.125000
G01 X109.053976 Y204.626643 Z-0.125000
G01 X110.860364 Y205.218410 Z-0.125000
G01 X111.710442 Y205.364989 Z-0.125000
G01 X112.560495 Y205.409915 Z-0.125000
G01 X113.410573 Y205.343399 Z-0.125000
G01 X114.260626 Y205.159619 Z-0.125000
G01 X115.869687 Y204.489669 Z-0.125000
G01 X117.691262 Y203.279307 Z-0.125000
G01 X121.220534 Y200.294838 Z-0.125000
G01 X122.700559 Y199.205920 Z-0.125000
G01 X123.520263 Y198.740412 Z-0.125000
G01 X124.355155 Y198.398836 Z-0.125000
G01 X125.098977 Y198.221645 Z-0.125000
G01 X125.842773 Y198.173173 Z-0.125000
G01 X127.117878 Y198.394973 Z-0.125000
G01 X128.347448 Y198.950624 Z-0.125000
G01 X129.747753 Y199.911007 Z-0.125000
G01 X132.616733 Y202.337762 Z-0.125000
G01 X133.903215 Y203.305766 Z-0.125000
G01 X135.299763 Y204.071046 Z-0.125000
G01 X136.574868 Y204.426380 Z-0.125000
G01 X137.212407 Y204.469269 Z-0.125000
G01 X137.956203 Y204.406061 Z-0.125000
G01 X139.337564 Y203.990004 Z-0.125000
G01 X140.916278 Y203.137253 Z-0.125000
G01 X144.195096 Y200.872687 Z-0.125000
G01 X145.743436 Y199.962786 Z-0.125000
G01 X147.413193 Y199.305615 Z-0.125000
G01 X148.263272 Y199.124561 Z-0.125000
G01 X149.113324 Y199.049816 Z-0.125000
G01 X150.600942 Y199.159327 Z-0.125000
G01 X152.301073 Y199.596444 Z-0.125000
G01 X153.788691 Y200.166091 Z-0.125000
G01 X158.039031 Y202.030290 Z-0.125000
G01 X160.695471 Y202.927042 Z-0.125000
G01 X163.351937 Y203.455969 Z-0.125000
G01 X166.327173 Y203.656973 Z-0.125000
G00 Z3.000000

(End cutting path id: polyline34571)


(Start cutting path id: polyline34569)
(Change tool to Default tool)

G00 Z3.000000
G00 X9.490017 Y198.798144

G00 Z4.875000 (Fast pre-penetrate)
G01 Z-0.125000 F400.0(Penetrate)
G01 X10.233813 Y198.546949 Z-0.125000 F800.000000
G01 X10.871379 Y198.468950 Z-0.125000
G01 X11.508918 Y198.528481 Z-0.125000
G01 X12.131297 Y198.717896 Z-0.125000
G01 X13.406375 Y199.452882 Z-0.125000
G01 X15.626411 Y201.228472 Z-0.125000
G01 X16.503054 Y201.815687 Z-0.125000
G01 X17.459390 Y202.226981 Z-0.125000
G01 X18.415698 Y202.331015 Z-0.125000
G01 X19.372034 Y202.105353 Z-0.125000
G01 X20.328342 Y201.581399 Z-0.125000
G01 X21.204985 Y200.903484 Z-0.125000
G01 X23.356707 Y198.994677 Z-0.125000
G01 X24.517961 Y198.191509 Z-0.125000
G01 X25.641275 Y197.774050 Z-0.125000
G01 X26.703840 Y197.773891 Z-0.125000
G01 X27.614641 Y198.080198 Z-0.125000
G01 X28.616484 Y198.698053 Z-0.125000
G01 X31.804233 Y201.539754 Z-0.125000
G01 X32.988269 Y202.426001 Z-0.125000
G01 X34.248186 Y203.007925 Z-0.125000
G01 X34.885726 Y203.130585 Z-0.125000
G01 X35.417008 Y203.139899 Z-0.125000
G01 X36.585857 Y202.871347 Z-0.125000
G01 X37.906496 Y202.148268 Z-0.125000
G01 X39.056374 Y201.256464 Z-0.125000
G01 X41.925327 Y198.730676 Z-0.125000
G01 X43.553359 Y197.598896 Z-0.125000
G01 X44.342716 Y197.218822 Z-0.125000
G01 X45.086511 Y196.979904 Z-0.125000
G01 X45.830334 Y196.862217 Z-0.125000
G01 X46.680386 Y196.876452 Z-0.125000
G01 X48.061747 Y197.218505 Z-0.125000
G01 X49.564552 Y197.969418 Z-0.125000
G01 X51.021796 Y198.961472 Z-0.125000
G01 X54.756015 Y201.809813 Z-0.125000
G01 X56.850824 Y203.078542 Z-0.125000
G01 X57.943764 Y203.551722 Z-0.125000
G01 X59.006355 Y203.870280 Z-0.125000
G01 X60.068921 Y204.046519 Z-0.125000
G01 X61.131512 Y204.084195 Z-0.125000
G01 X62.937900 Y203.858903 Z-0.125000
G01 X64.956801 Y203.255733 Z-0.125000
G01 X66.960541 Y202.408300 Z-0.125000
G01 X71.514464 Y200.181411 Z-0.125000
G01 X73.669995 Y199.214519 Z-0.125000
G01 X76.007665 Y198.330759 Z-0.125000
G01 X78.345335 Y197.643240 Z-0.125000
G01 X81.108058 Y197.074016 Z-0.125000
G01 X84.189551 Y196.701086 Z-0.125000
G01 X87.589813 Y196.537733 Z-0.125000
G01 X90.990074 Y196.594856 Z-0.125000
G01 X93.221488 Y196.765671 Z-0.125000
G01 X95.346672 Y197.056395 Z-0.125000
G01 X97.259316 Y197.454195 Z-0.125000
G01 X99.171960 Y198.008020 Z-0.125000
G01 X100.872091 Y198.646089 Z-0.125000
G01 X102.663291 Y199.466746 Z-0.125000
G01 X107.945850 Y202.399251 Z-0.125000
G01 X109.691515 Y203.259649 Z-0.125000
G01 X111.604186 Y203.904358 Z-0.125000
G01 X112.454238 Y204.048106 Z-0.125000
G01 X113.304317 Y204.085942 Z-0.125000
G01 X114.154369 Y204.008683 Z-0.125000
G01 X114.898191 Y203.842657 Z-0.125000
G01 X116.507226 Y203.169929 Z-0.125000
G01 X118.351581 Y201.933453 Z-0.125000
G01 X121.858100 Y198.954910 Z-0.125000
G01 X123.338124 Y197.868029 Z-0.125000
G01 X124.157829 Y197.405538 Z-0.125000
G01 X124.992721 Y197.068036 Z-0.125000
G01 X125.736516 Y196.895025 Z-0.125000
G01 X126.480339 Y196.850893 Z-0.125000
G01 X127.649160 Y197.046049 Z-0.125000
G01 X128.984987 Y197.639879 Z-0.125000
G01 X130.385319 Y198.602274 Z-0.125000
G01 X133.254298 Y201.022996 Z-0.125000
G01 X134.540780 Y201.986502 Z-0.125000
G01 X135.937302 Y202.748210 Z-0.125000
G01 X137.212407 Y203.102778 Z-0.125000
G01 X137.849946 Y203.146381 Z-0.125000
G01 X138.593768 Y203.084918 Z-0.125000
G01 X139.975130 Y202.674312 Z-0.125000
G01 X141.553817 Y201.829604 Z-0.125000
G01 X144.923732 Y199.515932 Z-0.125000
G01 X146.472045 Y198.617487 Z-0.125000
G01 X148.157015 Y197.968386 Z-0.125000
G01 X149.007067 Y197.794449 Z-0.125000
G01 X149.857146 Y197.725790 Z-0.125000
G01 X151.344764 Y197.843450 Z-0.125000
G01 X153.044895 Y198.285621 Z-0.125000
G01 X154.532486 Y198.857358 Z-0.125000
G01 X158.782827 Y200.721345 Z-0.125000
G01 X161.226780 Y201.558645 Z-0.125000
G01 X163.670707 Y202.083472 Z-0.125000
G01 X166.327173 Y202.319903 Z-0.125000
G00 Z3.000000

(End cutting path id: polyline34569)


(Start cutting path id: polyline34567)
(Change tool to Default tool)

G00 Z3.000000
G00 X9.490017 Y197.452131

G00 Z4.875000 (Fast pre-penetrate)
G01 Z-0.125000 F400.0(Penetrate)
G01 X10.233813 Y197.213636 Z-0.125000 F800.000000
G01 X10.871379 Y197.145665 Z-0.125000
G01 X11.508918 Y197.213557 Z-0.125000
G01 X12.131297 Y197.409084 Z-0.125000
G01 X13.406375 Y198.149678 Z-0.125000
G01 X15.546719 Y199.858117 Z-0.125000
G01 X16.411985 Y200.448772 Z-0.125000
G01 X17.459390 Y200.907294 Z-0.125000
G01 X18.415698 Y201.007465 Z-0.125000
G01 X19.372034 Y200.779077 Z-0.125000
G01 X20.328342 Y200.253298 Z-0.125000
G01 X21.204985 Y199.574193 Z-0.125000
G01 X23.356707 Y197.664009 Z-0.125000
G01 X24.517961 Y196.862085 Z-0.125000
G01 X25.534992 Y196.469497 Z-0.125000
G01 X26.597584 Y196.436212 Z-0.125000
G01 X27.523545 Y196.724819 Z-0.125000
G01 X28.616484 Y197.395669 Z-0.125000
G01 X31.724541 Y200.188899 Z-0.125000
G01 X32.988269 Y201.137667 Z-0.125000
G01 X34.141930 Y201.672865 Z-0.125000
G01 X34.779469 Y201.803940 Z-0.125000
G01 X35.310752 Y201.818783 Z-0.125000
G01 X36.479600 Y201.556528 Z-0.125000
G01 X37.724331 Y200.882900 Z-0.125000
G01 X38.896989 Y199.975327 Z-0.125000
G01 X41.845634 Y197.356299 Z-0.125000
G01 X43.371220 Y196.287225 Z-0.125000
G01 X44.236459 Y195.869608 Z-0.125000
G01 X44.980255 Y195.639235 Z-0.125000
G01 X45.724077 Y195.533561 Z-0.125000
G01 X46.467873 Y195.552558 Z-0.125000
G01 X47.849234 Y195.899452 Z-0.125000
G01 X49.382387 Y196.685290 Z-0.125000
G01 X50.748561 Y197.634376 Z-0.125000
G01 X54.391710 Y200.461631 Z-0.125000
G01 X56.486520 Y201.757029 Z-0.125000
G01 X57.518737 Y202.214731 Z-0.125000
G01 X58.581303 Y202.543502 Z-0.125000
G01 X59.643895 Y202.724133 Z-0.125000
G01 X60.706486 Y202.760460 Z-0.125000
G01 X62.512874 Y202.520404 Z-0.125000
G01 X64.531774 Y201.886172 Z-0.125000
G01 X66.414071 Y201.058371 Z-0.125000
G01 X70.967994 Y198.749488 Z-0.125000
G01 X73.138686 Y197.743226 Z-0.125000
G01 X75.582639 Y196.799352 Z-0.125000
G01 X77.920309 Y196.108791 Z-0.125000
G01 X80.789289 Y195.528401 Z-0.125000
G01 X83.977037 Y195.163383 Z-0.125000
G01 X87.696069 Y195.004448 Z-0.125000
G01 X91.415101 Y195.073424 Z-0.125000
G01 X93.859054 Y195.263818 Z-0.125000
G01 X95.984211 Y195.561527 Z-0.125000
G01 X97.896855 Y195.969038 Z-0.125000
G01 X99.809499 Y196.538738 Z-0.125000
G01 X101.509630 Y197.196994 Z-0.125000
G01 X103.300857 Y198.044639 Z-0.125000
G01 X108.492319 Y201.013313 Z-0.125000
G01 X110.222824 Y201.894083 Z-0.125000
G01 X112.135468 Y202.565304 Z-0.125000
G01 X112.985521 Y202.718312 Z-0.125000
G01 X113.835599 Y202.763926 Z-0.125000
G01 X114.685652 Y202.692753 Z-0.125000
G01 X115.429474 Y202.530670 Z-0.125000
G01 X117.053696 Y201.854396 Z-0.125000
G01 X118.829736 Y200.668349 Z-0.125000
G01 X122.336254 Y197.687160 Z-0.125000
G01 X123.884594 Y196.544665 Z-0.125000
G01 X124.704299 Y196.082332 Z-0.125000
G01 X125.524003 Y195.749831 Z-0.125000
G01 X126.267799 Y195.574492 Z-0.125000
G01 X127.011621 Y195.527502 Z-0.125000
G01 X128.286726 Y195.750175 Z-0.125000
G01 X129.531457 Y196.312678 Z-0.125000
G01 X130.943166 Y197.279544 Z-0.125000
G01 X133.812145 Y199.693308 Z-0.125000
G01 X135.087250 Y200.647527 Z-0.125000
G01 X136.468611 Y201.406695 Z-0.125000
G01 X137.743690 Y201.772772 Z-0.125000
G01 X138.381255 Y201.823307 Z-0.125000
G01 X139.125051 Y201.770576 Z-0.125000
G01 X140.612669 Y201.331659 Z-0.125000
G01 X142.191356 Y200.481157 Z-0.125000
G01 X145.470201 Y198.233207 Z-0.125000
G01 X147.018515 Y197.327486 Z-0.125000
G01 X148.688298 Y196.668595 Z-0.125000
G01 X149.538350 Y196.484313 Z-0.125000
G01 X150.388429 Y196.405203 Z-0.125000
G01 X151.982303 Y196.523683 Z-0.125000
G01 X153.682434 Y196.969135 Z-0.125000
G01 X155.170052 Y197.543704 Z-0.125000
G01 X159.314110 Y199.373692 Z-0.125000
G01 X161.758063 Y200.226125 Z-0.125000
G01 X163.989477 Y200.728463 Z-0.125000
G01 X166.327173 Y200.977435 Z-0.125000
G00 Z3.000000

(End cutting path id: polyline34567)


(Start cutting path id: polyline34565)
(Change tool to Default tool)

G00 Z3.000000
G00 X9.490017 Y196.094503

G00 Z4.875000 (Fast pre-penetrate)
G01 Z-0.125000 F400.0(Penetrate)
G01 X10.127557 Y195.896542 Z-0.125000 F800.000000
G01 X10.765122 Y195.822856 Z-0.125000
G01 X11.402661 Y195.882466 Z-0.125000
G01 X12.040201 Y196.074289 Z-0.125000
G01 X13.315305 Y196.799114 Z-0.125000
G01 X15.501184 Y198.529513 Z-0.125000
G01 X16.411985 Y199.145489 Z-0.125000
G01 X17.459390 Y199.592132 Z-0.125000
G01 X18.415698 Y199.682725 Z-0.125000
G01 X19.372034 Y199.447087 Z-0.125000
G01 X20.328342 Y198.916757 Z-0.125000
G01 X21.204985 Y198.235720 Z-0.125000
G01 X23.356707 Y196.327707 Z-0.125000
G01 X24.426892 Y195.580683 Z-0.125000
G01 X25.534992 Y195.142745 Z-0.125000
G01 X26.066301 Y195.079430 Z-0.125000
G01 X26.597584 Y195.116419 Z-0.125000
G01 X27.523545 Y195.412064 Z-0.125000
G01 X28.525415 Y196.024018 Z-0.125000
G01 X29.493127 Y196.823958 Z-0.125000
G01 X31.724541 Y198.898792 Z-0.125000
G01 X32.897173 Y199.785701 Z-0.125000
G01 X34.035673 Y200.332832 Z-0.125000
G01 X34.673212 Y200.475045 Z-0.125000
G01 X35.204495 Y200.498090 Z-0.125000
G01 X36.373343 Y200.248694 Z-0.125000
G01 X37.633261 Y199.569616 Z-0.125000
G01 X38.896989 Y198.577694 Z-0.125000
G01 X41.765942 Y196.006265 Z-0.125000
G01 X43.280124 Y194.943064 Z-0.125000
G01 X44.023946 Y194.577331 Z-0.125000
G01 X44.767742 Y194.332407 Z-0.125000
G01 X45.511564 Y194.214561 Z-0.125000
G01 X46.255360 Y194.224430 Z-0.125000
G01 X47.636721 Y194.562991 Z-0.125000
G01 X49.109152 Y195.313348 Z-0.125000
G01 X50.532265 Y196.308233 Z-0.125000
G01 X54.118476 Y199.130302 Z-0.125000
G01 X56.213285 Y200.443771 Z-0.125000
G01 X57.199968 Y200.887795 Z-0.125000
G01 X58.262533 Y201.222122 Z-0.125000
G01 X59.218868 Y201.392354 Z-0.125000
G01 X60.281434 Y201.439265 Z-0.125000
G01 X62.087848 Y201.204500 Z-0.125000
G01 X64.000492 Y200.601278 Z-0.125000
G01 X65.958671 Y199.724846 Z-0.125000
G01 X70.512594 Y197.351193 Z-0.125000
G01 X72.713660 Y196.305085 Z-0.125000
G01 X75.157586 Y195.343722 Z-0.125000
G01 X77.601540 Y194.619876 Z-0.125000
G01 X80.576776 Y194.035280 Z-0.125000
G01 X83.870781 Y193.684866 Z-0.125000
G01 X87.802326 Y193.539081 Z-0.125000
G01 X91.840153 Y193.619012 Z-0.125000
G01 X94.284080 Y193.807262 Z-0.125000
G01 X96.409237 Y194.101346 Z-0.125000
G01 X98.428164 Y194.534257 Z-0.125000
G01 X100.234552 Y195.078822 Z-0.125000
G01 X101.934683 Y195.743137 Z-0.125000
G01 X103.756231 Y196.617981 Z-0.125000
G01 X108.947720 Y199.644493 Z-0.125000
G01 X110.769294 Y200.585456 Z-0.125000
G01 X112.666751 Y201.250485 Z-0.125000
G01 X113.516830 Y201.400001 Z-0.125000
G01 X114.366882 Y201.440191 Z-0.125000
G01 X115.216961 Y201.362086 Z-0.125000
G01 X115.960757 Y201.192938 Z-0.125000
G01 X116.810835 Y200.884355 Z-0.125000
G01 X117.600166 Y200.491873 Z-0.125000
G01 X119.387583 Y199.278733 Z-0.125000
G01 X122.814409 Y196.359218 Z-0.125000
G01 X124.339994 Y195.233815 Z-0.125000
G01 X125.159699 Y194.769604 Z-0.125000
G01 X125.949029 Y194.443876 Z-0.125000
G01 X126.692852 Y194.259937 Z-0.125000
G01 X127.436647 Y194.203528 Z-0.125000
G01 X128.711752 Y194.408660 Z-0.125000
G01 X130.077926 Y195.023471 Z-0.125000
G01 X131.421347 Y195.945225 Z-0.125000
G01 X134.369992 Y198.415637 Z-0.125000
G01 X135.633720 Y199.351070 Z-0.125000
G01 X136.999894 Y200.092167 Z-0.125000
G01 X138.274999 Y200.452185 Z-0.125000
G01 X138.912538 Y200.500498 Z-0.125000
G01 X139.656334 Y200.446047 Z-0.125000
G01 X141.143952 Y200.006125 Z-0.125000
G01 X142.737826 Y199.147209 Z-0.125000
G01 X146.016671 Y196.903439 Z-0.125000
G01 X147.564984 Y196.000259 Z-0.125000
G01 X149.219580 Y195.347585 Z-0.125000
G01 X150.069659 Y195.162404 Z-0.125000
G01 X150.919711 Y195.082526 Z-0.125000
G01 X152.513586 Y195.200292 Z-0.125000
G01 X154.213717 Y195.647622 Z-0.125000
G01 X155.807591 Y196.271562 Z-0.125000
G01 X159.845419 Y198.072367 Z-0.125000
G01 X162.183089 Y198.899691 Z-0.125000
G01 X164.201990 Y199.375994 Z-0.125000
G01 X166.327173 Y199.635814 Z-0.125000
G00 Z3.000000

(End cutting path id: polyline34565)


(Start cutting path id: polyline34563)
(Change tool to Default tool)

G00 Z3.000000
G00 X9.490017 Y194.727905

G00 Z4.875000 (Fast pre-penetrate)
G01 Z-0.125000 F400.0(Penetrate)
G01 X10.127557 Y194.552302 Z-0.125000 F800.000000
G01 X10.765122 Y194.500364 Z-0.125000
G01 X11.402661 Y194.579474 Z-0.125000
G01 X12.040201 Y194.787172 Z-0.125000
G01 X13.224236 Y195.465854 Z-0.125000
G01 X15.501184 Y197.249884 Z-0.125000
G01 X16.411985 Y197.851731 Z-0.125000
G01 X17.353133 Y198.252468 Z-0.125000
G01 X18.309442 Y198.364043 Z-0.125000
G01 X19.265777 Y198.152800 Z-0.125000
G01 X20.237273 Y197.634350 Z-0.125000
G01 X21.125293 Y196.957361 Z-0.125000
G01 X23.356707 Y194.987461 Z-0.125000
G01 X24.426892 Y194.246629 Z-0.125000
G01 X25.534992 Y193.815914 Z-0.125000
G01 X26.066301 Y193.756119 Z-0.125000
G01 X26.597584 Y193.796600 Z-0.125000
G01 X27.523545 Y194.098092 Z-0.125000
G01 X28.525415 Y194.715867 Z-0.125000
G01 X29.413435 Y195.448524 Z-0.125000
G01 X31.724541 Y197.599187 Z-0.125000
G01 X32.897173 Y198.482285 Z-0.125000
G01 X34.035673 Y199.021082 Z-0.125000
G01 X34.673212 Y199.156707 Z-0.125000
G01 X35.204495 Y199.173323 Z-0.125000
G01 X36.358156 Y198.913661 Z-0.125000
G01 X37.633261 Y198.209950 Z-0.125000
G01 X38.817297 Y197.270918 Z-0.125000
G01 X41.686249 Y194.683112 Z-0.125000
G01 X43.189054 Y193.619805 Z-0.125000
G01 X43.917690 Y193.258015 Z-0.125000
G01 X44.661485 Y193.010180 Z-0.125000
G01 X45.405281 Y192.891382 Z-0.125000
G01 X46.149103 Y192.902415 Z-0.125000
G01 X47.530465 Y193.248595 Z-0.125000
G01 X49.018083 Y194.022554 Z-0.125000
G01 X50.372853 Y194.982302 Z-0.125000
G01 X54.027380 Y197.881761 Z-0.125000
G01 X56.031120 Y199.138636 Z-0.125000
G01 X57.093711 Y199.611446 Z-0.125000
G01 X58.050020 Y199.906165 Z-0.125000
G01 X59.006355 Y200.073964 Z-0.125000
G01 X60.068921 Y200.114895 Z-0.125000
G01 X61.769052 Y199.887830 Z-0.125000
G01 X63.681722 Y199.277807 Z-0.125000
G01 X65.685436 Y198.362270 Z-0.125000
G01 X70.148289 Y195.987003 Z-0.125000
G01 X72.394890 Y194.899435 Z-0.125000
G01 X74.945073 Y193.889733 Z-0.125000
G01 X77.389027 Y193.173163 Z-0.125000
G01 X80.364262 Y192.603436 Z-0.125000
G01 X83.658268 Y192.268897 Z-0.125000
G01 X87.908582 Y192.126790 Z-0.125000
G01 X92.158923 Y192.212779 Z-0.125000
G01 X94.602849 Y192.397379 Z-0.125000
G01 X96.834290 Y192.705512 Z-0.125000
G01 X98.746934 Y193.116992 Z-0.125000
G01 X100.659578 Y193.698334 Z-0.125000
G01 X102.359709 Y194.374423 Z-0.125000
G01 X104.120561 Y195.232042 Z-0.125000
G01 X109.403120 Y198.346210 Z-0.125000
G01 X111.072877 Y199.218038 Z-0.125000
G01 X112.985521 Y199.909525 Z-0.125000
G01 X113.835599 Y200.068646 Z-0.125000
G01 X114.685652 Y200.118361 Z-0.125000
G01 X115.535730 Y200.049992 Z-0.125000
G01 X116.279526 Y199.889470 Z-0.125000
G01 X117.129605 Y199.590571 Z-0.125000
G01 X117.964497 Y199.181816 Z-0.125000
G01 X119.786045 Y197.948277 Z-0.125000
G01 X123.212897 Y195.034584 Z-0.125000
G01 X124.704299 Y193.933442 Z-0.125000
G01 X125.524003 Y193.465580 Z-0.125000
G01 X126.374056 Y193.114663 Z-0.125000
G01 X127.117878 Y192.934350 Z-0.125000
G01 X127.861673 Y192.880852 Z-0.125000
G01 X129.136778 Y193.089025 Z-0.125000
G01 X130.442231 Y193.668965 Z-0.125000
G01 X131.899501 Y194.663850 Z-0.125000
G01 X134.848173 Y197.126879 Z-0.125000
G01 X136.089093 Y198.038130 Z-0.125000
G01 X137.424920 Y198.761182 Z-0.125000
G01 X138.700025 Y199.125751 Z-0.125000
G01 X139.337564 Y199.177265 Z-0.125000
G01 X140.081386 Y199.127021 Z-0.125000
G01 X141.553817 Y198.702921 Z-0.125000
G01 X143.102157 Y197.883349 Z-0.125000
G01 X146.472045 Y195.584493 Z-0.125000
G01 X148.020384 Y194.680413 Z-0.125000
G01 X149.750890 Y194.004694 Z-0.125000
G01 X151.344764 Y193.760590 Z-0.125000
G01 X152.726099 Y193.839700 Z-0.125000
G01 X154.213717 Y194.182970 Z-0.125000
G01 X155.807591 Y194.768307 Z-0.125000
G01 X159.739162 Y196.548501 Z-0.125000
G01 X161.758063 Y197.338414 Z-0.125000
G01 X163.989477 Y197.959760 Z-0.125000
G01 X166.327173 Y198.299511 Z-0.125000
G00 Z3.000000

(End cutting path id: polyline34563)


(Start cutting path id: polyline34561)
(Change tool to Default tool)

G00 Z3.000000
G00 X9.490017 Y193.355646

G00 Z4.875000 (Fast pre-penetrate)
G01 Z-0.125000 F400.0(Penetrate)
G01 X10.127557 Y193.207770 Z-0.125000 F800.000000
G01 X10.765122 Y193.182661 Z-0.125000
G01 X11.402661 Y193.285690 Z-0.125000
G01 X11.933944 Y193.467115 Z-0.125000
G01 X13.133140 Y194.148416 Z-0.125000
G01 X15.410115 Y195.915566 Z-0.125000
G01 X16.320889 Y196.515799 Z-0.125000
G01 X17.353133 Y196.945720 Z-0.125000
G01 X18.309442 Y197.037874 Z-0.125000
G01 X19.265777 Y196.811920 Z-0.125000
G01 X20.237273 Y196.284659 Z-0.125000
G01 X21.125293 Y195.605077 Z-0.125000
G01 X23.356707 Y193.644861 Z-0.125000
G01 X24.426892 Y192.912178 Z-0.125000
G01 X25.534992 Y192.489454 Z-0.125000
G01 X26.597584 Y192.476304 Z-0.125000
G01 X27.523545 Y192.781818 Z-0.125000
G01 X28.525415 Y193.402556 Z-0.125000
G01 X31.724541 Y196.287913 Z-0.125000
G01 X32.897173 Y197.168789 Z-0.125000
G01 X34.035673 Y197.703459 Z-0.125000
G01 X34.673212 Y197.835856 Z-0.125000
G01 X35.204495 Y197.849323 Z-0.125000
G01 X36.358156 Y197.581592 Z-0.125000
G01 X37.633261 Y196.867906 Z-0.125000
G01 X38.817297 Y195.920196 Z-0.125000
G01 X41.686249 Y193.323631 Z-0.125000
G01 X43.189054 Y192.267204 Z-0.125000
G01 X43.917690 Y191.911975 Z-0.125000
G01 X44.661485 Y191.672766 Z-0.125000
G01 X45.405281 Y191.564313 Z-0.125000
G01 X46.149103 Y191.587014 Z-0.125000
G01 X47.424208 Y191.914224 Z-0.125000
G01 X48.926987 Y192.697152 Z-0.125000
G01 X50.372853 Y193.734105 Z-0.125000
G01 X53.845241 Y196.515137 Z-0.125000
G01 X55.848954 Y197.792941 Z-0.125000
G01 X56.881172 Y198.263475 Z-0.125000
G01 X57.837507 Y198.568989 Z-0.125000
G01 X58.793842 Y198.745466 Z-0.125000
G01 X59.856408 Y198.793117 Z-0.125000
G01 X61.556539 Y198.570444 Z-0.125000
G01 X63.469183 Y197.957035 Z-0.125000
G01 X65.412201 Y197.062083 Z-0.125000
G01 X69.966124 Y194.610060 Z-0.125000
G01 X72.182377 Y193.526963 Z-0.125000
G01 X74.626304 Y192.547001 Z-0.125000
G01 X77.176514 Y191.792331 Z-0.125000
G01 X80.151749 Y191.226361 Z-0.125000
G01 X83.552011 Y190.891134 Z-0.125000
G01 X88.014839 Y190.755245 Z-0.125000
G01 X92.477692 Y190.850336 Z-0.125000
G01 X94.921619 Y191.038057 Z-0.125000
G01 X97.046803 Y191.332168 Z-0.125000
G01 X99.065703 Y191.769021 Z-0.125000
G01 X100.872091 Y192.321523 Z-0.125000
G01 X102.572222 Y192.997294 Z-0.125000
G01 X104.393796 Y193.887881 Z-0.125000
G01 X109.585259 Y196.963473 Z-0.125000
G01 X111.406833 Y197.918009 Z-0.125000
G01 X113.304317 Y198.594945 Z-0.125000
G01 X114.154369 Y198.749567 Z-0.125000
G01 X115.004448 Y198.795049 Z-0.125000
G01 X115.854500 Y198.722632 Z-0.125000
G01 X116.598322 Y198.558935 Z-0.125000
G01 X117.448374 Y198.257205 Z-0.125000
G01 X118.237731 Y197.871601 Z-0.125000
G01 X120.025148 Y196.674945 Z-0.125000
G01 X123.531667 Y193.709525 Z-0.125000
G01 X125.068603 Y192.584677 Z-0.125000
G01 X125.888308 Y192.124091 Z-0.125000
G01 X126.692852 Y191.795294 Z-0.125000
G01 X127.436647 Y191.613737 Z-0.125000
G01 X128.180469 Y191.557672 Z-0.125000
G01 X129.455548 Y191.758649 Z-0.125000
G01 X130.806562 Y192.354808 Z-0.125000
G01 X132.218271 Y193.313392 Z-0.125000
G01 X135.166942 Y195.765679 Z-0.125000
G01 X136.453424 Y196.710902 Z-0.125000
G01 X137.849946 Y197.458719 Z-0.125000
G01 X139.125051 Y197.809530 Z-0.125000
G01 X139.762617 Y197.854721 Z-0.125000
G01 X140.506413 Y197.797703 Z-0.125000
G01 X141.994030 Y197.356220 Z-0.125000
G01 X143.557531 Y196.517942 Z-0.125000
G01 X146.836376 Y194.276262 Z-0.125000
G01 X148.384689 Y193.367102 Z-0.125000
G01 X150.069659 Y192.698210 Z-0.125000
G01 X150.919711 Y192.513716 Z-0.125000
G01 X151.769790 Y192.435796 Z-0.125000
G01 X153.151152 Y192.526231 Z-0.125000
G01 X154.532486 Y192.850477 Z-0.125000
G01 X156.232644 Y193.484339 Z-0.125000
G01 X160.057932 Y195.246541 Z-0.125000
G01 X161.970576 Y196.011318 Z-0.125000
G01 X164.095733 Y196.625680 Z-0.125000
G01 X166.327173 Y196.971172 Z-0.125000
G00 Z3.000000

(End cutting path id: polyline34561)


(Start cutting path id: polyline34559)
(Change tool to Default tool)

G00 Z3.000000
G00 X9.490017 Y191.981640

G00 Z4.875000 (Fast pre-penetrate)
G01 Z-0.125000 F400.0(Penetrate)
G01 X10.127557 Y191.866520 Z-0.125000 F800.000000
G01 X10.658839 Y191.863054 Z-0.125000
G01 X11.827688 Y192.157323 Z-0.125000
G01 X13.042071 Y192.846271 Z-0.125000
G01 X15.227949 Y194.528251 Z-0.125000
G01 X16.229819 Y195.188597 Z-0.125000
G01 X17.246850 Y195.614232 Z-0.125000
G01 X18.203185 Y195.717525 Z-0.125000
G01 X19.159521 Y195.508716 Z-0.125000
G01 X20.146204 Y194.990663 Z-0.125000
G01 X21.125293 Y194.248058 Z-0.125000
G01 X23.356707 Y192.301494 Z-0.125000
G01 X24.426892 Y191.578389 Z-0.125000
G01 X25.534992 Y191.163708 Z-0.125000
G01 X26.597584 Y191.155162 Z-0.125000
G01 X27.523545 Y191.462105 Z-0.125000
G01 X28.525415 Y192.082340 Z-0.125000
G01 X31.724541 Y194.962908 Z-0.125000
G01 X32.897173 Y195.843731 Z-0.125000
G01 X34.035673 Y196.379380 Z-0.125000
G01 X34.673212 Y196.512518 Z-0.125000
G01 X35.204495 Y196.526620 Z-0.125000
G01 X36.358156 Y196.259867 Z-0.125000
G01 X37.633261 Y195.546155 Z-0.125000
G01 X38.817297 Y194.597254 Z-0.125000
G01 X41.606557 Y192.062020 Z-0.125000
G01 X43.097985 Y190.991120 Z-0.125000
G01 X43.826594 Y190.622106 Z-0.125000
G01 X44.555229 Y190.372499 Z-0.125000
G01 X45.299025 Y190.247483 Z-0.125000
G01 X46.042847 Y190.254654 Z-0.125000
G01 X47.424208 Y190.600358 Z-0.125000
G01 X48.835917 Y191.334496 Z-0.125000
G01 X50.293161 Y192.375657 Z-0.125000
G01 X53.845241 Y195.227703 Z-0.125000
G01 X55.848954 Y196.499633 Z-0.125000
G01 X56.881172 Y196.964055 Z-0.125000
G01 X57.837507 Y197.262346 Z-0.125000
G01 X58.793842 Y197.430436 Z-0.125000
G01 X59.856408 Y197.467874 Z-0.125000
G01 X61.556539 Y197.228241 Z-0.125000
G01 X63.469183 Y196.596999 Z-0.125000
G01 X65.321131 Y195.734326 Z-0.125000
G01 X69.875055 Y193.269471 Z-0.125000
G01 X72.076121 Y192.189417 Z-0.125000
G01 X74.520047 Y191.206306 Z-0.125000
G01 X77.070257 Y190.450842 Z-0.125000
G01 X80.045466 Y189.885984 Z-0.125000
G01 X83.552011 Y189.546471 Z-0.125000
G01 X88.014839 Y189.416878 Z-0.125000
G01 X92.583949 Y189.515091 Z-0.125000
G01 X95.027876 Y189.703421 Z-0.125000
G01 X97.153059 Y189.997796 Z-0.125000
G01 X99.171960 Y190.434491 Z-0.125000
G01 X100.978347 Y190.985987 Z-0.125000
G01 X102.678478 Y191.659695 Z-0.125000
G01 X104.484866 Y192.538772 Z-0.125000
G01 X109.767424 Y195.655428 Z-0.125000
G01 X111.497903 Y196.561386 Z-0.125000
G01 X113.410573 Y197.255308 Z-0.125000
G01 X114.366882 Y197.430647 Z-0.125000
G01 X115.216961 Y197.471711 Z-0.125000
G01 X116.067013 Y197.395881 Z-0.125000
G01 X116.810835 Y197.230358 Z-0.125000
G01 X118.419870 Y196.559587 Z-0.125000
G01 X120.241445 Y195.349146 Z-0.125000
G01 X123.850436 Y192.318533 Z-0.125000
G01 X125.341838 Y191.242501 Z-0.125000
G01 X126.161542 Y190.788847 Z-0.125000
G01 X127.011621 Y190.451503 Z-0.125000
G01 X127.755417 Y190.281350 Z-0.125000
G01 X128.499239 Y190.235789 Z-0.125000
G01 X129.774344 Y190.451609 Z-0.125000
G01 X131.079796 Y191.031549 Z-0.125000
G01 X132.537040 Y192.019211 Z-0.125000
G01 X135.485712 Y194.462740 Z-0.125000
G01 X136.726659 Y195.371424 Z-0.125000
G01 X138.168742 Y196.142181 Z-0.125000
G01 X139.443821 Y196.488308 Z-0.125000
G01 X140.081386 Y196.531779 Z-0.125000
G01 X140.825182 Y196.473518 Z-0.125000
G01 X142.312800 Y196.030765 Z-0.125000
G01 X143.830766 Y195.219659 Z-0.125000
G01 X147.200680 Y192.917893 Z-0.125000
G01 X148.749020 Y192.014818 Z-0.125000
G01 X150.388429 Y191.369606 Z-0.125000
G01 X151.238481 Y191.186965 Z-0.125000
G01 X152.088560 Y191.112114 Z-0.125000
G01 X153.469921 Y191.210142 Z-0.125000
G01 X154.851283 Y191.544998 Z-0.125000
G01 X156.445157 Y192.148909 Z-0.125000
G01 X160.376702 Y193.989428 Z-0.125000
G01 X162.183089 Y194.720497 Z-0.125000
G01 X164.308246 Y195.338537 Z-0.125000
G01 X166.327173 Y195.651723 Z-0.125000
G00 Z3.000000

(End cutting path id: polyline34559)


(Start cutting path id: polyline34557)
(Change tool to Default tool)

G00 Z3.000000
G00 X9.490017 Y190.610332

G00 Z4.875000 (Fast pre-penetrate)
G01 Z-0.125000 F400.0(Penetrate)
G01 X10.552583 Y190.546674 Z-0.125000 F800.000000
G01 X11.721431 Y190.858035 Z-0.125000
G01 X12.859905 Y191.496633 Z-0.125000
G01 X15.136880 Y193.221290 Z-0.125000
G01 X16.138750 Y193.869757 Z-0.125000
G01 X17.140594 Y194.286263 Z-0.125000
G01 X18.096929 Y194.396118 Z-0.125000
G01 X19.053264 Y194.200962 Z-0.125000
G01 X20.055108 Y193.691798 Z-0.125000
G01 X21.045601 Y192.954247 Z-0.125000
G01 X23.277014 Y191.021706 Z-0.125000
G01 X24.426892 Y190.246293 Z-0.125000
G01 X25.534992 Y189.838994 Z-0.125000
G01 X26.597584 Y189.832697 Z-0.125000
G01 X27.523545 Y190.137920 Z-0.125000
G01 X28.525415 Y190.753604 Z-0.125000
G01 X29.493127 Y191.553042 Z-0.125000
G01 X31.724541 Y193.622107 Z-0.125000
G01 X32.897173 Y194.505550 Z-0.125000
G01 X34.035673 Y195.047998 Z-0.125000
G01 X34.673212 Y195.186348 Z-0.125000
G01 X35.204495 Y195.205266 Z-0.125000
G01 X36.373343 Y194.943541 Z-0.125000
G01 X37.633261 Y194.246708 Z-0.125000
G01 X38.817297 Y193.304793 Z-0.125000
G01 X41.686249 Y190.702698 Z-0.125000
G01 X43.189054 Y189.636376 Z-0.125000
G01 X43.917690 Y189.276067 Z-0.125000
G01 X44.661485 Y189.032095 Z-0.125000
G01 X45.405281 Y188.919621 Z-0.125000
G01 X46.149103 Y188.939306 Z-0.125000
G01 X47.424208 Y189.264002 Z-0.125000
G01 X48.926987 Y190.048279 Z-0.125000
G01 X50.293161 Y191.027527 Z-0.125000
G01 X53.845241 Y193.882880 Z-0.125000
G01 X55.848954 Y195.161848 Z-0.125000
G01 X56.881172 Y195.630424 Z-0.125000
G01 X57.837507 Y195.932605 Z-0.125000
G01 X58.793842 Y196.104478 Z-0.125000
G01 X59.856408 Y196.145912 Z-0.125000
G01 X61.556539 Y195.911941 Z-0.125000
G01 X63.469183 Y195.285990 Z-0.125000
G01 X65.321131 Y194.427339 Z-0.125000
G01 X69.875055 Y191.968728 Z-0.125000
G01 X72.076121 Y190.889944 Z-0.125000
G01 X74.520047 Y189.906965 Z-0.125000
G01 X77.070257 Y189.150337 Z-0.125000
G01 X80.045466 Y188.582965 Z-0.125000
G01 X83.552011 Y188.240145 Z-0.125000
G01 X88.014839 Y188.108938 Z-0.125000
G01 X92.477692 Y188.206014 Z-0.125000
G01 X94.921619 Y188.393392 Z-0.125000
G01 X97.153059 Y188.703351 Z-0.125000
G01 X99.065703 Y189.115121 Z-0.125000
G01 X100.978347 Y189.694002 Z-0.125000
G01 X102.678478 Y190.364588 Z-0.125000
G01 X104.484866 Y191.236653 Z-0.125000
G01 X109.858494 Y194.372465 Z-0.125000
G01 X111.604186 Y195.269189 Z-0.125000
G01 X113.516830 Y195.944273 Z-0.125000
G01 X114.366882 Y196.099901 Z-0.125000
G01 X115.216961 Y196.149774 Z-0.125000
G01 X116.067013 Y196.085454 Z-0.125000
G01 X116.810835 Y195.931970 Z-0.125000
G01 X117.660888 Y195.644977 Z-0.125000
G01 X118.510966 Y195.243392 Z-0.125000
G01 X120.423610 Y193.978104 Z-0.125000
G01 X123.930129 Y191.050228 Z-0.125000
G01 X125.432934 Y189.962184 Z-0.125000
G01 X126.267799 Y189.494639 Z-0.125000
G01 X127.117878 Y189.149041 Z-0.125000
G01 X127.967930 Y188.953276 Z-0.125000
G01 X128.711752 Y188.913668 Z-0.125000
G01 X129.986857 Y189.135653 Z-0.125000
G01 X131.353031 Y189.751443 Z-0.125000
G01 X132.776117 Y190.721643 Z-0.125000
G01 X135.645097 Y193.091486 Z-0.125000
G01 X136.908825 Y194.020463 Z-0.125000
G01 X138.274999 Y194.767963 Z-0.125000
G01 X139.656334 Y195.162430 Z-0.125000
G01 X140.293899 Y195.208891 Z-0.125000
G01 X141.037695 Y195.154281 Z-0.125000
G01 X142.525313 Y194.718671 Z-0.125000
G01 X144.104000 Y193.875657 Z-0.125000
G01 X147.473915 Y191.569208 Z-0.125000
G01 X148.931185 Y190.714922 Z-0.125000
G01 X150.600942 Y190.048596 Z-0.125000
G01 X151.451021 Y189.864182 Z-0.125000
G01 X152.301073 Y189.789014 Z-0.125000
G01 X153.682434 Y189.890190 Z-0.125000
G01 X155.063796 Y190.233117 Z-0.125000
G01 X156.657670 Y190.851156 Z-0.125000
G01 X160.407049 Y192.644738 Z-0.125000
G01 X162.289346 Y193.425972 Z-0.125000
G01 X164.308246 Y194.025438 Z-0.125000
G01 X166.327173 Y194.340424 Z-0.125000
G00 Z3.000000

(End cutting path id: polyline34557)


(Start cutting path id: polyline34555)
(Change tool to Default tool)

G00 Z3.000000
G00 X9.490017 Y189.246566

G00 Z4.875000 (Fast pre-penetrate)
G01 Z-0.125000 F400.0(Penetrate)
G01 X10.552583 Y189.249847 Z-0.125000 F800.000000
G01 X11.675896 Y189.597297 Z-0.125000
G01 X12.768836 Y190.224438 Z-0.125000
G01 X15.045811 Y191.925363 Z-0.125000
G01 X15.956585 Y192.509086 Z-0.125000
G01 X17.034337 Y192.961470 Z-0.125000
G01 X17.990672 Y193.074076 Z-0.125000
G01 X19.053264 Y192.851456 Z-0.125000
G01 X20.055108 Y192.330519 Z-0.125000
G01 X21.045601 Y191.591883 Z-0.125000
G01 X23.277014 Y189.680350 Z-0.125000
G01 X24.426892 Y188.916895 Z-0.125000
G01 X25.534992 Y188.515682 Z-0.125000
G01 X26.597584 Y188.508565 Z-0.125000
G01 X27.523545 Y188.808311 Z-0.125000
G01 X28.616484 Y189.481674 Z-0.125000
G01 X31.724541 Y192.263341 Z-0.125000
G01 X32.988269 Y193.209384 Z-0.125000
G01 X34.141930 Y193.741275 Z-0.125000
G01 X35.204495 Y193.884574 Z-0.125000
G01 X36.373343 Y193.644994 Z-0.125000
G01 X37.724331 Y192.907945 Z-0.125000
G01 X38.896989 Y191.975845 Z-0.125000
G01 X41.765942 Y189.380868 Z-0.125000
G01 X43.280124 Y188.310233 Z-0.125000
G01 X44.023946 Y187.945400 Z-0.125000
G01 X44.767742 Y187.705105 Z-0.125000
G01 X45.511564 Y187.595806 Z-0.125000
G01 X46.255360 Y187.618005 Z-0.125000
G01 X47.530465 Y187.945320 Z-0.125000
G01 X49.018083 Y188.719940 Z-0.125000
G01 X50.372853 Y189.686594 Z-0.125000
G01 X53.936310 Y192.544302 Z-0.125000
G01 X55.940050 Y193.824381 Z-0.125000
G01 X56.987428 Y194.301212 Z-0.125000
G01 X57.943764 Y194.604663 Z-0.125000
G01 X58.900099 Y194.778785 Z-0.125000
G01 X59.962664 Y194.823923 Z-0.125000
G01 X61.662795 Y194.597916 Z-0.125000
G01 X63.575439 Y193.983316 Z-0.125000
G01 X65.503270 Y193.098497 Z-0.125000
G01 X70.057194 Y190.664995 Z-0.125000
G01 X72.288634 Y189.585444 Z-0.125000
G01 X74.732560 Y188.616382 Z-0.125000
G01 X77.176514 Y187.895049 Z-0.125000
G01 X80.151749 Y187.321328 Z-0.125000
G01 X83.552011 Y186.976550 Z-0.125000
G01 X87.908582 Y186.836479 Z-0.125000
G01 X92.265179 Y186.932602 Z-0.125000
G01 X94.709106 Y187.122996 Z-0.125000
G01 X96.834290 Y187.415493 Z-0.125000
G01 X98.853190 Y187.842768 Z-0.125000
G01 X100.765834 Y188.413050 Z-0.125000
G01 X102.465965 Y189.070486 Z-0.125000
G01 X104.302727 Y189.938953 Z-0.125000
G01 X109.676355 Y193.016159 Z-0.125000
G01 X111.497903 Y193.940824 Z-0.125000
G01 X113.410573 Y194.611595 Z-0.125000
G01 X114.366882 Y194.783256 Z-0.125000
G01 X115.216961 Y194.826410 Z-0.125000
G01 X116.067013 Y194.758068 Z-0.125000
G01 X116.810835 Y194.603393 Z-0.125000
G01 X117.660888 Y194.317749 Z-0.125000
G01 X118.510966 Y193.920186 Z-0.125000
G01 X120.423610 Y192.671275 Z-0.125000
G01 X124.009821 Y189.709507 Z-0.125000
G01 X125.524003 Y188.627256 Z-0.125000
G01 X126.434777 Y188.129787 Z-0.125000
G01 X127.224134 Y187.819723 Z-0.125000
G01 X128.074186 Y187.628667 Z-0.125000
G01 X128.818009 Y187.590991 Z-0.125000
G01 X130.093114 Y187.811812 Z-0.125000
G01 X131.444101 Y188.412785 Z-0.125000
G01 X132.855810 Y189.362136 Z-0.125000
G01 X135.804482 Y191.780610 Z-0.125000
G01 X137.090963 Y192.718583 Z-0.125000
G01 X138.487512 Y193.469152 Z-0.125000
G01 X139.762617 Y193.831789 Z-0.125000
G01 X140.506412 Y193.885844 Z-0.125000
G01 X141.250208 Y193.823376 Z-0.125000
G01 X142.737826 Y193.374960 Z-0.125000
G01 X144.286166 Y192.541100 Z-0.125000
G01 X147.656080 Y190.229836 Z-0.125000
G01 X149.113324 Y189.376212 Z-0.125000
G01 X150.813455 Y188.705811 Z-0.125000
G01 X152.407329 Y188.466628 Z-0.125000
G01 X153.788691 Y188.566138 Z-0.125000
G01 X155.170052 Y188.913535 Z-0.125000
G01 X156.763927 Y189.543349 Z-0.125000
G01 X160.498145 Y191.366643 Z-0.125000
G01 X162.289346 Y192.124197 Z-0.125000
G01 X164.308246 Y192.731468 Z-0.125000
G01 X166.327173 Y193.034918 Z-0.125000
G00 Z3.000000

(End cutting path id: polyline34555)


(Start cutting path id: polyline34553)
(Change tool to Default tool)

G00 Z3.000000
G00 X9.490017 Y187.895499

G00 Z4.875000 (Fast pre-penetrate)
G01 Z-0.125000 F400.0(Penetrate)
G01 X10.446326 Y187.948601 Z-0.125000 F800.000000
G01 X11.493731 Y188.287029 Z-0.125000
G01 X12.677766 Y188.966955 Z-0.125000
G01 X14.954715 Y190.639648 Z-0.125000
G01 X15.865515 Y191.206888 Z-0.125000
G01 X16.928080 Y191.639455 Z-0.125000
G01 X17.884416 Y191.751664 Z-0.125000
G01 X18.946981 Y191.538781 Z-0.125000
G01 X19.964038 Y191.025834 Z-0.125000
G01 X20.965908 Y190.293680 Z-0.125000
G01 X23.277014 Y188.342512 Z-0.125000
G01 X24.426892 Y187.591123 Z-0.125000
G01 X25.534992 Y187.194090 Z-0.125000
G01 X26.597584 Y187.182527 Z-0.125000
G01 X27.523545 Y187.472537 Z-0.125000
G01 X28.616484 Y188.130396 Z-0.125000
G01 X31.804233 Y190.952412 Z-0.125000
G01 X32.988269 Y191.840114 Z-0.125000
G01 X34.141930 Y192.392802 Z-0.125000
G01 X34.779469 Y192.535968 Z-0.125000
G01 X35.310752 Y192.561103 Z-0.125000
G01 X36.479600 Y192.318957 Z-0.125000
G01 X37.815427 Y191.595560 Z-0.125000
G01 X38.976681 Y190.682405 Z-0.125000
G01 X41.845634 Y188.099360 Z-0.125000
G01 X43.371220 Y187.014544 Z-0.125000
G01 X44.130203 Y186.637381 Z-0.125000
G01 X44.873998 Y186.391795 Z-0.125000
G01 X45.617821 Y186.275669 Z-0.125000
G01 X46.361616 Y186.289719 Z-0.125000
G01 X47.742978 Y186.642249 Z-0.125000
G01 X49.200221 Y187.404592 Z-0.125000
G01 X50.532265 Y188.349471 Z-0.125000
G01 X54.118476 Y191.207682 Z-0.125000
G01 X56.122189 Y192.484030 Z-0.125000
G01 X57.199968 Y192.974064 Z-0.125000
G01 X58.156277 Y193.276932 Z-0.125000
G01 X59.112612 Y193.452642 Z-0.125000
G01 X60.175177 Y193.501934 Z-0.125000
G01 X61.981591 Y193.263624 Z-0.125000
G01 X63.894235 Y192.650135 Z-0.125000
G01 X65.776505 Y191.799236 Z-0.125000
G01 X70.330428 Y189.412115 Z-0.125000
G01 X72.501147 Y188.377464 Z-0.125000
G01 X74.945073 Y187.414990 Z-0.125000
G01 X77.389027 Y186.691991 Z-0.125000
G01 X80.364262 Y186.109035 Z-0.125000
G01 X83.658268 Y185.759335 Z-0.125000
G01 X87.696069 Y185.611910 Z-0.125000
G01 X91.840153 Y185.699143 Z-0.125000
G01 X94.284080 Y185.889352 Z-0.125000
G01 X96.515494 Y186.197379 Z-0.125000
G01 X98.534421 Y186.624178 Z-0.125000
G01 X100.447065 Y187.187158 Z-0.125000
G01 X102.253452 Y187.875841 Z-0.125000
G01 X104.029492 Y188.699884 Z-0.125000
G01 X109.494189 Y191.745632 Z-0.125000
G01 X111.285390 Y192.628519 Z-0.125000
G01 X113.198034 Y193.285187 Z-0.125000
G01 X114.154369 Y193.456558 Z-0.125000
G01 X115.004448 Y193.503918 Z-0.125000
G01 X115.854500 Y193.444016 Z-0.125000
G01 X116.704579 Y193.272249 Z-0.125000
G01 X117.554631 Y192.987928 Z-0.125000
G01 X118.419870 Y192.586953 Z-0.125000
G01 X120.332541 Y191.354261 Z-0.125000
G01 X124.009821 Y188.357567 Z-0.125000
G01 X125.524003 Y187.292171 Z-0.125000
G01 X126.434777 Y186.802189 Z-0.125000
G01 X127.224134 Y186.496199 Z-0.125000
G01 X128.074186 Y186.306599 Z-0.125000
G01 X128.818009 Y186.267679 Z-0.125000
G01 X130.093114 Y186.481277 Z-0.125000
G01 X131.444101 Y187.069603 Z-0.125000
G01 X132.901371 Y188.038401 Z-0.125000
G01 X135.884174 Y190.468860 Z-0.125000
G01 X137.182059 Y191.407918 Z-0.125000
G01 X138.593768 Y192.157826 Z-0.125000
G01 X139.868873 Y192.512420 Z-0.125000
G01 X140.612669 Y192.562743 Z-0.125000
G01 X141.356491 Y192.497206 Z-0.125000
G01 X142.828922 Y192.050934 Z-0.125000
G01 X144.377235 Y191.216360 Z-0.125000
G01 X147.656080 Y188.960446 Z-0.125000
G01 X149.204420 Y188.045200 Z-0.125000
G01 X150.813455 Y187.400808 Z-0.125000
G01 X152.407329 Y187.145354 Z-0.125000
G01 X153.788691 Y187.237164 Z-0.125000
G01 X155.170052 Y187.584482 Z-0.125000
G01 X156.763927 Y188.223106 Z-0.125000
G01 X160.498145 Y190.083654 Z-0.125000
G01 X162.289346 Y190.851738 Z-0.125000
G01 X164.308246 Y191.454114 Z-0.125000
G01 X166.327173 Y191.731291 Z-0.125000
G00 Z3.000000

(End cutting path id: polyline34553)


(Start cutting path id: polyline34551)
(Change tool to Default tool)

G00 Z3.000000
G00 X9.490017 Y186.562213

G00 Z4.875000 (Fast pre-penetrate)
G01 Z-0.125000 F400.0(Penetrate)
G01 X10.446326 Y186.682175 Z-0.125000 F800.000000
G01 X11.402661 Y187.031318 Z-0.125000
G01 X12.495601 Y187.662640 Z-0.125000
G01 X14.681480 Y189.238628 Z-0.125000
G01 X15.683350 Y189.862700 Z-0.125000
G01 X16.715567 Y190.291351 Z-0.125000
G01 X17.778159 Y190.428934 Z-0.125000
G01 X18.840725 Y190.223883 Z-0.125000
G01 X19.872969 Y189.718794 Z-0.125000
G01 X20.965908 Y188.931368 Z-0.125000
G01 X23.277014 Y187.009570 Z-0.125000
G01 X24.426892 Y186.269848 Z-0.125000
G01 X25.534992 Y185.874614 Z-0.125000
G01 X26.066301 Y185.818734 Z-0.125000
G01 X26.703840 Y185.872418 Z-0.125000
G01 X27.614641 Y186.171318 Z-0.125000
G01 X28.696177 Y186.823594 Z-0.125000
G01 X31.963618 Y189.685483 Z-0.125000
G01 X33.170408 Y190.564613 Z-0.125000
G01 X34.354443 Y191.099361 Z-0.125000
G01 X34.991982 Y191.223530 Z-0.125000
G01 X35.523291 Y191.234219 Z-0.125000
G01 X36.692113 Y190.966752 Z-0.125000
G01 X37.997566 Y190.249018 Z-0.125000
G01 X39.136066 Y189.358299 Z-0.125000
G01 X42.005019 Y186.795919 Z-0.125000
G01 X43.553359 Y185.699355 Z-0.125000
G01 X44.342716 Y185.310047 Z-0.125000
G01 X45.086511 Y185.067795 Z-0.125000
G01 X45.830334 Y184.952834 Z-0.125000
G01 X46.574129 Y184.965798 Z-0.125000
G01 X47.955491 Y185.311132 Z-0.125000
G01 X49.382387 Y186.041778 Z-0.125000
G01 X50.839631 Y187.063888 Z-0.125000
G01 X54.482780 Y189.934323 Z-0.125000
G01 X56.486520 Y191.184451 Z-0.125000
G01 X57.518737 Y191.645778 Z-0.125000
G01 X58.581303 Y191.973200 Z-0.125000
G01 X59.537638 Y192.137082 Z-0.125000
G01 X60.600230 Y192.177775 Z-0.125000
G01 X62.406617 Y191.936184 Z-0.125000
G01 X64.319261 Y191.333888 Z-0.125000
G01 X66.231905 Y190.490344 Z-0.125000
G01 X70.694759 Y188.216729 Z-0.125000
G01 X72.926173 Y187.179696 Z-0.125000
G01 X75.370126 Y186.238125 Z-0.125000
G01 X77.707796 Y185.551241 Z-0.125000
G01 X80.683032 Y184.958575 Z-0.125000
G01 X83.870781 Y184.604351 Z-0.125000
G01 X87.589813 Y184.453407 Z-0.125000
G01 X91.415101 Y184.533443 Z-0.125000
G01 X93.859054 Y184.728758 Z-0.125000
G01 X95.984211 Y185.023795 Z-0.125000
G01 X98.003111 Y185.443185 Z-0.125000
G01 X99.915756 Y185.990369 Z-0.125000
G01 X101.722169 Y186.654499 Z-0.125000
G01 X103.574092 Y187.482300 Z-0.125000
G01 X109.129885 Y190.465262 Z-0.125000
G01 X110.966620 Y191.336004 Z-0.125000
G01 X112.985521 Y191.991218 Z-0.125000
G01 X113.941856 Y192.144914 Z-0.125000
G01 X114.791908 Y192.179945 Z-0.125000
G01 X115.641987 Y192.111894 Z-0.125000
G01 X116.492039 Y191.936290 Z-0.125000
G01 X117.342118 Y191.652551 Z-0.125000
G01 X118.237731 Y191.240410 Z-0.125000
G01 X120.150375 Y190.022958 Z-0.125000
G01 X123.850436 Y187.052432 Z-0.125000
G01 X125.432934 Y185.954174 Z-0.125000
G01 X126.267799 Y185.508193 Z-0.125000
G01 X127.117878 Y185.176935 Z-0.125000
G01 X127.967930 Y184.986541 Z-0.125000
G01 X128.711752 Y184.943970 Z-0.125000
G01 X130.093114 Y185.177676 Z-0.125000
G01 X131.444101 Y185.774470 Z-0.125000
G01 X132.901371 Y186.743187 Z-0.125000
G01 X135.884174 Y189.157640 Z-0.125000
G01 X137.182059 Y190.089633 Z-0.125000
G01 X138.593768 Y190.834963 Z-0.125000
G01 X139.868873 Y191.188764 Z-0.125000
G01 X140.612669 Y191.239908 Z-0.125000
G01 X141.356491 Y191.175826 Z-0.125000
G01 X142.828922 Y190.733205 Z-0.125000
G01 X144.377235 Y189.901515 Z-0.125000
G01 X147.747150 Y187.582048 Z-0.125000
G01 X149.204420 Y186.722365 Z-0.125000
G01 X150.813455 Y186.075062 Z-0.125000
G01 X152.407329 Y185.821645 Z-0.125000
G01 X153.894947 Y185.939755 Z-0.125000
G01 X155.595078 Y186.434101 Z-0.125000
G01 X157.037161 Y187.068148 Z-0.125000
G01 X160.862450 Y189.008177 Z-0.125000
G01 X162.820628 Y189.792004 Z-0.125000
G01 X164.520786 Y190.230682 Z-0.125000
G01 X166.327173 Y190.424331 Z-0.125000
G00 Z3.000000

(End cutting path id: polyline34551)


(Start cutting path id: polyline34549)
(Change tool to Default tool)

G00 Z3.000000
G00 X9.490017 Y185.251654

G00 Z4.875000 (Fast pre-penetrate)
G01 Z-0.125000 F400.0(Penetrate)
G01 X10.552583 Y185.473057 Z-0.125000 F800.000000
G01 X11.584827 Y185.932479 Z-0.125000
G01 X14.681480 Y188.035358 Z-0.125000
G01 X15.774419 Y188.662975 Z-0.125000
G01 X16.715567 Y189.003044 Z-0.125000
G01 X17.671903 Y189.105887 Z-0.125000
G01 X18.734468 Y188.907265 Z-0.125000
G01 X19.872969 Y188.354418 Z-0.125000
G01 X20.965908 Y187.571464 Z-0.125000
G01 X23.242856 Y185.708271 Z-0.125000
G01 X24.426892 Y184.954077 Z-0.125000
G01 X25.534992 Y184.557838 Z-0.125000
G01 X26.066301 Y184.496825 Z-0.125000
G01 X26.703840 Y184.540666 Z-0.125000
G01 X27.705710 Y184.861182 Z-0.125000
G01 X28.707580 Y185.452366 Z-0.125000
G01 X29.652512 Y186.196638 Z-0.125000
G01 X32.123003 Y188.392783 Z-0.125000
G01 X33.261503 Y189.213361 Z-0.125000
G01 X34.460699 Y189.762847 Z-0.125000
G01 X35.629548 Y189.914373 Z-0.125000
G01 X36.267087 Y189.829548 Z-0.125000
G01 X36.904626 Y189.631270 Z-0.125000
G01 X38.179731 Y188.934993 Z-0.125000
G01 X39.375143 Y188.008450 Z-0.125000
G01 X42.323815 Y185.409689 Z-0.125000
G01 X43.826594 Y184.367682 Z-0.125000
G01 X44.661485 Y183.966733 Z-0.125000
G01 X45.405281 Y183.735011 Z-0.125000
G01 X46.149103 Y183.627828 Z-0.125000
G01 X46.892899 Y183.645608 Z-0.125000
G01 X48.274260 Y183.991604 Z-0.125000
G01 X49.746691 Y184.740612 Z-0.125000
G01 X51.169804 Y185.727374 Z-0.125000
G01 X54.756015 Y188.520338 Z-0.125000
G01 X56.850824 Y189.826241 Z-0.125000
G01 X57.837507 Y190.272116 Z-0.125000
G01 X58.900099 Y190.613243 Z-0.125000
G01 X59.962664 Y190.806971 Z-0.125000
G01 X61.025256 Y190.856844 Z-0.125000
G01 X62.831643 Y190.642003 Z-0.125000
G01 X64.850544 Y190.039733 Z-0.125000
G01 X66.778375 Y189.224156 Z-0.125000
G01 X71.241229 Y187.042589 Z-0.125000
G01 X73.457456 Y186.049239 Z-0.125000
G01 X75.901409 Y185.134073 Z-0.125000
G01 X78.239079 Y184.459757 Z-0.125000
G01 X81.001802 Y183.903709 Z-0.125000
G01 X84.083294 Y183.541521 Z-0.125000
G01 X87.483556 Y183.387508 Z-0.125000
G01 X90.883818 Y183.453468 Z-0.125000
G01 X93.221488 Y183.638253 Z-0.125000
G01 X95.346672 Y183.929770 Z-0.125000
G01 X97.365572 Y184.340827 Z-0.125000
G01 X99.278216 Y184.871289 Z-0.125000
G01 X101.084604 Y185.509252 Z-0.125000
G01 X102.936526 Y186.299164 Z-0.125000
G01 X108.583415 Y189.185712 Z-0.125000
G01 X110.435337 Y190.025313 Z-0.125000
G01 X112.454238 Y190.660259 Z-0.125000
G01 X113.410573 Y190.815199 Z-0.125000
G01 X114.366882 Y190.856765 Z-0.125000
G01 X115.216961 Y190.790117 Z-0.125000
G01 X116.067013 Y190.621233 Z-0.125000
G01 X116.917092 Y190.349083 Z-0.125000
G01 X117.873401 Y189.923184 Z-0.125000
G01 X119.877141 Y188.672288 Z-0.125000
G01 X123.611359 Y185.726421 Z-0.125000
G01 X125.250768 Y184.610701 Z-0.125000
G01 X126.161542 Y184.140696 Z-0.125000
G01 X127.011621 Y183.828488 Z-0.125000
G01 X127.861673 Y183.654234 Z-0.125000
G01 X128.605496 Y183.622934 Z-0.125000
G01 X129.986857 Y183.869763 Z-0.125000
G01 X131.353031 Y184.478066 Z-0.125000
G01 X132.810275 Y185.444296 Z-0.125000
G01 X135.724789 Y187.786941 Z-0.125000
G01 X137.090963 Y188.765131 Z-0.125000
G01 X138.487512 Y189.501412 Z-0.125000
G01 X139.762617 Y189.861007 Z-0.125000
G01 X140.506412 Y189.917204 Z-0.125000
G01 X141.250208 Y189.858890 Z-0.125000
G01 X142.737826 Y189.421455 Z-0.125000
G01 X144.286166 Y188.596327 Z-0.125000
G01 X147.656080 Y186.274637 Z-0.125000
G01 X149.113324 Y185.408445 Z-0.125000
G01 X150.707198 Y184.758947 Z-0.125000
G01 X151.557277 Y184.569559 Z-0.125000
G01 X152.301073 Y184.499100 Z-0.125000
G01 X153.788691 Y184.617607 Z-0.125000
G01 X155.488822 Y185.121426 Z-0.125000
G01 X156.946092 Y185.776586 Z-0.125000
G01 X160.589215 Y187.666397 Z-0.125000
G01 X162.608115 Y188.494145 Z-0.125000
G01 X164.414503 Y188.950418 Z-0.125000
G01 X166.327173 Y189.107528 Z-0.125000
G00 Z3.000000

(End cutting path id: polyline34549)


(Start cutting path id: polyline34547)
(Change tool to Default tool)

G00 Z3.000000
G00 X9.490017 Y183.968135

G00 Z4.875000 (Fast pre-penetrate)
G01 Z-0.125000 F400.0(Penetrate)
G01 X10.446326 Y184.220203 Z-0.125000 F800.000000
G01 X11.493731 Y184.711481 Z-0.125000
G01 X14.499341 Y186.719296 Z-0.125000
G01 X15.592280 Y187.331170 Z-0.125000
G01 X16.609311 Y187.687987 Z-0.125000
G01 X17.565646 Y187.782549 Z-0.125000
G01 X18.628211 Y187.589244 Z-0.125000
G01 X19.781873 Y187.046585 Z-0.125000
G01 X20.874812 Y186.285856 Z-0.125000
G01 X23.333952 Y184.322174 Z-0.125000
G01 X24.517961 Y183.599597 Z-0.125000
G01 X25.641275 Y183.224207 Z-0.125000
G01 X26.172558 Y183.172825 Z-0.125000
G01 X26.810097 Y183.224128 Z-0.125000
G01 X27.766432 Y183.526705 Z-0.125000
G01 X28.889719 Y184.185014 Z-0.125000
G01 X32.202722 Y187.006950 Z-0.125000
G01 X33.443642 Y187.895182 Z-0.125000
G01 X34.673212 Y188.445805 Z-0.125000
G01 X35.842061 Y188.591273 Z-0.125000
G01 X37.010883 Y188.353916 Z-0.125000
G01 X38.361896 Y187.654464 Z-0.125000
G01 X39.614221 Y186.705722 Z-0.125000
G01 X42.562892 Y184.138870 Z-0.125000
G01 X44.190924 Y183.024315 Z-0.125000
G01 X44.980255 Y182.651729 Z-0.125000
G01 X45.724077 Y182.419293 Z-0.125000
G01 X46.467873 Y182.307612 Z-0.125000
G01 X47.317952 Y182.328276 Z-0.125000
G01 X48.699286 Y182.679880 Z-0.125000
G01 X50.202091 Y183.439657 Z-0.125000
G01 X51.659362 Y184.437902 Z-0.125000
G01 X55.302484 Y187.221368 Z-0.125000
G01 X57.397294 Y188.497637 Z-0.125000
G01 X58.475046 Y188.970579 Z-0.125000
G01 X59.537638 Y189.297710 Z-0.125000
G01 X60.600230 Y189.484294 Z-0.125000
G01 X61.662795 Y189.534379 Z-0.125000
G01 X63.575439 Y189.314511 Z-0.125000
G01 X65.594366 Y188.734968 Z-0.125000
G01 X67.613267 Y187.919656 Z-0.125000
G01 X74.095021 Y184.996728 Z-0.125000
G01 X76.432691 Y184.150486 Z-0.125000
G01 X78.770388 Y183.486753 Z-0.125000
G01 X81.426828 Y182.949596 Z-0.125000
G01 X84.295807 Y182.598309 Z-0.125000
G01 X87.377299 Y182.444296 Z-0.125000
G01 X90.458792 Y182.499514 Z-0.125000
G01 X92.690205 Y182.677420 Z-0.125000
G01 X94.709106 Y182.954385 Z-0.125000
G01 X96.621750 Y183.334776 Z-0.125000
G01 X98.534421 Y183.844548 Z-0.125000
G01 X100.340808 Y184.452322 Z-0.125000
G01 X102.253452 Y185.225672 Z-0.125000
G01 X107.854780 Y187.918518 Z-0.125000
G01 X109.797772 Y188.746848 Z-0.125000
G01 X111.922955 Y189.365231 Z-0.125000
G01 X113.729343 Y189.534512 Z-0.125000
G01 X114.685652 Y189.461831 Z-0.125000
G01 X115.535730 Y189.295143 Z-0.125000
G01 X116.492039 Y188.991137 Z-0.125000
G01 X117.418027 Y188.582489 Z-0.125000
G01 X119.421740 Y187.360830 Z-0.125000
G01 X123.338124 Y184.341991 Z-0.125000
G01 X124.886464 Y183.310488 Z-0.125000
G01 X125.842773 Y182.822200 Z-0.125000
G01 X126.692852 Y182.512373 Z-0.125000
G01 X127.542904 Y182.335975 Z-0.125000
G01 X128.286726 Y182.298563 Z-0.125000
G01 X129.668061 Y182.525496 Z-0.125000
G01 X131.079796 Y183.132185 Z-0.125000
G01 X132.616733 Y184.136092 Z-0.125000
G01 X135.565404 Y186.483129 Z-0.125000
G01 X136.908825 Y187.436368 Z-0.125000
G01 X138.274999 Y188.158098 Z-0.125000
G01 X139.656334 Y188.545236 Z-0.125000
G01 X140.400156 Y188.594025 Z-0.125000
G01 X141.143952 Y188.529572 Z-0.125000
G01 X142.631570 Y188.083036 Z-0.125000
G01 X144.195096 Y187.243461 Z-0.125000
G01 X147.564984 Y184.918914 Z-0.125000
G01 X149.022254 Y184.057273 Z-0.125000
G01 X150.600942 Y183.422327 Z-0.125000
G01 X151.451021 Y183.238600 Z-0.125000
G01 X152.194816 Y183.174439 Z-0.125000
G01 X153.682434 Y183.309059 Z-0.125000
G01 X155.276309 Y183.793537 Z-0.125000
G01 X156.763927 Y184.473356 Z-0.125000
G01 X160.498145 Y186.440187 Z-0.125000
G01 X162.501859 Y187.249890 Z-0.125000
G01 X164.414503 Y187.689521 Z-0.125000
G01 X166.327173 Y187.773368 Z-0.125000
G00 Z3.000000

(End cutting path id: polyline34547)


(Start cutting path id: polyline34545)
(Change tool to Default tool)

G00 Z3.000000
G00 X9.490017 Y182.715202

G00 Z4.875000 (Fast pre-penetrate)
G01 Z-0.125000 F400.0(Penetrate)
G01 X10.340070 Y182.984204 Z-0.125000 F800.000000
G01 X11.311592 Y183.454950 Z-0.125000
G01 X14.317175 Y185.412467 Z-0.125000
G01 X15.334206 Y185.970605 Z-0.125000
G01 X16.396798 Y186.350678 Z-0.125000
G01 X17.459390 Y186.459052 Z-0.125000
G01 X18.628211 Y186.235056 Z-0.125000
G01 X19.781873 Y185.684988 Z-0.125000
G01 X20.874812 Y184.933916 Z-0.125000
G01 X23.242856 Y183.077443 Z-0.125000
G01 X24.517961 Y182.297981 Z-0.125000
G01 X25.747531 Y181.894889 Z-0.125000
G01 X26.916353 Y181.903700 Z-0.125000
G01 X27.872689 Y182.201435 Z-0.125000
G01 X28.980815 Y182.833127 Z-0.125000
G01 X29.971282 Y183.591554 Z-0.125000
G01 X32.441799 Y185.719410 Z-0.125000
G01 X33.716877 Y186.605181 Z-0.125000
G01 X34.991982 Y187.145062 Z-0.125000
G01 X36.160830 Y187.265368 Z-0.125000
G01 X36.798370 Y187.173796 Z-0.125000
G01 X37.435935 Y186.976047 Z-0.125000
G01 X38.726201 Y186.289613 Z-0.125000
G01 X39.932990 Y185.385109 Z-0.125000
G01 X42.961354 Y182.796826 Z-0.125000
G01 X44.555229 Y181.722381 Z-0.125000
G01 X45.405281 Y181.326115 Z-0.125000
G01 X46.149103 Y181.097939 Z-0.125000
G01 X46.892899 Y180.986179 Z-0.125000
G01 X47.742978 Y181.001286 Z-0.125000
G01 X49.124339 Y181.332756 Z-0.125000
G01 X50.657492 Y182.077716 Z-0.125000
G01 X52.114736 Y183.044873 Z-0.125000
G01 X55.940050 Y185.896601 Z-0.125000
G01 X58.125929 Y187.189698 Z-0.125000
G01 X59.218868 Y187.652612 Z-0.125000
G01 X60.281434 Y187.970085 Z-0.125000
G01 X61.344026 Y188.155214 Z-0.125000
G01 X62.512874 Y188.211385 Z-0.125000
G01 X64.425518 Y188.004719 Z-0.125000
G01 X66.444419 Y187.466160 Z-0.125000
G01 X68.463319 Y186.710511 Z-0.125000
G01 X74.945073 Y183.993244 Z-0.125000
G01 X77.282770 Y183.199468 Z-0.125000
G01 X79.514184 Y182.598680 Z-0.125000
G01 X82.064393 Y182.101767 Z-0.125000
G01 X84.720833 Y181.784188 Z-0.125000
G01 X87.377299 Y181.651817 Z-0.125000
G01 X90.140022 Y181.701082 Z-0.125000
G01 X92.158923 Y181.861843 Z-0.125000
G01 X94.071567 Y182.120473 Z-0.125000
G01 X95.877954 Y182.468981 Z-0.125000
G01 X97.684342 Y182.926657 Z-0.125000
G01 X99.490729 Y183.496966 Z-0.125000
G01 X101.297117 Y184.174721 Z-0.125000
G01 X107.035076 Y186.716094 Z-0.125000
G01 X108.947720 Y187.467510 Z-0.125000
