%
(Header)
(Generated by gcodetools from Inkscape.)
(Using default header. To add your own header create file "header" in the output dir.)
M3
(Header end.)
G21 (All units in mm)

(Start cutting path id: polyline4791)
(Change tool to Default tool)

G00 Z3.000000
G00 X103.686078 Y135.244944

G00 Z4.875000 (Fast pre-penetrate)
G01 Z-0.125000 F400.0(Penetrate)
G01 X103.759544 Y135.372655 Z-0.125000 F800.000000
G01 X103.365833 Y135.103882 Z-0.125000
G01 X103.240121 Y134.770608 Z-0.125000
G01 X104.155835 Y135.276614 Z-0.125000
G01 X104.504783 Y136.040300 Z-0.125000
G01 X103.976975 Y135.980508 Z-0.125000
G01 X103.155432 Y135.379105 Z-0.125000
G01 X102.467792 Y134.534794 Z-0.125000
G01 X102.376847 Y134.007373 Z-0.125000
G01 X103.182974 Y134.145985 Z-0.125000
G01 X104.436477 Y135.026546 Z-0.125000
G01 X105.218997 Y135.996053 Z-0.125000
G01 X105.257955 Y136.672792 Z-0.125000
G01 X104.908878 Y136.788635 Z-0.125000
G01 X104.358173 Y136.646798 Z-0.125000
G01 X102.997084 Y135.705994 Z-0.125000
G01 X101.702430 Y134.181783 Z-0.125000
G01 X101.427786 Y133.581799 Z-0.125000
G01 X101.472550 Y133.213630 Z-0.125000
G01 X101.921731 Y133.135907 Z-0.125000
G01 X102.739017 Y133.423128 Z-0.125000
G01 X104.748724 Y134.769705 Z-0.125000
G01 X105.922762 Y136.194843 Z-0.125000
G01 X106.102009 Y136.792956 Z-0.125000
G01 X105.976362 Y137.219498 Z-0.125000
G01 X105.482739 Y137.429060 Z-0.125000
G01 X104.742854 Y137.296576 Z-0.125000
G01 X102.904783 Y136.105381 Z-0.125000
G01 X100.945065 Y133.860506 Z-0.125000
G01 X100.497625 Y132.943244 Z-0.125000
G01 X100.545097 Y132.410921 Z-0.125000
G01 X101.143275 Y132.307076 Z-0.125000
G01 X102.286159 Y132.696272 Z-0.125000
G01 X105.065486 Y134.469842 Z-0.125000
G01 X106.593760 Y136.300495 Z-0.125000
G01 X106.825898 Y137.096883 Z-0.125000
G01 X106.651101 Y137.677903 Z-0.125000
G01 X106.011708 Y137.997826 Z-0.125000
G01 X105.071742 Y137.900817 Z-0.125000
G01 X103.993616 Y137.401777 Z-0.125000
G01 X102.822352 Y136.532697 Z-0.125000
G01 X101.372251 Y135.096722 Z-0.125000
G01 X100.176928 Y133.556128 Z-0.125000
G01 X99.560239 Y132.334811 Z-0.125000
G01 X99.604680 Y131.619694 Z-0.125000
G01 X100.338760 Y131.485404 Z-0.125000
G01 X101.812532 Y131.964513 Z-0.125000
G01 X103.752126 Y132.964529 Z-0.125000
G01 X105.370831 Y134.104576 Z-0.125000
G01 X106.493204 Y135.209727 Z-0.125000
G01 X107.235411 Y136.319329 Z-0.125000
G01 X107.513344 Y137.295931 Z-0.125000
G01 X107.296364 Y138.027496 Z-0.125000
G01 X106.502363 Y138.487062 Z-0.125000
G01 X105.347998 Y138.461068 Z-0.125000
G01 X104.126165 Y137.969188 Z-0.125000
G01 X102.778040 Y137.016902 Z-0.125000
G01 X100.942807 Y135.241719 Z-0.125000
G01 X99.413823 Y133.308381 Z-0.125000
G01 X98.621047 Y131.766110 Z-0.125000
G01 X98.668390 Y130.851880 Z-0.125000
G01 X99.531601 Y130.686049 Z-0.125000
G01 X101.311427 Y131.230820 Z-0.125000
G01 X103.750965 Y132.394022 Z-0.125000
G01 X105.649473 Y133.655523 Z-0.125000
G01 X106.930453 Y134.884387 Z-0.125000
G01 X107.820882 Y136.199487 Z-0.125000
G01 X108.164541 Y137.357465 Z-0.125000
G01 X107.928340 Y138.248862 Z-0.125000
G01 X106.988955 Y138.882515 Z-0.125000
G01 X105.621028 Y138.986360 Z-0.125000
G01 X104.266582 Y138.547241 Z-0.125000
G01 X102.781845 Y137.565866 Z-0.125000
G01 X100.555869 Y135.479017 Z-0.125000
G01 X98.692772 Y133.184992 Z-0.125000
G01 X97.699722 Y131.294289 Z-0.125000
G01 X97.581880 Y130.610003 Z-0.125000
G01 X97.735133 Y130.139278 Z-0.125000
G01 X98.675228 Y129.914043 Z-0.125000
G01 X100.686805 Y130.466683 Z-0.125000
G01 X103.675693 Y131.748501 Z-0.125000
G01 X105.838395 Y133.072890 Z-0.125000
G01 X107.289334 Y134.412114 Z-0.125000
G01 X108.340434 Y135.928908 Z-0.125000
G01 X108.780392 Y137.293803 Z-0.125000
G01 X108.547094 Y138.347225 Z-0.125000
G01 X107.489027 Y139.169929 Z-0.125000
G01 X105.875225 Y139.466309 Z-0.125000
G01 X104.409064 Y139.128455 Z-0.125000
G01 X102.795455 Y138.146370 Z-0.125000
G01 X100.142743 Y135.740244 Z-0.125000
G01 X97.949210 Y133.101077 Z-0.125000
G01 X96.780203 Y130.861619 Z-0.125000
G01 X96.649073 Y130.041818 Z-0.125000
G01 X96.834383 Y129.476858 Z-0.125000
G01 X97.227901 Y129.233885 Z-0.125000
G01 X97.842978 Y129.190153 Z-0.125000
G01 X99.983749 Y129.704609 Z-0.125000
G01 X103.626415 Y131.085178 Z-0.125000
G01 X106.057826 Y132.451879 Z-0.125000
G01 X107.640475 Y133.878114 Z-0.125000
G01 X108.816125 Y135.561319 Z-0.125000
G01 X109.363799 Y137.136164 Z-0.125000
G01 X109.158623 Y138.324908 Z-0.125000
G01 X107.948077 Y139.372847 Z-0.125000
G01 X106.056923 Y139.901364 Z-0.125000
G01 X104.491431 Y139.684836 Z-0.125000
G01 X102.837122 Y138.769187 Z-0.125000
G01 X99.712847 Y136.041719 Z-0.125000
G01 X97.221386 Y133.121975 Z-0.125000
G01 X95.892547 Y130.558983 Z-0.125000
G01 X95.745744 Y129.556516 Z-0.125000
G01 X95.970012 Y128.885711 Z-0.125000
G01 X96.379719 Y128.605650 Z-0.125000
G01 X97.000021 Y128.522509 Z-0.125000
G01 X99.077517 Y128.922605 Z-0.125000
G01 X103.575266 Y130.391411 Z-0.125000
G01 X106.217465 Y131.728571 Z-0.125000
G01 X107.884351 Y133.175317 Z-0.125000
G01 X109.215125 Y135.045767 Z-0.125000
G01 X109.909151 Y136.845137 Z-0.125000
G01 X109.767185 Y138.189973 Z-0.125000
G01 X109.285108 Y138.840525 Z-0.125000
G01 X108.471950 Y139.446700 Z-0.125000
G01 X106.250747 Y140.293528 Z-0.125000
G01 X104.594696 Y140.246378 Z-0.125000
G01 X102.866728 Y139.400583 Z-0.125000
G01 X99.161174 Y136.285466 Z-0.125000
G01 X96.440414 Y133.154096 Z-0.125000
G01 X95.553855 Y131.680131 Z-0.125000
G01 X95.010761 Y130.289822 Z-0.125000
G01 X94.879954 Y129.164805 Z-0.125000
G01 X95.166465 Y128.357452 Z-0.125000
G01 X95.593007 Y128.047011 Z-0.125000
G01 X96.211244 Y127.924073 Z-0.125000
G01 X98.214307 Y128.208133 Z-0.125000
G01 X103.629575 Y129.708221 Z-0.125000
G01 X106.395744 Y130.964304 Z-0.125000
G01 X108.105072 Y132.405697 Z-0.125000
G01 X109.572781 Y134.459522 Z-0.125000
G01 X110.433024 Y136.526827 Z-0.125000
G01 X110.363686 Y137.983894 Z-0.125000
G01 X109.884640 Y138.705848 Z-0.125000
G01 X109.028009 Y139.412773 Z-0.125000
G01 X106.368138 Y140.661309 Z-0.125000
G01 X104.627785 Y140.784118 Z-0.125000
G01 X102.875952 Y140.031913 Z-0.125000
G01 X98.637882 Y136.625836 Z-0.125000
G01 X95.698981 Y133.333021 Z-0.125000
G01 X94.726700 Y131.691418 Z-0.125000
G01 X94.169610 Y130.167401 Z-0.125000
G01 X94.057508 Y128.873391 Z-0.125000
G01 X94.404456 Y127.931878 Z-0.125000
G01 X95.430852 Y127.405941 Z-0.125000
G01 X97.336133 Y127.549325 Z-0.125000
G01 X103.706976 Y129.000909 Z-0.125000
G01 X106.562671 Y130.145664 Z-0.125000
G01 X108.315924 Y131.590346 Z-0.125000
G01 X109.874643 Y133.784782 Z-0.125000
G01 X110.931613 Y136.148725 Z-0.125000
G01 X111.064032 Y137.013484 Z-0.125000
G01 X110.950253 Y137.737695 Z-0.125000
G01 X110.481593 Y138.514668 Z-0.125000
G01 X109.556462 Y139.329890 Z-0.125000
G01 X106.474370 Y141.003291 Z-0.125000
G01 X104.617852 Y141.309862 Z-0.125000
G01 X102.896721 Y140.677886 Z-0.125000
G01 X98.046090 Y136.972268 Z-0.125000
G01 X96.331795 Y135.296674 Z-0.125000
G01 X94.966320 Y133.612501 Z-0.125000
G01 X93.944374 Y131.866279 Z-0.125000
G01 X93.359870 Y130.156564 Z-0.125000
G01 X93.281438 Y128.684147 Z-0.125000
G01 X93.701465 Y127.596475 Z-0.125000
G01 X94.758048 Y126.963725 Z-0.125000
G01 X96.596892 Y126.976045 Z-0.125000
G01 X103.809209 Y128.273730 Z-0.125000
G01 X106.723858 Y129.286066 Z-0.125000
G01 X108.424285 Y130.635094 Z-0.125000
G01 X110.068144 Y132.938923 Z-0.125000
G01 X111.395371 Y135.692578 Z-0.125000
G01 X111.606868 Y136.660279 Z-0.125000
G01 X111.538369 Y137.456409 Z-0.125000
G01 X111.096153 Y138.271630 Z-0.125000
G01 X110.154317 Y139.151030 Z-0.125000
G01 X106.534162 Y141.339210 Z-0.125000
G01 X104.597405 Y141.822899 Z-0.125000
G01 X102.854086 Y141.287738 Z-0.125000
G01 X97.427594 Y137.365850 Z-0.125000
G01 X95.616807 Y135.659941 Z-0.125000
G01 X94.241657 Y133.986282 Z-0.125000
G01 X93.181720 Y132.151113 Z-0.125000
G01 X92.590766 Y130.311882 Z-0.125000
G01 X92.543617 Y128.639835 Z-0.125000
G01 X93.037239 Y127.378850 Z-0.125000
G01 X94.172061 Y126.593686 Z-0.125000
G01 X96.061861 Y126.478036 Z-0.125000
G01 X104.000711 Y127.542617 Z-0.125000
G01 X106.930905 Y128.422791 Z-0.125000
G01 X108.611917 Y129.746535 Z-0.125000
G01 X110.300927 Y132.174979 Z-0.125000
G01 X111.862871 Y135.310670 Z-0.125000
G01 X112.140352 Y136.378928 Z-0.125000
G01 X112.111456 Y137.202470 Z-0.125000
G01 X111.697685 Y138.038203 Z-0.125000
G01 X110.787260 Y138.920699 Z-0.125000
G01 X106.587568 Y141.657391 Z-0.125000
G01 X104.526842 Y142.309684 Z-0.125000
G01 X103.677757 Y142.227059 Z-0.125000
G01 X102.770042 Y141.871661 Z-0.125000
G01 X99.938728 Y140.100284 Z-0.125000
G01 X96.845348 Y137.856118 Z-0.125000
G01 X94.947228 Y136.146145 Z-0.125000
G01 X93.524024 Y134.444235 Z-0.125000
G01 X92.405005 Y132.462457 Z-0.125000
G01 X91.835401 Y130.507899 Z-0.125000
G01 X91.841851 Y128.694596 Z-0.125000
G01 X92.425452 Y127.252042 Z-0.125000
G01 X93.000087 Y126.658315 Z-0.125000
G01 X93.711850 Y126.272151 Z-0.125000
G01 X95.698465 Y126.024404 Z-0.125000
G01 X104.224077 Y126.795121 Z-0.125000
G01 X107.143369 Y127.541908 Z-0.125000
G01 X108.749819 Y128.789412 Z-0.125000
G01 X110.505845 Y131.375172 Z-0.125000
G01 X112.324694 Y134.995327 Z-0.125000
G01 X112.653002 Y136.118539 Z-0.125000
G01 X112.660484 Y137.001422 Z-0.125000
G01 X112.269804 Y137.842702 Z-0.125000
G01 X111.362411 Y138.734486 Z-0.125000
G01 X106.637621 Y141.950932 Z-0.125000
G01 X104.397196 Y142.764026 Z-0.125000
G01 X103.538307 Y142.730872 Z-0.125000
G01 X102.591762 Y142.404242 Z-0.125000
G01 X99.419499 Y140.551078 Z-0.125000
G01 X96.243301 Y138.388957 Z-0.125000
G01 X94.271262 Y136.689175 Z-0.125000
G01 X92.811681 Y134.972236 Z-0.125000
G01 X91.669957 Y132.920411 Z-0.125000
G01 X91.106094 Y130.851751 Z-0.125000
G01 X91.152921 Y128.889581 Z-0.125000
G01 X91.802828 Y127.282100 Z-0.125000
G01 X92.427709 Y126.570466 Z-0.125000
G01 X93.238932 Y126.039433 Z-0.125000
G01 X95.414663 Y125.587994 Z-0.125000
G01 X104.404226 Y126.026210 Z-0.125000
G01 X107.315521 Y126.631806 Z-0.125000
G01 X108.846311 Y127.776431 Z-0.125000
G01 X110.539643 Y130.294725 Z-0.125000
G01 X112.739949 Y134.656829 Z-0.125000
G01 X113.140948 Y135.891433 Z-0.125000
G01 X113.188098 Y136.834172 Z-0.125000
G01 X112.848632 Y137.639525 Z-0.125000
G01 X112.017285 Y138.488352 Z-0.125000
G01 X106.966831 Y142.053617 Z-0.125000
G01 X104.353529 Y143.159672 Z-0.125000
G01 X103.436461 Y143.211466 Z-0.125000
G01 X102.496882 Y142.967396 Z-0.125000
G01 X99.391699 Y141.341145 Z-0.125000
G01 X96.000327 Y139.227399 Z-0.125000
G01 X94.003972 Y137.665906 Z-0.125000
G01 X92.442415 Y136.008437 Z-0.125000
G01 X91.198201 Y134.023240 Z-0.125000
G01 X90.501337 Y132.001601 Z-0.125000
G01 X90.348148 Y130.003376 Z-0.125000
G01 X90.781140 Y128.157823 Z-0.125000
G01 X91.448140 Y127.042222 Z-0.125000
G01 X92.417131 Y126.124703 Z-0.125000
G01 X93.557242 Y125.516140 Z-0.125000
G01 X94.911494 Y125.185898 Z-0.125000
G01 X104.746531 Y125.252785 Z-0.125000
G01 X106.537451 Y125.448931 Z-0.125000
G01 X107.771088 Y125.846254 Z-0.125000
G01 X109.189067 Y127.051962 Z-0.125000
G01 X110.842021 Y129.714285 Z-0.125000
G01 X113.284913 Y134.734810 Z-0.125000
G01 X113.659661 Y135.957868 Z-0.125000
G01 X113.666305 Y136.866551 Z-0.125000
G01 X113.381600 Y137.505235 Z-0.125000
G01 X112.735627 Y138.197519 Z-0.125000
G01 X108.784649 Y141.167122 Z-0.125000
G01 X105.979200 Y142.827946 Z-0.125000
G01 X103.797148 Y143.610337 Z-0.125000
G01 X102.930003 Y143.624656 Z-0.125000
G01 X101.939856 Y143.352657 Z-0.125000
G01 X97.973269 Y141.388359 Z-0.125000
G01 X94.575189 Y139.276871 Z-0.125000
G01 X92.271102 Y137.254973 Z-0.125000
G01 X90.754566 Y135.149290 Z-0.125000
G01 X89.852333 Y132.882162 Z-0.125000
G01 X89.610134 Y130.567433 Z-0.125000
G01 X90.049898 Y128.538053 Z-0.125000
G01 X90.792299 Y127.244883 Z-0.125000
G01 X91.858621 Y126.166693 Z-0.125000
G01 X93.285437 Y125.248850 Z-0.125000
G01 X94.716638 Y124.760453 Z-0.125000
G01 X96.709833 Y124.563726 Z-0.125000
G01 X104.868953 Y124.448464 Z-0.125000
G01 X106.621238 Y124.559663 Z-0.125000
G01 X107.860808 Y124.888551 Z-0.125000
G01 X109.191776 Y125.912432 Z-0.125000
G01 X110.601241 Y128.135119 Z-0.125000
G01 X113.702554 Y134.573881 Z-0.125000
G01 X114.129096 Y135.890143 Z-0.125000
G01 X114.146640 Y136.836817 Z-0.125000
G01 X113.868707 Y137.449700 Z-0.125000
G01 X113.238602 Y138.112637 Z-0.125000
G01 X109.082706 Y141.228785 Z-0.125000
G01 X106.093495 Y142.988036 Z-0.125000
G01 X103.583780 Y143.977280 Z-0.125000
G01 X102.658907 Y144.061647 Z-0.125000
G01 X101.691464 Y143.871306 Z-0.125000
G01 X97.814404 Y142.187585 Z-0.125000
G01 X94.225983 Y140.128019 Z-0.125000
G01 X91.754904 Y138.088191 Z-0.125000
G01 X90.156969 Y135.981927 Z-0.125000
G01 X89.133346 Y133.555741 Z-0.125000
G01 X88.843481 Y131.211728 Z-0.125000
G01 X89.268797 Y129.003166 Z-0.125000
G01 X90.008037 Y127.620598 Z-0.125000
G01 X91.073392 Y126.445593 Z-0.125000
G01 X93.075294 Y124.970918 Z-0.125000
G01 X94.537133 Y124.323397 Z-0.125000
G01 X96.333343 Y124.065460 Z-0.125000
G01 X104.963897 Y123.631694 Z-0.125000
G01 X106.739209 Y123.672071 Z-0.125000
G01 X107.935887 Y123.931750 Z-0.125000
G01 X109.203773 Y124.795928 Z-0.125000
G01 X110.409868 Y126.605554 Z-0.125000
G01 X114.145737 Y134.539760 Z-0.125000
G01 X114.591177 Y135.877823 Z-0.125000
G01 X114.620848 Y136.820111 Z-0.125000
G01 X114.359814 Y137.410033 Z-0.125000
G01 X113.758476 Y138.040396 Z-0.125000
G01 X109.390889 Y141.276773 Z-0.125000
G01 X106.245071 Y143.104975 Z-0.125000
G01 X103.351707 Y144.324164 Z-0.125000
G01 X102.353175 Y144.489156 Z-0.125000
G01 X101.357803 Y144.369250 Z-0.125000
G01 X97.553048 Y142.941531 Z-0.125000
G01 X93.987589 Y141.061535 Z-0.125000
G01 X91.255671 Y138.931148 Z-0.125000
G01 X89.508739 Y136.740775 Z-0.125000
G01 X88.399717 Y134.265182 Z-0.125000
G01 X88.048125 Y131.830675 Z-0.125000
G01 X88.459703 Y129.476278 Z-0.125000
G01 X89.184559 Y128.044367 Z-0.125000
G01 X90.281777 Y126.753841 Z-0.125000
G01 X93.095031 Y124.526767 Z-0.125000
G01 X94.322347 Y123.895114 Z-0.125000
G01 X96.245881 Y123.552616 Z-0.125000
G01 X105.104637 Y122.798928 Z-0.125000
G01 X106.884142 Y122.782803 Z-0.125000
G01 X108.130872 Y123.024938 Z-0.125000
G01 X109.359090 Y123.845384 Z-0.125000
G01 X110.418382 Y125.423453 Z-0.125000
G01 X114.662902 Y134.722555 Z-0.125000
G01 X115.066353 Y135.977025 Z-0.125000
G01 X115.078221 Y136.895641 Z-0.125000
G01 X114.221074 Y138.051232 Z-0.125000
G01 X109.778021 Y141.270710 Z-0.125000
G01 X106.518940 Y143.151932 Z-0.125000
G01 X103.150014 Y144.648085 Z-0.125000
G01 X102.088272 Y144.908216 Z-0.125000
G01 X101.066132 Y144.880094 Z-0.125000
G01 X97.427530 Y143.749335 Z-0.125000
G01 X93.768223 Y142.004661 Z-0.125000
G01 X90.854413 Y139.851570 Z-0.125000
G01 X88.923848 Y137.601470 Z-0.125000
G01 X87.692018 Y135.112976 Z-0.125000
G01 X87.224196 Y132.501674 Z-0.125000
G01 X87.564436 Y130.117026 Z-0.125000
G01 X88.277747 Y128.573464 Z-0.125000
G01 X89.378383 Y127.182511 Z-0.125000
G01 X93.040206 Y124.083326 Z-0.125000
G01 X94.072923 Y123.491405 Z-0.125000
G01 X96.165191 Y123.016424 Z-0.125000
G01 X105.025560 Y121.971322 Z-0.125000
G01 X106.985085 Y121.888568 Z-0.125000
G01 X108.293155 Y122.114900 Z-0.125000
G01 X109.507506 Y122.893163 Z-0.125000
G01 X110.446956 Y124.256123 Z-0.125000
G01 X112.454856 Y129.077471 Z-0.125000
G01 X115.142399 Y134.821692 Z-0.125000
G01 X115.540689 Y136.072873 Z-0.125000
G01 X115.555589 Y136.936018 Z-0.125000
G01 X114.752816 Y138.046201 Z-0.125000
G01 X110.464758 Y141.080627 Z-0.125000
G01 X107.106217 Y143.044861 Z-0.125000
G01 X103.243282 Y144.853777 Z-0.125000
G01 X101.037236 Y145.394872 Z-0.125000
G01 X98.146065 Y144.801145 Z-0.125000
G01 X94.041641 Y143.195341 Z-0.125000
G01 X90.849253 Y141.086239 Z-0.125000
G01 X88.583544 Y138.766349 Z-0.125000
G01 X87.090809 Y136.222449 Z-0.125000
G01 X86.408909 Y133.573994 Z-0.125000
G01 X86.595445 Y130.951275 Z-0.125000
G01 X87.291986 Y129.209052 Z-0.125000
G01 X88.413198 Y127.678455 Z-0.125000
G01 X92.916945 Y123.668266 Z-0.125000
G01 X93.932570 Y123.041772 Z-0.125000
G01 X96.248977 Y122.413666 Z-0.125000
G01 X104.983376 Y121.138169 Z-0.125000
G01 X107.038814 Y120.996203 Z-0.125000
G01 X108.418415 Y121.207378 Z-0.125000
G01 X109.676755 Y121.977192 Z-0.125000
G01 X110.547706 Y123.229082 Z-0.125000
G01 X112.587727 Y128.449172 Z-0.125000
G01 X115.652598 Y134.975268 Z-0.125000
G01 X116.022702 Y136.151305 Z-0.125000
G01 X116.053210 Y136.968849 Z-0.125000
G01 X115.364667 Y138.023174 Z-0.125000
G01 X112.037925 Y140.349191 Z-0.125000
G01 X108.137580 Y142.709974 Z-0.125000
G01 X104.611854 Y144.484512 Z-0.125000
G01 X101.625093 Y145.709312 Z-0.125000
G01 X99.727037 Y145.834701 Z-0.125000
G01 X95.187492 Y144.639571 Z-0.125000
G01 X91.732007 Y142.906701 Z-0.125000
G01 X88.683455 Y140.320682 Z-0.125000
G01 X86.683875 Y137.597665 Z-0.125000
G01 X85.642966 Y134.722813 Z-0.125000
G01 X85.497775 Y133.210341 Z-0.125000
G01 X85.632001 Y131.769722 Z-0.125000
G01 X86.292228 Y129.848897 Z-0.125000
G01 X87.471749 Y128.138666 Z-0.125000
G01 X91.007279 Y125.061412 Z-0.125000
G01 X92.767691 Y123.273071 Z-0.125000
G01 X93.895095 Y122.505193 Z-0.125000
G01 X96.353274 Y121.749569 Z-0.125000
G01 X104.992794 Y120.297276 Z-0.125000
G01 X107.125567 Y120.113901 Z-0.125000
G01 X108.567605 Y120.327978 Z-0.125000
G01 X109.821559 Y121.064122 Z-0.125000
G01 X110.669741 Y122.266412 Z-0.125000
G01 X112.784518 Y127.955162 Z-0.125000
G01 X116.131191 Y134.997262 Z-0.125000
G01 X116.582953 Y136.920990 Z-0.125000
G01 X116.286767 Y137.719119 Z-0.125000
G01 X115.427749 Y138.467841 Z-0.125000
G01 X111.931693 Y140.740580 Z-0.125000
G01 X106.666388 Y143.754495 Z-0.125000
G01 X102.136131 Y145.846505 Z-0.125000
G01 X100.022965 Y146.376441 Z-0.125000
G01 X98.470954 Y146.259501 Z-0.125000
G01 X96.242785 Y145.780650 Z-0.125000
G01 X92.595797 Y144.463485 Z-0.125000
G01 X90.840352 Y143.398517 Z-0.125000
G01 X89.159082 Y142.046458 Z-0.125000
G01 X87.562952 Y140.444975 Z-0.125000
G01 X86.341506 Y138.858262 Z-0.125000
G01 X85.445272 Y137.236462 Z-0.125000
G01 X84.888697 Y135.658651 Z-0.125000
G01 X84.632695 Y134.067746 Z-0.125000
G01 X84.687391 Y132.531602 Z-0.125000
G01 X85.299630 Y130.456105 Z-0.125000
G01 X86.522495 Y128.589073 Z-0.125000
G01 X90.466313 Y125.145134 Z-0.125000
G01 X92.855025 Y122.625744 Z-0.125000
G01 X93.855879 Y121.900694 Z-0.125000
G01 X96.392168 Y121.042644 Z-0.125000
G01 X104.866115 Y119.482635 Z-0.125000
G01 X107.097380 Y119.246692 Z-0.125000
G01 X108.630235 Y119.443999 Z-0.125000
G01 X109.938821 Y120.159051 Z-0.125000
G01 X110.767588 Y121.298388 Z-0.125000
G01 X113.003949 Y127.483470 Z-0.125000
G01 X116.649388 Y135.036156 Z-0.125000
G01 X117.130949 Y136.977686 Z-0.125000
G01 X116.867723 Y137.804711 Z-0.125000
G01 X116.085977 Y138.518216 Z-0.125000
G01 X107.444587 Y143.665743 Z-0.125000
G01 X102.508557 Y146.029363 Z-0.125000
G01 X99.811855 Y146.860517 Z-0.125000
G01 X98.382976 Y146.849423 Z-0.125000
G01 X96.324442 Y146.514278 Z-0.125000
G01 X92.440416 Y145.340563 Z-0.125000
G01 X90.766692 Y144.422463 Z-0.125000
G01 X89.020922 Y143.109942 Z-0.125000
G01 X87.201105 Y141.360688 Z-0.125000
G01 X85.765710 Y139.620594 Z-0.125000
G01 X84.759825 Y137.958932 Z-0.125000
G01 X84.109209 Y136.332229 Z-0.125000
G01 X83.777741 Y134.678630 Z-0.125000
G01 X83.784320 Y133.070504 Z-0.125000
G01 X84.383400 Y130.884582 Z-0.125000
G01 X85.590850 Y128.999748 Z-0.125000
G01 X89.799507 Y125.342699 Z-0.125000
G01 X92.765627 Y122.044079 Z-0.125000
G01 X93.819823 Y121.215634 Z-0.125000
G01 X96.456088 Y120.281860 Z-0.125000
G01 X104.916296 Y118.651804 Z-0.125000
G01 X107.124342 Y118.401929 Z-0.125000
G01 X108.739563 Y118.600139 Z-0.125000
G01 X110.030218 Y119.267074 Z-0.125000
G01 X110.873498 Y120.400025 Z-0.125000
G01 X113.191904 Y126.890582 Z-0.125000
G01 X116.814252 Y134.187265 Z-0.125000
G01 X117.603867 Y136.214322 Z-0.125000
G01 X117.704230 Y137.278194 Z-0.125000
G01 X117.335158 Y138.106445 Z-0.125000
G01 X114.196047 Y140.187231 Z-0.125000
G01 X106.459019 Y144.594292 Z-0.125000
G01 X101.292916 Y146.892187 Z-0.125000
G01 X98.683935 Y147.413415 Z-0.125000
G01 X94.973479 Y146.913859 Z-0.125000
G01 X92.566127 Y146.259953 Z-0.125000
G01 X90.581511 Y145.313730 Z-0.125000
G01 X88.568838 Y143.860599 Z-0.125000
G01 X86.453737 Y141.805806 Z-0.125000
G01 X84.776402 Y139.716764 Z-0.125000
G01 X83.647321 Y137.693835 Z-0.125000
G01 X82.999155 Y135.569059 Z-0.125000
G01 X82.898663 Y133.612888 Z-0.125000
G01 X83.412216 Y131.441737 Z-0.125000
G01 X84.624890 Y129.436932 Z-0.125000
G01 X85.927736 Y128.115704 Z-0.125000
G01 X89.286599 Y125.377271 Z-0.125000
G01 X92.655912 Y121.375466 Z-0.125000
G01 X93.733522 Y120.485101 Z-0.125000
G01 X96.351210 Y119.522496 Z-0.125000
G01 X105.167977 Y117.804848 Z-0.125000
G01 X107.318359 Y117.583417 Z-0.125000
G01 X108.993824 Y117.823166 Z-0.125000
G01 X110.157800 Y118.440436 Z-0.125000
G01 X110.958445 Y119.506048 Z-0.125000
G01 X113.535433 Y126.597169 Z-0.125000
G01 X118.000996 Y135.559126 Z-0.125000
G01 X118.327175 Y136.758900 Z-0.125000
G01 X118.275897 Y137.705703 Z-0.125000
G01 X117.817234 Y138.420368 Z-0.125000
G01 X116.828829 Y139.123488 Z-0.125000
G01 X111.569329 Y141.997244 Z-0.125000
G01 X107.053520 Y144.774184 Z-0.125000
G01 X103.296172 Y146.578843 Z-0.125000
G01 X99.399891 Y147.845891 Z-0.125000
G01 X97.976752 Y147.935482 Z-0.125000
G01 X96.137584 Y147.746883 Z-0.125000
G01 X93.051880 Y147.162573 Z-0.125000
G01 X91.031531 Y146.459066 Z-0.125000
G01 X89.038337 Y145.283351 Z-0.125000
G01 X86.955745 Y143.511909 Z-0.125000
G01 X84.654238 Y140.929567 Z-0.125000
G01 X83.152279 Y138.629544 Z-0.125000
G01 X82.272750 Y136.319716 Z-0.125000
G01 X82.054223 Y134.013436 Z-0.125000
G01 X82.550038 Y131.769657 Z-0.125000
G01 X83.718852 Y129.795297 Z-0.125000
G01 X85.067299 Y128.417566 Z-0.125000
G01 X88.657461 Y125.496855 Z-0.125000
G01 X90.895564 Y122.879360 Z-0.125000
G01 X92.487695 Y120.664993 Z-0.125000
G01 X93.525766 Y119.766888 Z-0.125000
G01 X96.168480 Y118.754231 Z-0.125000
G01 X105.212998 Y117.022715 Z-0.125000
G01 X107.436653 Y116.798446 Z-0.125000
G01 X109.123922 Y117.029681 Z-0.125000
G01 X110.281448 Y117.639855 Z-0.125000
G01 X111.073127 Y118.699728 Z-0.125000
G01 X113.786856 Y126.023953 Z-0.125000
G01 X118.638971 Y135.503527 Z-0.125000
G01 X119.010107 Y136.810952 Z-0.125000
G01 X118.979211 Y137.779427 Z-0.125000
G01 X118.590982 Y138.476742 Z-0.125000
G01 X117.700166 Y139.165349 Z-0.125000
G01 X112.058759 Y142.158624 Z-0.125000
G01 X107.084803 Y145.356946 Z-0.125000
G01 X103.984780 Y146.864000 Z-0.125000
G01 X99.498963 Y148.330677 Z-0.125000
G01 X97.953983 Y148.479479 Z-0.125000
G01 X96.144421 Y148.331128 Z-0.125000
G01 X92.731571 Y147.749076 Z-0.125000
G01 X90.712834 Y147.121099 Z-0.125000
G01 X88.710287 Y146.013432 Z-0.125000
G01 X86.717480 Y144.378667 Z-0.125000
G01 X84.220472 Y141.609015 Z-0.125000
G01 X82.442387 Y138.972364 Z-0.125000
G01 X81.504936 Y136.614032 Z-0.125000
G01 X81.256997 Y134.257635 Z-0.125000
G01 X81.712306 Y132.090805 Z-0.125000
G01 X82.892858 Y130.056460 Z-0.125000
G01 X84.187125 Y128.723170 Z-0.125000
G01 X88.031033 Y125.575287 Z-0.125000
G01 X90.375948 Y122.780739 Z-0.125000
G01 X92.163709 Y120.050110 Z-0.125000
G01 X93.328007 Y118.993398 Z-0.125000
G01 X94.509656 Y118.403283 Z-0.125000
G01 X96.013034 Y117.959842 Z-0.125000
G01 X105.384247 Y116.255030 Z-0.125000
G01 X107.483867 Y116.048241 Z-0.125000
G01 X109.273305 Y116.267478 Z-0.125000
G01 X110.413093 Y116.867978 Z-0.125000
G01 X111.192775 Y117.908371 Z-0.125000
G01 X114.068336 Y125.452478 Z-0.125000
G01 X119.321064 Y135.406647 Z-0.125000
G01 X119.727868 Y136.732326 Z-0.125000
G01 X119.738898 Y137.814322 Z-0.125000
G01 X119.345896 Y138.588844 Z-0.125000
G01 X118.527836 Y139.254231 Z-0.125000
G01 X115.692072 Y140.884933 Z-0.125000
G01 X112.669837 Y142.301428 Z-0.125000
G01 X108.022963 Y145.512134 Z-0.125000
G01 X104.847022 Y147.168313 Z-0.125000
G01 X102.326020 Y148.140465 Z-0.125000
G01 X99.988458 Y148.791210 Z-0.125000
G01 X98.199536 Y149.034700 Z-0.125000
G01 X96.461957 Y148.950527 Z-0.125000
G01 X92.401973 Y148.284236 Z-0.125000
G01 X90.486760 Y147.755332 Z-0.125000
G01 X88.491953 Y146.752930 Z-0.125000
G01 X86.613957 Y145.304120 Z-0.125000
G01 X84.056512 Y142.552206 Z-0.125000
G01 X81.868203 Y139.425802 Z-0.125000
G01 X80.834776 Y137.033092 Z-0.125000
G01 X80.503502 Y134.629739 Z-0.125000
G01 X80.910887 Y132.404536 Z-0.125000
G01 X82.002687 Y130.413212 Z-0.125000
G01 X83.300695 Y129.025484 Z-0.125000
G01 X87.350552 Y125.662363 Z-0.125000
G01 X89.840401 Y122.638193 Z-0.125000
G01 X91.819405 Y119.387303 Z-0.125000
G01 X93.068264 Y118.222295 Z-0.125000
G01 X94.227144 Y117.627923 Z-0.125000
G01 X95.782832 Y117.168937 Z-0.125000
G01 X101.000277 Y116.420860 Z-0.125000
G01 X105.592068 Y115.523401 Z-0.125000
G01 X107.765993 Y115.334156 Z-0.125000
G01 X109.451907 Y115.539719 Z-0.125000
G01 X110.566798 Y116.126029 Z-0.125000
G01 X111.332032 Y117.132623 Z-0.125000
G01 X113.098700 Y121.982997 Z-0.125000
G01 X114.376971 Y124.880037 Z-0.125000
G01 X120.042373 Y135.257522 Z-0.125000
G01 X120.507486 Y136.694658 Z-0.125000
G01 X120.552378 Y137.796004 Z-0.125000
G01 X120.164666 Y138.659859 Z-0.125000
G01 X119.301778 Y139.387811 Z-0.125000
G01 X116.202658 Y141.171960 Z-0.125000
G01 X113.164297 Y142.559043 Z-0.125000
G01 X108.804257 Y145.830766 Z-0.125000
G01 X105.497058 Y147.655550 Z-0.125000
G01 X102.958512 Y148.640086 Z-0.125000
G01 X100.462472 Y149.327339 Z-0.125000
G01 X98.448250 Y149.623202 Z-0.125000
G01 X96.592248 Y149.564765 Z-0.125000
G01 X90.146971 Y148.283591 Z-0.125000
G01 X88.153970 Y147.348721 Z-0.125000
G01 X86.283843 Y145.955704 Z-0.125000
G01 X83.718852 Y143.205467 Z-0.125000
G01 X81.275895 Y139.703606 Z-0.125000
G01 X80.142686 Y137.126101 Z-0.125000
G01 X79.815152 Y134.694239 Z-0.125000
G01 X80.201446 Y132.579203 Z-0.125000
G01 X81.297503 Y130.554533 Z-0.125000
G01 X82.605444 Y129.152550 Z-0.125000
G01 X86.557712 Y125.821357 Z-0.125000
G01 X89.179786 Y122.594010 Z-0.125000
G01 X91.401313 Y118.753070 Z-0.125000
G01 X92.735376 Y117.472541 Z-0.125000
G01 X94.275777 Y116.713112 Z-0.125000
G01 X96.149646 Y116.263350 Z-0.125000
G01 X100.927908 Y115.756699 Z-0.125000
G01 X106.675870 Y114.722111 Z-0.125000
G01 X108.424349 Y114.663351 Z-0.125000
G01 X109.671531 Y114.847758 Z-0.125000
G01 X110.757268 Y115.414201 Z-0.125000
G01 X111.506183 Y116.372743 Z-0.125000
G01 X113.247955 Y121.142426 Z-0.125000
G01 X114.382518 Y123.659042 Z-0.125000
G01 X120.856369 Y135.188829 Z-0.125000
G01 X121.351991 Y136.712524 Z-0.125000
G01 X121.401914 Y137.797552 Z-0.125000
G01 X121.044904 Y138.676500 Z-0.125000
G01 X120.144735 Y139.477532 Z-0.125000
G01 X116.852694 Y141.401324 Z-0.125000
G01 X113.724484 Y142.815046 Z-0.125000
G01 X109.850197 Y146.049036 Z-0.125000
G01 X106.234751 Y148.188776 Z-0.125000
G01 X103.746128 Y149.176214 Z-0.125000
G01 X101.036526 Y149.923065 Z-0.125000
G01 X98.786104 Y150.261112 Z-0.125000
G01 X96.806971 Y150.225379 Z-0.125000
G01 X89.700112 Y148.724710 Z-0.125000
G01 X87.814440 Y147.883366 Z-0.125000
G01 X85.962179 Y146.554591 Z-0.125000
G01 X83.417828 Y143.832992 Z-0.125000
G01 X80.748217 Y139.955609 Z-0.125000
G01 X79.562375 Y137.353530 Z-0.125000
G01 X79.184595 Y134.894771 Z-0.125000
G01 X79.542573 Y132.744583 Z-0.125000
G01 X80.626311 Y130.682050 Z-0.125000
G01 X81.835889 Y129.344826 Z-0.125000
G01 X84.590834 Y127.124331 Z-0.125000
G01 X85.723269 Y125.975513 Z-0.125000
G01 X88.509368 Y122.479779 Z-0.125000
G01 X90.898273 Y118.169856 Z-0.125000
G01 X92.405714 Y116.702341 Z-0.125000
G01 X93.942245 Y115.932011 Z-0.125000
G01 X95.773866 Y115.490376 Z-0.125000
G01 X100.889530 Y115.124142 Z-0.125000
G01 X107.040168 Y114.066141 Z-0.125000
G01 X108.747561 Y114.012412 Z-0.125000
G01 X109.944884 Y114.191272 Z-0.125000
G01 X110.998951 Y114.731915 Z-0.125000
G01 X111.781794 Y115.722256 Z-0.125000
G01 X114.268997 Y122.221842 Z-0.125000
G01 X121.097214 Y133.806519 Z-0.125000
G01 X122.030214 Y135.918781 Z-0.125000
G01 X122.313048 Y137.447120 Z-0.125000
G01 X122.064205 Y138.483772 Z-0.125000
G01 X121.274590 Y139.353884 Z-0.125000
G01 X117.478026 Y141.647006 Z-0.125000
G01 X114.195209 Y143.155931 Z-0.125000
G01 X111.831072 Y145.571023 Z-0.125000
G01 X109.374054 Y147.422316 Z-0.125000
G01 X107.045973 Y148.761282 Z-0.125000
G01 X104.534001 Y149.789420 Z-0.125000
G01 X101.669405 Y150.582776 Z-0.125000
G01 X98.999988 Y150.969908 Z-0.125000
G01 X95.887709 Y150.749446 Z-0.125000
G01 X88.488664 Y148.842811 Z-0.125000
G01 X86.794687 Y147.958896 Z-0.125000
G01 X85.304661 Y146.802337 Z-0.125000
G01 X83.822052 Y145.258776 Z-0.125000
G01 X82.275266 Y143.259777 Z-0.125000
G01 X80.468026 Y140.494576 Z-0.125000
G01 X79.413185 Y138.500994 Z-0.125000
G01 X78.797592 Y136.635317 Z-0.125000
G01 X78.619120 Y134.939019 Z-0.125000
G01 X78.981741 Y132.768512 Z-0.125000
G01 X79.993303 Y130.796990 Z-0.125000
G01 X81.181789 Y129.433707 Z-0.125000
G01 X84.799880 Y126.187204 Z-0.125000
G01 X87.778513 Y122.366452 Z-0.125000
G01 X90.296419 Y117.665720 Z-0.125000
G01 X92.079600 Y115.918853 Z-0.125000
G01 X93.620388 Y115.146911 Z-0.125000
G01 X95.543599 Y114.693860 Z-0.125000
G01 X100.891078 Y114.523449 Z-0.125000
G01 X107.735742 Y113.420878 Z-0.125000
G01 X110.379359 Y113.596771 Z-0.125000
G01 X111.378150 Y114.137930 Z-0.125000
G01 X112.125130 Y115.091763 Z-0.125000
G01 X114.647615 Y121.717577 Z-0.125000
G01 X121.830004 Y133.391394 Z-0.125000
G01 X122.875364 Y135.640526 Z-0.125000
G01 X123.230052 Y137.400680 Z-0.125000
G01 X123.001011 Y138.420885 Z-0.125000
G01 X122.254869 Y139.306863 Z-0.125000
G01 X118.163667 Y141.854117 Z-0.125000
G01 X114.740819 Y143.466178 Z-0.125000
G01 X112.604820 Y146.097992 Z-0.125000
G01 X110.052213 Y148.095508 Z-0.125000
G01 X107.631702 Y149.506585 Z-0.125000
G01 X105.122504 Y150.534723 Z-0.125000
G01 X102.168059 Y151.336142 Z-0.125000
G01 X99.217999 Y151.735787 Z-0.125000
G01 X95.925184 Y151.458951 Z-0.125000
G01 X88.050189 Y149.214527 Z-0.125000
G01 X86.470120 Y148.419817 Z-0.125000
G01 X85.007701 Y147.323308 Z-0.125000
G01 X83.564889 Y145.827864 Z-0.125000
G01 X82.054223 Y143.841313 Z-0.125000
G01 X78.928399 Y138.560012 Z-0.125000
G01 X78.302100 Y136.689498 Z-0.125000
G01 X78.115048 Y134.982879 Z-0.125000
G01 X78.472703 Y132.788185 Z-0.125000
G01 X79.477041 Y130.790088 Z-0.125000
G01 X80.642371 Y129.414551 Z-0.125000
G01 X83.407121 Y126.922187 Z-0.125000
G01 X86.017714 Y123.641691 Z-0.125000
G01 X87.410151 Y121.544200 Z-0.125000
G01 X89.582657 Y117.274847 Z-0.125000
G01 X90.480826 Y116.161762 Z-0.125000
G01 X91.648092 Y115.201414 Z-0.125000
G01 X93.431724 Y114.321498 Z-0.125000
G01 X95.342809 Y113.898375 Z-0.125000
G01 X100.709960 Y113.968551 Z-0.125000
G01 X107.767089 Y112.862368 Z-0.125000
G01 X109.503507 Y112.799351 Z-0.125000
G01 X110.801257 Y113.005881 Z-0.125000
G01 X111.838812 Y113.573679 Z-0.125000
G01 X112.546770 Y114.479395 Z-0.125000
G01 X115.156782 Y121.364308 Z-0.125000
G01 X122.557441 Y132.898223 Z-0.125000
G01 X123.779596 Y135.433608 Z-0.125000
G01 X124.169050 Y137.292061 Z-0.125000
G01 X123.839517 Y138.537243 Z-0.125000
G01 X122.892714 Y139.495334 Z-0.125000
G01 X118.805318 Y142.070839 Z-0.125000
G01 X115.207609 Y143.846925 Z-0.125000
G01 X113.407400 Y146.678690 Z-0.125000
G01 X110.892590 Y148.740836 Z-0.125000
G01 X108.241426 Y150.292524 Z-0.125000
G01 X105.599937 Y151.366328 Z-0.125000
G01 X102.446572 Y152.183034 Z-0.125000
G01 X99.283338 Y152.555395 Z-0.125000
G01 X97.514864 Y152.491927 Z-0.125000
G01 X95.871197 Y152.183679 Z-0.125000
G01 X87.514771 Y149.518518 Z-0.125000
G01 X85.931993 Y148.710649 Z-0.125000
G01 X84.611281 Y147.715149 Z-0.125000
G01 X83.325205 Y146.374699 Z-0.125000
G01 X81.866655 Y144.415496 Z-0.125000
G01 X78.509404 Y138.620256 Z-0.125000
G01 X77.869237 Y136.750064 Z-0.125000
G01 X77.669479 Y134.879743 Z-0.125000
G01 X78.011460 Y132.808502 Z-0.125000
G01 X78.997028 Y130.770738 Z-0.125000
G01 X80.127077 Y129.371271 Z-0.125000
G01 X82.517788 Y127.062217 Z-0.125000
G01 X85.228744 Y123.500048 Z-0.125000
G01 X86.610538 Y121.356245 Z-0.125000
G01 X88.957582 Y116.705050 Z-0.125000
G01 X89.935990 Y115.508243 Z-0.125000
G01 X91.201426 Y114.494360 Z-0.125000
G01 X93.129088 Y113.550588 Z-0.125000
G01 X95.166723 Y113.111146 Z-0.125000
G01 X100.804260 Y113.418749 Z-0.125000
G01 X108.389648 Y112.281283 Z-0.125000
G01 X110.188438 Y112.244969 Z-0.125000
G01 X111.412012 Y112.476010 Z-0.125000
G01 X112.388872 Y113.036455 Z-0.125000
G01 X113.053744 Y113.883798 Z-0.125000
G01 X114.817445 Y118.958504 Z-0.125000
G01 X115.720194 Y120.989560 Z-0.125000
G01 X117.022266 Y123.179416 Z-0.125000
G01 X123.378790 Y132.515928 Z-0.125000
G01 X124.684538 Y135.159159 Z-0.125000
G01 X125.118949 Y137.118361 Z-0.125000
G01 X124.834050 Y138.350127 Z-0.125000
G01 X123.876411 Y139.386715 Z-0.125000
G01 X119.604995 Y142.173717 Z-0.125000
G01 X115.750703 Y144.170395 Z-0.125000
G01 X115.310358 Y144.765541 Z-0.125000
G01 X114.707859 Y146.478480 Z-0.125000
G01 X114.168183 Y147.386777 Z-0.125000
G01 X113.175520 Y148.405755 Z-0.125000
G01 X111.770377 Y149.434345 Z-0.125000
G01 X108.865597 Y151.108004 Z-0.125000
G01 X106.096010 Y152.223604 Z-0.125000
G01 X102.594665 Y153.084106 Z-0.125000
G01 X99.398343 Y153.406931 Z-0.125000
G01 X97.531698 Y153.304052 Z-0.125000
G01 X95.798441 Y152.930143 Z-0.125000
G01 X87.114867 Y149.860435 Z-0.125000
G01 X85.521770 Y149.054501 Z-0.125000
G01 X84.230147 Y148.090606 Z-0.125000
G01 X82.997543 Y146.783761 Z-0.125000
G01 X81.804090 Y145.139321 Z-0.125000
G01 X78.081959 Y138.536792 Z-0.125000
G01 X77.456434 Y136.668664 Z-0.125000
G01 X77.271382 Y134.943405 Z-0.125000
G01 X77.592207 Y132.834367 Z-0.125000
G01 X78.549911 Y130.740874 Z-0.125000
G01 X79.556247 Y129.393524 Z-0.125000
G01 X81.710564 Y127.096274 Z-0.125000
G01 X84.829292 Y122.731396 Z-0.125000
G01 X88.463831 Y115.910533 Z-0.125000
G01 X89.367225 Y114.862593 Z-0.125000
G01 X90.611633 Y113.883862 Z-0.125000
G01 X92.678423 Y112.852628 Z-0.125000
G01 X95.009084 Y112.340365 Z-0.125000
G01 X96.615727 Y112.344235 Z-0.125000
G01 X101.061359 Y112.887588 Z-0.125000
G01 X108.830251 Y111.741220 Z-0.125000
G01 X110.730113 Y111.699101 Z-0.125000
G01 X112.018252 Y111.938785 Z-0.125000
G01 X112.952091 Y112.454402 Z-0.125000
G01 X113.648696 Y113.304196 Z-0.125000
G01 X115.417880 Y118.493713 Z-0.125000
G01 X116.438472 Y120.777611 Z-0.125000
G01 X117.693522 Y122.836983 Z-0.125000
G01 X121.848838 Y128.512382 Z-0.125000
G01 X124.069526 Y131.872794 Z-0.125000
G01 X125.577870 Y134.816210 Z-0.125000
G01 X126.068654 Y136.879065 Z-0.125000
G01 X125.793753 Y138.181330 Z-0.125000
G01 X124.890811 Y139.208307 Z-0.125000
G01 X120.343913 Y142.280723 Z-0.125000
G01 X116.318888 Y144.461485 Z-0.125000
G01 X115.849002 Y145.207885 Z-0.125000
G01 X115.448131 Y147.059372 Z-0.125000
G01 X115.011398 Y148.047520 Z-0.125000
G01 X114.184050 Y149.033152 Z-0.125000
G01 X112.813866 Y150.083736 Z-0.125000
G01 X109.496154 Y151.942189 Z-0.125000
G01 X106.600146 Y153.094168 Z-0.125000
G01 X103.085191 Y153.942414 Z-0.125000
G01 X99.556433 Y154.282202 Z-0.125000
G01 X97.608647 Y154.149202 Z-0.125000
G01 X95.797538 Y153.718146 Z-0.125000
G01 X86.985737 Y150.311294 Z-0.125000
G01 X85.350908 Y149.521421 Z-0.125000
G01 X84.067477 Y148.635442 Z-0.125000
G01 X82.976128 Y147.544093 Z-0.125000
G01 X81.842661 Y146.007304 Z-0.125000
G01 X77.706695 Y138.474484 Z-0.125000
G01 X77.089426 Y136.609517 Z-0.125000
G01 X76.914758 Y134.870067 Z-0.125000
G01 X77.249387 Y132.723297 Z-0.125000
G01 X78.201866 Y130.582526 Z-0.125000
G01 X80.846773 Y127.218115 Z-0.125000
G01 X81.942121 Y125.318124 Z-0.125000
G01 X84.194994 Y122.204233 Z-0.125000
G01 X87.636999 Y115.579774 Z-0.125000
G01 X88.672038 Y114.332076 Z-0.125000
G01 X89.988300 Y113.297166 Z-0.125000
G01 X92.355727 Y112.136608 Z-0.125000
G01 X94.862667 Y111.594353 Z-0.125000
G01 X96.690676 Y111.634988 Z-0.125000
G01 X101.140630 Y112.376163 Z-0.125000
G01 X109.500153 Y111.201609 Z-0.125000
G01 X111.495992 Y111.182646 Z-0.125000
G01 X112.826766 Y111.463481 Z-0.125000
G01 X113.766668 Y112.034568 Z-0.125000
G01 X114.504166 Y113.064964 Z-0.125000
G01 X116.229555 Y118.393737 Z-0.125000
G01 X117.658886 Y121.317093 Z-0.125000
G01 X123.118918 Y128.742649 Z-0.125000
G01 X125.433905 Y132.350807 Z-0.125000
G01 X126.583562 Y134.751967 Z-0.125000
G01 X127.012555 Y136.708332 Z-0.125000
G01 X126.756294 Y137.952740 Z-0.125000
G01 X125.836001 Y139.035703 Z-0.125000
G01 X121.121982 Y142.327809 Z-0.125000
G01 X117.782340 Y144.062356 Z-0.125000
G01 X116.912744 Y144.708200 Z-0.125000
G01 X116.400223 Y145.637781 Z-0.125000
G01 X116.164796 Y147.740110 Z-0.125000
G01 X115.807141 Y148.823590 Z-0.125000
G01 X115.015333 Y149.868885 Z-0.125000
G01 X113.753058 Y150.853872 Z-0.125000
G01 X110.638716 Y152.543785 Z-0.125000
G01 X107.653246 Y153.788387 Z-0.125000
G01 X104.328632 Y154.667141 Z-0.125000
G01 X101.075807 Y155.120322 Z-0.125000
G01 X98.821128 Y155.144316 Z-0.125000
G01 X96.847090 Y154.835681 Z-0.125000
G01 X90.745730 Y152.483800 Z-0.125000
G01 X84.979901 Y149.861016 Z-0.125000
G01 X83.708403 Y148.998967 Z-0.125000
G01 X82.574097 Y147.840280 Z-0.125000
G01 X80.915982 Y145.269290 Z-0.125000
G01 X77.439792 Y138.594713 Z-0.125000
G01 X76.791046 Y136.737744 Z-0.125000
G01 X76.586193 Y134.818145 Z-0.125000
G01 X76.929916 Y132.617194 Z-0.125000
G01 X77.941542 Y130.287371 Z-0.125000
G01 X80.046838 Y127.304481 Z-0.125000
G01 X81.066011 Y125.223373 Z-0.125000
G01 X83.670476 Y121.440805 Z-0.125000
G01 X86.875248 Y115.157425 Z-0.125000
G01 X87.952793 Y113.828327 Z-0.125000
G01 X89.334136 Y112.737753 Z-0.125000
G01 X92.021614 Y111.457676 Z-0.125000
G01 X94.719670 Y110.881429 Z-0.125000
G01 X96.794393 Y110.956959 Z-0.125000
G01 X99.969946 Y111.731610 Z-0.125000
G01 X101.266922 Y111.867512 Z-0.125000
G01 X110.267451 Y110.670705 Z-0.125000
G01 X112.224525 Y110.672640 Z-0.125000
G01 X113.730160 Y111.016622 Z-0.125000
G01 X114.666514 Y111.646856 Z-0.125000
G01 X115.323774 Y112.633585 Z-0.125000
G01 X116.956798 Y117.892310 Z-0.125000
G01 X118.383097 Y120.869589 Z-0.125000
G01 X123.963939 Y128.337908 Z-0.125000
G01 X126.434372 Y132.204004 Z-0.125000
G01 X127.566743 Y134.647541 Z-0.125000
G01 X127.942136 Y136.491610 Z-0.125000
G01 X127.665816 Y137.771687 Z-0.125000
G01 X126.696438 Y138.885740 Z-0.125000
G01 X121.933334 Y142.313425 Z-0.125000
G01 X118.495651 Y144.166202 Z-0.125000
G01 X117.468158 Y144.973039 Z-0.125000
G01 X116.959507 Y146.046456 Z-0.125000
G01 X116.873463 Y148.538820 Z-0.125000
G01 X116.608108 Y149.619139 Z-0.125000
G01 X115.855903 Y150.730482 Z-0.125000
G01 X114.572730 Y151.736626 Z-0.125000
G01 X111.653180 Y153.234521 Z-0.125000
G01 X108.170927 Y154.648178 Z-0.125000
G01 X104.900364 Y155.508937 Z-0.125000
G01 X101.658956 Y155.988047 Z-0.125000
G01 X99.279081 Y156.056611 Z-0.125000
G01 X97.342325 Y155.801125 Z-0.125000
G01 X95.423822 Y155.199529 Z-0.125000
G01 X92.008327 Y153.763747 Z-0.125000
G01 X84.633856 Y150.216091 Z-0.125000
G01 X83.362938 Y149.372102 Z-0.125000
G01 X82.363051 Y148.371248 Z-0.125000
G01 X80.984933 Y146.212287 Z-0.125000
G01 X77.064400 Y138.448749 Z-0.125000
G01 X76.441712 Y136.583652 Z-0.125000
G01 X76.273107 Y134.789893 Z-0.125000
G01 X76.501891 Y132.991684 Z-0.125000
G01 X77.043824 Y131.307705 Z-0.125000
G01 X79.426279 Y127.162516 Z-0.125000
G01 X80.213314 Y125.088244 Z-0.125000
G01 X83.099647 Y120.724398 Z-0.125000
G01 X86.202895 Y114.616846 Z-0.125000
G01 X87.337072 Y113.237309 Z-0.125000
G01 X88.655268 Y112.209623 Z-0.125000
G01 X91.673763 Y110.821056 Z-0.125000
G01 X94.744245 Y110.197207 Z-0.125000
G01 X96.920169 Y110.314534 Z-0.125000
G01 X100.136164 Y111.196771 Z-0.125000
G01 X101.435978 Y111.355636 Z-0.125000
G01 X110.797452 Y110.164570 Z-0.125000
G01 X113.035748 Y110.176374 Z-0.125000
G01 X114.606077 Y110.548412 Z-0.125000
G01 X115.560104 Y111.206318 Z-0.125000
G01 X116.210140 Y112.221620 Z-0.125000
G01 X117.665981 Y117.168486 Z-0.125000
G01 X118.913678 Y119.979224 Z-0.125000
G01 X120.158667 Y121.940878 Z-0.125000
G01 X124.074234 Y126.905675 Z-0.125000
G01 X126.569952 Y130.571238 Z-0.125000
G01 X128.257866 Y133.788523 Z-0.125000
G01 X128.855721 Y136.238317 Z-0.125000
G01 X128.566114 Y137.554320 Z-0.125000
G01 X127.652400 Y138.619353 Z-0.125000
G01 X122.903421 Y142.147981 Z-0.125000
G01 X119.135754 Y144.271467 Z-0.125000
G01 X118.039568 Y145.194276 Z-0.125000
G01 X117.509309 Y146.531113 Z-0.125000
G01 X117.593418 Y149.236393 Z-0.125000
G01 X117.403786 Y150.421525 Z-0.125000
G01 X116.784581 Y151.504359 Z-0.125000
G01 X115.535723 Y152.546301 Z-0.125000
G01 X113.072062 Y153.780131 Z-0.125000
G01 X108.676482 Y155.491522 Z-0.125000
G01 X105.482739 Y156.332673 Z-0.125000
G01 X102.104203 Y156.858288 Z-0.125000
G01 X99.636607 Y156.963101 Z-0.125000
G01 X97.660764 Y156.731093 Z-0.125000
G01 X95.834045 Y156.172777 Z-0.125000
G01 X92.755888 Y154.872576 Z-0.125000
G01 X84.316126 Y150.595483 Z-0.125000
G01 X83.030825 Y149.760846 Z-0.125000
G01 X82.148006 Y148.907634 Z-0.125000
G01 X80.946878 Y147.016479 Z-0.125000
G01 X76.701971 Y138.346773 Z-0.125000
G01 X76.133399 Y136.623707 Z-0.125000
G01 X75.963182 Y134.785120 Z-0.125000
G01 X76.128755 Y133.251492 Z-0.125000
G01 X76.572583 Y131.613631 Z-0.125000
G01 X78.787014 Y127.132910 Z-0.125000
G01 X79.470849 Y124.760066 Z-0.125000
G01 X82.392786 Y120.261672 Z-0.125000
G01 X85.549827 Y114.082201 Z-0.125000
G01 X86.608345 Y112.781355 Z-0.125000
G01 X87.960856 Y111.713420 Z-0.125000
G01 X91.311786 Y110.229135 Z-0.125000
G01 X94.779849 Y109.559168 Z-0.125000
G01 X97.060909 Y109.709906 Z-0.125000
G01 X100.228464 Y110.641809 Z-0.125000
G01 X101.642186 Y110.834537 Z-0.125000
G01 X111.379762 Y109.655339 Z-0.125000
G01 X113.918566 Y109.693265 Z-0.125000
G01 X115.546043 Y110.102520 Z-0.125000
G01 X116.430022 Y110.705923 Z-0.125000
G01 X117.095151 Y111.710389 Z-0.125000
G01 X118.556088 Y116.817797 Z-0.125000
G01 X119.810687 Y119.643499 Z-0.125000
G01 X121.067028 Y121.618053 Z-0.125000
G01 X124.871719 Y126.414439 Z-0.125000
G01 X127.389625 Y130.121025 Z-0.125000
G01 X129.128881 Y133.431384 Z-0.125000
G01 X129.756857 Y135.962641 Z-0.125000
G01 X129.511046 Y137.208533 Z-0.125000
G01 X128.609329 Y138.322973 Z-0.125000
G01 X123.766309 Y142.011305 Z-0.125000
G01 X119.797722 Y144.321519 Z-0.125000
G01 X118.624845 Y145.368298 Z-0.125000
G01 X118.075236 Y146.888317 Z-0.125000
G01 X118.301633 Y150.054775 Z-0.125000
G01 X118.149477 Y151.342012 Z-0.125000
G01 X117.522983 Y152.481994 Z-0.125000
G01 X116.355008 Y153.447308 Z-0.125000
G01 X113.977842 Y154.574712 Z-0.125000
G01 X108.760913 Y156.442260 Z-0.125000
G01 X105.460293 Y157.263222 Z-0.125000
G01 X102.210629 Y157.754071 Z-0.125000
G01 X99.869648 Y157.863335 Z-0.125000
G01 X97.888773 Y157.644356 Z-0.125000
G01 X96.054572 Y157.081976 Z-0.125000
G01 X93.012600 Y155.788805 Z-0.125000
G01 X83.787545 Y150.869288 Z-0.125000
G01 X81.850337 Y149.361846 Z-0.125000
G01 X80.877605 Y147.829056 Z-0.125000
G01 X78.639695 Y142.721778 Z-0.125000
G01 X76.336318 Y138.289690 Z-0.125000
G01 X75.817992 Y136.699947 Z-0.125000
G01 X75.643260 Y134.979202 Z-0.125000
G01 X76.114178 Y131.975737 Z-0.125000
G01 X78.235084 Y127.020421 Z-0.125000
G01 X78.760634 Y124.386027 Z-0.125000
G01 X81.736945 Y119.753537 Z-0.125000
G01 X84.927010 Y113.554071 Z-0.125000
G01 X86.014360 Y112.229102 Z-0.125000
G01 X87.417955 Y111.152073 Z-0.125000
G01 X90.937361 Y109.682171 Z-0.125000
G01 X93.023113 Y109.175132 Z-0.125000
G01 X94.821129 Y108.970601 Z-0.125000
G01 X97.209712 Y109.144559 Z-0.125000
G01 X100.446669 Y110.114711 Z-0.125000
G01 X101.760544 Y110.297441 Z-0.125000
G01 X112.192726 Y109.130175 Z-0.125000
G01 X114.857371 Y109.223766 Z-0.125000
G01 X116.645776 Y109.738157 Z-0.125000
G01 X117.497634 Y110.401093 Z-0.125000
G01 X118.066013 Y111.340221 Z-0.125000
G01 X119.404914 Y116.250450 Z-0.125000
G01 X120.613138 Y119.067703 Z-0.125000
G01 X121.978871 Y121.251496 Z-0.125000
G01 X125.790399 Y126.085164 Z-0.125000
G01 X128.321915 Y129.867860 Z-0.125000
G01 X130.069878 Y133.260393 Z-0.125000
G01 X130.651479 Y135.680129 Z-0.125000
G01 X130.399863 Y136.960464 Z-0.125000
G01 X129.566388 Y138.013757 Z-0.125000
G01 X124.359456 Y142.027430 Z-0.125000
G01 X120.350556 Y144.406853 Z-0.125000
G01 X119.222700 Y145.493235 Z-0.125000
G01 X118.811703 Y146.301233 Z-0.125000
G01 X118.631876 Y147.342142 Z-0.125000
G01 X118.998884 Y150.875931 Z-0.125000
G01 X118.910066 Y152.133046 Z-0.125000
G01 X118.328207 Y153.348300 Z-0.125000
G01 X117.158297 Y154.341801 Z-0.125000
G01 X114.893491 Y155.370068 Z-0.125000
G01 X108.598049 Y157.435374 Z-0.125000
G01 X105.212031 Y158.224796 Z-0.125000
G01 X101.967398 Y158.678041 Z-0.125000
G01 X99.698850 Y158.747959 Z-0.125000
G01 X97.899545 Y158.508017 Z-0.125000
G01 X92.843286 Y156.526497 Z-0.125000
G01 X90.162581 Y155.168826 Z-0.125000
G01 X83.279410 Y151.168376 Z-0.125000
G01 X81.480362 Y149.752010 Z-0.125000
G01 X80.598898 Y148.274884 Z-0.125000
G01 X78.302809 Y142.670500 Z-0.125000
G01 X75.953636 Y138.273630 Z-0.125000
G01 X75.450533 Y136.637446 Z-0.125000
G01 X75.309921 Y135.021837 Z-0.125000
G01 X75.858563 Y131.673874 Z-0.125000
G01 X77.775518 Y126.737328 Z-0.125000
G01 X77.832729 Y124.807796 Z-0.125000
G01 X78.052289 Y124.050947 Z-0.125000
G01 X81.246547 Y119.020295 Z-0.125000
G01 X84.343603 Y113.033488 Z-0.125000
G01 X85.447465 Y111.696005 Z-0.125000
G01 X86.888535 Y110.620137 Z-0.125000
G01 X88.496404 Y109.851678 Z-0.125000
G01 X90.770562 Y109.118823 Z-0.125000
G01 X92.969965 Y108.631135 Z-0.125000
G01 X95.062103 Y108.426410 Z-0.125000
G01 X97.360385 Y108.617590 Z-0.125000
G01 X100.573735 Y109.563361 Z-0.125000
G01 X102.017708 Y109.749122 Z-0.125000
G01 X110.077948 Y108.762136 Z-0.125000
G01 X114.598595 Y108.635005 Z-0.125000
G01 X117.036585 Y109.069609 Z-0.125000
G01 X118.422443 Y109.951589 Z-0.125000
G01 X119.095312 Y111.117436 Z-0.125000
G01 X120.331722 Y115.862480 Z-0.125000
G01 X121.638309 Y118.859302 Z-0.125000
G01 X123.163165 Y121.231566 Z-0.125000
G01 X127.557648 Y126.971659 Z-0.125000
G01 X130.351165 Y131.626789 Z-0.125000
G01 X131.400266 Y134.410630 Z-0.125000
G01 X131.521785 Y135.540550 Z-0.125000
G01 X131.358727 Y136.474517 Z-0.125000
G01 X130.936894 Y137.234720 Z-0.125000
G01 X130.204297 Y137.954352 Z-0.125000
G01 X125.383466 Y141.715506 Z-0.125000
G01 X121.038970 Y144.360671 Z-0.125000
G01 X119.832295 Y145.569668 Z-0.125000
G01 X119.387757 Y146.472095 Z-0.125000
G01 X119.193095 Y147.632459 Z-0.125000
G01 X119.657756 Y152.754315 Z-0.125000
G01 X119.257789 Y153.955959 Z-0.125000
G01 X118.477913 Y154.841035 Z-0.125000
G01 X116.013284 Y156.090732 Z-0.125000
G01 X108.838829 Y158.298842 Z-0.125000
G01 X105.367735 Y159.098519 Z-0.125000
G01 X101.898898 Y159.566470 Z-0.125000
G01 X99.940082 Y159.629100 Z-0.125000
G01 X98.259715 Y159.437405 Z-0.125000
G01 X94.023129 Y157.881395 Z-0.125000
G01 X90.219534 Y155.999141 Z-0.125000
G01 X81.743459 Y150.783437 Z-0.125000
G01 X80.575807 Y149.330886 Z-0.125000
G01 X78.364085 Y143.517521 Z-0.125000
G01 X75.480461 Y138.129923 Z-0.125000
G01 X75.011800 Y136.219934 Z-0.125000
G01 X75.042115 Y133.890240 Z-0.125000
G01 X75.659837 Y131.153420 Z-0.125000
G01 X77.287829 Y126.701273 Z-0.125000
G01 X77.297311 Y123.937426 Z-0.125000
G01 X80.831229 Y118.237001 Z-0.125000
G01 X83.616038 Y112.822894 Z-0.125000
G01 X85.042853 Y111.064481 Z-0.125000
G01 X87.075716 Y109.762280 Z-0.125000
G01 X90.165290 Y108.714018 Z-0.125000
G01 X94.043124 Y107.997224 Z-0.125000
G01 X97.007696 Y108.044116 Z-0.125000
G01 X100.814064 Y109.040326 Z-0.125000
G01 X102.167930 Y109.187065 Z-0.125000
G01 X110.018221 Y108.218332 Z-0.125000
G01 X114.968183 Y108.104617 Z-0.125000
G01 X117.764538 Y108.580631 Z-0.125000
G01 X118.773132 Y109.056838 Z-0.125000
G01 X119.419620 Y109.621282 Z-0.125000
G01 X120.148412 Y111.051516 Z-0.125000
G01 X121.388111 Y115.840549 Z-0.125000
G01 X122.545960 Y118.415603 Z-0.125000
G01 X124.053336 Y120.795091 Z-0.125000
G01 X128.466396 Y126.659863 Z-0.125000
G01 X131.265524 Y131.430643 Z-0.125000
G01 X132.257864 Y134.258216 Z-0.125000
G01 X132.342360 Y135.245525 Z-0.125000
G01 X132.172208 Y136.208066 Z-0.125000
G01 X131.301193 Y137.463955 Z-0.125000
G01 X126.847111 Y141.055343 Z-0.125000
G01 X122.031246 Y144.054229 Z-0.125000
G01 X120.453434 Y145.600371 Z-0.125000
G01 X119.924401 Y146.750737 Z-0.125000
G01 X119.747218 Y148.049003 Z-0.125000
G01 X120.312436 Y152.324032 Z-0.125000
G01 X120.321144 Y153.627458 Z-0.125000
G01 X119.912211 Y154.884637 Z-0.125000
G01 X119.099698 Y155.787064 Z-0.125000
G01 X116.729304 Y156.941623 Z-0.125000
G01 X108.855793 Y159.212427 Z-0.125000
G01 X105.307620 Y159.983853 Z-0.125000
G01 X101.670115 Y160.432777 Z-0.125000
G01 X99.677436 Y160.459157 Z-0.125000
G01 X98.086144 Y160.220828 Z-0.125000
G01 X93.046075 Y158.275170 Z-0.125000
G01 X89.739522 Y156.523659 Z-0.125000
G01 X81.283506 Y151.137287 Z-0.125000
G01 X80.258271 Y149.829346 Z-0.125000
G01 X78.177678 Y143.917488 Z-0.125000
G01 X75.106616 Y138.325940 Z-0.125000
G01 X74.632860 Y136.339066 Z-0.125000
G01 X74.662272 Y134.087612 Z-0.125000
G01 X75.228780 Y131.367045 Z-0.125000
G01 X76.871995 Y126.497838 Z-0.125000
G01 X76.925014 Y125.539232 Z-0.125000
G01 X76.623216 Y124.098419 Z-0.125000
G01 X76.724998 Y123.458962 Z-0.125000
G01 X80.492408 Y117.412814 Z-0.125000
G01 X83.319078 Y112.020830 Z-0.125000
G01 X84.815876 Y110.349364 Z-0.125000
G01 X86.978965 Y109.141012 Z-0.125000
G01 X90.239659 Y108.183115 Z-0.125000
G01 X94.268037 Y107.532627 Z-0.125000
G01 X97.306978 Y107.608996 Z-0.125000
G01 X100.946677 Y108.496329 Z-0.125000
G01 X102.200115 Y108.621137 Z-0.125000
G01 X109.929791 Y107.637182 Z-0.125000
G01 X115.078221 Y107.538626 Z-0.125000
G01 X118.453983 Y108.104230 Z-0.125000
G01 X119.532883 Y108.589468 Z-0.125000
G01 X120.310050 Y109.233441 Z-0.125000
G01 X120.965375 Y110.387806 Z-0.125000
G01 X122.103809 Y114.851370 Z-0.125000
G01 X123.438195 Y117.944814 Z-0.125000
G01 X124.929447 Y120.337911 Z-0.125000
G01 X129.372564 Y126.356066 Z-0.125000
G01 X131.926009 Y130.775898 Z-0.125000
G01 X132.982527 Y133.734020 Z-0.125000
G01 X133.093146 Y134.939470 Z-0.125000
G01 X132.913447 Y135.934584 Z-0.125000
G01 X132.032242 Y137.230592 Z-0.125000
G01 X127.875120 Y140.701042 Z-0.125000
G01 X122.756425 Y143.910135 Z-0.125000
G01 X121.085668 Y145.590696 Z-0.125000
G01 X120.510324 Y146.850197 Z-0.125000
G01 X120.303342 Y148.270111 Z-0.125000
G01 X120.929964 Y153.096554 Z-0.125000
G01 X120.944219 Y154.476736 Z-0.125000
G01 X120.594884 Y155.654128 Z-0.125000
G01 X119.807462 Y156.601640 Z-0.125000
G01 X118.761328 Y157.253547 Z-0.125000
G01 X117.222604 Y157.843469 Z-0.125000
G01 X108.861469 Y160.097310 Z-0.125000
G01 X105.239443 Y160.827713 Z-0.125000
G01 X101.459521 Y161.250901 Z-0.125000
G01 X99.580041 Y161.254126 Z-0.125000
G01 X97.942115 Y160.970775 Z-0.125000
G01 X92.522267 Y158.862060 Z-0.125000
G01 X89.426049 Y157.140349 Z-0.125000
G01 X80.755634 Y151.453146 Z-0.125000
G01 X79.851982 Y150.163588 Z-0.125000
G01 X78.790110 Y146.488543 Z-0.125000
G01 X77.893618 Y144.197033 Z-0.125000
G01 X74.710131 Y138.536018 Z-0.125000
G01 X74.261659 Y136.660666 Z-0.125000
G01 X74.253274 Y134.518604 Z-0.125000
G01 X74.793272 Y131.613244 Z-0.125000
G01 X76.491313 Y126.193267 Z-0.125000
G01 X76.504922 Y125.274393 Z-0.125000
G01 X76.094699 Y123.789591 Z-0.125000
G01 X76.179195 Y123.037967 Z-0.125000
G01 X76.878574 Y121.655528 Z-0.125000
G01 X80.112306 Y116.756328 Z-0.125000
G01 X82.977418 Y111.388402 Z-0.125000
G01 X84.494470 Y109.782856 Z-0.125000
G01 X86.526300 Y108.718404 Z-0.125000
G01 X90.100789 Y107.751026 Z-0.125000
G01 X94.502819 Y107.106279 Z-0.125000
G01 X97.429594 Y107.170521 Z-0.125000
G01 X102.227335 Y108.060112 Z-0.125000
G01 X110.023123 Y107.008367 Z-0.125000
G01 X115.112664 Y106.937029 Z-0.125000
G01 X117.253178 Y107.185421 Z-0.125000
G01 X119.086733 Y107.635376 Z-0.125000
G01 X120.354168 Y108.218138 Z-0.125000
G01 X121.230343 Y108.971375 Z-0.125000
G01 X121.904244 Y110.245389 Z-0.125000
G01 X123.114209 Y114.782677 Z-0.125000
G01 X124.311338 Y117.456287 Z-0.125000
G01 X125.797881 Y119.876346 Z-0.125000
G01 X130.121221 Y125.834579 Z-0.125000
G01 X132.644287 Y130.333102 Z-0.125000
G01 X133.697129 Y133.568576 Z-0.125000
G01 X133.749438 Y134.785701 Z-0.125000
G01 X133.519172 Y135.788168 Z-0.125000
G01 X132.684922 Y137.002712 Z-0.125000
G01 X128.739298 Y140.457617 Z-0.125000
G01 X123.485087 Y143.743917 Z-0.125000
G01 X122.437405 Y144.652729 Z-0.125000
G01 X121.629214 Y145.708344 Z-0.125000
G01 X121.054708 Y147.097492 Z-0.125000
G01 X120.855659 Y148.654792 Z-0.125000
G01 X121.512533 Y153.845470 Z-0.125000
G01 X121.522595 Y155.296344 Z-0.125000
G01 X121.157909 Y156.517790 Z-0.125000
G01 X120.345783 Y157.486265 Z-0.125000
G01 X119.273075 Y158.143396 Z-0.125000
G01 X117.484089 Y158.798398 Z-0.125000
G01 X109.091091 Y160.884861 Z-0.125000
G01 X105.163655 Y161.620360 Z-0.125000
G01 X101.271437 Y162.014909 Z-0.125000
G01 X99.408663 Y161.995430 Z-0.125000
G01 X97.928247 Y161.718078 Z-0.125000
G01 X92.162677 Y159.510355 Z-0.125000
G01 X89.303434 Y157.870430 Z-0.125000
G01 X80.323416 Y151.865820 Z-0.125000
G01 X79.527029 Y150.728999 Z-0.125000
G01 X78.554877 Y147.006998 Z-0.125000
G01 X77.665222 Y144.696267 Z-0.125000
G01 X74.304359 Y138.744355 Z-0.125000
G01 X73.890588 Y136.992005 Z-0.125000
G01 X73.868206 Y134.751322 Z-0.125000
G01 X74.415428 Y131.667940 Z-0.125000
G01 X76.098376 Y125.993573 Z-0.125000
G01 X76.089087 Y124.925638 Z-0.125000
G01 X75.603592 Y123.395816 Z-0.125000
G01 X75.685959 Y122.595300 Z-0.125000
G01 X76.413847 Y121.128623 Z-0.125000
G01 X79.912097 Y115.884410 Z-0.125000
G01 X82.679878 Y110.779002 Z-0.125000
G01 X84.206604 Y109.252081 Z-0.125000
G01 X86.493212 Y108.189178 Z-0.125000
G01 X90.221599 Y107.309520 Z-0.125000
G01 X94.983735 Y106.688316 Z-0.125000
G01 X97.733585 Y106.762491 Z-0.125000
G01 X102.235075 Y107.496894 Z-0.125000
G01 X110.094332 Y106.363749 Z-0.125000
G01 X115.077640 Y106.293766 Z-0.125000
G01 X117.531110 Y106.607303 Z-0.125000
G01 X119.475349 Y107.107246 Z-0.125000
G01 X120.984402 Y107.794177 Z-0.125000
G01 X122.006026 Y108.650743 Z-0.125000
G01 X122.660190 Y109.781566 Z-0.125000
G01 X123.845322 Y113.988740 Z-0.125000
G01 X125.167131 Y116.961762 Z-0.125000
G01 X126.669477 Y119.426648 Z-0.125000
G01 X130.710949 Y125.091792 Z-0.125000
G01 X133.092049 Y129.398297 Z-0.125000
G01 X133.840126 Y131.293450 Z-0.125000
G01 X134.263314 Y133.012260 Z-0.125000
G01 X134.332974 Y134.306011 Z-0.125000
G01 X134.077939 Y135.517652 Z-0.125000
G01 X133.157066 Y136.885192 Z-0.125000
G01 X129.432484 Y140.335001 Z-0.125000
G01 X124.211233 Y143.568927 Z-0.125000
G01 X123.120788 Y144.525857 Z-0.125000
G01 X122.272800 Y145.653003 Z-0.125000
G01 X121.654305 Y147.145029 Z-0.125000
G01 X121.409848 Y149.036183 Z-0.125000
G01 X122.058142 Y154.566069 Z-0.125000
G01 X122.054272 Y156.080992 Z-0.125000
G01 X121.672300 Y157.344493 Z-0.125000
G01 X120.844049 Y158.339026 Z-0.125000
G01 X119.011332 Y159.333688 Z-0.125000
G01 X116.061724 Y160.155618 Z-0.125000
G01 X107.156914 Y162.047095 Z-0.125000
G01 X100.973251 Y162.727124 Z-0.125000
G01 X99.282371 Y162.692423 Z-0.125000
G01 X97.688563 Y162.371404 Z-0.125000
G01 X94.554420 Y161.326431 Z-0.125000
G01 X91.985300 Y160.229407 Z-0.125000
G01 X89.174949 Y158.585160 Z-0.125000
G01 X79.828504 Y152.238311 Z-0.125000
G01 X79.158860 Y151.223460 Z-0.125000
G01 X78.345508 Y147.737724 Z-0.125000
G01 X77.493263 Y145.413900 Z-0.125000
G01 X73.898328 Y138.955400 Z-0.125000
G01 X73.463143 Y136.677113 Z-0.125000
G01 X73.596272 Y134.013565 Z-0.125000
G01 X74.097506 Y131.504431 Z-0.125000
G01 X75.739043 Y125.463895 Z-0.125000
G01 X75.673059 Y124.576239 Z-0.125000
G01 X75.157958 Y123.075313 Z-0.125000
G01 X75.239293 Y122.136314 Z-0.125000
G01 X76.098698 Y120.427890 Z-0.125000
G01 X79.768583 Y115.003655 Z-0.125000
G01 X82.418393 Y110.198368 Z-0.125000
G01 X83.945442 Y108.759620 Z-0.125000
G01 X86.279134 Y107.772053 Z-0.125000
G01 X90.620728 Y106.857758 Z-0.125000
G01 X95.477680 Y106.280672 Z-0.125000
G01 X97.837302 Y106.341883 Z-0.125000
G01 X102.207146 Y106.923291 Z-0.125000
G01 X109.910828 Y105.739062 Z-0.125000
G01 X114.986243 Y105.614963 Z-0.125000
G01 X117.515437 Y105.951978 Z-0.125000
G01 X119.765150 Y106.560734 Z-0.125000
G01 X121.522530 Y107.383373 Z-0.125000
G01 X122.699600 Y108.362361 Z-0.125000
G01 X123.430003 Y109.578712 Z-0.125000
G01 X124.608428 Y113.388950 Z-0.125000
G01 X125.905275 Y116.277153 Z-0.125000
G01 X127.548425 Y119.000364 Z-0.125000
G01 X131.289131 Y124.360614 Z-0.125000
G01 X133.599797 Y128.689565 Z-0.125000
G01 X134.397281 Y130.873616 Z-0.125000
G01 X134.770159 Y132.644607 Z-0.125000
G01 X134.792089 Y134.162432 Z-0.125000
G01 X134.483390 Y135.394199 Z-0.125000
G01 X133.640755 Y136.691562 Z-0.125000
G01 X130.219842 Y140.111314 Z-0.125000
G01 X124.929834 Y143.391745 Z-0.125000
G01 X123.798430 Y144.392921 Z-0.125000
G01 X122.918127 Y145.582827 Z-0.125000
G01 X122.262738 Y147.170119 Z-0.125000
G01 X121.972744 Y149.183696 Z-0.125000
G01 X122.566535 Y155.255580 Z-0.125000
G01 X122.540155 Y156.828231 Z-0.125000
G01 X122.062528 Y158.277879 Z-0.125000
G01 X121.178420 Y159.276089 Z-0.125000
G01 X119.491216 Y160.205477 Z-0.125000
G01 X116.742334 Y160.955811 Z-0.125000
G01 X107.092285 Y162.752602 Z-0.125000
G01 X100.608501 Y163.385868 Z-0.125000
G01 X98.995731 Y163.326785 Z-0.125000
G01 X97.263570 Y162.953650 Z-0.125000
G01 X94.288097 Y161.998720 Z-0.125000
G01 X92.017292 Y161.034308 Z-0.125000
G01 X89.049431 Y159.283249 Z-0.125000
G01 X79.350620 Y152.634860 Z-0.125000
G01 X78.785466 Y151.738561 Z-0.125000
G01 X78.102148 Y148.495605 Z-0.125000
G01 X77.217072 Y145.980601 Z-0.125000
G01 X73.493265 Y139.179668 Z-0.125000
G01 X73.095490 Y137.037478 Z-0.125000
G01 X73.215268 Y134.259764 Z-0.125000
G01 X73.714244 Y131.610857 Z-0.125000
G01 X75.333271 Y125.297742 Z-0.125000
G01 X75.272511 Y124.333717 Z-0.125000
G01 X74.721483 Y122.671410 Z-0.125000
G01 X74.830038 Y121.665783 Z-0.125000
G01 X75.841599 Y119.694003 Z-0.125000
G01 X79.547475 Y114.324465 Z-0.125000
G01 X82.183030 Y109.651146 Z-0.125000
G01 X83.284634 Y108.572246 Z-0.125000
G01 X84.867993 Y107.770956 Z-0.125000
G01 X87.212005 Y107.111503 Z-0.125000
G01 X90.517269 Y106.504812 Z-0.125000
G01 X96.194732 Y105.885929 Z-0.125000
G01 X102.253457 Y106.329693 Z-0.125000
G01 X108.029026 Y105.299620 Z-0.125000
G01 X112.475368 Y104.892815 Z-0.125000
G01 X115.805399 Y105.002917 Z-0.125000
G01 X118.955539 Y105.643407 Z-0.125000
G01 X121.671139 Y106.801707 Z-0.125000
G01 X123.384015 Y108.200272 Z-0.125000
G01 X124.126093 Y109.399272 Z-0.125000
G01 X125.460479 Y113.118499 Z-0.125000
G01 X126.745523 Y115.817200 Z-0.125000
G01 X131.856865 Y123.650786 Z-0.125000
G01 X133.960742 Y127.729282 Z-0.125000
G01 X134.750228 Y129.973254 Z-0.125000
G01 X135.165418 Y132.064683 Z-0.125000
G01 X135.166063 Y133.860248 Z-0.125000
G01 X134.788735 Y135.296351 Z-0.125000
G01 X133.953325 Y136.631576 Z-0.125000
G01 X130.960501 Y139.907879 Z-0.125000
G01 X129.803814 Y140.782441 Z-0.125000
G01 X125.458867 Y143.352722 Z-0.125000
G01 X124.319594 Y144.424011 Z-0.125000
G01 X123.449934 Y145.702926 Z-0.125000
G01 X122.816733 Y147.406256 Z-0.125000
G01 X122.534285 Y149.554896 Z-0.125000
G01 X123.027391 Y155.691925 Z-0.125000
G01 X122.983724 Y157.537478 Z-0.125000
G01 X122.496746 Y159.039888 Z-0.125000
G01 X121.498407 Y160.205799 Z-0.125000
G01 X119.752959 Y161.140799 Z-0.125000
G01 X117.163135 Y161.784772 Z-0.125000
G01 X106.771201 Y163.431211 Z-0.125000
G01 X100.125392 Y164.000299 Z-0.125000
G01 X98.495400 Y163.894260 Z-0.125000
G01 X96.360756 Y163.402315 Z-0.125000
G01 X93.787896 Y162.575870 Z-0.125000
G01 X91.834240 Y161.709887 Z-0.125000
G01 X88.931524 Y159.963342 Z-0.125000
G01 X78.887893 Y153.050436 Z-0.125000
G01 X78.405171 Y152.266562 Z-0.125000
G01 X77.737398 Y148.931499 Z-0.125000
G01 X76.845420 Y146.370636 Z-0.125000
G01 X73.151090 Y139.615498 Z-0.125000
G01 X72.729837 Y137.427770 Z-0.125000
G01 X72.831877 Y134.542856 Z-0.125000
G01 X74.916339 Y125.056252 Z-0.125000
G01 X74.840035 Y124.032822 Z-0.125000
G01 X74.302553 Y122.357422 Z-0.125000
G01 X74.408333 Y121.309869 Z-0.125000
G01 X75.303987 Y119.444063 Z-0.125000
G01 X79.224779 Y113.852386 Z-0.125000
G01 X81.872976 Y109.258725 Z-0.125000
G01 X82.921109 Y108.224524 Z-0.125000
G01 X84.281747 Y107.526306 Z-0.125000
G01 X86.326800 Y106.922968 Z-0.125000
G01 X89.602394 Y106.286542 Z-0.125000
G01 X95.695885 Y105.546399 Z-0.125000
G01 X101.994359 Y105.739965 Z-0.125000
G01 X107.667952 Y104.637845 Z-0.125000
G01 X112.481173 Y104.199499 Z-0.125000
G01 X116.130675 Y104.349527 Z-0.125000
G01 X119.055902 Y105.005368 Z-0.125000
G01 X121.840195 Y106.283252 Z-0.125000
G01 X123.974259 Y108.066949 Z-0.125000
G01 X124.847402 Y109.433586 Z-0.125000
G01 X127.472508 Y115.194899 Z-0.125000
G01 X132.414601 Y122.971596 Z-0.125000
G01 X134.196298 Y126.526992 Z-0.125000
G01 X135.054026 Y129.056444 Z-0.125000
G01 X135.484244 Y131.476825 Z-0.125000
G01 X135.446318 Y133.572962 Z-0.125000
G01 X135.003844 Y135.233205 Z-0.125000
G01 X134.119865 Y136.723941 Z-0.125000
G01 X131.533975 Y139.845765 Z-0.125000
G01 X126.154505 Y143.186891 Z-0.125000
G01 X124.975177 Y144.298106 Z-0.125000
G01 X124.073976 Y145.635523 Z-0.125000
G01 X123.422005 Y147.421155 Z-0.125000
G01 X123.110726 Y149.673577 Z-0.125000
G01 X123.419103 Y158.015491 Z-0.125000
G01 X122.910258 Y159.777065 Z-0.125000
G01 X121.943009 Y161.015023 Z-0.125000
G01 X120.192272 Y161.980853 Z-0.125000
G01 X117.824845 Y162.544136 Z-0.125000
G01 X106.681933 Y164.017521 Z-0.125000
G01 X99.660150 Y164.582932 Z-0.125000
G01 X98.104979 Y164.461607 Z-0.125000
G01 X95.777220 Y163.944571 Z-0.125000
G01 X91.872037 Y162.476346 Z-0.125000
G01 X89.088196 Y160.801590 Z-0.125000
G01 X82.166518 Y155.859756 Z-0.125000
G01 X78.438776 Y153.479816 Z-0.125000
G01 X77.995077 Y152.722000 Z-0.125000
G01 X77.395029 Y149.546318 Z-0.125000
G01 X76.463577 Y146.759509 Z-0.125000
G01 X75.335206 Y144.493413 Z-0.125000
G01 X73.287444 Y141.165316 Z-0.125000
G01 X72.737577 Y139.872210 Z-0.125000
G01 X72.345414 Y137.590634 Z-0.125000
G01 X72.474350 Y134.569882 Z-0.125000
G01 X74.463159 Y125.003684 Z-0.125000
G01 X74.412784 Y123.880472 Z-0.125000
G01 X73.887363 Y122.066589 Z-0.125000
G01 X73.991918 Y120.962276 Z-0.125000
G01 X75.101649 Y118.693278 Z-0.125000
G01 X79.165116 Y113.001237 Z-0.125000
G01 X81.657029 Y108.779551 Z-0.125000
G01 X82.564164 Y107.903827 Z-0.125000
G01 X83.878619 Y107.234764 Z-0.125000
G01 X88.657074 Y106.084978 Z-0.125000
G01 X95.369835 Y105.231830 Z-0.125000
G01 X101.531890 Y105.168361 Z-0.125000
G01 X107.466775 Y103.903313 Z-0.125000
G01 X112.663644 Y103.469096 Z-0.125000
G01 X116.414865 Y103.688010 Z-0.125000
G01 X119.532496 Y104.506522 Z-0.125000
G01 X122.375872 Y106.058017 Z-0.125000
G01 X124.555989 Y108.055081 Z-0.125000
G01 X125.677007 Y109.725322 Z-0.125000
G01 X128.679828 Y115.471155 Z-0.125000
G01 X132.962790 Y122.330783 Z-0.125000
G01 X134.624775 Y125.854252 Z-0.125000
G01 X135.440513 Y128.650800 Z-0.125000
G01 X135.749276 Y131.125684 Z-0.125000
G01 X135.609762 Y133.502399 Z-0.125000
G01 X135.021582 Y135.503591 Z-0.125000
G01 X134.181398 Y136.983813 Z-0.125000
G01 X132.189429 Y139.702896 Z-0.125000
G01 X131.097242 Y140.549208 Z-0.125000
G01 X126.656899 Y143.181860 Z-0.125000
G01 X125.472928 Y144.361639 Z-0.125000
G01 X124.582563 Y145.786842 Z-0.125000
G01 X123.958779 Y147.682705 Z-0.125000
G01 X123.690521 Y149.779874 Z-0.125000
G01 X123.897310 Y156.895053 Z-0.125000
G01 X123.774888 Y158.851740 Z-0.125000
G01 X123.235276 Y160.661431 Z-0.125000
G01 X122.216556 Y161.931123 Z-0.125000
G01 X120.596109 Y162.798590 Z-0.125000
G01 X118.461594 Y163.282667 Z-0.125000
G01 X99.194844 Y165.148473 Z-0.125000
G01 X95.289145 Y164.513723 Z-0.125000
G01 X91.906674 Y163.220230 Z-0.125000
G01 X88.721188 Y161.261931 Z-0.125000
G01 X81.231390 Y155.900068 Z-0.125000
G01 X78.001398 Y153.917517 Z-0.125000
G01 X77.579501 Y153.180727 Z-0.125000
G01 X76.952556 Y149.813092 Z-0.125000
G01 X76.140946 Y147.353559 Z-0.125000
G01 X75.004899 Y145.041409 Z-0.125000
G01 X72.935400 Y141.641007 Z-0.125000
G01 X72.376632 Y140.336356 Z-0.125000
G01 X72.008979 Y138.522860 Z-0.125000
G01 X71.971053 Y136.080677 Z-0.125000
G01 X72.419783 Y132.476970 Z-0.125000
G01 X73.954443 Y125.186736 Z-0.125000
G01 X73.958958 Y123.793590 Z-0.125000
G01 X73.465659 Y121.707902 Z-0.125000
G01 X73.616009 Y120.503484 Z-0.125000
G01 X74.921499 Y117.927076 Z-0.125000
G01 X78.972776 Y112.369907 Z-0.125000
G01 X81.514999 Y108.238392 Z-0.125000
G01 X82.321513 Y107.528757 Z-0.125000
G01 X83.468654 Y106.961798 Z-0.125000
G01 X87.685181 Y105.902119 Z-0.125000
G01 X94.723024 Y104.968087 Z-0.125000
G01 X100.828706 Y104.641263 Z-0.125000
G01 X107.199098 Y103.131371 Z-0.125000
G01 X113.299490 Y102.712505 Z-0.125000
G01 X117.127079 Y103.106474 Z-0.125000
G01 X120.154088 Y104.121841 Z-0.125000
G01 X123.091763 Y106.101103 Z-0.125000
G01 X125.733381 Y108.865014 Z-0.125000
G01 X126.814925 Y110.410123 Z-0.125000
G01 X132.719365 Y120.365969 Z-0.125000
G01 X134.288018 Y123.318092 Z-0.125000
G01 X135.586090 Y127.240303 Z-0.125000
G01 X135.886792 Y129.298643 Z-0.125000
G01 X135.932135 Y131.278422 Z-0.125000
G01 X135.726250 Y133.272584 Z-0.125000
G01 X135.223468 Y135.242493 Z-0.125000
G01 X134.512092 Y136.848427 Z-0.125000
G01 X133.083471 Y139.258488 Z-0.125000
G01 X131.932072 Y140.332615 Z-0.125000
G01 X128.542184 Y142.212546 Z-0.125000
G01 X127.151231 Y143.205919 Z-0.125000
G01 X125.818650 Y144.653503 Z-0.125000
G01 X124.986917 Y146.199774 Z-0.125000
G01 X124.303405 Y149.321340 Z-0.125000
G01 X124.273218 Y158.154941 Z-0.125000
G01 X124.038695 Y160.080217 Z-0.125000
G01 X123.618732 Y161.378805 Z-0.125000
G01 X123.001914 Y162.317030 Z-0.125000
G01 X122.112000 Y163.059753 Z-0.125000
G01 X120.954216 Y163.592205 Z-0.125000
G01 X119.565456 Y163.926511 Z-0.125000
G01 X112.384228 Y164.372919 Z-0.125000
G01 X98.560739 Y165.698275 Z-0.125000
G01 X94.735344 Y165.062171 Z-0.125000
G01 X91.671312 Y163.799832 Z-0.125000
G01 X88.623534 Y161.877136 Z-0.125000
G01 X81.074202 Y156.449290 Z-0.125000
G01 X77.522611 Y154.310841 Z-0.125000
G01 X77.155926 Y153.635907 Z-0.125000
G01 X76.583742 Y150.426814 Z-0.125000
G01 X75.783742 Y147.963798 Z-0.125000
G01 X74.636343 Y145.607401 Z-0.125000
G01 X72.557363 Y142.118892 Z-0.125000
G01 X71.932546 Y140.590552 Z-0.125000
G01 X71.573794 Y138.438235 Z-0.125000
G01 X71.592887 Y135.857377 Z-0.125000
G01 X72.062579 Y132.120153 Z-0.125000
G01 X73.450114 Y124.958663 Z-0.125000
G01 X73.457983 Y123.648399 Z-0.125000
G01 X73.055629 Y121.496082 Z-0.125000
G01 X73.251710 Y120.063978 Z-0.125000
G01 X74.753089 Y117.151329 Z-0.125000
G01 X78.889635 Y111.581581 Z-0.125000
G01 X80.955457 Y108.240198 Z-0.125000
G01 X81.728495 Y107.414398 Z-0.125000
G01 X83.386739 Y106.573569 Z-0.125000
G01 X86.189285 Y105.834716 Z-0.125000
G01 X93.475068 Y104.801289 Z-0.125000
G01 X100.133261 Y104.145835 Z-0.125000
G01 X105.376120 Y102.629686 Z-0.125000
G01 X108.315279 Y102.134322 Z-0.125000
G01 X112.004643 Y101.921213 Z-0.125000
G01 X114.972633 Y102.044086 Z-0.125000
G01 X117.779050 Y102.557897 Z-0.125000
G01 X119.950653 Y103.376021 Z-0.125000
G01 X122.744105 Y105.327548 Z-0.125000
G01 X127.221730 Y109.886121 Z-0.125000
G01 X134.032531 Y121.186093 Z-0.125000
G01 X135.365885 Y124.396541 Z-0.125000
G01 X135.997732 Y127.405489 Z-0.125000
G01 X136.063007 Y130.746615 Z-0.125000
G01 X135.582349 Y134.091417 Z-0.125000
G00 Z3.000000

(End cutting path id: polyline4791)



(Footer)
M5
G00 X0.0000 Y0.0000
M2
(Using default footer. To add your own footer create file "footer" in the output dir.)
(end)
%