%
(Header)
(Generated by gcodetools from Inkscape.)
(Using default header. To add your own header create file "header" in the output dir.)
M3
(Header end.)
G21 (All units in mm)

(Start cutting path id: polyline468836)
(Change tool to Default tool)

G00 Z5.000000
G00 X88.612671 Y90.874380

G00 Z4.875000 (Fast pre-penetrate)
G01 Z-0.125000 F100.0(Penetrate)
G01 X88.504897 Y91.080420 Z-0.125000 F800.000000
G01 X88.225904 Y90.923900 Z-0.125000
G01 X88.318994 Y90.372640 Z-0.125000
G01 X88.715501 Y90.189620 Z-0.125000
G01 X89.166291 Y90.304820 Z-0.125000
G01 X89.519359 Y90.793100 Z-0.125000
G01 X89.469459 Y91.424910 Z-0.125000
G01 X88.917744 Y91.970740 Z-0.125000
G01 X88.118592 Y92.020340 Z-0.125000
G01 X87.362615 Y91.435440 Z-0.125000
G01 X87.181868 Y90.471540 Z-0.125000
G01 X87.772841 Y89.502940 Z-0.125000
G01 X88.889788 Y89.173580 Z-0.125000
G01 X89.538503 Y89.347080 Z-0.125000
G01 X90.084795 Y89.757900 Z-0.125000
G01 X90.570076 Y91.009920 Z-0.125000
G01 X90.432709 Y91.762970 Z-0.125000
G01 X90.020853 Y92.418670 Z-0.125000
G01 X89.391341 Y92.880050 Z-0.125000
G01 X88.642811 Y93.080840 Z-0.125000
G01 X87.779706 Y92.981940 Z-0.125000
G01 X87.017654 Y92.570730 Z-0.125000
G01 X86.452617 Y91.905420 Z-0.125000
G01 X86.161930 Y91.076340 Z-0.125000
G01 X86.202170 Y90.115190 Z-0.125000
G01 X86.600310 Y89.245750 Z-0.125000
G01 X87.298541 Y88.578550 Z-0.125000
G01 X88.198097 Y88.205160 Z-0.125000
G01 X89.261088 Y88.187460 Z-0.125000
G01 X90.240728 Y88.564490 Z-0.125000
G01 X91.016628 Y89.278280 Z-0.125000
G01 X91.486557 Y90.249420 Z-0.125000
G01 X91.565007 Y91.409170 Z-0.125000
G01 X91.202664 Y92.518920 Z-0.125000
G01 X90.459426 Y93.412530 Z-0.125000
G01 X89.442617 Y93.963000 Z-0.125000
G01 X88.207958 Y94.096830 Z-0.125000
G01 X86.999232 Y93.756110 Z-0.125000
G01 X85.994705 Y92.997780 Z-0.125000
G01 X85.324040 Y91.911080 Z-0.125000
G01 X85.095673 Y90.590970 Z-0.125000
G01 X85.388119 Y89.278710 Z-0.125000
G01 X86.158990 Y88.167900 Z-0.125000
G01 X87.293117 Y87.415970 Z-0.125000
G01 X88.718322 Y87.117450 Z-0.125000
G01 X90.145421 Y87.374180 Z-0.125000
G01 X91.387460 Y88.157060 Z-0.125000
G01 X92.243707 Y89.351290 Z-0.125000
G01 X92.598211 Y90.837700 Z-0.125000
G01 X92.362594 Y92.404590 Z-0.125000
G01 X91.572323 Y93.760280 Z-0.125000
G01 X90.353732 Y94.704130 Z-0.125000
G01 X88.824471 Y95.116760 Z-0.125000
G01 X87.182069 Y94.910810 Z-0.125000
G01 X85.719240 Y94.118440 Z-0.125000
G01 X84.647168 Y92.862620 Z-0.125000
G01 X84.085723 Y91.208330 Z-0.125000
G01 X84.197759 Y89.496420 Z-0.125000
G01 X84.954584 Y87.949530 Z-0.125000
G01 X86.242873 Y86.791170 Z-0.125000
G01 X87.986392 Y86.152300 Z-0.125000
G01 X89.858860 Y86.215100 Z-0.125000
G01 X91.549794 Y86.968660 Z-0.125000
G01 X92.827959 Y88.295950 Z-0.125000
G01 X93.524948 Y90.075920 Z-0.125000
G01 X93.502348 Y92.032580 Z-0.125000
G01 X92.767342 Y93.859980 Z-0.125000
G01 X91.423071 Y95.269830 Z-0.125000
G01 X89.642512 Y96.035730 Z-0.125000
G01 X87.655144 Y96.053430 Z-0.125000
G01 X85.738323 Y95.336320 Z-0.125000
G01 X84.186001 Y93.976310 Z-0.125000
G01 X83.206558 Y92.079930 Z-0.125000
G01 X83.026791 Y89.972970 Z-0.125000
G01 X83.661985 Y87.986900 Z-0.125000
G01 X85.039700 Y86.355150 Z-0.125000
G01 X87.044446 Y85.311500 Z-0.125000
G01 X89.318252 Y85.091490 Z-0.125000
G01 X91.501849 Y85.740260 Z-0.125000
G01 X93.255757 Y87.153970 Z-0.125000
G01 X94.328480 Y89.137040 Z-0.125000
G01 X94.581148 Y91.439510 Z-0.125000
G01 X93.974955 Y93.743500 Z-0.125000
G01 X92.600050 Y95.643540 Z-0.125000
G01 X90.673627 Y96.818500 Z-0.125000
G01 X88.409619 Y97.140470 Z-0.125000
G01 X86.020777 Y96.572090 Z-0.125000
G01 X83.976316 Y95.212220 Z-0.125000
G01 X82.492911 Y93.116990 Z-0.125000
G01 X81.927937 Y90.699020 Z-0.125000
G01 X82.015407 Y89.443980 Z-0.125000
G01 X82.344044 Y88.256620 Z-0.125000
G01 X82.907384 Y87.142150 Z-0.125000
G01 X83.690078 Y86.147170 Z-0.125000
G01 X84.917356 Y85.143430 Z-0.125000
G01 X86.407490 Y84.427490 Z-0.125000
G01 X87.991100 Y84.078860 Z-0.125000
G01 X89.652381 Y84.099660 Z-0.125000
G01 X91.251472 Y84.504380 Z-0.125000
G01 X92.668641 Y85.249440 Z-0.125000
G01 X93.878021 Y86.310350 Z-0.125000
G01 X94.781038 Y87.607970 Z-0.125000
G01 X95.322691 Y88.978060 Z-0.125000
G01 X95.568564 Y90.504250 Z-0.125000
G01 X95.491944 Y92.068840 Z-0.125000
G01 X95.104386 Y93.589490 Z-0.125000
G01 X94.429736 Y94.988290 Z-0.125000
G01 X93.499610 Y96.196240 Z-0.125000
G01 X92.351503 Y97.148250 Z-0.125000
G01 X91.069356 Y97.781620 Z-0.125000
G01 X88.823767 Y98.152120 Z-0.125000
G01 X86.396453 Y97.741310 Z-0.125000
G01 X84.182742 Y96.626320 Z-0.125000
G01 X82.431643 Y94.946550 Z-0.125000
G01 X81.288436 Y92.882040 Z-0.125000
G01 X80.847510 Y90.620190 Z-0.125000
G01 X81.149235 Y88.354090 Z-0.125000
G01 X82.188710 Y86.254170 Z-0.125000
G01 X83.420756 Y84.922570 Z-0.125000
G01 X85.010245 Y83.880430 Z-0.125000
G01 X86.824510 Y83.232940 Z-0.125000
G01 X88.741069 Y83.018040 Z-0.125000
G01 X90.637705 Y83.246340 Z-0.125000
G01 X92.363980 Y83.882840 Z-0.125000
G01 X93.931065 Y84.932960 Z-0.125000
G01 X95.170688 Y86.306110 Z-0.125000
G01 X96.003679 Y87.875670 Z-0.125000
G01 X96.459368 Y89.634080 Z-0.125000
G01 X96.522208 Y91.485370 Z-0.125000
G01 X96.188084 Y93.373980 Z-0.125000
G01 X95.480578 Y95.134820 Z-0.125000
G01 X94.441691 Y96.669370 Z-0.125000
G01 X93.159868 Y97.857320 Z-0.125000
G01 X91.660196 Y98.676340 Z-0.125000
G01 X89.201460 Y99.150710 Z-0.125000
G01 X86.501882 Y98.767410 Z-0.125000
G01 X83.937128 Y97.591080 Z-0.125000
G01 X81.855238 Y95.774190 Z-0.125000
G01 X80.431341 Y93.509920 Z-0.125000
G01 X79.786543 Y91.049890 Z-0.125000
G01 X79.946518 Y88.542480 Z-0.125000
G01 X80.924786 Y86.153310 Z-0.125000
G01 X82.206152 Y84.556320 Z-0.125000
G01 X83.875660 Y83.289390 Z-0.125000
G01 X85.828147 Y82.430460 Z-0.125000
G01 X87.990776 Y82.023440 Z-0.125000
G01 X90.110945 Y82.107140 Z-0.125000
G01 X92.176373 Y82.677660 Z-0.125000
G01 X93.985021 Y83.678810 Z-0.125000
G01 X95.511345 Y85.085970 Z-0.125000
G01 X96.622217 Y86.805190 Z-0.125000
G01 X97.279622 Y88.735210 Z-0.125000
G01 X97.492899 Y90.875890 Z-0.125000
G01 X97.232197 Y93.100000 Z-0.125000
G01 X96.497909 Y95.256550 Z-0.125000
G01 X95.346928 Y97.146910 Z-0.125000
G01 X93.884881 Y98.614120 Z-0.125000
G01 X92.198583 Y99.592120 Z-0.125000
G01 X89.544600 Y100.144430 Z-0.125000
G01 X86.540227 Y99.750910 Z-0.125000
G01 X83.640108 Y98.483600 Z-0.125000
G01 X81.243952 Y96.513220 Z-0.125000
G01 X79.556804 Y94.045130 Z-0.125000
G01 X78.723029 Y91.347840 Z-0.125000
G01 X78.775819 Y88.626320 Z-0.125000
G01 X79.718224 Y85.984230 Z-0.125000
G01 X81.063344 Y84.140560 Z-0.125000
G01 X82.869966 Y82.647090 Z-0.125000
G01 X85.023580 Y81.599200 Z-0.125000
G01 X87.439006 Y81.049250 Z-0.125000
G01 X89.889315 Y81.056250 Z-0.125000
G01 X92.222043 Y81.608880 Z-0.125000
G01 X94.325360 Y82.679110 Z-0.125000
G01 X96.068291 Y84.184860 Z-0.125000
G01 X97.356188 Y86.055890 Z-0.125000
G01 X98.137639 Y88.186250 Z-0.125000
G01 X98.423687 Y90.642770 Z-0.125000
G01 X98.167884 Y93.143110 Z-0.125000
G01 X97.390679 Y95.576380 Z-0.125000
G01 X96.157850 Y97.715550 Z-0.125000
G01 X94.584690 Y99.384090 Z-0.125000
G01 X92.709218 Y100.523430 Z-0.125000
G01 X91.363511 Y100.951430 Z-0.125000
G01 X89.879778 Y101.137070 Z-0.125000
G01 X86.644425 Y100.735480 Z-0.125000
G01 X83.352371 Y99.349260 Z-0.125000
G01 X80.642079 Y97.223800 Z-0.125000
G01 X78.718335 Y94.614370 Z-0.125000
G01 X77.670041 Y91.697130 Z-0.125000
G01 X77.599491 Y88.723390 Z-0.125000
G01 X78.494015 Y85.850060 Z-0.125000
G01 X79.938229 Y83.707810 Z-0.125000
G01 X81.887711 Y81.995580 Z-0.125000
G01 X84.248723 Y80.767850 Z-0.125000
G01 X86.922500 Y80.086330 Z-0.125000
G01 X89.649057 Y80.018130 Z-0.125000
G01 X92.316301 Y80.572710 Z-0.125000
G01 X94.659809 Y81.689260 Z-0.125000
G01 X96.662724 Y83.340300 Z-0.125000
G01 X98.110529 Y85.372270 Z-0.125000
G01 X98.996432 Y87.711730 Z-0.125000
G01 X99.332385 Y90.356050 Z-0.125000
G01 X99.088210 Y93.138590 Z-0.125000
G01 X98.275468 Y95.857240 Z-0.125000
G01 X96.929632 Y98.311980 Z-0.125000
G01 X95.195909 Y100.220630 Z-0.125000
G01 X93.177643 Y101.476020 Z-0.125000
G01 X91.727290 Y101.939620 Z-0.125000
G01 X90.124214 Y102.131460 Z-0.125000
G01 X88.453200 Y102.043760 Z-0.125000
G01 X86.676953 Y101.683110 Z-0.125000
G01 X84.769081 Y101.021200 Z-0.125000
G01 X82.993358 Y100.141440 Z-0.125000
G01 X81.405632 Y99.084910 Z-0.125000
G01 X79.984282 Y97.840450 Z-0.125000
G01 X77.814532 Y95.030200 Z-0.125000
G01 X77.088408 Y93.531060 Z-0.125000
G01 X76.601821 Y91.958890 Z-0.125000
G01 X76.377700 Y90.332420 Z-0.125000
G01 X76.425250 Y88.744110 Z-0.125000
G01 X76.738798 Y87.154290 Z-0.125000
G01 X77.289464 Y85.664880 Z-0.125000
G01 X78.801678 Y83.280550 Z-0.125000
G01 X80.894412 Y81.350010 Z-0.125000
G01 X83.465960 Y79.943230 Z-0.125000
G01 X86.402984 Y79.132640 Z-0.125000
G01 X89.409710 Y78.993740 Z-0.125000
G01 X92.353595 Y79.531140 Z-0.125000
G01 X95.004771 Y80.718780 Z-0.125000
G01 X97.219198 Y82.468500 Z-0.125000
G01 X98.832727 Y84.651720 Z-0.125000
G01 X99.828371 Y87.195870 Z-0.125000
G01 X100.219200 Y90.097250 Z-0.125000
G01 X99.976393 Y93.166750 Z-0.125000
G01 X99.090230 Y96.248070 Z-0.125000
G01 X97.652417 Y98.953400 Z-0.125000
G01 X95.804185 Y101.056060 Z-0.125000
G01 X93.590540 Y102.457160 Z-0.125000
G01 X92.037827 Y102.943090 Z-0.125000
G01 X90.389090 Y103.124950 Z-0.125000
G01 X88.594357 Y103.013530 Z-0.125000
G01 X86.677665 Y102.606320 Z-0.125000
G01 X84.607207 Y101.877440 Z-0.125000
G01 X82.667785 Y100.922610 Z-0.125000
G01 X80.923349 Y99.785230 Z-0.125000
G01 X79.296691 Y98.395370 Z-0.125000
G01 X76.885380 Y95.383870 Z-0.125000
G01 X76.064016 Y93.782950 Z-0.125000
G01 X75.501591 Y92.103770 Z-0.125000
G01 X75.230764 Y90.436160 Z-0.125000
G01 X75.241194 Y88.730210 Z-0.125000
G01 X75.525150 Y87.087080 Z-0.125000
G01 X76.080326 Y85.465770 Z-0.125000
G01 X77.612593 Y82.908210 Z-0.125000
G01 X79.836364 Y80.749040 Z-0.125000
G01 X82.612697 Y79.150670 Z-0.125000
G01 X85.813885 Y78.198590 Z-0.125000
G01 X89.191577 Y77.981980 Z-0.125000
G01 X92.411383 Y78.509330 Z-0.125000
G01 X95.307321 Y79.734910 Z-0.125000
G01 X97.793036 Y81.627300 Z-0.125000
G01 X99.561443 Y83.966110 Z-0.125000
G01 X100.653700 Y86.721140 Z-0.125000
G01 X101.084500 Y89.886530 Z-0.125000
G01 X100.829030 Y93.248160 Z-0.125000
G01 X99.886683 Y96.624860 Z-0.125000
G01 X98.317118 Y99.655370 Z-0.125000
G01 X96.294474 Y101.989720 Z-0.125000
G01 X94.002312 Y103.442960 Z-0.125000
G01 X92.424448 Y103.934250 Z-0.125000
G01 X90.674396 Y104.117810 Z-0.125000
G01 X88.762278 Y103.979840 Z-0.125000
G01 X86.710305 Y103.522520 Z-0.125000
G01 X84.480329 Y102.723830 Z-0.125000
G01 X82.301566 Y101.650060 Z-0.125000
G01 X80.403951 Y100.424470 Z-0.125000
G01 X78.626462 Y98.935330 Z-0.125000
G01 X77.181858 Y97.395610 Z-0.125000
G01 X75.962419 Y95.731060 Z-0.125000
G01 X75.039087 Y94.034830 Z-0.125000
G01 X74.414801 Y92.331360 Z-0.125000
G01 X74.074274 Y90.563020 Z-0.125000
G01 X74.034694 Y88.825440 Z-0.125000
G01 X74.287817 Y87.064860 Z-0.125000
G01 X74.838813 Y85.314230 Z-0.125000
G01 X76.480953 Y82.451870 Z-0.125000
G01 X78.860712 Y80.081910 Z-0.125000
G01 X81.862734 Y78.315130 Z-0.125000
G01 X85.247808 Y77.268200 Z-0.125000
G01 X88.922518 Y76.978500 Z-0.125000
G01 X92.423212 Y77.487570 Z-0.125000
G01 X95.641515 Y78.781590 Z-0.125000
G01 X98.335543 Y80.767460 Z-0.125000
G01 X100.217350 Y83.175830 Z-0.125000
G01 X101.429210 Y86.124550 Z-0.125000
G01 X101.922460 Y89.548300 Z-0.125000
G01 X101.675220 Y93.208450 Z-0.125000
G01 X100.663700 Y96.985650 Z-0.125000
G01 X99.012217 Y100.284420 Z-0.125000
G01 X96.888913 Y102.827170 Z-0.125000
G01 X95.696778 Y103.747560 Z-0.125000
G01 X94.413454 Y104.432660 Z-0.125000
G01 X92.749888 Y104.941190 Z-0.125000
G01 X90.901200 Y105.110510 Z-0.125000
G01 X88.957466 Y104.943360 Z-0.125000
G01 X86.775698 Y104.432730 Z-0.125000
G01 X84.389798 Y103.561060 Z-0.125000
G01 X81.960260 Y102.360640 Z-0.125000
G01 X79.907309 Y101.047000 Z-0.125000
G01 X77.975202 Y99.460260 Z-0.125000
G01 X76.393812 Y97.828170 Z-0.125000
G01 X75.046733 Y96.071590 Z-0.125000
G01 X74.014443 Y94.286520 Z-0.125000
G01 X73.303672 Y92.494470 Z-0.125000
G01 X72.909842 Y90.712610 Z-0.125000
G01 X72.819052 Y88.875340 Z-0.125000
G01 X73.046569 Y87.002430 Z-0.125000
G01 X73.567059 Y85.211530 Z-0.125000
G01 X75.253879 Y82.107430 Z-0.125000
G01 X77.762194 Y79.504780 Z-0.125000
G01 X80.973249 Y77.541780 Z-0.125000
G01 X84.624378 Y76.355790 Z-0.125000
G01 X88.601402 Y75.984880 Z-0.125000
G01 X92.480509 Y76.490810 Z-0.125000
G01 X95.942725 Y77.821960 Z-0.125000
G01 X98.911955 Y79.953030 Z-0.125000
G01 X100.931920 Y82.512300 Z-0.125000
G01 X102.199110 Y85.579630 Z-0.125000
G01 X102.737240 Y89.269170 Z-0.125000
G01 X102.481760 Y93.232940 Z-0.125000
G01 X101.420340 Y97.328260 Z-0.125000
G01 X99.643109 Y100.982000 Z-0.125000
G01 X97.416203 Y103.717440 Z-0.125000
G01 X96.167957 Y104.701070 Z-0.125000
G01 X94.824602 Y105.425440 Z-0.125000
G01 X93.081800 Y105.949370 Z-0.125000
G01 X91.224095 Y106.102400 Z-0.125000
G01 X89.180551 Y105.904660 Z-0.125000
G01 X86.874800 Y105.337730 Z-0.125000
G01 X84.246228 Y104.350570 Z-0.125000
G01 X81.645415 Y103.054780 Z-0.125000
G01 X79.435101 Y101.653300 Z-0.125000
G01 X77.344262 Y99.970260 Z-0.125000
G01 X75.620794 Y98.248820 Z-0.125000
G01 X74.139282 Y96.405230 Z-0.125000
G01 X72.990981 Y94.537920 Z-0.125000
G01 X72.186863 Y92.664540 Z-0.125000
G01 X71.724901 Y90.798150 Z-0.125000
G01 X71.590470 Y88.865580 Z-0.125000
G01 X71.784021 Y86.975020 Z-0.125000
G01 X72.299348 Y85.068260 Z-0.125000
G01 X73.042587 Y83.365700 Z-0.125000
G01 X74.043784 Y81.729300 Z-0.125000
G01 X75.293662 Y80.205860 Z-0.125000
G01 X76.693260 Y78.900590 Z-0.125000
G01 X80.024638 Y76.798390 Z-0.125000
G01 X83.942675 Y75.462740 Z-0.125000
G01 X88.227041 Y75.002670 Z-0.125000
G01 X90.362560 Y75.125560 Z-0.125000
G01 X92.503567 Y75.498030 Z-0.125000
G01 X94.421369 Y76.073200 Z-0.125000
G01 X96.296056 Y76.902060 Z-0.125000
G01 X98.029713 Y77.961140 Z-0.125000
G01 X99.463605 Y79.127140 Z-0.125000
G01 X100.662340 Y80.427000 Z-0.125000
G01 X101.621730 Y81.830440 Z-0.125000
G01 X102.968220 Y85.104790 Z-0.125000
G01 X103.524830 Y88.956340 Z-0.125000
G01 X103.262950 Y93.229070 Z-0.125000
G01 X102.155610 Y97.650040 Z-0.125000
G01 X100.308620 Y101.590540 Z-0.125000
G01 X99.185919 Y103.222430 Z-0.125000
G01 X97.933885 Y104.608500 Z-0.125000
G01 X96.634621 Y105.656390 Z-0.125000
G01 X95.236462 Y106.419950 Z-0.125000
G01 X93.502674 Y106.943190 Z-0.125000
G01 X91.568347 Y107.094210 Z-0.125000
G01 X89.432043 Y106.864400 Z-0.125000
G01 X87.008581 Y106.238410 Z-0.125000
G01 X84.226893 Y105.169290 Z-0.125000
G01 X81.358716 Y103.733380 Z-0.125000
G01 X78.901353 Y102.181960 Z-0.125000
G01 X76.656158 Y100.396170 Z-0.125000
G01 X74.794076 Y98.582760 Z-0.125000
G01 X73.182312 Y96.652930 Z-0.125000
G01 X71.923549 Y94.706330 Z-0.125000
G01 X71.065147 Y92.842040 Z-0.125000
G01 X70.528916 Y90.898300 Z-0.125000
G01 X70.345751 Y88.970310 Z-0.125000
G01 X70.501740 Y86.983270 Z-0.125000
G01 X71.005637 Y84.964470 Z-0.125000
G01 X71.761680 Y83.148260 Z-0.125000
G01 X72.797889 Y81.390430 Z-0.125000
G01 X74.105447 Y79.744700 Z-0.125000
G01 X75.581276 Y78.328320 Z-0.125000
G01 X77.265091 Y77.083020 Z-0.125000
G01 X79.124364 Y76.034520 Z-0.125000
G01 X81.118590 Y75.200740 Z-0.125000
G01 X83.319305 Y74.563720 Z-0.125000
G01 X85.563650 Y74.177080 Z-0.125000
G01 X87.915062 Y74.032210 Z-0.125000
G01 X90.202651 Y74.141280 Z-0.125000
G01 X92.491745 Y74.510880 Z-0.125000
G01 X94.636345 Y75.126740 Z-0.125000
G01 X96.534157 Y75.935570 Z-0.125000
G01 X98.380036 Y77.019850 Z-0.125000
G01 X99.988993 Y78.290370 Z-0.125000
G01 X101.264870 Y79.651300 Z-0.125000
G01 X102.285140 Y81.130130 Z-0.125000
G01 X103.104020 Y82.788850 Z-0.125000
G01 X103.710350 Y84.608410 Z-0.125000
G01 X104.288380 Y88.730270 Z-0.125000
G01 X103.999200 Y93.317850 Z-0.125000
G01 X102.791520 Y98.172810 Z-0.125000
G01 X100.850140 Y102.367870 Z-0.125000
G01 X99.678188 Y104.099770 Z-0.125000
G01 X98.374484 Y105.564570 Z-0.125000
G01 X97.023748 Y106.662110 Z-0.125000
G01 X95.571108 Y107.448650 Z-0.125000
G01 X93.768863 Y107.966270 Z-0.125000
G01 X91.754256 Y108.079390 Z-0.125000
G01 X89.521927 Y107.783860 Z-0.125000
G01 X86.978533 Y107.068260 Z-0.125000
G01 X83.942022 Y105.843190 Z-0.125000
G01 X80.901982 Y104.284080 Z-0.125000
G01 X78.290196 Y102.622670 Z-0.125000
G01 X75.895150 Y100.727600 Z-0.125000
G01 X73.898244 Y98.820320 Z-0.125000
G01 X72.161453 Y96.805720 Z-0.125000
G01 X70.849779 Y94.869040 Z-0.125000
G01 X69.903780 Y92.937650 Z-0.125000
G01 X69.322869 Y91.013710 Z-0.125000
G01 X69.086990 Y89.007590 Z-0.125000
G01 X69.216202 Y86.927520 Z-0.125000
G01 X69.687700 Y84.901360 Z-0.125000
G01 X70.451450 Y82.973110 Z-0.125000
G01 X71.517904 Y81.093000 Z-0.125000
G01 X72.878699 Y79.321850 Z-0.125000
G01 X74.427298 Y77.790160 Z-0.125000
G01 X76.205439 Y76.438000 Z-0.125000
G01 X78.178698 Y75.295320 Z-0.125000
G01 X80.302787 Y74.382820 Z-0.125000
G01 X82.527015 Y73.711240 Z-0.125000
G01 X84.924738 Y73.264570 Z-0.125000
G01 X87.439717 Y73.075140 Z-0.125000
G01 X90.006038 Y73.166140 Z-0.125000
G01 X92.444588 Y73.530380 Z-0.125000
G01 X94.723883 Y74.149120 Z-0.125000
G01 X96.833601 Y75.013980 Z-0.125000
G01 X98.783083 Y76.129040 Z-0.125000
G01 X100.486690 Y77.442610 Z-0.125000
G01 X101.769690 Y78.774860 Z-0.125000
G01 X102.862790 Y80.313330 Z-0.125000
G01 X103.741580 Y82.051620 Z-0.125000
G01 X104.392970 Y83.970790 Z-0.125000
G01 X105.013400 Y88.220470 Z-0.125000
G01 X104.745390 Y93.125670 Z-0.125000
G01 X103.519480 Y98.341270 Z-0.125000
G01 X102.588830 Y100.760220 Z-0.125000
G01 X101.483510 Y102.952890 Z-0.125000
G01 X100.217040 Y104.895790 Z-0.125000
G01 X98.872965 Y106.455110 Z-0.125000
G01 X97.481469 Y107.618420 Z-0.125000
G01 X95.985063 Y108.443970 Z-0.125000
G01 X94.126380 Y108.972810 Z-0.125000
G01 X92.136854 Y109.068310 Z-0.125000
G01 X89.825161 Y108.737120 Z-0.125000
G01 X87.279873 Y107.994070 Z-0.125000
G01 X83.988538 Y106.641180 Z-0.125000
G01 X80.664346 Y104.927390 Z-0.125000
G01 X77.882068 Y103.174210 Z-0.125000
G01 X75.225146 Y101.108700 Z-0.125000
G01 X73.078586 Y99.115980 Z-0.125000
G01 X71.199065 Y97.026320 Z-0.125000
G01 X69.770072 Y95.027060 Z-0.125000
G01 X68.731511 Y93.035710 Z-0.125000
G01 X68.085211 Y91.047890 Z-0.125000
G01 X67.813992 Y89.067180 Z-0.125000
G01 X67.898262 Y87.004300 Z-0.125000
G01 X68.347549 Y84.879690 Z-0.125000
G01 X69.163034 Y82.734680 Z-0.125000
G01 X70.271882 Y80.735560 Z-0.125000
G01 X71.614910 Y78.939130 Z-0.125000
G01 X73.232423 Y77.287980 Z-0.125000
G01 X75.102213 Y75.824040 Z-0.125000
G01 X77.188086 Y74.581930 Z-0.125000
G01 X79.442101 Y73.586020 Z-0.125000
G01 X81.808275 Y72.848870 Z-0.125000
G01 X84.362316 Y72.352090 Z-0.125000
G01 X87.041449 Y72.128940 Z-0.125000
G01 X89.772187 Y72.201040 Z-0.125000
G01 X92.361697 Y72.557900 Z-0.125000
G01 X94.775948 Y73.176240 Z-0.125000
G01 X97.005662 Y74.045940 Z-0.125000
G01 X99.158363 Y75.233700 Z-0.125000
G01 X100.955320 Y76.584170 Z-0.125000
G01 X102.311020 Y77.963910 Z-0.125000
G01 X103.465660 Y79.568680 Z-0.125000
G01 X104.344050 Y81.280460 Z-0.125000
G01 X105.042150 Y83.295070 Z-0.125000
G01 X105.495560 Y85.479980 Z-0.125000
G01 X105.717520 Y87.931250 Z-0.125000
G01 X105.424680 Y93.160900 Z-0.125000
G01 X104.143970 Y98.720490 Z-0.125000
G01 X103.181970 Y101.292690 Z-0.125000
G01 X102.044180 Y103.620600 Z-0.125000
G01 X100.743350 Y105.683600 Z-0.125000
G01 X99.364324 Y107.339580 Z-0.125000
G01 X97.859492 Y108.625450 Z-0.125000
G01 X96.319451 Y109.471390 Z-0.125000
G01 X94.494997 Y109.976270 Z-0.125000
G01 X92.446812 Y110.049470 Z-0.125000
G01 X90.159549 Y109.689010 Z-0.125000
G01 X87.410783 Y108.843880 Z-0.125000
G01 X83.852736 Y107.327880 Z-0.125000
G01 X80.235770 Y105.429730 Z-0.125000
G01 X77.293777 Y103.566080 Z-0.125000
G01 X74.471982 Y101.389870 Z-0.125000
G01 X72.092808 Y99.225810 Z-0.125000
G01 X70.162793 Y97.148810 Z-0.125000
G01 X68.625364 Y95.090760 Z-0.125000
G01 X67.548786 Y93.137830 Z-0.125000
G01 X66.833506 Y91.092770 Z-0.125000
G01 X66.521396 Y89.045250 Z-0.125000
G01 X66.590436 Y86.899720 Z-0.125000
G01 X67.018363 Y84.788190 Z-0.125000
G01 X67.851094 Y82.529330 Z-0.125000
G01 X68.999787 Y80.410130 Z-0.125000
G01 X70.401803 Y78.496060 Z-0.125000
G01 X72.100120 Y76.730800 Z-0.125000
G01 X74.072726 Y75.161880 Z-0.125000
G01 X76.153245 Y73.896320 Z-0.125000
G01 X78.536729 Y72.811980 Z-0.125000
G01 X81.045828 Y72.004910 Z-0.125000
G01 X83.758078 Y71.454710 Z-0.125000
G01 X86.603719 Y71.195510 Z-0.125000
G01 X89.501029 Y71.247010 Z-0.125000
G01 X92.242676 Y71.594520 Z-0.125000
G01 X94.908483 Y72.245130 Z-0.125000
G01 X97.354807 Y73.175520 Z-0.125000
G01 X99.603334 Y74.396710 Z-0.125000
G01 X101.482720 Y75.792460 Z-0.125000
G01 X102.899300 Y77.228440 Z-0.125000
G01 X104.101820 Y78.909260 Z-0.125000
G01 X105.011370 Y80.711570 Z-0.125000
G01 X105.727180 Y82.841540 Z-0.125000
G01 X106.183520 Y85.158520 Z-0.125000
G01 X106.390270 Y87.615500 Z-0.125000
G01 X106.073190 Y93.173970 Z-0.125000
G01 X105.533760 Y96.131450 Z-0.125000
G01 X104.742180 Y99.083690 Z-0.125000
G01 X103.752870 Y101.811160 Z-0.125000
G01 X102.528010 Y104.386180 Z-0.125000
G01 X101.190730 Y106.556440 Z-0.125000
G01 X99.775720 Y108.293290 Z-0.125000
G01 X98.233458 Y109.630650 Z-0.125000
G01 X96.655400 Y110.495260 Z-0.125000
G01 X94.783781 Y110.987920 Z-0.125000
G01 X92.676939 Y111.017120 Z-0.125000
G01 X90.314227 Y110.585600 Z-0.125000
G01 X87.572384 Y109.685980 Z-0.125000
G01 X83.740246 Y107.997260 Z-0.125000
G01 X79.817244 Y105.905960 Z-0.125000
G01 X76.712666 Y103.931790 Z-0.125000
G01 X73.720572 Y101.646550 Z-0.125000
G01 X69.116193 Y97.258200 Z-0.125000
G01 X67.529969 Y95.242150 Z-0.125000
G01 X66.356322 Y93.245900 Z-0.125000
G01 X65.596556 Y91.252710 Z-0.125000
G01 X65.221278 Y89.149340 Z-0.125000
G01 X65.241598 Y87.043930 Z-0.125000
G01 X65.638759 Y84.847590 Z-0.125000
G01 X66.464890 Y82.477680 Z-0.125000
G01 X67.631745 Y80.234850 Z-0.125000
G01 X69.072561 Y78.193800 Z-0.125000
G01 X70.832543 Y76.300730 Z-0.125000
G01 X72.891374 Y74.610150 Z-0.125000
G01 X75.075036 Y73.240590 Z-0.125000
G01 X77.587402 Y72.062300 Z-0.125000
G01 X80.239949 Y71.180770 Z-0.125000
G01 X83.112044 Y70.573540 Z-0.125000
G01 X86.126412 Y70.275870 Z-0.125000
G01 X89.192449 Y70.305070 Z-0.125000
G01 X92.087539 Y70.641750 Z-0.125000
G01 X94.894702 Y71.286080 Z-0.125000
G01 X97.463703 Y72.212040 Z-0.125000
G01 X99.821515 Y73.432640 Z-0.125000
G01 X101.893860 Y74.915860 Z-0.125000
G01 X103.381780 Y76.389190 Z-0.125000
G01 X104.577440 Y78.018020 Z-0.125000
G01 X105.546040 Y79.880940 Z-0.125000
G01 X106.310240 Y82.098830 Z-0.125000
G01 X106.799580 Y84.526950 Z-0.125000
G01 X107.025130 Y87.115080 Z-0.125000
G01 X106.733210 Y92.843650 Z-0.125000
G01 X106.162620 Y96.145890 Z-0.125000
G01 X105.357450 Y99.284370 Z-0.125000
G01 X104.354040 Y102.182150 Z-0.125000
G01 X103.114410 Y104.915620 Z-0.125000
G01 X101.693390 Y107.325100 Z-0.125000
G01 X100.254600 Y109.162490 Z-0.125000
G01 X98.687060 Y110.573520 Z-0.125000
G01 X97.082743 Y111.478110 Z-0.125000
G01 X95.176962 Y111.980370 Z-0.125000
G01 X93.125903 Y111.995770 Z-0.125000
G01 X90.707995 Y111.530090 Z-0.125000
G01 X87.883259 Y110.566970 Z-0.125000
G01 X83.900747 Y108.773160 Z-0.125000
G01 X79.534205 Y106.429640 Z-0.125000
G01 X76.374690 Y104.435540 Z-0.125000
G01 X73.080025 Y101.968260 Z-0.125000
G01 X68.059019 Y97.356430 Z-0.125000
G01 X66.360636 Y95.298720 Z-0.125000
G01 X65.154654 Y93.361320 Z-0.125000
G01 X64.354061 Y91.431160 Z-0.125000
G01 X63.922868 Y89.389650 Z-0.125000
G01 X63.882308 Y87.226500 Z-0.125000
G01 X64.242952 Y84.951310 Z-0.125000
G01 X65.057065 Y82.474090 Z-0.125000
G01 X66.237115 Y80.108380 Z-0.125000
G01 X67.712094 Y77.938310 Z-0.125000
G01 X69.529104 Y75.913310 Z-0.125000
G01 X71.670305 Y74.095520 Z-0.125000
G01 X73.954630 Y72.616300 Z-0.125000
G01 X76.443218 Y71.401160 Z-0.125000
G01 X79.232942 Y70.422310 Z-0.125000
G01 X82.264229 Y69.735630 Z-0.125000
G01 X85.452091 Y69.378850 Z-0.125000
G01 X88.696067 Y69.368450 Z-0.125000
G01 X91.755966 Y69.678930 Z-0.125000
G01 X94.716311 Y70.301780 Z-0.125000
G01 X97.535169 Y71.253800 Z-0.125000
G01 X100.107700 Y72.529550 Z-0.125000
G01 X102.272220 Y74.030440 Z-0.125000
G01 X103.830750 Y75.534960 Z-0.125000
G01 X105.083760 Y77.212110 Z-0.125000
G01 X106.097430 Y79.144220 Z-0.125000
G01 X106.855960 Y81.315870 Z-0.125000
G01 X107.380100 Y83.850770 Z-0.125000
G01 X107.625980 Y86.567650 Z-0.125000
G01 X107.608980 Y89.570000 Z-0.125000
G01 X107.341550 Y92.617810 Z-0.125000
G01 X106.762920 Y96.118240 Z-0.125000
G01 X105.947630 Y99.447320 Z-0.125000
G01 X104.881960 Y102.658440 Z-0.125000
G01 X103.625100 Y105.538180 Z-0.125000
G01 X102.186300 Y108.077730 Z-0.125000
G01 X100.653450 Y110.104030 Z-0.125000
G01 X99.060562 Y111.567180 Z-0.125000
G01 X97.430115 Y112.489270 Z-0.125000
G01 X95.585736 Y112.965470 Z-0.125000
G01 X93.498227 Y112.958470 Z-0.125000
G01 X91.024403 Y112.439870 Z-0.125000
G01 X88.115336 Y111.397470 Z-0.125000
G01 X83.851220 Y109.418710 Z-0.125000
G01 X79.145654 Y106.861670 Z-0.125000
G01 X75.698592 Y104.675790 Z-0.125000
G01 X72.108277 Y102.001360 Z-0.125000
G01 X66.900905 Y97.352430 Z-0.125000
G01 X65.177046 Y95.354730 Z-0.125000
G01 X63.889411 Y93.385530 Z-0.125000
G01 X63.035976 Y91.416450 Z-0.125000
G01 X62.591652 Y89.435030 Z-0.125000
G01 X62.528292 Y87.206870 Z-0.125000
G01 X62.861894 Y84.973370 Z-0.125000
G01 X63.682017 Y82.389210 Z-0.125000
G01 X64.892311 Y79.902720 Z-0.125000
G01 X66.417196 Y77.607620 Z-0.125000
G01 X68.306386 Y75.456680 Z-0.125000
G01 X70.411269 Y73.620590 Z-0.125000
G01 X72.793382 Y72.025880 Z-0.125000
G01 X75.400595 Y70.710230 Z-0.125000
G01 X78.333310 Y69.645280 Z-0.125000
G01 X81.526791 Y68.891910 Z-0.125000
G01 X84.887628 Y68.489910 Z-0.125000
G01 X88.304970 Y68.452810 Z-0.125000
G01 X91.668682 Y68.771390 Z-0.125000
G01 X94.892082 Y69.432140 Z-0.125000
G01 X97.811733 Y70.397210 Z-0.125000
G01 X100.473880 Y71.688120 Z-0.125000
G01 X102.718290 Y73.217040 Z-0.125000
G01 X104.333780 Y74.763680 Z-0.125000
G01 X105.629060 Y76.500820 Z-0.125000
G01 X106.671600 Y78.514170 Z-0.125000
G01 X107.444820 Y80.787970 Z-0.125000
G01 X107.947680 Y83.288980 Z-0.125000
G01 X108.199100 Y86.141550 Z-0.125000
G01 X108.176600 Y89.303600 Z-0.125000
G01 X107.896560 Y92.519750 Z-0.125000
G01 X107.299910 Y96.216090 Z-0.125000
G01 X106.423020 Y99.890030 Z-0.125000
G01 X105.334490 Y103.256800 Z-0.125000
G01 X104.058420 Y106.267840 Z-0.125000
G01 X102.600420 Y108.921750 Z-0.125000
G01 X101.048160 Y111.035780 Z-0.125000
G01 X99.436205 Y112.550670 Z-0.125000
G01 X97.785573 Y113.489290 Z-0.125000
G01 X95.914804 Y113.950270 Z-0.125000
G01 X93.789344 Y113.898170 Z-0.125000
G01 X91.371304 Y113.341350 Z-0.125000
G01 X88.383001 Y112.220230 Z-0.125000
G01 X83.695269 Y109.980070 Z-0.125000
G01 X78.633762 Y107.191120 Z-0.125000
G01 X75.149597 Y104.975640 Z-0.125000
G01 X71.234041 Y102.096760 Z-0.125000
G01 X65.720896 Y97.339850 Z-0.125000
G01 X63.979335 Y95.412650 Z-0.125000
G01 X62.667335 Y93.520250 Z-0.125000
G01 X61.778231 Y91.631990 Z-0.125000
G01 X61.265385 Y89.618350 Z-0.125000
G01 X61.149113 Y87.461210 Z-0.125000
G01 X61.438947 Y85.163360 Z-0.125000
G01 X62.237513 Y82.479660 Z-0.125000
G01 X63.452576 Y79.872440 Z-0.125000
G01 X65.101118 Y77.313100 Z-0.125000
G01 X67.060202 Y75.032250 Z-0.125000
G01 X69.253989 Y73.078970 Z-0.125000
G01 X71.746758 Y71.378840 Z-0.125000
G01 X74.483243 Y69.974800 Z-0.125000
G01 X77.566788 Y68.838060 Z-0.125000
G01 X80.926319 Y68.034260 Z-0.125000
G01 X84.284283 Y67.616200 Z-0.125000
G01 X87.876820 Y67.551200 Z-0.125000
G01 X91.405404 Y67.855210 Z-0.125000
G01 X94.775715 Y68.503740 Z-0.125000
G01 X97.943328 Y69.499190 Z-0.125000
G01 X100.700720 Y70.783030 Z-0.125000
G01 X103.137170 Y72.398010 Z-0.125000
G01 X104.807860 Y73.982280 Z-0.125000
G01 X106.143830 Y75.775820 Z-0.125000
G01 X107.155030 Y77.728650 Z-0.125000
G01 X107.959540 Y80.086250 Z-0.125000
G01 X108.480160 Y82.693660 Z-0.125000
G01 X108.730280 Y85.499840 Z-0.125000
G01 X108.727280 Y88.628220 Z-0.125000
G01 X108.441030 Y92.200410 Z-0.125000
G01 X107.841240 Y96.101550 Z-0.125000
G01 X106.961160 Y99.983590 Z-0.125000
G01 X105.873150 Y103.539420 Z-0.125000
G01 X104.539000 Y106.851130 Z-0.125000
G01 X103.076890 Y109.637060 Z-0.125000
G01 X101.518950 Y111.863500 Z-0.125000
G01 X99.900785 Y113.457840 Z-0.125000
G01 X98.151843 Y114.476990 Z-0.125000
G01 X96.260824 Y114.921510 Z-0.125000
G01 X94.103030 Y114.822710 Z-0.125000
G01 X91.633581 Y114.194760 Z-0.125000
G01 X88.560162 Y112.978270 Z-0.125000
G01 X83.417526 Y110.445450 Z-0.125000
G01 X77.980416 Y107.406650 Z-0.125000
G01 X74.336339 Y105.067530 Z-0.125000
G01 X69.963463 Y101.875950 Z-0.125000
G01 X64.319606 Y97.129620 Z-0.125000
G01 X62.603717 Y95.278050 Z-0.125000
G01 X61.313209 Y93.461760 Z-0.125000
G01 X60.393664 Y91.539660 Z-0.125000
G01 X59.894731 Y89.593290 Z-0.125000
G01 X59.771996 Y87.501100 Z-0.125000
G01 X60.033089 Y85.263920 Z-0.125000
G01 X60.830805 Y82.479110 Z-0.125000
G01 X62.070299 Y79.751890 Z-0.125000
G01 X63.766135 Y77.056160 Z-0.125000
G01 X65.792630 Y74.641600 Z-0.125000
G01 X68.073428 Y72.566550 Z-0.125000
G01 X70.675938 Y70.756280 Z-0.125000
G01 X73.541499 Y69.259350 Z-0.125000
G01 X76.593232 Y68.104310 Z-0.125000
G01 X80.117116 Y67.225070 Z-0.125000
G01 X83.642761 Y66.758160 Z-0.125000
G01 X87.412452 Y66.663660 Z-0.125000
G01 X91.107022 Y66.952570 Z-0.125000
G01 X94.768472 Y67.622380 Z-0.125000
G01 X98.046417 Y68.608940 Z-0.125000
G01 X101.014080 Y69.942380 Z-0.125000
G01 X103.528070 Y71.572690 Z-0.125000
G01 X105.157610 Y73.084910 Z-0.125000
G01 X106.549100 Y74.911050 Z-0.125000
G01 X107.602040 Y76.915680 Z-0.125000
G01 X108.438230 Y79.352460 Z-0.125000
G01 X108.977070 Y82.062740 Z-0.125000
G01 X109.233530 Y84.992980 Z-0.125000
G01 X109.226530 Y88.270850 Z-0.125000
G01 X108.929770 Y92.023110 Z-0.125000
G01 X108.281120 Y96.317460 Z-0.125000
G01 X107.381440 Y100.385370 Z-0.125000
G01 X106.282520 Y104.099530 Z-0.125000
G01 X104.942750 Y107.548490 Z-0.125000
G01 X103.475550 Y110.449520 Z-0.125000
G01 X101.911530 Y112.766050 Z-0.125000
G01 X100.287290 Y114.413810 Z-0.125000
G01 X98.530253 Y115.449680 Z-0.125000
G01 X96.625123 Y115.876700 Z-0.125000
G01 X94.440678 Y115.730440 Z-0.125000
G01 X91.924131 Y115.031760 Z-0.125000
G01 X88.635606 Y113.659710 Z-0.125000
G01 X82.999721 Y110.802650 Z-0.125000
G01 X77.165516 Y107.496300 Z-0.125000
G01 X73.218736 Y104.927170 Z-0.125000
G01 X68.239992 Y101.321040 Z-0.125000
G01 X62.877808 Y96.916280 Z-0.125000
G01 X61.198761 Y95.148660 Z-0.125000
G01 X59.938560 Y93.414940 Z-0.125000
G01 X59.033584 Y91.573770 Z-0.125000
G01 X58.530992 Y89.709780 Z-0.125000
G01 X58.384086 Y87.569370 Z-0.125000
G01 X58.616570 Y85.403150 Z-0.125000
G01 X59.410759 Y82.519750 Z-0.125000
G01 X60.752219 Y79.522040 Z-0.125000
G01 X62.413369 Y76.838520 Z-0.125000
G01 X64.504665 Y74.286330 Z-0.125000
G01 X66.870447 Y72.084890 Z-0.125000
G01 X69.581326 Y70.159580 Z-0.125000
G01 X72.393195 Y68.649060 Z-0.125000
G01 X75.579100 Y67.396500 Z-0.125000
G01 X79.072280 Y66.475270 Z-0.125000
G01 X82.769920 Y65.933540 Z-0.125000
G01 X86.728392 Y65.787130 Z-0.125000
G01 X90.604753 Y66.044050 Z-0.125000
G01 X94.586221 Y66.719750 Z-0.125000
G01 X98.119966 Y67.727670 Z-0.125000
G01 X101.178100 Y69.038760 Z-0.125000
G01 X103.777080 Y70.655290 Z-0.125000
G01 X105.468800 Y72.172850 Z-0.125000
G01 X106.915750 Y74.024550 Z-0.125000
G01 X108.010690 Y76.075030 Z-0.125000
G01 X108.834010 Y78.419510 Z-0.125000
G01 X109.410880 Y81.211710 Z-0.125000
G01 X109.691960 Y84.250330 Z-0.125000
G01 X109.699960 Y87.668370 Z-0.125000
G01 X109.430900 Y91.391620 Z-0.125000
G01 X108.832150 Y95.710160 Z-0.125000
G01 X107.912210 Y100.210400 Z-0.125000
G01 X106.780110 Y104.308470 Z-0.125000
G01 X105.459290 Y107.934650 Z-0.125000
G01 X103.941000 Y111.116320 Z-0.125000
G01 X102.385090 Y113.550300 Z-0.125000
G01 X100.767900 Y115.282830 Z-0.125000
G01 X99.016416 Y116.367840 Z-0.125000
G01 X97.111810 Y116.807780 Z-0.125000
G01 X94.916586 Y116.642190 Z-0.125000
G01 X92.369273 Y115.896880 Z-0.125000
G01 X89.011115 Y114.449060 Z-0.125000
G01 X82.886159 Y111.290930 Z-0.125000
G01 X76.794649 Y107.827850 Z-0.125000
G01 X72.656083 Y105.150030 Z-0.125000
G01 X66.704232 Y100.934180 Z-0.125000
G01 X61.398289 Y96.706710 Z-0.125000
G01 X59.767646 Y95.029370 Z-0.125000
G01 X58.546509 Y93.383370 Z-0.125000
G01 X57.662566 Y91.628620 Z-0.125000
G01 X57.160629 Y89.853610 Z-0.125000
G01 X56.987264 Y87.801370 Z-0.125000
G01 X57.169185 Y85.725550 Z-0.125000
G01 X57.928037 Y82.756200 Z-0.125000
G01 X59.262966 Y79.636410 Z-0.125000
G01 X61.046724 Y76.661690 Z-0.125000
G01 X63.200208 Y73.968050 Z-0.125000
G01 X65.648623 Y71.635520 Z-0.125000
G01 X68.291565 Y69.701050 Z-0.125000
G01 X71.208735 Y68.073160 Z-0.125000
G01 X74.527439 Y66.716220 Z-0.125000
G01 X78.176545 Y65.711170 Z-0.125000
G01 X82.044741 Y65.110980 Z-0.125000
G01 X85.992958 Y64.928330 Z-0.125000
G01 X90.054575 Y65.151750 Z-0.125000
G01 X94.214370 Y65.798820 Z-0.125000
G01 X98.028219 Y66.810610 Z-0.125000
G01 X101.309690 Y68.137760 Z-0.125000
G01 X104.105360 Y69.816160 Z-0.125000
G01 X105.844430 Y71.352930 Z-0.125000
G01 X107.244690 Y73.116710 Z-0.125000
G01 X108.382080 Y75.206630 Z-0.125000
G01 X109.236630 Y77.614080 Z-0.125000
G01 X109.806040 Y80.310270 Z-0.125000
G01 X110.114040 Y83.451350 Z-0.125000
G01 X110.137440 Y87.005680 Z-0.125000
G01 X109.875760 Y90.896340 Z-0.125000
G01 X109.246440 Y95.638950 Z-0.125000
G01 X108.325070 Y100.355500 Z-0.125000
G01 X107.203150 Y104.643710 Z-0.125000
G01 X105.900760 Y108.429340 Z-0.125000
G01 X104.402000 Y111.751510 Z-0.125000
G01 X102.784160 Y114.412220 Z-0.125000
G01 X101.174420 Y116.200350 Z-0.125000
G01 X99.428353 Y117.303130 Z-0.125000
G01 X97.522638 Y117.726150 Z-0.125000
G01 X95.312585 Y117.514380 Z-0.125000
G01 X92.603142 Y116.652390 Z-0.125000
G01 X89.007798 Y115.023370 Z-0.125000
G01 X82.312970 Y111.499300 Z-0.125000
G01 X76.112239 Y107.947390 Z-0.125000
G01 X64.111862 Y99.828860 Z-0.125000
G01 X59.563463 Y96.213920 Z-0.125000
G01 X58.136690 Y94.722220 Z-0.125000
G01 X57.004197 Y93.155450 Z-0.125000
G01 X56.191454 Y91.474460 Z-0.125000
G01 X55.737334 Y89.775030 Z-0.125000
G01 X55.585987 Y87.933970 Z-0.125000
G01 X55.740737 Y85.948770 Z-0.125000
G01 X56.489266 Y82.888020 Z-0.125000
G01 X57.842419 Y79.643840 Z-0.125000
G01 X59.666809 Y76.526800 Z-0.125000
G01 X61.879801 Y73.688010 Z-0.125000
G01 X64.408496 Y71.219550 Z-0.125000
G01 X67.149752 Y69.166520 Z-0.125000
G01 X70.185348 Y67.435610 Z-0.125000
G01 X73.646390 Y65.991590 Z-0.125000
G01 X77.456059 Y64.922210 Z-0.125000
G01 X81.282646 Y64.305880 Z-0.125000
G01 X85.405926 Y64.086940 Z-0.125000
G01 X89.639470 Y64.293290 Z-0.125000
G01 X94.120131 Y64.958990 Z-0.125000
G01 X98.182140 Y65.995850 Z-0.125000
G01 X101.664600 Y67.362580 Z-0.125000
G01 X104.402070 Y68.970500 Z-0.125000
G01 X106.186610 Y70.521060 Z-0.125000
G01 X107.621220 Y72.318390 Z-0.125000
G01 X108.782390 Y74.464220 Z-0.125000
G01 X109.649160 Y76.950670 Z-0.125000
G01 X110.219620 Y79.747780 Z-0.125000
G01 X110.508740 Y82.805920 Z-0.125000
G01 X110.539240 Y86.280930 Z-0.125000
G01 X110.286770 Y90.337060 Z-0.125000
G01 X109.664250 Y95.302870 Z-0.125000
G01 X108.711330 Y100.461040 Z-0.125000
G01 X107.554600 Y105.125200 Z-0.125000
G01 X106.271140 Y109.048730 Z-0.125000
G01 X104.791390 Y112.492190 Z-0.125000
G01 X103.189430 Y115.251540 Z-0.125000
G01 X101.593930 Y117.095660 Z-0.125000
G01 X99.859947 Y118.216070 Z-0.125000
G01 X97.959392 Y118.622060 Z-0.125000
G01 X95.739997 Y118.364740 Z-0.125000
G01 X92.994824 Y117.434040 Z-0.125000
G01 X89.315474 Y115.714020 Z-0.125000
G01 X75.756763 Y108.244470 Z-0.125000
G01 X61.840611 Y99.034020 Z-0.125000
G01 X57.796892 Y95.834660 Z-0.125000
G01 X56.482017 Y94.430560 Z-0.125000
G01 X55.511066 Y93.052700 Z-0.125000
G01 X54.753456 Y91.456170 Z-0.125000
G01 X54.328991 Y89.845900 Z-0.125000
G01 X54.179995 Y88.099100 Z-0.125000
G01 X54.308621 Y86.213310 Z-0.125000
G01 X55.044216 Y83.064070 Z-0.125000
G01 X56.413439 Y79.696230 Z-0.125000
G01 X58.276370 Y76.435270 Z-0.125000
G01 X60.546126 Y73.447630 Z-0.125000
G01 X63.152426 Y70.838450 Z-0.125000
G01 X65.990161 Y68.661640 Z-0.125000
G01 X69.143142 Y66.822620 Z-0.125000
G01 X72.529130 Y65.364570 Z-0.125000
G01 X76.494591 Y64.199400 Z-0.125000
G01 X80.484875 Y63.518680 Z-0.125000
G01 X84.575560 Y63.262550 Z-0.125000
G01 X89.000631 Y63.432200 Z-0.125000
G01 X93.669942 Y64.070660 Z-0.125000
G01 X98.169937 Y65.147170 Z-0.125000
G01 X101.733920 Y66.465830 Z-0.125000
G01 X104.666840 Y68.118090 Z-0.125000
G01 X106.388010 Y69.568120 Z-0.125000
G01 X107.873320 Y71.369910 Z-0.125000
G01 X109.077270 Y73.542860 Z-0.125000
G01 X109.926010 Y75.901330 Z-0.125000
G01 X110.537620 Y78.755330 Z-0.125000
G01 X110.855680 Y81.898450 Z-0.125000
G01 X110.905180 Y85.492630 Z-0.125000
G01 X110.684390 Y89.474550 Z-0.125000
G01 X110.084270 Y94.667740 Z-0.125000
G01 X109.114750 Y100.308860 Z-0.125000
G01 X107.990290 Y105.201760 Z-0.125000
G01 X106.691950 Y109.476920 Z-0.125000
G01 X105.181430 Y113.206760 Z-0.125000
G01 X103.603050 Y116.065650 Z-0.125000
G01 X102.028580 Y117.966090 Z-0.125000
G01 X100.313610 Y119.104140 Z-0.125000
G01 X98.523644 Y119.490440 Z-0.125000
G01 X96.313264 Y119.220540 Z-0.125000
G01 X93.680903 Y118.304720 Z-0.125000
G01 X89.959419 Y116.541670 Z-0.125000
G01 X75.772112 Y108.745500 Z-0.125000
G01 X59.775112 Y98.459640 Z-0.125000
G01 X56.104452 Y95.575000 Z-0.125000
G01 X54.005055 Y92.971580 Z-0.125000
G01 X53.307346 Y91.461590 Z-0.125000
G01 X52.915737 Y89.944600 Z-0.125000
G01 X52.771119 Y88.298150 Z-0.125000
G01 X52.874919 Y86.519820 Z-0.125000
G01 X53.648531 Y83.115600 Z-0.125000
G01 X55.064003 Y79.615820 Z-0.125000
G01 X56.993039 Y76.210040 Z-0.125000
G01 X59.346082 Y73.079200 Z-0.125000
G01 X61.882551 Y70.493420 Z-0.125000
G01 X64.814614 Y68.187540 Z-0.125000
G01 X68.083608 Y66.235000 Z-0.125000
G01 X71.602591 Y64.684950 Z-0.125000
G01 X75.497699 Y63.500850 Z-0.125000
G01 X79.652335 Y62.749970 Z-0.125000
G01 X83.912923 Y62.452490 Z-0.125000
G01 X88.314674 Y62.587390 Z-0.125000
G01 X93.349463 Y63.230670 Z-0.125000
G01 X98.276406 Y64.353170 Z-0.125000
G01 X102.037210 Y65.691040 Z-0.125000
G01 X105.022580 Y67.344820 Z-0.125000
G01 X106.768970 Y68.820320 Z-0.125000
G01 X108.268640 Y70.670500 Z-0.125000
G01 X109.404270 Y72.753890 Z-0.125000
G01 X110.264700 Y75.177620 Z-0.125000
G01 X110.847110 Y77.917830 Z-0.125000
G01 X111.177380 Y81.157030 Z-0.125000
G01 X111.235280 Y84.639700 Z-0.125000
G01 X111.027230 Y88.770690 Z-0.125000
G01 X110.405160 Y94.430030 Z-0.125000
G01 X109.447730 Y100.317730 Z-0.125000
G01 X108.306610 Y105.617470 Z-0.125000
G01 X107.046870 Y110.036540 Z-0.125000
G01 X105.574370 Y113.892650 Z-0.125000
G01 X104.027150 Y116.851940 Z-0.125000
G01 X102.480840 Y118.809260 Z-0.125000
G01 X100.791400 Y119.965080 Z-0.125000
G01 X99.116538 Y120.333350 Z-0.125000
G01 X97.033602 Y120.083180 Z-0.125000
G01 X94.410907 Y119.161540 Z-0.125000
G01 X90.806352 Y117.440570 Z-0.125000
G01 X76.019776 Y109.362850 Z-0.125000
G01 X57.792017 Y98.013610 Z-0.125000
G01 X54.490950 Y95.440030 Z-0.125000
G01 X52.553814 Y93.027290 Z-0.125000
G01 X51.899087 Y91.615940 Z-0.125000
G01 X51.523026 Y90.206670 Z-0.125000
G01 X51.441966 Y86.869160 Z-0.125000
G01 X52.143463 Y83.551880 Z-0.125000
G01 X53.538357 Y79.939560 Z-0.125000
G01 X55.590461 Y76.200180 Z-0.125000
G01 X57.996087 Y72.913030 Z-0.125000
G01 X60.600949 Y70.185750 Z-0.125000
G01 X63.625050 Y67.745430 Z-0.125000
G01 X67.008555 Y65.673790 Z-0.125000
G01 X70.659817 Y64.026630 Z-0.125000
G01 X74.706867 Y62.767590 Z-0.125000
G01 X78.785988 Y62.000390 Z-0.125000
G01 X83.218113 Y61.657630 Z-0.125000
G01 X87.790419 Y61.772970 Z-0.125000
G01 X92.998380 Y62.406740 Z-0.125000
G01 X98.210911 Y63.528960 Z-0.125000
G01 X102.179640 Y64.857040 Z-0.125000
G01 X105.224250 Y66.477550 Z-0.125000
G01 X107.007940 Y67.950700 Z-0.125000
G01 X108.445560 Y69.682140 Z-0.125000
G01 X109.621560 Y71.778720 Z-0.125000
G01 X110.514060 Y74.238760 Z-0.125000
G01 X111.119070 Y77.039540 Z-0.125000
G01 X111.449340 Y80.138440 Z-0.125000
G01 X111.529440 Y83.721230 Z-0.125000
G01 X111.336280 Y87.996520 Z-0.125000
G01 X110.760790 Y93.633200 Z-0.125000
G01 X109.795910 Y100.043070 Z-0.125000
G01 X108.655250 Y105.798040 Z-0.125000
G01 X107.397280 Y110.564950 Z-0.125000
G01 X105.972070 Y114.547060 Z-0.125000
G01 X104.463910 Y117.607820 Z-0.125000
G01 X102.952610 Y119.622500 Z-0.125000
G01 X101.295510 Y120.796270 Z-0.125000
G01 X99.642397 Y121.151620 Z-0.125000
G01 X97.788743 Y120.922010 Z-0.125000
G01 X95.438704 Y120.109590 Z-0.125000
G01 X92.008950 Y118.486200 Z-0.125000
G01 X76.718348 Y110.218620 Z-0.125000
G01 X56.044329 Y97.791470 Z-0.125000
G01 X52.961375 Y95.433470 Z-0.125000
G01 X51.095571 Y93.112050 Z-0.125000
G01 X50.488202 Y91.801540 Z-0.125000
G01 X50.106197 Y90.368180 Z-0.125000
G01 X50.011807 Y87.261770 Z-0.125000
G01 X50.745442 Y83.685250 Z-0.125000
G01 X52.185147 Y79.939260 Z-0.125000
G01 X54.305643 Y76.041790 Z-0.125000
G01 X56.792794 Y72.603560 Z-0.125000
G01 X59.491786 Y69.745510 Z-0.125000
G01 X62.631440 Y67.186950 Z-0.125000
G01 X65.919510 Y65.139800 Z-0.125000
G01 X69.702133 Y63.390160 Z-0.125000
G01 X73.651527 Y62.115510 Z-0.125000
G01 X77.886704 Y61.270380 Z-0.125000
G01 X82.255598 Y60.885830 Z-0.125000
G01 X87.021063 Y60.958130 Z-0.125000
G01 X92.617952 Y61.598930 Z-0.125000
G01 X98.269580 Y62.757290 Z-0.125000
G01 X102.292070 Y64.024220 Z-0.125000
G01 X105.392140 Y65.602670 Z-0.125000
G01 X107.097580 Y66.957660 Z-0.125000
G01 X108.581240 Y68.674000 Z-0.125000
G01 X109.798400 Y70.776080 Z-0.125000
G01 X110.668100 Y73.074840 Z-0.125000
G01 X111.318320 Y75.904800 Z-0.125000
G01 X111.682820 Y79.061430 Z-0.125000
G01 X111.646420 Y86.622370 Z-0.125000
G01 X111.113980 Y92.475060 Z-0.125000
G01 X110.154910 Y99.450200 Z-0.125000
G01 X108.986360 Y105.931360 Z-0.125000
G01 X107.796970 Y110.877490 Z-0.125000
G01 X106.438980 Y115.007050 Z-0.125000
G01 X104.985560 Y118.205420 Z-0.125000
G01 X103.446170 Y120.403530 Z-0.125000
G01 X101.828000 Y121.595660 Z-0.125000
G01 X100.297430 Y121.936520 Z-0.125000
G01 X98.578478 Y121.734080 Z-0.125000
G01 X96.380182 Y120.983010 Z-0.125000
G01 X93.265087 Y119.520440 Z-0.125000
G01 X77.713783 Y111.213450 Z-0.125000
G01 X65.433955 Y103.876840 Z-0.125000
G01 X54.260295 Y97.607840 Z-0.125000
G01 X51.417334 Y95.459720 Z-0.125000
G01 X49.633184 Y93.227650 Z-0.125000
G01 X48.715926 Y90.700130 Z-0.125000
G01 X48.586844 Y87.698170 Z-0.125000
G01 X49.242876 Y84.225040 Z-0.125000
G01 X50.744508 Y80.172700 Z-0.125000
G01 X52.899495 Y76.116640 Z-0.125000
G01 X55.434984 Y72.514750 Z-0.125000
G01 X58.197860 Y69.506400 Z-0.125000
G01 X61.425832 Y66.803100 Z-0.125000
G01 X64.818285 Y64.634000 Z-0.125000
G01 X68.731033 Y62.776180 Z-0.125000
G01 X72.822696 Y61.421110 Z-0.125000
G01 X76.955515 Y60.560690 Z-0.125000
G01 X81.243995 Y60.134400 Z-0.125000
G01 X85.981373 Y60.146100 Z-0.125000
G01 X91.637574 Y60.720220 Z-0.125000
G01 X97.998081 Y61.923450 Z-0.125000
G01 X102.374350 Y63.192270 Z-0.125000
G01 X105.525970 Y64.719710 Z-0.125000
G01 X107.263410 Y66.061370 Z-0.125000
G01 X108.774970 Y67.783010 Z-0.125000
G01 X110.013480 Y69.911990 Z-0.125000
G01 X110.895790 Y72.256810 Z-0.125000
G01 X111.514200 Y74.939530 Z-0.125000
G01 X111.895940 Y78.167580 Z-0.125000
G01 X111.886940 Y85.686180 Z-0.125000
G01 X111.341890 Y92.025980 Z-0.125000
G01 X110.368720 Y99.534400 Z-0.125000
G01 X109.258370 Y106.236080 Z-0.125000
G01 X108.092360 Y111.518770 Z-0.125000
G01 X106.790160 Y115.752190 Z-0.125000
G01 X105.383640 Y119.018630 Z-0.125000
G01 X103.888350 Y121.232420 Z-0.125000
G01 X102.306690 Y122.397230 Z-0.125000
G01 X100.890630 Y122.691450 Z-0.125000
G01 X99.296444 Y122.490380 Z-0.125000
G01 X97.238265 Y121.780470 Z-0.125000
G01 X94.424045 Y120.463760 Z-0.125000
G01 X79.235542 Y112.466200 Z-0.125000
G01 X64.935814 Y104.124860 Z-0.125000
G01 X52.589030 Y97.556100 Z-0.125000
G01 X49.967054 Y95.619110 Z-0.125000
G01 X48.235031 Y93.492010 Z-0.125000
G01 X47.330511 Y91.069210 Z-0.125000
G01 X47.168838 Y88.178680 Z-0.125000
G01 X47.797632 Y84.632130 Z-0.125000
G01 X49.305469 Y80.454370 Z-0.125000
G01 X51.620953 Y76.026760 Z-0.125000
G01 X54.236070 Y72.265960 Z-0.125000
G01 X57.091313 Y69.118530 Z-0.125000
G01 X60.211437 Y66.453630 Z-0.125000
G01 X63.706055 Y64.156770 Z-0.125000
G01 X67.747552 Y62.185000 Z-0.125000
G01 X71.980901 Y60.744590 Z-0.125000
G01 X76.258864 Y59.829410 Z-0.125000
G01 X80.694386 Y59.375690 Z-0.125000
G01 X85.348020 Y59.374690 Z-0.125000
G01 X91.383811 Y59.973500 Z-0.125000
G01 X98.317391 Y61.246840 Z-0.125000
G01 X102.710060 Y62.463470 Z-0.125000
G01 X105.757610 Y63.912900 Z-0.125000
G01 X107.511320 Y65.262590 Z-0.125000
G01 X108.931950 Y66.874940 Z-0.125000
G01 X110.111870 Y68.857870 Z-0.125000
G01 X111.028020 Y71.216070 Z-0.125000
G01 X111.672820 Y73.935120 Z-0.125000
G01 X112.054820 Y76.981760 Z-0.125000
G01 X112.109120 Y84.398730 Z-0.125000
G01 X111.628340 Y90.661780 Z-0.125000
G01 X110.669020 Y98.781810 Z-0.125000
G01 X109.520330 Y106.505530 Z-0.125000
G01 X108.441070 Y111.941190 Z-0.125000
G01 X107.214710 Y116.299890 Z-0.125000
G01 X105.870760 Y119.670670 Z-0.125000
G01 X104.433800 Y121.945450 Z-0.125000
G01 X102.903490 Y123.127660 Z-0.125000
G01 X101.703060 Y123.406780 Z-0.125000
G01 X100.259630 Y123.266200 Z-0.125000
G01 X98.497888 Y122.699650 Z-0.125000
G01 X95.914388 Y121.527240 Z-0.125000
G01 X78.737209 Y112.590420 Z-0.125000
G01 X63.799216 Y104.030050 Z-0.125000
G01 X50.895494 Y97.549740 Z-0.125000
G01 X48.404685 Y95.719410 Z-0.125000
G01 X46.839429 Y93.793960 Z-0.125000
G01 X45.952612 Y91.478210 Z-0.125000
G01 X45.760696 Y88.705340 Z-0.125000
G01 X46.359050 Y85.088380 Z-0.125000
G01 X47.779091 Y81.000250 Z-0.125000
G01 X49.961709 Y76.631880 Z-0.125000
G01 X52.714070 Y72.472930 Z-0.125000
G01 X55.595441 Y69.150690 Z-0.125000
G01 X58.990834 Y66.141350 Z-0.125000
G01 X62.585329 Y63.710970 Z-0.125000
G01 X66.485600 Y61.733600 Z-0.125000
G01 X70.575174 Y60.248360 Z-0.125000
G01 X75.000636 Y59.206850 Z-0.125000
G01 X79.605735 Y58.661480 Z-0.125000
G01 X84.201428 Y58.596480 Z-0.125000
G01 X90.300515 Y59.127160 Z-0.125000
G01 X98.306690 Y60.507540 Z-0.125000
G01 X102.734570 Y61.627630 Z-0.125000
G01 X105.824710 Y63.012650 Z-0.125000
G01 X107.487300 Y64.231050 Z-0.125000
G01 X108.950060 Y65.809890 Z-0.125000
G01 X110.170280 Y67.777270 Z-0.125000
G01 X111.058600 Y69.945460 Z-0.125000
G01 X111.709800 Y72.442720 Z-0.125000
G01 X112.152690 Y75.491530 Z-0.125000
G01 X112.306780 Y82.737020 Z-0.125000
G01 X111.906100 Y88.879620 Z-0.125000
G01 X111.004910 Y97.360940 Z-0.125000
G01 X109.808720 Y106.500330 Z-0.125000
G01 X108.751220 Y112.519740 Z-0.125000
G01 X107.598470 Y116.981830 Z-0.125000
G01 X106.316720 Y120.417730 Z-0.125000
G01 X105.006940 Y122.618830 Z-0.125000
G01 X103.534180 Y123.819130 Z-0.125000
G01 X102.455250 Y124.086820 Z-0.125000
G01 X101.150170 Y123.979430 Z-0.125000
G01 X97.295108 Y122.484120 Z-0.125000
G01 X79.348627 Y113.306980 Z-0.125000
G01 X63.769430 Y104.531510 Z-0.125000
G01 X49.328866 Y97.674340 Z-0.125000
G01 X46.944534 Y95.955790 Z-0.125000
G01 X45.448455 Y94.132250 Z-0.125000
G01 X44.584043 Y91.925450 Z-0.125000
G01 X44.364625 Y89.276040 Z-0.125000
G01 X44.980289 Y85.392500 Z-0.125000
G01 X46.536333 Y80.945350 Z-0.125000
G01 X48.955746 Y76.170530 Z-0.125000
G01 X51.692819 Y72.072750 Z-0.125000
G01 X54.697192 Y68.618750 Z-0.125000
G01 X57.999829 Y65.680030 Z-0.125000
G01 X61.716345 Y63.139640 Z-0.125000
G01 X65.750723 Y61.076490 Z-0.125000
G01 X69.979107 Y59.533390 Z-0.125000
G01 X74.264061 Y58.511420 Z-0.125000
G01 X78.744067 Y57.949060 Z-0.125000
G01 X83.499343 Y57.850360 Z-0.125000
G01 X90.001403 Y58.406250 Z-0.125000
G01 X99.042350 Y59.924660 Z-0.125000
G01 X103.163410 Y60.929080 Z-0.125000
G01 X105.993110 Y62.183390 Z-0.125000
G01 X107.668110 Y63.401790 Z-0.125000
G01 X109.137990 Y65.000290 Z-0.125000
G01 X110.274800 Y66.838910 Z-0.125000
G01 X111.177880 Y69.033890 Z-0.125000
G01 X111.838100 Y71.576880 Z-0.125000
G01 X112.259290 Y74.443880 Z-0.125000
G01 X112.447750 Y81.562190 Z-0.125000
G01 X112.096120 Y87.571730 Z-0.125000
G01 X111.301410 Y95.781060 Z-0.125000
G01 X110.020430 Y106.923870 Z-0.125000
G01 X109.074630 Y113.065300 Z-0.125000
G01 X108.054490 Y117.451490 Z-0.125000
G01 X106.850600 Y120.992180 Z-0.125000
G01 X105.609470 Y123.251610 Z-0.125000
G01 X104.200140 Y124.470470 Z-0.125000
G01 X103.240750 Y124.727170 Z-0.125000
G01 X102.072850 Y124.653370 Z-0.125000
G01 X98.703850 Y123.399900 Z-0.125000
G01 X80.027326 Y114.043120 Z-0.125000
G01 X63.320794 Y104.810770 Z-0.125000
G01 X47.896869 Y97.927630 Z-0.125000
G01 X45.592229 Y96.329770 Z-0.125000
G01 X44.136258 Y94.626570 Z-0.125000
G01 X43.226840 Y92.412460 Z-0.125000
G01 X42.982795 Y89.891740 Z-0.125000
G01 X43.510012 Y86.142670 Z-0.125000
G01 X45.021245 Y81.596500 Z-0.125000
G01 X47.297732 Y76.899170 Z-0.125000
G01 X50.171918 Y72.380350 Z-0.125000
G01 X53.194516 Y68.743010 Z-0.125000
G01 X56.538435 Y65.625190 Z-0.125000
G01 X60.324129 Y62.910120 Z-0.125000
G01 X64.455315 Y60.687980 Z-0.125000
G01 X68.509875 Y59.105410 Z-0.125000
G01 X72.930112 Y57.945140 Z-0.125000
G01 X77.571073 Y57.277230 Z-0.125000
G01 X82.246198 Y57.106870 Z-0.125000
G01 X88.817957 Y57.585370 Z-0.125000
G01 X99.442451 Y59.268980 Z-0.125000
G01 X103.276680 Y60.125610 Z-0.125000
G01 X105.993440 Y61.263670 Z-0.125000
G01 X107.693260 Y62.450720 Z-0.125000
G01 X109.081030 Y63.897660 Z-0.125000
G01 X110.256830 Y65.709050 Z-0.125000
G01 X111.127320 Y67.698900 Z-0.125000
G01 X111.789630 Y69.999750 Z-0.125000
G01 X112.275430 Y72.845320 Z-0.125000
G01 X112.570030 Y79.723120 Z-0.125000
G01 X111.769900 Y91.851150 Z-0.125000
G01 X110.208950 Y107.561820 Z-0.125000
G01 X109.380010 Y113.780460 Z-0.125000
G01 X108.433880 Y118.245770 Z-0.125000
G01 X107.354100 Y121.664730 Z-0.125000
G01 X106.180520 Y123.929680 Z-0.125000
G01 X104.902620 Y125.080390 Z-0.125000
G01 X104.059890 Y125.325990 Z-0.125000
G01 X103.026630 Y125.285490 Z-0.125000
G01 X100.008210 Y124.210100 Z-0.125000
G01 X80.533770 Y114.675830 Z-0.125000
G01 X63.144947 Y105.227330 Z-0.125000
G01 X58.412468 Y103.087900 Z-0.125000
G01 X49.290784 Y99.529530 Z-0.125000
G01 X46.312278 Y98.144880 Z-0.125000
G01 X44.245804 Y96.744500 Z-0.125000
G01 X42.762398 Y95.043440 Z-0.125000
G01 X41.883093 Y92.940130 Z-0.125000
G01 X41.617557 Y90.552970 Z-0.125000
G01 X42.103751 Y86.742260 Z-0.125000
G01 X43.610478 Y82.075770 Z-0.125000
G01 X46.048768 Y76.969060 Z-0.125000
G01 X49.001602 Y72.267420 Z-0.125000
G01 X52.110294 Y68.474200 Z-0.125000
G01 X55.555267 Y65.218930 Z-0.125000
G01 X59.459915 Y62.384140 Z-0.125000
G01 X63.722789 Y60.067090 Z-0.125000
G01 X67.905318 Y58.422660 Z-0.125000
G01 X72.157021 Y57.287750 Z-0.125000
G01 X76.645585 Y56.602510 Z-0.125000
G01 X81.476765 Y56.387590 Z-0.125000
G01 X88.023899 Y56.831080 Z-0.125000
G01 X100.559860 Y58.718180 Z-0.125000
G01 X103.656140 Y59.400140 Z-0.125000
G01 X106.098080 Y60.410560 Z-0.125000
G01 X107.683390 Y61.485950 Z-0.125000
G01 X109.093770 Y62.913760 Z-0.125000
G01 X110.290670 Y64.722870 Z-0.125000
G01 X111.177490 Y66.727020 Z-0.125000
G01 X111.851880 Y69.058910 Z-0.125000
G01 X112.313380 Y71.702630 Z-0.125000
G01 X112.646660 Y78.399230 Z-0.125000
G01 X112.118460 Y88.237960 Z-0.125000
G01 X110.326730 Y109.148840 Z-0.125000
G01 X109.713220 Y114.466540 Z-0.125000
G01 X108.891210 Y118.824850 Z-0.125000
G01 X107.891640 Y122.298360 Z-0.125000
G01 X106.791290 Y124.564930 Z-0.125000
G01 X105.573090 Y125.681870 Z-0.125000
G01 X104.835270 Y125.891550 Z-0.125000
G01 X103.922520 Y125.859550 Z-0.125000
G01 X101.338690 Y124.974110 Z-0.125000
G01 X81.341025 Y115.451220 Z-0.125000
G01 X67.251179 Y107.798490 Z-0.125000
G01 X62.747657 Y105.539000 Z-0.125000
G01 X57.545053 Y103.298900 Z-0.125000
G01 X47.896672 Y99.820660 Z-0.125000
G01 X44.872180 Y98.491100 Z-0.125000
G01 X42.795189 Y97.105870 Z-0.125000
G01 X41.399837 Y95.500380 Z-0.125000
G01 X40.554826 Y93.508820 Z-0.125000
G01 X40.269695 Y91.084260 Z-0.125000
G01 X40.760265 Y87.177520 Z-0.125000
G01 X42.308015 Y82.361940 Z-0.125000
G01 X44.815414 Y77.069780 Z-0.125000
G01 X47.846439 Y72.181250 Z-0.125000
G01 X51.040640 Y68.228340 Z-0.125000
G01 X54.585818 Y64.832020 Z-0.125000
G01 X58.608567 Y61.873910 Z-0.125000
G01 X62.700493 Y59.601730 Z-0.125000
G01 X67.000145 Y57.855080 Z-0.125000
G01 X71.376026 Y56.646350 Z-0.125000
G01 X75.996673 Y55.914200 Z-0.125000
G01 X80.682967 Y55.680560 Z-0.125000
G01 X87.195414 Y56.086280 Z-0.125000
G01 X101.343590 Y58.079790 Z-0.125000
G01 X104.010180 Y58.659130 Z-0.125000
G01 X106.171570 Y59.543920 Z-0.125000
G01 X107.765760 Y60.610040 Z-0.125000
G01 X109.072280 Y61.911400 Z-0.125000
G01 X110.198700 Y63.547530 Z-0.125000
G01 X111.122420 Y65.530250 Z-0.125000
G01 X111.775120 Y67.632920 Z-0.125000
G01 X112.284570 Y70.263130 Z-0.125000
G01 X112.693750 Y76.705620 Z-0.125000
G01 X112.381180 Y84.726680 Z-0.125000
G01 X110.078240 Y115.122450 Z-0.125000
G01 X109.378440 Y119.366770 Z-0.125000
G01 X108.465630 Y122.891430 Z-0.125000
G01 X107.498790 Y125.070330 Z-0.125000
G01 X106.355260 Y126.204580 Z-0.125000
G01 X105.022940 Y126.412440 Z-0.125000
G01 X103.132050 Y125.870060 Z-0.125000
G01 X86.486667 Y118.274760 Z-0.125000
G01 X79.372469 Y114.824240 Z-0.125000
G01 X67.070758 Y108.162210 Z-0.125000
G01 X61.267451 Y105.378290 Z-0.125000
G01 X56.409423 Y103.438220 Z-0.125000
G01 X46.495572 Y100.159900 Z-0.125000
G01 X43.433976 Y98.884730 Z-0.125000
G01 X41.465357 Y97.605920 Z-0.125000
G01 X40.050996 Y95.997340 Z-0.125000
G01 X39.244198 Y94.118480 Z-0.125000
G01 X38.941298 Y91.834480 Z-0.125000
G01 X39.384641 Y87.868820 Z-0.125000
G01 X40.923179 Y82.932810 Z-0.125000
G01 X43.599503 Y77.200490 Z-0.125000
G01 X46.708326 Y72.121230 Z-0.125000
G01 X49.763523 Y68.253810 Z-0.125000
G01 X53.372323 Y64.687210 Z-0.125000
G01 X57.481952 Y61.567940 Z-0.125000
G01 X61.674473 Y59.163090 Z-0.125000
G01 X65.769275 Y57.422050 Z-0.125000
G01 X70.266787 Y56.094380 Z-0.125000
G01 X74.716419 Y55.309210 Z-0.125000
G01 X79.573335 Y54.988200 Z-0.125000
G01 X85.835925 Y55.295610 Z-0.125000
G01 X95.834694 Y56.734930 Z-0.125000
G01 X101.805160 Y57.364770 Z-0.125000
G01 X104.189360 Y57.856970 Z-0.125000
G01 X106.074180 Y58.590790 Z-0.125000
G01 X107.689530 Y59.615000 Z-0.125000
G01 X109.017410 Y60.890400 Z-0.125000
G01 X110.165320 Y62.514930 Z-0.125000
G01 X111.031820 Y64.306430 Z-0.125000
G01 X111.717640 Y66.398460 Z-0.125000
G01 X112.258840 Y69.035660 Z-0.125000
G01 X112.705900 Y74.943940 Z-0.125000
G01 X112.523910 Y82.057810 Z-0.125000
G01 X111.408400 Y98.034760 Z-0.125000
G01 X110.455940 Y115.960270 Z-0.125000
G01 X109.827730 Y120.253910 Z-0.125000
G01 X109.035240 Y123.583580 Z-0.125000
G01 X108.190690 Y125.616160 Z-0.125000
G01 X107.176950 Y126.681500 Z-0.125000
G01 X105.984750 Y126.895900 Z-0.125000
G01 X104.266900 Y126.424650 Z-0.125000
G01 X86.031761 Y118.389670 Z-0.125000
G01 X78.333190 Y114.676540 Z-0.125000
G01 X66.339670 Y108.253590 Z-0.125000
G01 X60.862255 Y105.724510 Z-0.125000
G01 X55.521627 Y103.704540 Z-0.125000
G01 X45.284364 Y100.612440 Z-0.125000
G01 X42.152025 Y99.401500 Z-0.125000
G01 X40.148455 Y98.149070 Z-0.125000
G01 X38.795368 Y96.655530 Z-0.125000
G01 X37.953166 Y94.769360 Z-0.125000
G01 X37.636221 Y92.629770 Z-0.125000
G01 X38.028025 Y88.607820 Z-0.125000
G01 X39.553695 Y83.552450 Z-0.125000
G01 X42.111068 Y77.914670 Z-0.125000
G01 X45.400116 Y72.362200 Z-0.125000
G01 X48.494896 Y68.323370 Z-0.125000
G01 X52.163401 Y64.581850 Z-0.125000
G01 X56.356120 Y61.295480 Z-0.125000
G01 X60.645972 Y58.751940 Z-0.125000
G01 X64.844831 Y56.904110 Z-0.125000
G01 X69.463386 Y55.490080 Z-0.125000
G01 X74.035629 Y54.650170 Z-0.125000
G01 X78.722576 Y54.307870 Z-0.125000
G01 X84.919647 Y54.567140 Z-0.125000
G01 X95.539436 Y56.081120 Z-0.125000
G01 X102.093890 Y56.603500 Z-0.125000
G01 X104.191720 Y56.997000 Z-0.125000
G01 X106.085870 Y57.696210 Z-0.125000
G01 X107.580320 Y58.606150 Z-0.125000
G01 X108.930140 Y59.851140 Z-0.125000
G01 X110.002600 Y61.297830 Z-0.125000
G01 X110.906530 Y63.057290 Z-0.125000
G01 X111.628080 Y65.132130 Z-0.125000
G01 X112.161110 Y67.514700 Z-0.125000
G01 X112.691400 Y73.426630 Z-0.125000
G01 X112.558600 Y80.640960 Z-0.125000
G01 X111.424140 Y99.070040 Z-0.125000
G01 X110.880340 Y116.774710 Z-0.125000
G01 X110.360760 Y120.916540 Z-0.125000
G01 X109.693230 Y124.091540 Z-0.125000
G01 X108.927330 Y126.114760 Z-0.125000
G01 X107.979630 Y127.144430 Z-0.125000
G01 X106.907300 Y127.326890 Z-0.125000
G01 X105.335640 Y126.895040 Z-0.125000
G01 X85.800323 Y118.623140 Z-0.125000
G01 X78.351151 Y115.080180 Z-0.125000
G01 X66.481678 Y108.797790 Z-0.125000
G01 X60.475871 Y106.092270 Z-0.125000
G01 X54.628799 Y104.001100 Z-0.125000
G01 X43.880323 Y101.050160 Z-0.125000
G01 X40.727799 Y99.891150 Z-0.125000
G01 X38.846971 Y98.735660 Z-0.125000
G01 X37.481144 Y97.234490 Z-0.125000
G01 X36.683689 Y95.461240 Z-0.125000
G01 X36.347409 Y93.288110 Z-0.125000
G01 X36.405479 Y91.341560 Z-0.125000
G01 X36.738035 Y89.166910 Z-0.125000
G01 X38.301133 Y83.955560 Z-0.125000
G01 X40.927161 Y78.123840 Z-0.125000
G01 X44.296033 Y72.363960 Z-0.125000
G01 X47.466586 Y68.164840 Z-0.125000
G01 X51.229549 Y64.269590 Z-0.125000
G01 X55.232505 Y61.057120 Z-0.125000
G01 X59.616226 Y58.368840 Z-0.125000
G01 X63.916597 Y56.408440 Z-0.125000
G01 X68.315537 Y54.989370 Z-0.125000
G01 X73.017836 Y54.048740 Z-0.125000
G01 X77.536056 Y53.650730 Z-0.125000
G01 X83.696612 Y53.821810 Z-0.125000
G01 X95.229805 Y55.443570 Z-0.125000
G01 X102.508810 Y55.834390 Z-0.125000
G01 X104.464040 Y56.201110 Z-0.125000
G01 X106.068030 Y56.785820 Z-0.125000
G01 X107.570380 Y57.678900 Z-0.125000
G01 X108.811700 Y58.793890 Z-0.125000
G01 X109.906250 Y60.221250 Z-0.125000
G01 X110.747470 Y61.784730 Z-0.125000
G01 X111.507430 Y63.835730 Z-0.125000
G01 X112.027260 Y65.959160 Z-0.125000
G01 X112.637380 Y71.546580 Z-0.125000
G01 X112.587580 Y78.801490 Z-0.125000
G01 X111.507740 Y98.775250 Z-0.125000
G01 X111.369970 Y117.346800 Z-0.125000
G01 X110.967710 Y121.349300 Z-0.125000
G01 X110.393990 Y124.554670 Z-0.125000
G01 X109.709930 Y126.565030 Z-0.125000
G01 X108.885560 Y127.527300 Z-0.125000
G01 X107.944200 Y127.718360 Z-0.125000
G01 X106.540100 Y127.358580 Z-0.125000
G01 X86.101632 Y119.105020 Z-0.125000
G01 X78.671077 Y115.644890 Z-0.125000
G01 X66.358852 Y109.218530 Z-0.125000
G01 X60.108018 Y106.482900 Z-0.125000
G01 X53.731050 Y104.330010 Z-0.125000
G01 X42.678434 Y101.596070 Z-0.125000
G01 X39.468753 Y100.501000 Z-0.125000
G01 X37.563167 Y99.365830 Z-0.125000
G01 X36.267889 Y97.975840 Z-0.125000
G01 X35.437836 Y96.193970 Z-0.125000
G01 X35.092021 Y94.171130 Z-0.125000
G01 X35.115921 Y92.205380 Z-0.125000
G01 X35.423655 Y89.995920 Z-0.125000
G01 X36.967680 Y84.664430 Z-0.125000
G01 X39.615002 Y78.657640 Z-0.125000
G01 X43.018560 Y72.687640 Z-0.125000
G01 X46.223406 Y68.311090 Z-0.125000
G01 X50.039543 Y64.232310 Z-0.125000
G01 X54.420390 Y60.631540 Z-0.125000
G01 X58.918162 Y57.834630 Z-0.125000
G01 X62.985528 Y55.935570 Z-0.125000
G01 X67.492774 Y54.424660 Z-0.125000
G01 X72.315788 Y53.417650 Z-0.125000
G01 X76.950088 Y52.986330 Z-0.125000
G01 X83.806392 Y53.209220 Z-0.125000
G01 X95.556324 Y54.880360 Z-0.125000
G01 X102.750870 Y55.022480 Z-0.125000
G01 X104.410710 Y55.306950 Z-0.125000
G01 X106.021630 Y55.858990 Z-0.125000
G01 X107.532400 Y56.733260 Z-0.125000
G01 X108.782150 Y57.844390 Z-0.125000
G01 X109.884530 Y59.282020 Z-0.125000
G01 X110.731110 Y60.867190 Z-0.125000
G01 X111.962890 Y64.872180 Z-0.125000
G01 X112.581430 Y70.230510 Z-0.125000
G01 X112.580430 Y77.236200 Z-0.125000
G01 X111.590140 Y98.087110 Z-0.125000
G01 X111.894090 Y118.114040 Z-0.125000
G01 X111.593410 Y121.935860 Z-0.125000
G01 X111.110020 Y125.110990 Z-0.125000
G01 X110.539630 Y126.966010 Z-0.125000
G01 X109.780710 Y127.892740 Z-0.125000
G01 X108.948570 Y128.057490 Z-0.125000
G01 X107.774200 Y127.771750 Z-0.125000
G01 X101.954370 Y125.394160 Z-0.125000
G01 X86.129690 Y119.481960 Z-0.125000
G01 X79.020587 Y116.232040 Z-0.125000
G01 X66.580851 Y109.816220 Z-0.125000
G01 X59.758449 Y106.897730 Z-0.125000
G01 X52.828787 Y104.693490 Z-0.125000
G01 X41.486793 Y102.188120 Z-0.125000
G01 X38.226094 Y101.156610 Z-0.125000
G01 X36.419211 Y100.131430 Z-0.125000
G01 X35.080298 Y98.758100 Z-0.125000
G01 X34.217520 Y96.967090 Z-0.125000
G01 X33.852236 Y94.911590 Z-0.125000
G01 X33.868826 Y92.901360 Z-0.125000
G01 X34.178454 Y90.633170 Z-0.125000
G01 X35.757166 Y85.139760 Z-0.125000
G01 X38.472814 Y78.932950 Z-0.125000
G01 X41.954694 Y72.749070 Z-0.125000
G01 X45.232246 Y68.205960 Z-0.125000
G01 X49.138722 Y63.965890 Z-0.125000
G01 X53.311646 Y60.451160 Z-0.125000
G01 X57.896693 Y57.498770 Z-0.125000
G01 X62.052439 Y55.485870 Z-0.125000
G01 X66.665702 Y53.877500 Z-0.125000
G01 X71.259499 Y52.854750 Z-0.125000
G01 X76.028623 Y52.346330 Z-0.125000
G01 X79.550219 Y52.305030 Z-0.125000
G01 X83.372103 Y52.553580 Z-0.125000
G01 X95.218451 Y54.267580 Z-0.125000
G01 X102.816880 Y54.172280 Z-0.125000
G01 X104.479860 Y54.432380 Z-0.125000
G01 X105.947920 Y54.915130 Z-0.125000
G01 X107.335100 Y55.675800 Z-0.125000
G01 X108.607850 Y56.748920 Z-0.125000
G01 X109.630470 Y58.003710 Z-0.125000
G01 X110.516700 Y59.545180 Z-0.125000
G01 X111.825240 Y63.500710 Z-0.125000
G01 X112.487740 Y68.559470 Z-0.125000
G01 X112.555440 Y75.604420 Z-0.125000
G01 X111.806980 Y90.690700 Z-0.125000
G01 X111.658820 Y97.686150 Z-0.125000
G01 X111.811030 Y104.059970 Z-0.125000
G01 X112.453870 Y114.669970 Z-0.125000
G01 X112.474970 Y118.857330 Z-0.125000
G01 X111.881320 Y125.616890 Z-0.125000
G01 X111.382580 Y127.394450 Z-0.125000
G01 X110.723680 Y128.207720 Z-0.125000
G01 X109.994480 Y128.349680 Z-0.125000
G01 X108.950570 Y128.103940 Z-0.125000
G01 X103.400190 Y125.936080 Z-0.125000
G01 X92.260626 Y122.193820 Z-0.125000
G01 X86.449872 Y119.997370 Z-0.125000
G01 X79.398187 Y116.843000 Z-0.125000
G01 X66.513148 Y110.286600 Z-0.125000
G01 X59.426385 Y107.338080 Z-0.125000
G01 X52.234454 Y105.169760 Z-0.125000
G01 X40.307236 Y102.827040 Z-0.125000
G01 X37.001988 Y101.858050 Z-0.125000
G01 X35.178514 Y100.847640 Z-0.125000
G01 X33.920011 Y99.581100 Z-0.125000
G01 X33.075720 Y97.935360 Z-0.125000
G01 X32.654520 Y95.880270 Z-0.125000
G01 X32.632970 Y93.852140 Z-0.125000
G01 X32.913465 Y91.549650 Z-0.125000
G01 X34.363360 Y86.222930 Z-0.125000
G01 X37.045957 Y79.866340 Z-0.125000
G01 X40.713940 Y73.153620 Z-0.125000
G01 X44.020690 Y68.428000 Z-0.125000
G01 X47.973219 Y63.996400 Z-0.125000
G01 X52.209181 Y60.305940 Z-0.125000
G01 X56.877120 Y57.192020 Z-0.125000
G01 X61.118045 Y55.059770 Z-0.125000
G01 X65.470347 Y53.457620 Z-0.125000
G01 X70.179569 Y52.316300 Z-0.125000
G01 X75.083258 Y51.721200 Z-0.125000
G01 X78.710414 Y51.641800 Z-0.125000
G01 X82.647526 Y51.875140 Z-0.125000
G01 X94.553057 Y53.649170 Z-0.125000
G01 X96.980894 Y53.680870 Z-0.125000
G01 X102.401340 Y53.280370 Z-0.125000
G01 X104.222660 Y53.473270 Z-0.125000
G01 X105.847950 Y53.953780 Z-0.125000
G01 X107.244800 Y54.693300 Z-0.125000
G01 X108.406690 Y55.636420 Z-0.125000
G01 X109.454200 Y56.863840 Z-0.125000
G01 X110.366230 Y58.389170 Z-0.125000
G01 X111.663470 Y62.098770 Z-0.125000
G01 X112.368890 Y66.845600 Z-0.125000
G01 X112.514290 Y73.909760 Z-0.125000
G01 X111.806330 Y89.680040 Z-0.125000
G01 X111.719730 Y96.872300 Z-0.125000
G01 X112.003750 Y103.763420 Z-0.125000
G01 X113.015070 Y115.321750 Z-0.125000
G01 X113.116130 Y119.573980 Z-0.125000
G01 X112.709180 Y126.070620 Z-0.125000
G01 X112.312020 Y127.693040 Z-0.125000
G01 X111.759060 Y128.445490 Z-0.125000
G01 X111.141310 Y128.597430 Z-0.125000
G01 X110.242670 Y128.414980 Z-0.125000
G01 X104.890740 Y126.436900 Z-0.125000
G01 X93.385963 Y122.900740 Z-0.125000
G01 X87.092281 Y120.655010 Z-0.125000
G01 X79.802889 Y117.478980 Z-0.125000
G01 X66.117844 Y110.622720 Z-0.125000
G01 X58.762737 Y107.685510 Z-0.125000
G01 X51.332838 Y105.602890 Z-0.125000
G01 X39.141913 Y103.513490 Z-0.125000
G01 X35.798713 Y102.605120 Z-0.125000
G01 X34.086025 Y101.696360 Z-0.125000
G01 X32.788917 Y100.444200 Z-0.125000
G01 X31.913728 Y98.789190 Z-0.125000
G01 X31.470646 Y96.700180 Z-0.125000
G01 X31.439286 Y94.625800 Z-0.125000
G01 X31.719062 Y92.261980 Z-0.125000
G01 X33.197306 Y86.775880 Z-0.125000
G01 X35.946271 Y80.214630 Z-0.125000
G01 X39.695123 Y73.271900 Z-0.125000
G01 X43.071377 Y68.374090 Z-0.125000
G01 X47.109609 Y63.774290 Z-0.125000
G01 X51.439895 Y59.940710 Z-0.125000
G01 X56.213395 Y56.706330 Z-0.125000
G01 X60.550279 Y54.494460 Z-0.125000
G01 X64.999716 Y52.837230 Z-0.125000
G01 X69.443664 Y51.732350 Z-0.125000
G01 X74.113889 Y51.112190 Z-0.125000
G01 X77.847915 Y50.988120 Z-0.125000
G01 X81.903716 Y51.201260 Z-0.125000
G01 X94.356257 Y53.078690 Z-0.125000
G01 X96.737652 Y53.049190 Z-0.125000
G01 X102.264190 Y52.396100 Z-0.125000
G01 X104.089950 Y52.532530 Z-0.125000
G01 X105.723340 Y52.974430 Z-0.125000
G01 X107.131360 Y53.691280 Z-0.125000
G01 X108.305730 Y54.625530 Z-0.125000
G01 X109.366300 Y55.855880 Z-0.125000
G01 X110.195050 Y57.210070 Z-0.125000
G01 X111.479020 Y60.668630 Z-0.125000
G01 X112.254460 Y65.399930 Z-0.125000
G01 X112.458600 Y72.156030 Z-0.125000
G01 X111.795710 Y88.603300 Z-0.125000
G01 X111.779810 Y96.364780 Z-0.125000
G01 X112.233740 Y103.745370 Z-0.125000
G01 X113.618960 Y115.702490 Z-0.125000
G01 X113.822770 Y120.490170 Z-0.125000
G01 X113.594530 Y126.470700 Z-0.125000
G01 X113.289410 Y127.940770 Z-0.125000
G01 X112.793420 Y128.661480 Z-0.125000
G01 X112.264570 Y128.794680 Z-0.125000
G01 X111.483380 Y128.649190 Z-0.125000
G01 X106.593610 Y126.946450 Z-0.125000
G01 X94.564747 Y123.609180 Z-0.125000
G01 X87.765794 Y121.333680 Z-0.125000
G01 X80.233469 Y118.141040 Z-0.125000
G01 X66.077188 Y111.142140 Z-0.125000
G01 X58.090807 Y108.063680 Z-0.125000
G01 X50.427379 Y106.075600 Z-0.125000
G01 X37.993194 Y104.247490 Z-0.125000
G01 X34.618769 Y103.397190 Z-0.125000
G01 X32.896413 Y102.496590 Z-0.125000
G01 X31.688929 Y101.346660 Z-0.125000
G01 X30.782580 Y99.681200 Z-0.125000
G01 X30.338388 Y97.751440 Z-0.125000
G01 X30.274438 Y95.434070 Z-0.125000
G01 X30.552516 Y93.006890 Z-0.125000
G01 X32.057935 Y87.357140 Z-0.125000
G01 X34.873331 Y80.587450 Z-0.125000
G01 X38.702661 Y73.411530 Z-0.125000
G01 X42.401020 Y68.008920 Z-0.125000
G01 X46.269346 Y63.568100 Z-0.125000
G01 X50.691479 Y59.588670 Z-0.125000
G01 X55.207019 Y56.447750 Z-0.125000
G01 X59.248256 Y54.280550 Z-0.125000
G01 X63.781630 Y52.469360 Z-0.125000
G01 X68.327024 Y51.239140 Z-0.125000
G01 X73.120382 Y50.520600 Z-0.125000
G01 X77.298859 Y50.345540 Z-0.125000
G01 X81.442652 Y50.559540 Z-0.125000
G01 X94.147533 Y52.518020 Z-0.125000
G01 X96.617961 Y52.407380 Z-0.125000
G01 X102.103220 Y51.497180 Z-0.125000
G01 X103.933290 Y51.575280 Z-0.125000
G01 X105.575950 Y51.976810 Z-0.125000
G01 X106.859280 Y52.585100 Z-0.125000
G01 X108.059180 Y53.476420 Z-0.125000
G01 X109.904800 Y55.827690 Z-0.125000
G01 X111.273570 Y59.212840 Z-0.125000
G01 X112.093040 Y63.611180 Z-0.125000
G01 X112.387250 Y70.714470 Z-0.125000
G01 X111.786870 Y87.052980 Z-0.125000
G01 X111.786220 Y94.265810 Z-0.125000
G01 X112.372290 Y102.683260 Z-0.125000
G01 X114.066300 Y114.305620 Z-0.125000
G01 X114.480700 Y118.526360 Z-0.125000
G01 X114.576300 Y126.306200 Z-0.125000
G01 X114.336050 Y128.066380 Z-0.125000
G01 X113.874280 Y128.827380 Z-0.125000
G01 X112.893470 Y128.870180 Z-0.125000
G01 X107.474190 Y127.163050 Z-0.125000
G01 X96.096789 Y124.398390 Z-0.125000
G01 X88.469421 Y122.034330 Z-0.125000
G01 X80.688804 Y118.830330 Z-0.125000
G01 X66.055212 Y111.689150 Z-0.125000
G01 X61.918411 Y110.002140 Z-0.125000
G01 X57.783175 Y108.588100 Z-0.125000
G01 X53.735212 Y107.474430 Z-0.125000
G01 X49.518977 Y106.589560 Z-0.125000
G01 X36.863546 Y105.029200 Z-0.125000
G01 X33.627996 Y104.292880 Z-0.125000
G01 X31.863246 Y103.426190 Z-0.125000
G01 X30.621860 Y102.287540 Z-0.125000
G01 X29.684156 Y100.610470 Z-0.125000
G01 X29.217689 Y98.647330 Z-0.125000
G01 X29.130949 Y96.507820 Z-0.125000
G01 X29.372969 Y94.046020 Z-0.125000
G01 X29.945324 Y91.290210 Z-0.125000
G01 X30.840045 Y88.278840 Z-0.125000
G01 X33.665957 Y81.329710 Z-0.125000
G01 X37.527425 Y73.926330 Z-0.125000
G01 X41.249823 Y68.321670 Z-0.125000
G01 X45.151921 Y63.692330 Z-0.125000
G01 X49.625330 Y59.524430 Z-0.125000
G01 X54.205933 Y56.219330 Z-0.125000
G01 X58.314777 Y53.928470 Z-0.125000
G01 X62.933399 Y52.004390 Z-0.125000
G01 X67.572726 Y50.688540 Z-0.125000
G01 X72.471515 Y49.910090 Z-0.125000
G01 X76.743730 Y49.709100 Z-0.125000
G01 X80.976688 Y49.922040 Z-0.125000
G01 X93.777592 Y51.961940 Z-0.125000
G01 X96.201707 Y51.808760 Z-0.125000
G01 X101.919770 Y50.583240 Z-0.125000
G01 X103.754610 Y50.601140 Z-0.125000
G01 X105.555350 Y51.012220 Z-0.125000
G01 X106.845010 Y51.628530 Z-0.125000
G01 X107.922240 Y52.425200 Z-0.125000
G01 X109.800000 Y54.786360 Z-0.125000
G01 X111.121930 Y57.976380 Z-0.125000
G01 X111.948130 Y62.095460 Z-0.125000
G01 X112.310410 Y69.226980 Z-0.125000
G01 X111.761500 Y85.838270 Z-0.125000
G01 X111.844400 Y94.024470 Z-0.125000
G01 X112.628010 Y102.576420 Z-0.125000
G01 X114.694610 Y114.340770 Z-0.125000
G01 X115.205890 Y118.392610 Z-0.125000
G01 X115.564840 Y126.349260 Z-0.125000
G01 X115.419940 Y128.142420 Z-0.125000
G01 X115.034090 Y128.920280 Z-0.125000
G01 X114.185740 Y128.999880 Z-0.125000
G01 X108.915140 Y127.503080 Z-0.125000
G01 X97.078916 Y125.025320 Z-0.125000
G01 X89.200969 Y122.757600 Z-0.125000
G01 X81.166836 Y119.547330 Z-0.125000
G01 X65.663020 Y112.098550 Z-0.125000
G01 X61.378458 Y110.415850 Z-0.125000
G01 X57.104741 Y109.029050 Z-0.125000
G01 X52.934166 Y107.962410 Z-0.125000
G01 X48.607602 Y107.145670 Z-0.125000
G01 X35.973596 Y105.884820 Z-0.125000
G01 X32.501646 Y105.170920 Z-0.125000
G01 X30.863424 Y104.393570 Z-0.125000
G01 X29.588787 Y103.265590 Z-0.125000
G01 X28.683093 Y101.735610 Z-0.125000
G01 X28.158032 Y99.776720 Z-0.125000
G01 X28.023924 Y97.621870 Z-0.125000
G01 X28.226749 Y95.126420 Z-0.125000
G01 X28.770494 Y92.319900 Z-0.125000
G01 X29.649015 Y89.242630 Z-0.125000
G01 X32.481524 Y82.114060 Z-0.125000
G01 X36.586514 Y74.116770 Z-0.125000
G01 X40.378807 Y68.320910 Z-0.125000
G01 X44.354459 Y63.526840 Z-0.125000
G01 X48.913113 Y59.206870 Z-0.125000
G01 X53.581705 Y55.780510 Z-0.125000
G01 X57.769851 Y53.407280 Z-0.125000
G01 X62.082568 Y51.559110 Z-0.125000
G01 X66.812822 Y50.152210 Z-0.125000
G01 X71.438826 Y49.350360 Z-0.125000
G01 X75.829863 Y49.080000 Z-0.125000
G01 X80.504726 Y49.287780 Z-0.125000
G01 X84.576140 Y49.849810 Z-0.125000
G01 X91.325448 Y51.195990 Z-0.125000
G01 X93.551244 Y51.421480 Z-0.125000
G01 X95.910623 Y51.198990 Z-0.125000
G01 X101.714580 Y49.653590 Z-0.125000
G01 X103.554910 Y49.609590 Z-0.125000
G01 X105.370290 Y49.974100 Z-0.125000
G01 X106.676670 Y50.567480 Z-0.125000
G01 X107.771870 Y51.353640 Z-0.125000
G01 X109.580320 Y53.543650 Z-0.125000
G01 X110.961360 Y56.715040 Z-0.125000
G01 X111.833810 Y60.853420 Z-0.125000
G01 X112.229790 Y67.695870 Z-0.125000
G01 X111.726550 Y84.988280 Z-0.125000
G01 X111.919710 Y93.751150 Z-0.125000
G01 X112.914110 Y102.432560 Z-0.125000
G01 X115.316020 Y114.075560 Z-0.125000
G01 X115.930500 Y117.952380 Z-0.125000
G01 X116.593260 Y126.481070 Z-0.125000
G01 X116.529860 Y128.242940 Z-0.125000
G01 X116.200040 Y128.989710 Z-0.125000
G01 X115.447460 Y129.069510 Z-0.125000
G01 X110.566640 Y127.840530 Z-0.125000
G01 X98.411119 Y125.729710 Z-0.125000
G01 X89.959054 Y123.504290 Z-0.125000
G01 X81.666311 Y120.293040 Z-0.125000
G01 X65.661015 Y112.700170 Z-0.125000
G01 X60.827157 Y110.859960 Z-0.125000
G01 X56.416065 Y109.504990 Z-0.125000
G01 X52.125951 Y108.489810 Z-0.125000
G01 X47.694283 Y107.745270 Z-0.125000
G01 X34.888937 Y106.755760 Z-0.125000
G01 X31.572127 Y106.145460 Z-0.125000
G01 X29.898631 Y105.397780 Z-0.125000
G01 X28.591531 Y104.279520 Z-0.125000
G01 X27.656180 Y102.737190 Z-0.125000
G01 X27.106231 Y100.743290 Z-0.125000
G01 X26.955928 Y98.537680 Z-0.125000
G01 X27.151241 Y95.975280 Z-0.125000
G01 X27.698055 Y93.088080 Z-0.125000
G01 X28.591144 Y89.919110 Z-0.125000
G01 X31.321293 Y82.939270 Z-0.125000
G01 X35.458945 Y74.703560 Z-0.125000
G01 X39.270377 Y68.703110 Z-0.125000
G01 X43.272680 Y63.715550 Z-0.125000
G01 X47.873533 Y59.199620 Z-0.125000
G01 X52.597779 Y55.600280 Z-0.125000
G01 X56.845891 Y53.095170 Z-0.125000
G01 X61.229548 Y51.134260 Z-0.125000
G01 X66.047532 Y49.630800 Z-0.125000
G01 X70.767533 Y48.762660 Z-0.125000
G01 X75.252505 Y48.456430 Z-0.125000
G01 X80.026592 Y48.656380 Z-0.125000
G01 X84.174564 Y49.237950 Z-0.125000
G01 X91.145706 Y50.682690 Z-0.125000
G01 X93.315651 Y50.888770 Z-0.125000
G01 X95.736107 Y50.560520 Z-0.125000
G01 X101.336920 Y48.732880 Z-0.125000
G01 X103.336570 Y48.600590 Z-0.125000
G01 X105.169320 Y48.917350 Z-0.125000
G01 X106.351260 Y49.408510 Z-0.125000
G01 X107.476050 Y50.150960 Z-0.125000
G01 X109.349300 Y52.282150 Z-0.125000
G01 X110.794880 Y55.430510 Z-0.125000
G01 X111.673600 Y59.277340 Z-0.125000
G01 X112.148040 Y66.124370 Z-0.125000
G01 X111.692870 Y84.530390 Z-0.125000
G01 X112.015370 Y93.446580 Z-0.125000
G01 X113.233430 Y102.252370 Z-0.125000
G01 X115.964690 Y113.762430 Z-0.125000
G01 X116.709240 Y117.716060 Z-0.125000
G01 X117.669220 Y126.565500 Z-0.125000
G01 X117.684720 Y128.294120 Z-0.125000
G01 X117.407430 Y129.011620 Z-0.125000
G01 X116.797640 Y129.103320 Z-0.125000
G01 X112.245780 Y128.125830 Z-0.125000
G01 X99.466238 Y126.371790 Z-0.125000
G01 X95.051161 Y125.450930 Z-0.125000
G01 X90.741843 Y124.275070 Z-0.125000
G01 X86.679247 Y122.894800 Z-0.125000
G01 X82.185392 Y121.067870 Z-0.125000
G01 X65.673717 Y113.331350 Z-0.125000
G01 X60.679884 Y111.473120 Z-0.125000
G01 X55.716623 Y110.017080 Z-0.125000
G01 X51.310692 Y109.057500 Z-0.125000
G01 X46.779866 Y108.388920 Z-0.125000
G01 X42.307763 Y108.016990 Z-0.125000
G01 X34.053101 Y107.689710 Z-0.125000
G01 X30.677240 Y107.155900 Z-0.125000
G01 X28.970299 Y106.437340 Z-0.125000
G01 X27.631322 Y105.327780 Z-0.125000
G01 X26.665986 Y103.771610 Z-0.125000
G01 X26.125705 Y101.945190 Z-0.125000
G01 X25.923075 Y99.725420 Z-0.125000
G01 X26.073315 Y97.129820 Z-0.125000
G01 X26.585508 Y94.191550 Z-0.125000
G01 X27.457040 Y90.955690 Z-0.125000
G01 X30.185883 Y83.803850 Z-0.125000
G01 X34.356000 Y75.330570 Z-0.125000
G01 X38.184155 Y69.125270 Z-0.125000
G01 X42.209125 Y63.942650 Z-0.125000
G01 X46.846885 Y59.227420 Z-0.125000
G01 X51.621037 Y55.450540 Z-0.125000
G01 X55.924283 Y52.808910 Z-0.125000
G01 X60.374633 Y50.730070 Z-0.125000
G01 X64.869531 Y49.232050 Z-0.125000
G01 X69.694440 Y48.239140 Z-0.125000
G01 X74.297514 Y47.847140 Z-0.125000
G01 X79.213351 Y47.996930 Z-0.125000
G01 X83.768609 Y48.626910 Z-0.125000
G01 X90.960999 Y50.176410 Z-0.125000
G01 X93.071630 Y50.362780 Z-0.125000
G01 X95.414810 Y49.956400 Z-0.125000
G01 X99.300056 Y48.312820 Z-0.125000
G01 X101.093420 Y47.776530 Z-0.125000
G01 X103.101630 Y47.573640 Z-0.125000
G01 X104.955150 Y47.841650 Z-0.125000
G01 X106.157280 Y48.310870 Z-0.125000
G01 X107.305640 Y49.041100 Z-0.125000
G01 X109.109200 Y51.002940 Z-0.125000
G01 X110.539950 Y53.882870 Z-0.125000
G01 X111.506330 Y57.675820 Z-0.125000
G01 X111.899310 Y60.905040 Z-0.125000
G01 X112.067450 Y64.515070 Z-0.125000
G01 X111.669830 Y83.603970 Z-0.125000
G01 X112.134150 Y93.110940 Z-0.125000
G01 X112.720350 Y97.548610 Z-0.125000
G01 X113.588680 Y102.036050 Z-0.125000
G01 X116.641260 Y113.402150 Z-0.125000
G01 X117.470660 Y117.163360 Z-0.125000
G01 X118.791800 Y126.602630 Z-0.125000
G01 X118.883000 Y128.296520 Z-0.125000
G01 X118.654170 Y128.987110 Z-0.125000
G01 X118.121010 Y129.083410 Z-0.125000
G01 X113.784780 Y128.338160 Z-0.125000
G01 X100.885180 Y127.074940 Z-0.125000
G01 X95.996183 Y126.193750 Z-0.125000
G01 X91.547597 Y125.070320 Z-0.125000
G01 X87.355205 Y123.709150 Z-0.125000
G01 X83.110229 Y122.038530 Z-0.125000
G01 X70.345644 Y116.004760 Z-0.125000
G01 X65.272509 Y113.821940 Z-0.125000
G01 X60.115567 Y111.979000 Z-0.125000
G01 X55.006114 Y110.566410 Z-0.125000
G01 X50.488677 Y109.666600 Z-0.125000
G01 X45.865224 Y109.077390 Z-0.125000
G01 X41.327015 Y108.797870 Z-0.125000
G01 X33.020554 Y108.646680 Z-0.125000
G01 X29.644821 Y108.153300 Z-0.125000
G01 X27.939972 Y107.428750 Z-0.125000
G01 X26.709625 Y106.408790 Z-0.125000
G01 X25.713850 Y104.837080 Z-0.125000
G01 X25.148420 Y102.976250 Z-0.125000
G01 X24.925801 Y100.703350 Z-0.125000
G01 X25.064289 Y98.037870 Z-0.125000
G01 X25.575566 Y95.015580 Z-0.125000
G01 X26.353819 Y92.030020 Z-0.125000
G01 X29.076063 Y84.706210 Z-0.125000
G01 X33.278318 Y75.996240 Z-0.125000
G01 X37.121302 Y69.586550 Z-0.125000
G01 X41.165019 Y64.207590 Z-0.125000
G01 X45.834200 Y59.290180 Z-0.125000
G01 X51.039220 Y55.055780 Z-0.125000
G01 X55.005792 Y52.548780 Z-0.125000
G01 X59.518068 Y50.347010 Z-0.125000
G01 X64.085736 Y48.748980 Z-0.125000
G01 X68.999288 Y47.676580 Z-0.125000
G01 X74.072095 Y47.225850 Z-0.125000
G01 X79.048683 Y47.399740 Z-0.125000
G01 X83.637254 Y48.069810 Z-0.125000
G01 X90.608789 Y49.647610 Z-0.125000
G01 X92.685909 Y49.846590 Z-0.125000
G01 X94.959587 Y49.403890 Z-0.125000
G01 X98.895850 Y47.483610 Z-0.125000
G01 X100.833510 Y46.803610 Z-0.125000
G01 X103.009400 Y46.528470 Z-0.125000
G01 X104.885720 Y46.789560 Z-0.125000
G01 X107.131570 Y47.912780 Z-0.125000
G01 X108.983980 Y49.879390 Z-0.125000
G01 X110.454850 Y52.797650 Z-0.125000
G01 X111.390130 Y56.353740 Z-0.125000
G01 X111.812640 Y59.605180 Z-0.125000
G01 X111.999590 Y63.252500 Z-0.125000
G01 X111.654750 Y82.637390 Z-0.125000
G01 X111.814530 Y87.555450 Z-0.125000
G01 X112.228280 Y92.322670 Z-0.125000
G01 X112.903850 Y96.847030 Z-0.125000
G01 X113.891390 Y101.422470 Z-0.125000
G01 X117.425070 Y113.270530 Z-0.125000
G01 X118.303790 Y116.828770 Z-0.125000
G01 X119.995120 Y126.847980 Z-0.125000
G01 X120.121920 Y128.315960 Z-0.125000
G01 X119.937710 Y128.918250 Z-0.125000
G01 X119.423890 Y129.018050 Z-0.125000
G01 X115.511400 Y128.521980 Z-0.125000
G01 X102.687890 Y127.808010 Z-0.125000
G01 X97.710000 Y127.095670 Z-0.125000
G01 X93.151279 Y126.096370 Z-0.125000
G01 X88.445387 Y124.687950 Z-0.125000
G01 X83.675022 Y122.875060 Z-0.125000
G01 X70.529216 Y116.729920 Z-0.125000
G01 X65.738536 Y114.684420 Z-0.125000
G01 X61.309939 Y113.077620 Z-0.125000
G01 X56.892184 Y111.776460 Z-0.125000
G01 X51.731715 Y110.650290 Z-0.125000
G01 X46.475482 Y109.937950 Z-0.125000
G01 X41.025700 Y109.635770 Z-0.125000
G01 X31.792575 Y109.636430 Z-0.125000
G01 X28.477201 Y109.136580 Z-0.125000
G01 X26.946109 Y108.451220 Z-0.125000
G01 X25.718505 Y107.396780 Z-0.125000
G01 X24.800855 Y105.931350 Z-0.125000
G01 X24.209035 Y104.034130 Z-0.125000
G01 X23.964730 Y101.706030 Z-0.125000
G01 X24.089616 Y98.968440 Z-0.125000
G01 X24.598281 Y95.859870 Z-0.125000
G01 X25.385026 Y92.787310 Z-0.125000
G01 X28.160835 Y85.249490 Z-0.125000
G01 X32.445069 Y76.284050 Z-0.125000
G01 X36.350566 Y69.677340 Z-0.125000
G01 X40.774263 Y63.744040 Z-0.125000
G01 X45.555144 Y58.706650 Z-0.125000
G01 X50.475686 Y54.668470 Z-0.125000
G01 X54.500656 Y52.077660 Z-0.125000
G01 X59.080345 Y49.804440 Z-0.125000
G01 X63.717124 Y48.158120 Z-0.125000
G01 X68.295377 Y47.124590 Z-0.125000
G01 X73.467344 Y46.618600 Z-0.125000
G01 X78.547074 Y46.773340 Z-0.125000
G01 X83.225792 Y47.459940 Z-0.125000
G01 X90.420140 Y49.152260 Z-0.125000
G01 X92.432658 Y49.333980 Z-0.125000
G01 X94.620763 Y48.814540 Z-0.125000
G01 X98.478050 Y46.654140 Z-0.125000
G01 X100.405910 Y45.859080 Z-0.125000
G01 X102.591730 Y45.466310 Z-0.125000
G01 X104.657030 Y45.673770 Z-0.125000
G01 X106.810050 Y46.661970 Z-0.125000
G01 X108.739350 Y48.565670 Z-0.125000
G01 X110.191800 Y51.213570 Z-0.125000
G01 X111.220490 Y54.707540 Z-0.125000
G01 X111.701530 Y57.934670 Z-0.125000
G01 X111.931660 Y61.578280 Z-0.125000
G01 X111.649530 Y81.631740 Z-0.125000
G01 X111.884500 Y87.085310 Z-0.125000
G01 X112.392380 Y91.921450 Z-0.125000
G01 X113.184480 Y96.504990 Z-0.125000
G01 X114.212060 Y100.763680 Z-0.125000
G01 X119.101510 Y116.168720 Z-0.125000
G01 X121.237480 Y126.907870 Z-0.125000
G01 X121.404840 Y128.281670 Z-0.125000
G01 X121.255050 Y128.806330 Z-0.125000
G01 X104.543420 Y128.506890 Z-0.125000
G01 X99.105390 Y127.922920 Z-0.125000
G01 X94.021413 Y126.933800 Z-0.125000
G01 X89.982988 Y125.818800 Z-0.125000
G01 X85.895960 Y124.393340 Z-0.125000
G01 X81.370293 Y122.502070 Z-0.125000
G01 X67.146471 Y115.947930 Z-0.125000
G01 X61.681598 Y113.933070 Z-0.125000
G01 X56.675092 Y112.484410 Z-0.125000
G01 X51.369478 Y111.381520 Z-0.125000
G01 X45.980183 Y110.718310 Z-0.125000
G01 X40.414321 Y110.495340 Z-0.125000
G01 X31.043366 Y110.687850 Z-0.125000
G01 X27.516282 Y110.204870 Z-0.125000
G01 X25.990090 Y109.502900 Z-0.125000
G01 X24.874188 Y108.536860 Z-0.125000
G01 X23.927863 Y107.053110 Z-0.125000
G01 X23.354919 Y105.331620 Z-0.125000
G01 X23.050713 Y102.990600 Z-0.125000
G01 X23.121323 Y100.219740 Z-0.125000
G01 X23.585701 Y97.058930 Z-0.125000
G01 X24.344291 Y93.924890 Z-0.125000
G01 X25.551710 Y90.177680 Z-0.125000
G01 X27.104487 Y86.212790 Z-0.125000
G01 X31.420274 Y77.010770 Z-0.125000
G01 X35.337136 Y70.199720 Z-0.125000
G01 X39.774094 Y64.053490 Z-0.125000
G01 X44.577447 Y58.809060 Z-0.125000
G01 X49.532153 Y54.583240 Z-0.125000
G01 X53.594029 Y51.858430 Z-0.125000
G01 X58.226237 Y49.454370 Z-0.125000
G01 X62.500738 Y47.832480 Z-0.125000
G01 X67.164040 Y46.660470 Z-0.125000
G01 X72.459270 Y46.035260 Z-0.125000
G01 X78.035517 Y46.148640 Z-0.125000
G01 X82.224251 Y46.734960 Z-0.125000
G01 X89.909889 Y48.597710 Z-0.125000
G01 X92.173964 Y48.826140 Z-0.125000
G01 X94.273229 Y48.229220 Z-0.125000
G01 X98.048342 Y45.825230 Z-0.125000
G01 X100.118540 Y44.858580 Z-0.125000
G01 X102.321930 Y44.386560 Z-0.125000
G01 X104.424660 Y44.540860 Z-0.125000
G01 X106.634770 Y45.500260 Z-0.125000
G01 X108.624820 Y47.408850 Z-0.125000
G01 X110.123770 Y50.092080 Z-0.125000
G01 X111.116410 Y53.344300 Z-0.125000
G01 X111.633370 Y56.587360 Z-0.125000
G01 X111.886430 Y60.261800 Z-0.125000
G01 X111.656300 Y80.589880 Z-0.125000
G01 X111.940000 Y86.134960 Z-0.125000
G01 X112.519150 Y91.056550 Z-0.125000
G01 X113.407600 Y95.724020 Z-0.125000
G01 X114.665380 Y100.438220 Z-0.125000
G01 X118.943470 Y112.336830 Z-0.125000
G01 X119.989150 Y115.741890 Z-0.125000
G01 X122.551160 Y127.023590 Z-0.125000
G01 X122.727800 Y128.196970 Z-0.125000
G01 X122.603200 Y128.654360 Z-0.125000
G01 X110.631750 Y129.149510 Z-0.125000
G01 X106.100790 Y129.158510 Z-0.125000
G01 X100.542180 Y128.751550 Z-0.125000
G01 X94.908848 Y127.796740 Z-0.125000
G01 X90.745197 Y126.714730 Z-0.125000
G01 X86.113185 Y125.136040 Z-0.125000
G01 X81.454130 Y123.194590 Z-0.125000
G01 X67.245658 Y116.709490 Z-0.125000
G01 X61.618722 Y114.672620 Z-0.125000
G01 X56.467657 Y113.224610 Z-0.125000
G01 X50.577341 Y112.078740 Z-0.125000
G01 X45.095877 Y111.505790 Z-0.125000
G01 X39.473904 Y111.393970 Z-0.125000
G01 X30.102687 Y111.768800 Z-0.125000
G01 X26.762033 Y111.356170 Z-0.125000
G01 X25.211736 Y110.670670 Z-0.125000
G01 X24.071469 Y109.703630 Z-0.125000
G01 X23.095879 Y108.199850 Z-0.125000
G01 X22.496481 Y106.443140 Z-0.125000
G01 X22.166342 Y104.044550 Z-0.125000
G01 X22.218332 Y101.198780 Z-0.125000
G01 X22.675131 Y97.948620 Z-0.125000
G01 X23.438488 Y94.724620 Z-0.125000
G01 X25.905455 Y87.623220 Z-0.125000
G01 X30.201252 Y78.209810 Z-0.125000
G01 X34.079638 Y71.192690 Z-0.125000
G01 X38.475248 Y64.809180 Z-0.125000
G01 X43.251493 Y59.313460 Z-0.125000
G01 X48.598195 Y54.528470 Z-0.125000
G01 X52.691689 Y51.666170 Z-0.125000
G01 X57.370604 Y49.126710 Z-0.125000
G01 X61.699126 Y47.400760 Z-0.125000
G01 X66.433433 Y46.139120 Z-0.125000
G01 X71.823773 Y45.444220 Z-0.125000
G01 X77.512766 Y45.525120 Z-0.125000
G01 X82.087425 Y46.176900 Z-0.125000
G01 X89.723874 Y48.110060 Z-0.125000
G01 X91.910608 Y48.321770 Z-0.125000
G01 X93.809335 Y47.709500 Z-0.125000
G01 X97.608681 Y44.996660 Z-0.125000
G01 X99.667316 Y43.902390 Z-0.125000
G01 X102.045970 Y43.289850 Z-0.125000
G01 X104.192140 Y43.391370 Z-0.125000
G01 X106.466200 Y44.323200 Z-0.125000
G01 X108.387530 Y46.067370 Z-0.125000
G01 X109.968530 Y48.717500 Z-0.125000
G01 X111.024470 Y51.964680 Z-0.125000
G01 X111.619620 Y55.572630 Z-0.125000
G01 X111.893580 Y60.112140 Z-0.125000
G01 X111.639410 Y75.254270 Z-0.125000
G01 X111.726410 Y80.931380 Z-0.125000
G01 X112.054400 Y85.610030 Z-0.125000
G01 X112.660920 Y90.151890 Z-0.125000
G01 X113.647940 Y94.902010 Z-0.125000
G01 X115.036890 Y99.701830 Z-0.125000
G01 X119.747610 Y111.808280 Z-0.125000
G01 X120.908320 Y115.274360 Z-0.125000
G01 X123.913610 Y127.070880 Z-0.125000
G01 X124.084100 Y128.014580 Z-0.125000
G01 X123.978710 Y128.464600 Z-0.125000
G01 X112.876320 Y129.552920 Z-0.125000
G01 X107.694030 Y129.795790 Z-0.125000
G01 X101.617680 Y129.542800 Z-0.125000
G01 X95.811234 Y128.684670 Z-0.125000
G01 X91.520140 Y127.638790 Z-0.125000
G01 X86.751212 Y126.067590 Z-0.125000
G01 X81.960990 Y124.104580 Z-0.125000
G01 X67.352744 Y117.501990 Z-0.125000
G01 X61.563677 Y115.443490 Z-0.125000
G01 X56.268645 Y113.996470 Z-0.125000
G01 X50.225472 Y112.877690 Z-0.125000
G01 X44.619960 Y112.356210 Z-0.125000
G01 X38.896151 Y112.324410 Z-0.125000
G01 X29.420548 Y112.885730 Z-0.125000
G01 X26.048082 Y112.534470 Z-0.125000
G01 X24.475315 Y111.864070 Z-0.125000
G01 X23.311074 Y110.894500 Z-0.125000
G01 X22.305501 Y109.368900 Z-0.125000
G01 X21.678341 Y107.575190 Z-0.125000
G01 X21.320113 Y105.117050 Z-0.125000
G01 X21.351273 Y102.194200 Z-0.125000
G01 X21.798471 Y98.852430 Z-0.125000
G01 X22.565226 Y95.536750 Z-0.125000
G01 X25.072953 Y88.235850 Z-0.125000
G01 X29.449749 Y78.564160 Z-0.125000
G01 X33.386207 Y71.349040 Z-0.125000
G01 X37.838844 Y64.777470 Z-0.125000
G01 X42.671004 Y59.114420 Z-0.125000
G01 X48.077085 Y54.180930 Z-0.125000
G01 X52.216176 Y51.229540 Z-0.125000
G01 X56.513539 Y48.821620 Z-0.125000
G01 X60.891055 Y46.987050 Z-0.125000
G01 X65.692186 Y45.630430 Z-0.125000
G01 X71.174957 Y44.859820 Z-0.125000
G01 X76.977284 Y44.902520 Z-0.125000
G01 X81.647445 Y45.559730 Z-0.125000
G01 X89.535713 Y47.624430 Z-0.125000
G01 X91.528437 Y47.830590 Z-0.125000
G01 X92.516832 Y47.614190 Z-0.125000
G01 X93.453097 Y47.135430 Z-0.125000
G01 X97.160993 Y44.167970 Z-0.125000
G01 X99.360726 Y42.874510 Z-0.125000
G01 X101.766880 Y42.176210 Z-0.125000
G01 X104.132990 Y42.259510 Z-0.125000
G01 X106.308160 Y43.131960 Z-0.125000
G01 X108.297480 Y44.883710 Z-0.125000
G01 X109.823610 Y47.330940 Z-0.125000
G01 X110.947220 Y50.570940 Z-0.125000
G01 X111.586800 Y54.192540 Z-0.125000
G01 X111.888520 Y58.766150 Z-0.125000
G01 X111.657730 Y74.085050 Z-0.125000
G01 X111.772230 Y79.843150 Z-0.125000
G01 X112.144900 Y84.593520 Z-0.125000
G01 X112.819090 Y89.209260 Z-0.125000
G01 X113.906640 Y94.040580 Z-0.125000
G01 X115.429900 Y98.925510 Z-0.125000
G01 X120.581810 Y111.240890 Z-0.125000
G01 X121.858860 Y114.768150 Z-0.125000
G01 X125.318210 Y127.051910 Z-0.125000
G01 X125.475640 Y127.887000 Z-0.125000
G01 X125.357490 Y128.259980 Z-0.125000
G01 X115.136950 Y129.872850 Z-0.125000
G01 X109.320120 Y130.417320 Z-0.125000
G01 X103.121220 Y130.380320 Z-0.125000
G01 X96.726354 Y129.598020 Z-0.125000
G01 X91.860554 Y128.468720 Z-0.125000
G01 X86.951118 Y126.865450 Z-0.125000
G01 X82.475293 Y125.045690 Z-0.125000
G01 X68.447893 Y118.715240 Z-0.125000
G01 X63.505537 Y116.885420 Z-0.125000
G01 X59.031735 Y115.529990 Z-0.125000
G01 X52.221353 Y114.050180 Z-0.125000
G01 X45.000482 Y113.275050 Z-0.125000
G01 X38.697394 Y113.268050 Z-0.125000
G01 X28.774136 Y114.029720 Z-0.125000
G01 X26.094546 Y113.889290 Z-0.125000
G01 X24.229527 Y113.321840 Z-0.125000
G01 X22.837310 Y112.356510 Z-0.125000
G01 X21.739698 Y110.907990 Z-0.125000
G01 X20.960206 Y108.949100 Z-0.125000
G01 X20.534172 Y106.479460 Z-0.125000
G01 X20.485502 Y103.840030 Z-0.125000
G01 X20.833737 Y100.486640 Z-0.125000
G01 X21.523084 Y97.139400 Z-0.125000
G01 X23.928711 Y89.724710 Z-0.125000
G01 X28.281143 Y79.847630 Z-0.125000
G01 X32.722740 Y71.510980 Z-0.125000
G01 X37.229463 Y64.751300 Z-0.125000
G01 X42.113032 Y58.920760 Z-0.125000
G01 X44.777990 Y56.269970 Z-0.125000
G01 X47.572678 Y53.838490 Z-0.125000
G01 X51.752855 Y50.797720 Z-0.125000
G01 X56.094704 Y48.317620 Z-0.125000
G01 X60.520362 Y46.429740 Z-0.125000
G01 X64.939684 Y45.134730 Z-0.125000
G01 X70.926615 Y44.252150 Z-0.125000
G01 X76.795113 Y44.310250 Z-0.125000
G01 X81.504662 Y45.001360 Z-0.125000
G01 X89.345833 Y47.139360 Z-0.125000
G01 X91.264091 Y47.331810 Z-0.125000
G01 X92.102634 Y47.127740 Z-0.125000
G01 X92.993501 Y46.633710 Z-0.125000
G01 X96.845628 Y43.228720 Z-0.125000
G01 X99.048431 Y41.829320 Z-0.125000
G01 X101.487890 Y41.045900 Z-0.125000
G01 X103.915800 Y41.075700 Z-0.125000
G01 X106.164590 Y41.927640 Z-0.125000
G01 X108.227530 Y43.689560 Z-0.125000
G01 X109.808530 Y46.172480 Z-0.125000
G01 X110.887590 Y49.164830 Z-0.125000
G01 X111.574330 Y52.797860 Z-0.125000
G01 X111.905120 Y57.402910 Z-0.125000
G01 X111.694910 Y72.887910 Z-0.125000
G01 X111.835610 Y78.723080 Z-0.125000
G01 X112.252560 Y83.542440 Z-0.125000
G01 X112.995150 Y88.229910 Z-0.125000
G01 X114.184930 Y93.141050 Z-0.125000
G01 X115.845360 Y98.110450 Z-0.125000
G01 X117.561250 Y102.254950 Z-0.125000
G01 X121.446300 Y110.636080 Z-0.125000
G01 X122.735950 Y113.921740 Z-0.125000
G01 X126.735650 Y126.890910 Z-0.125000
G01 X126.889280 Y127.625140 Z-0.125000
G01 X126.776820 Y128.003100 Z-0.125000
G01 X117.403790 Y130.106030 Z-0.125000
G01 X110.975800 Y131.020730 Z-0.125000
G01 X104.237540 Y131.199310 Z-0.125000
G01 X97.651930 Y130.535840 Z-0.125000
G01 X92.641373 Y129.451220 Z-0.125000
G01 X87.591888 Y127.856060 Z-0.125000
G01 X82.533778 Y125.815770 Z-0.125000
G01 X68.593127 Y119.574550 Z-0.125000
G01 X63.515878 Y117.722450 Z-0.125000
G01 X58.922406 Y116.360740 Z-0.125000
G01 X51.941205 Y114.898180 Z-0.125000
G01 X44.566111 Y114.178590 Z-0.125000
G01 X38.903702 Y114.213290 Z-0.125000
G01 X28.627443 Y115.173920 Z-0.125000
G01 X25.469431 Y115.106120 Z-0.125000
G01 X23.585665 Y114.558080 Z-0.125000
G01 X22.169082 Y113.591170 Z-0.125000
G01 X21.040900 Y112.121080 Z-0.125000
G01 X20.227375 Y110.120270 Z-0.125000
G01 X19.768550 Y107.588820 Z-0.125000
G01 X19.695530 Y104.878590 Z-0.125000
G01 X20.027171 Y101.432320 Z-0.125000
G01 X20.713842 Y97.991540 Z-0.125000
G01 X21.764617 Y94.286570 Z-0.125000
G01 X23.152066 Y90.373700 Z-0.125000
G01 X27.138170 Y81.181590 Z-0.125000
G01 X31.538809 Y72.626000 Z-0.125000
G01 X35.994712 Y65.633300 Z-0.125000
G01 X38.682794 Y62.084120 Z-0.125000
G01 X41.204434 Y59.138930 Z-0.125000
G01 X43.872984 Y56.381350 Z-0.125000
G01 X46.674076 Y53.844420 Z-0.125000
G01 X50.870321 Y50.659380 Z-0.125000
G01 X55.238756 Y48.047000 Z-0.125000
G01 X59.703542 Y46.043700 Z-0.125000
G01 X64.175319 Y44.653820 Z-0.125000
G01 X67.256250 Y44.031890 Z-0.125000
G01 X70.255201 Y43.677850 Z-0.125000
G01 X76.237492 Y43.688250 Z-0.125000
G01 X81.358247 Y44.444170 Z-0.125000
G01 X89.154411 Y46.654860 Z-0.125000
G01 X90.997808 Y46.833910 Z-0.125000
G01 X91.791933 Y46.605230 Z-0.125000
G01 X92.634854 Y46.067810 Z-0.125000
G01 X96.249402 Y42.510080 Z-0.125000
G01 X98.577362 Y40.851180 Z-0.125000
G01 X101.212340 Y39.900600 Z-0.125000
G01 X103.709810 Y39.879100 Z-0.125000
G01 X106.039340 Y40.713220 Z-0.125000
G01 X108.027950 Y42.316870 Z-0.125000
G01 X109.699420 Y44.767110 Z-0.125000
G01 X110.848040 Y47.750390 Z-0.125000
G01 X111.584820 Y51.392900 Z-0.125000
G01 X111.931290 Y55.616910 Z-0.125000
G01 X111.752830 Y71.666500 Z-0.125000
G01 X111.918160 Y77.574840 Z-0.125000
G01 X112.443870 Y82.943230 Z-0.125000
G01 X113.291100 Y87.682820 Z-0.125000
G01 X114.620280 Y92.644650 Z-0.125000
G01 X116.284050 Y97.260140 Z-0.125000
G01 X118.313610 Y101.839360 Z-0.125000
G01 X122.341070 Y109.997490 Z-0.125000
G01 X123.739430 Y113.338980 Z-0.125000
G01 X128.158820 Y126.609290 Z-0.125000
G01 X128.323950 Y127.329930 Z-0.125000
G01 X128.211610 Y127.718010 Z-0.125000
G01 X119.399420 Y130.319280 Z-0.125000
G01 X112.657630 Y131.605730 Z-0.125000
G01 X109.158370 Y131.941310 Z-0.125000
G01 X105.364510 Y132.038110 Z-0.125000
G01 X98.585417 Y131.499650 Z-0.125000
G01 X93.428018 Y130.462720 Z-0.125000
G01 X88.236781 Y128.877410 Z-0.125000
G01 X83.044891 Y126.814990 Z-0.125000
G01 X68.741506 Y120.465200 Z-0.125000
G01 X63.529692 Y118.591100 Z-0.125000
G01 X58.817138 Y117.223180 Z-0.125000
G01 X51.667273 Y115.777910 Z-0.125000
G01 X44.142984 Y115.113400 Z-0.125000
G01 X37.647715 Y115.269570 Z-0.125000
G01 X27.589698 Y116.394180 Z-0.125000
G01 X24.698528 Y116.316780 Z-0.125000
G01 X22.828805 Y115.738610 Z-0.125000
G01 X21.415883 Y114.717950 Z-0.125000
G01 X20.285804 Y113.170060 Z-0.125000
G01 X19.536164 Y111.304730 Z-0.125000
G01 X19.042130 Y108.709600 Z-0.125000
G01 X18.942510 Y105.926790 Z-0.125000
G01 X19.202885 Y102.759310 Z-0.125000
G01 X19.842524 Y99.257250 Z-0.125000
G01 X20.861226 Y95.478280 Z-0.125000
G01 X22.233780 Y91.481590 Z-0.125000
G01 X26.240983 Y82.080860 Z-0.125000
G01 X30.654230 Y73.308770 Z-0.125000
G01 X35.432041 Y65.641030 Z-0.125000
G01 X38.144553 Y61.994160 Z-0.125000
G01 X40.686772 Y58.966790 Z-0.125000
G01 X43.375637 Y56.131460 Z-0.125000
G01 X46.197304 Y53.522490 Z-0.125000
G01 X50.424642 Y50.246440 Z-0.125000
G01 X54.381482 Y47.800510 Z-0.125000
G01 X58.879387 Y45.677600 Z-0.125000
G01 X63.398391 Y44.188170 Z-0.125000
G01 X66.520671 Y43.510070 Z-0.125000
G01 X69.566720 Y43.111730 Z-0.125000
G01 X72.906067 Y42.964710 Z-0.125000
G01 X76.041608 Y43.097750 Z-0.125000
G01 X81.207239 Y43.887370 Z-0.125000
G01 X88.961857 Y46.169860 Z-0.125000
G01 X90.630321 Y46.350150 Z-0.125000
G01 X91.390087 Y46.128180 Z-0.125000
G01 X92.186040 Y45.581760 Z-0.125000
G01 X95.789419 Y41.681890 Z-0.125000
G01 X98.104053 Y39.872970 Z-0.125000
G01 X100.765950 Y38.779090 Z-0.125000
G01 X102.214080 Y38.593570 Z-0.125000
G01 X103.518890 Y38.670870 Z-0.125000
G01 X105.936280 Y39.490410 Z-0.125000
G01 X108.003340 Y41.108450 Z-0.125000
G01 X109.737000 Y43.597880 Z-0.125000
G01 X110.920970 Y46.634860 Z-0.125000
G01 X111.671000 Y50.342890 Z-0.125000
G01 X112.013350 Y54.639320 Z-0.125000
G01 X111.833130 Y70.423330 Z-0.125000
G01 X112.021390 Y76.400640 Z-0.125000
G01 X112.595900 Y81.838730 Z-0.125000
G01 X113.514790 Y86.645940 Z-0.125000
G01 X114.951620 Y91.684590 Z-0.125000
G01 X116.746610 Y96.376370 Z-0.125000
G01 X118.932950 Y101.033860 Z-0.125000
G01 X123.265790 Y109.327110 Z-0.125000
G01 X124.773240 Y112.724660 Z-0.125000
G01 X129.605720 Y126.293630 Z-0.125000
G01 X129.775700 Y127.003950 Z-0.125000
G01 X129.657760 Y127.407830 Z-0.125000
G01 X121.398990 Y130.472500 Z-0.125000
G01 X114.362060 Y132.170680 Z-0.125000
G01 X110.812770 Y132.652240 Z-0.125000
G01 X106.945690 Y132.888520 Z-0.125000
G01 X103.301740 Y132.833620 Z-0.125000
G01 X99.524534 Y132.488910 Z-0.125000
G01 X94.218332 Y131.502610 Z-0.125000
G01 X88.399411 Y129.758570 Z-0.125000
G01 X83.557192 Y127.844680 Z-0.125000
G01 X68.891399 Y121.386320 Z-0.125000
G01 X63.545478 Y119.490330 Z-0.125000
G01 X58.714625 Y118.116410 Z-0.125000
G01 X51.398579 Y116.688460 Z-0.125000
G01 X43.730187 Y116.078290 Z-0.125000
G01 X37.906630 Y116.250730 Z-0.125000
G01 X27.282855 Y117.589770 Z-0.125000
G01 X24.154892 Y117.575970 Z-0.125000
G01 X22.270014 Y117.010670 Z-0.125000
G01 X20.832988 Y115.982490 Z-0.125000
G01 X19.670118 Y114.407050 Z-0.125000
G01 X18.886640 Y112.499490 Z-0.125000
G01 X18.354982 Y109.838810 Z-0.125000
G01 X18.226356 Y106.981780 Z-0.125000
G01 X18.466676 Y103.727940 Z-0.125000
G01 X19.008723 Y100.545120 Z-0.125000
G01 X19.862421 Y97.133070 Z-0.125000
G01 X21.176642 Y93.075040 Z-0.125000
G01 X25.145108 Y83.496750 Z-0.125000
G01 X29.795541 Y74.018080 Z-0.125000
G01 X34.568780 Y66.130460 Z-0.125000
G01 X37.276915 Y62.364960 Z-0.125000
G01 X39.815344 Y59.230990 Z-0.125000
G01 X42.896341 Y55.885360 Z-0.125000
G01 X45.735124 Y53.204650 Z-0.125000
G01 X50.862539 Y49.235740 Z-0.125000
G01 X55.775241 Y46.373570 Z-0.125000
G01 X61.242203 Y44.148570 Z-0.125000
G01 X66.661023 Y42.844400 Z-0.125000
G01 X71.842724 Y42.373680 Z-0.125000
G01 X77.329152 Y42.668100 Z-0.125000
G01 X82.254135 Y43.624020 Z-0.125000
G01 X89.035383 Y45.749290 Z-0.125000
G01 X90.647542 Y45.791590 Z-0.125000
G01 X91.830857 Y45.020940 Z-0.125000
G01 X95.196462 Y40.993740 Z-0.125000
G01 X97.630767 Y38.894480 Z-0.125000
G01 X99.094184 Y38.090750 Z-0.125000
G01 X100.502410 Y37.610430 Z-0.125000
G01 X101.995420 Y37.393570 Z-0.125000
G01 X103.346870 Y37.451970 Z-0.125000
G01 X105.859370 Y38.260600 Z-0.125000
G01 X108.009650 Y39.896660 Z-0.125000
G01 X109.675310 Y42.183270 Z-0.125000
G01 X110.935050 Y45.210360 Z-0.125000
G01 X111.738320 Y48.925710 Z-0.125000
G01 X112.109610 Y53.243860 Z-0.125000
G01 X111.937810 Y69.160300 Z-0.125000
G01 X112.146910 Y75.202380 Z-0.125000
G01 X112.769240 Y80.706840 Z-0.125000
G01 X113.759920 Y85.579290 Z-0.125000
G01 X115.305640 Y90.693260 Z-0.125000
G01 X117.233830 Y95.460870 Z-0.125000
G01 X119.579360 Y100.196950 Z-0.125000
G01 X124.220320 Y108.626930 Z-0.125000
G01 X125.836850 Y112.080590 Z-0.125000
G01 X131.045850 Y125.868850 Z-0.125000
G01 X131.240390 Y126.649700 Z-0.125000
G01 X131.110720 Y127.075280 Z-0.125000
G01 X128.113860 Y128.590960 Z-0.125000
G01 X123.395620 Y130.564290 Z-0.125000
G01 X119.609870 Y131.822980 Z-0.125000
G01 X115.704430 Y132.793620 Z-0.125000
G01 X112.068590 Y133.404110 Z-0.125000
G01 X108.098360 Y133.754110 Z-0.125000
G01 X104.352050 Y133.783310 Z-0.125000
G01 X100.466680 Y133.502940 Z-0.125000
G01 X95.009706 Y132.570070 Z-0.125000
G01 X89.033294 Y130.838230 Z-0.125000
G01 X84.068464 Y128.903910 Z-0.125000
G01 X69.040980 Y122.337190 Z-0.125000
G01 X63.561541 Y120.419520 Z-0.125000
G01 X58.067079 Y118.908800 Z-0.125000
G01 X50.618103 Y117.562580 Z-0.125000
G01 X42.874458 Y117.069860 Z-0.125000
G01 X37.049006 Y117.346100 Z-0.125000
G01 X26.781174 Y118.821130 Z-0.125000
G01 X23.652752 Y118.851030 Z-0.125000
G01 X21.914720 Y118.370650 Z-0.125000
G01 X20.428701 Y117.386780 Z-0.125000
G01 X19.204428 Y115.840130 Z-0.125000
G01 X18.356217 Y113.942310 Z-0.125000
G01 X17.789807 Y111.565170 Z-0.125000
G01 X17.550857 Y108.729580 Z-0.125000
G01 X17.681832 Y105.474380 Z-0.125000
G01 X18.133601 Y102.271430 Z-0.125000
G01 X18.909108 Y98.822740 Z-0.125000
G01 X19.998621 Y95.174340 Z-0.125000
G01 X23.409039 Y86.455830 Z-0.125000
G01 X28.424950 Y75.778820 Z-0.125000
G01 X33.406371 Y67.143460 Z-0.125000
G01 X36.081781 Y63.240360 Z-0.125000
G01 X38.962956 Y59.524310 Z-0.125000
G01 X42.036962 Y56.055690 Z-0.125000
G01 X44.871171 Y53.267990 Z-0.125000
G01 X49.998326 Y49.121730 Z-0.125000
G01 X54.924289 Y46.110690 Z-0.125000
G01 X60.426134 Y43.745880 Z-0.125000
G01 X65.903745 Y42.332300 Z-0.125000
G01 X71.165856 Y41.786660 Z-0.125000
G01 X76.762679 Y42.038750 Z-0.125000
G01 X82.098343 Y43.075340 Z-0.125000
G01 X88.833082 Y45.259730 Z-0.125000
G01 X90.284156 Y45.311730 Z-0.125000
G01 X91.398948 Y44.545310 Z-0.125000
G01 X94.739731 Y40.175110 Z-0.125000
G01 X97.315981 Y37.805860 Z-0.125000
G01 X98.805724 Y36.948890 Z-0.125000
G01 X100.251900 Y36.429450 Z-0.125000
G01 X101.794950 Y36.183070 Z-0.125000
G01 X103.197350 Y36.224870 Z-0.125000
G01 X105.614800 Y36.929560 Z-0.125000
G01 X107.875280 Y38.511800 Z-0.125000
G01 X109.637160 Y40.769150 Z-0.125000
G01 X110.976600 Y43.785400 Z-0.125000
G01 X111.835590 Y47.506430 Z-0.125000
G01 X112.236670 Y51.843980 Z-0.125000
G01 X112.068140 Y67.881210 Z-0.125000
G01 X112.295780 Y73.983440 Z-0.125000
G01 X112.964880 Y79.550730 Z-0.125000
G01 X114.027280 Y84.486030 Z-0.125000
G01 X115.682880 Y89.673810 Z-0.125000
G01 X117.745960 Y94.516740 Z-0.125000
G01 X120.252840 Y99.331860 Z-0.125000
G01 X125.204220 Y107.900210 Z-0.125000
G01 X126.929590 Y111.410230 Z-0.125000
G01 X132.500140 Y125.415150 Z-0.125000
G01 X132.713620 Y126.271400 Z-0.125000
G01 X132.539610 Y126.757650 Z-0.125000
G01 X129.474100 Y128.587670 Z-0.125000
G01 X125.131840 Y130.705430 Z-0.125000
G01 X121.363320 Y132.170600 Z-0.125000
G01 X117.438940 Y133.331570 Z-0.125000
G01 X113.327750 Y134.171040 Z-0.125000
G01 X109.253720 Y134.639000 Z-0.125000
G01 X105.404210 Y134.755120 Z-0.125000
G01 X101.409480 Y134.541770 Z-0.125000
G01 X95.799979 Y133.664870 Z-0.125000
G01 X89.664637 Y131.946700 Z-0.125000
G01 X84.576742 Y129.992250 Z-0.125000
G01 X69.188677 Y123.317350 Z-0.125000
G01 X63.576373 Y121.378130 Z-0.125000
G01 X57.953028 Y119.861810 Z-0.125000
G01 X50.345842 Y118.534660 Z-0.125000
G01 X46.272925 Y118.183870 Z-0.125000
G01 X42.473382 Y118.095670 Z-0.125000
G01 X36.588225 Y118.436840 Z-0.125000
G01 X26.315363 Y120.069780 Z-0.125000
G01 X23.192234 Y120.139280 Z-0.125000
G01 X21.444989 Y119.666590 Z-0.125000
G01 X19.936826 Y118.672580 Z-0.125000
G01 X18.678912 Y117.096360 Z-0.125000
G01 X17.793793 Y115.154580 Z-0.125000
