%
(Header)
(Generated by gcodetools from Inkscape.)
(Using default header. To add your own header create file "header" in the output dir.)
M3
(Header end.)
G21 (All units in mm)

(Start cutting path id: path2468)
(Change tool to Default tool)

G00 Z10.000000
G00 X116.086061 Y17.408200

G00 Z4.875000 (Fast pre-penetrate)
G01 Z-0.125000 F100.0(Penetrate)
G01 X114.886177 Y17.207381 Z-0.125000 F800.000000
G01 X113.686029 Y17.006298 Z-0.125000
G00 Z10.000000

(End cutting path id: path2468)


(Start cutting path id: path2456)
(Change tool to Default tool)

G00 Z10.000000
G00 X113.686029 Y17.006298

G00 Z4.875000 (Fast pre-penetrate)
G01 Z-0.125000 F100.0(Penetrate)
G01 X112.485880 Y16.805479 Z-0.125000 F800.000000
G01 X111.285996 Y16.604661 Z-0.125000
G01 X110.085848 Y16.403843 Z-0.125000
G01 X108.885699 Y16.203024 Z-0.125000
G01 X107.685816 Y16.002206 Z-0.125000
G01 X106.485667 Y15.801122 Z-0.125000
G01 X105.285519 Y15.600304 Z-0.125000
G01 X104.085635 Y15.399485 Z-0.125000
G01 X102.885486 Y15.198667 Z-0.125000
G01 X102.042525 Y15.101300 Z-0.125000
G01 X101.199299 Y15.003934 Z-0.125000
G01 X100.356337 Y14.906567 Z-0.125000
G01 X99.513376 Y14.809201 Z-0.125000
G01 X98.670150 Y14.711834 Z-0.125000
G01 X97.827188 Y14.614203 Z-0.125000
G01 X96.984227 Y14.516837 Z-0.125000
G01 X96.141001 Y14.419470 Z-0.125000
G01 X95.298040 Y14.322103 Z-0.125000
G01 X94.454814 Y14.224737 Z-0.125000
G01 X93.611852 Y14.127370 Z-0.125000
G01 X92.210356 Y14.415237 Z-0.125000
G01 X90.808860 Y14.703368 Z-0.125000
G01 X89.407364 Y14.991234 Z-0.125000
G01 X88.005867 Y15.279100 Z-0.125000
G01 X86.604107 Y15.567231 Z-0.125000
G01 X85.202611 Y15.855097 Z-0.125000
G01 X83.801114 Y16.142964 Z-0.125000
G01 X82.399618 Y16.430830 Z-0.125000
G01 X80.998122 Y16.718961 Z-0.125000
G01 X79.596626 Y17.006827 Z-0.125000
G01 X78.195130 Y17.294693 Z-0.125000
G01 X77.513829 Y17.347610 Z-0.125000
G01 X76.832527 Y17.400791 Z-0.125000
G01 X76.151226 Y17.453708 Z-0.125000
G01 X75.469925 Y17.506624 Z-0.125000
G01 X74.788624 Y17.559541 Z-0.125000
G01 X74.107322 Y17.612458 Z-0.125000
G01 X73.426021 Y17.665374 Z-0.125000
G01 X72.744720 Y17.718555 Z-0.125000
G01 X72.063419 Y17.771472 Z-0.125000
G01 X71.382118 Y17.824389 Z-0.125000
G01 X70.700816 Y17.877305 Z-0.125000
G01 X69.424997 Y17.824653 Z-0.125000
G01 X68.148913 Y17.772266 Z-0.125000
G01 X66.873094 Y17.719614 Z-0.125000
G01 X65.597010 Y17.666962 Z-0.125000
G01 X64.321191 Y17.614310 Z-0.125000
G01 X63.045107 Y17.561922 Z-0.125000
G01 X61.769288 Y17.509270 Z-0.125000
G01 X60.493204 Y17.456618 Z-0.125000
G01 X59.217385 Y17.403966 Z-0.125000
G01 X57.941301 Y17.351314 Z-0.125000
G01 X56.665482 Y17.298927 Z-0.125000
G01 X55.773308 Y17.092552 Z-0.125000
G01 X54.881134 Y16.886177 Z-0.125000
G01 X53.988960 Y16.679803 Z-0.125000
G01 X53.096786 Y16.473428 Z-0.125000
G01 X52.204613 Y16.267053 Z-0.125000
G01 X51.312703 Y16.060943 Z-0.125000
G01 X50.420529 Y15.854568 Z-0.125000
G01 X49.528356 Y15.648193 Z-0.125000
G01 X48.636182 Y15.441819 Z-0.125000
G01 X47.744008 Y15.235444 Z-0.125000
G01 X46.851834 Y15.029334 Z-0.125000
G01 X45.969714 Y14.898630 Z-0.125000
G01 X45.087594 Y14.767926 Z-0.125000
G01 X44.205210 Y14.637222 Z-0.125000
G01 X43.323090 Y14.506518 Z-0.125000
G01 X42.440971 Y14.375814 Z-0.125000
G01 X41.558851 Y14.244845 Z-0.125000
G01 X40.676467 Y14.114141 Z-0.125000
G01 X39.794347 Y13.983437 Z-0.125000
G01 X38.912227 Y13.852733 Z-0.125000
G01 X38.030108 Y13.722029 Z-0.125000
G01 X37.147723 Y13.591325 Z-0.125000
G01 X35.880900 Y13.876546 Z-0.125000
G01 X34.613812 Y14.161766 Z-0.125000
G01 X33.346988 Y14.446987 Z-0.125000
G01 X32.080165 Y14.731943 Z-0.125000
G01 X30.813077 Y15.017163 Z-0.125000
G01 X29.546254 Y15.302383 Z-0.125000
G01 X28.279166 Y15.587339 Z-0.125000
G01 X27.012342 Y15.872560 Z-0.125000
G01 X25.745254 Y16.157780 Z-0.125000
G01 X24.478431 Y16.443001 Z-0.125000
G01 X23.211607 Y16.727957 Z-0.125000
G01 X22.052998 Y16.659694 Z-0.125000
G01 X20.894390 Y16.591167 Z-0.125000
G01 X19.735781 Y16.522905 Z-0.125000
G01 X18.577436 Y16.454378 Z-0.125000
G00 Z10.000000

(End cutting path id: path2456)


(Start cutting path id: path2236)
(Change tool to Default tool)

G00 Z10.000000
G00 X18.577436 Y16.454378

G00 Z4.875000 (Fast pre-penetrate)
G01 Z-0.125000 F100.0(Penetrate)
G01 X17.418827 Y16.386115 Z-0.125000 F800.000000
G01 X16.260218 Y16.317588 Z-0.125000
G01 X15.101874 Y16.249326 Z-0.125000
G01 X13.943265 Y16.180799 Z-0.125000
G01 X12.784656 Y16.112537 Z-0.125000
G01 X11.626312 Y16.044010 Z-0.125000
G01 X10.467703 Y15.975747 Z-0.125000
G00 Z10.000000

(End cutting path id: path2236)


(Start cutting path id: path2238)
(Change tool to Default tool)

G00 Z10.000000
G00 X10.976231 Y17.335704

G00 Z4.875000 (Fast pre-penetrate)
G01 Z-0.125000 F100.0(Penetrate)
G01 X12.108382 Y17.386504 Z-0.125000 F800.000000
G01 X13.240532 Y17.437304 Z-0.125000
G01 X14.372683 Y17.488104 Z-0.125000
G01 X15.504834 Y17.538639 Z-0.125000
G01 X16.636984 Y17.589439 Z-0.125000
G01 X17.769135 Y17.640239 Z-0.125000
G01 X18.901286 Y17.691039 Z-0.125000
G01 X20.033436 Y17.741574 Z-0.125000
G01 X21.165587 Y17.792374 Z-0.125000
G01 X22.297738 Y17.843174 Z-0.125000
G01 X23.430153 Y17.893974 Z-0.125000
G01 X24.590349 Y17.593408 Z-0.125000
G01 X25.750546 Y17.292577 Z-0.125000
G01 X26.910742 Y16.992011 Z-0.125000
G01 X28.070939 Y16.691444 Z-0.125000
G01 X29.231135 Y16.390878 Z-0.125000
G01 X30.391332 Y16.090312 Z-0.125000
G01 X31.551528 Y15.789481 Z-0.125000
G01 X32.711725 Y15.488914 Z-0.125000
G01 X33.871921 Y15.188348 Z-0.125000
G01 X35.032118 Y14.887782 Z-0.125000
G01 X36.192314 Y14.587216 Z-0.125000
G01 X37.196406 Y14.653361 Z-0.125000
G01 X38.200499 Y14.719772 Z-0.125000
G01 X39.204591 Y14.785917 Z-0.125000
G01 X40.208949 Y14.852063 Z-0.125000
G01 X41.213041 Y14.918474 Z-0.125000
G01 X42.217133 Y14.984619 Z-0.125000
G01 X43.221226 Y15.051030 Z-0.125000
G01 X44.225583 Y15.117175 Z-0.125000
G01 X45.229676 Y15.183586 Z-0.125000
G01 X46.233768 Y15.249731 Z-0.125000
G01 X47.237860 Y15.316142 Z-0.125000
G01 X48.143528 Y15.641050 Z-0.125000
G01 X49.049196 Y15.966222 Z-0.125000
G01 X49.954863 Y16.291395 Z-0.125000
G01 X50.860531 Y16.616567 Z-0.125000
G01 X51.766199 Y16.941475 Z-0.125000
G01 X52.671866 Y17.266648 Z-0.125000
G01 X53.577534 Y17.591820 Z-0.125000
G01 X54.483201 Y17.916993 Z-0.125000
G01 X55.388869 Y18.241901 Z-0.125000
G01 X56.294537 Y18.567073 Z-0.125000
G01 X57.200204 Y18.892246 Z-0.125000
G01 X58.465176 Y18.887219 Z-0.125000
G01 X59.729882 Y18.882456 Z-0.125000
G01 X60.994589 Y18.877429 Z-0.125000
G01 X62.259560 Y18.872666 Z-0.125000
G01 X63.524267 Y18.867639 Z-0.125000
G01 X64.789238 Y18.862877 Z-0.125000
G01 X66.053945 Y18.857850 Z-0.125000
G01 X67.318652 Y18.853087 Z-0.125000
G01 X68.583623 Y18.848060 Z-0.125000
G01 X69.848330 Y18.843298 Z-0.125000
G01 X71.113037 Y18.838271 Z-0.125000
G01 X71.725811 Y18.773977 Z-0.125000
G01 X72.338321 Y18.709419 Z-0.125000
G01 X72.951095 Y18.644861 Z-0.125000
G01 X73.563604 Y18.580567 Z-0.125000
G01 X74.176379 Y18.516009 Z-0.125000
G01 X74.788888 Y18.451450 Z-0.125000
G01 X75.401663 Y18.386892 Z-0.125000
G01 X76.014172 Y18.322598 Z-0.125000
G01 X76.626946 Y18.258040 Z-0.125000
G01 X77.239456 Y18.193482 Z-0.125000
G01 X77.852230 Y18.128924 Z-0.125000
G01 X79.264045 Y17.864605 Z-0.125000
G01 X80.675595 Y17.600287 Z-0.125000
G01 X82.087410 Y17.335968 Z-0.125000
G01 X83.499225 Y17.071650 Z-0.125000
G01 X84.910776 Y16.807332 Z-0.125000
G01 X86.322590 Y16.543013 Z-0.125000
G01 X87.734405 Y16.278695 Z-0.125000
G01 X89.145956 Y16.014112 Z-0.125000
G01 X90.557771 Y15.749793 Z-0.125000
G01 X91.969321 Y15.485475 Z-0.125000
G01 X93.381136 Y15.221156 Z-0.125000
G01 X94.214308 Y15.314554 Z-0.125000
G01 X95.047215 Y15.408217 Z-0.125000
G01 X95.880387 Y15.501614 Z-0.125000
G01 X96.713559 Y15.595277 Z-0.125000
G01 X97.546466 Y15.688675 Z-0.125000
G01 X98.379638 Y15.782072 Z-0.125000
G01 X99.212810 Y15.875735 Z-0.125000
G01 X100.045717 Y15.969133 Z-0.125000
G01 X100.878889 Y16.062530 Z-0.125000
G01 X101.711796 Y16.156193 Z-0.125000
G01 X102.544968 Y16.249591 Z-0.125000
G01 X103.729506 Y16.433740 Z-0.125000
G01 X104.914309 Y16.617890 Z-0.125000
G01 X106.098847 Y16.801775 Z-0.125000
G01 X107.283385 Y16.985925 Z-0.125000
G01 X108.468188 Y17.170075 Z-0.125000
G01 X109.652726 Y17.354225 Z-0.125000
G01 X110.837264 Y17.538110 Z-0.125000
G01 X112.022066 Y17.722260 Z-0.125000
G01 X113.206604 Y17.906409 Z-0.125000
G01 X114.391407 Y18.090559 Z-0.125000
G01 X115.575945 Y18.274444 Z-0.125000
G00 Z10.000000

(End cutting path id: path2238)


(Start cutting path id: path2240)
(Change tool to Default tool)

G00 Z10.000000
G00 X115.065829 Y19.140954

G00 Z4.875000 (Fast pre-penetrate)
G01 Z-0.125000 F100.0(Penetrate)
G01 X113.896637 Y18.973473 Z-0.125000 F800.000000
G01 X112.727180 Y18.806256 Z-0.125000
G01 X111.557988 Y18.639040 Z-0.125000
G01 X110.388796 Y18.471823 Z-0.125000
G01 X109.219603 Y18.304342 Z-0.125000
G01 X108.050411 Y18.137126 Z-0.125000
G01 X106.881219 Y17.969909 Z-0.125000
G01 X105.712026 Y17.802428 Z-0.125000
G01 X104.542834 Y17.635212 Z-0.125000
G01 X103.373642 Y17.467995 Z-0.125000
G01 X102.204450 Y17.300514 Z-0.125000
G01 X101.381332 Y17.211085 Z-0.125000
G01 X100.558214 Y17.121392 Z-0.125000
G01 X99.735096 Y17.031698 Z-0.125000
G01 X98.911979 Y16.942269 Z-0.125000
G01 X98.089126 Y16.852575 Z-0.125000
G01 X97.266008 Y16.762882 Z-0.125000
G01 X96.442890 Y16.673453 Z-0.125000
G01 X95.619772 Y16.583759 Z-0.125000
G01 X94.796655 Y16.494065 Z-0.125000
G01 X93.973537 Y16.404636 Z-0.125000
G01 X93.150419 Y16.314943 Z-0.125000
G01 X91.728550 Y16.555713 Z-0.125000
G01 X90.306681 Y16.796484 Z-0.125000
G01 X88.884812 Y17.037254 Z-0.125000
G01 X87.462679 Y17.278025 Z-0.125000
G01 X86.040810 Y17.518795 Z-0.125000
G01 X84.618940 Y17.759566 Z-0.125000
G01 X83.197071 Y18.000336 Z-0.125000
G01 X81.775202 Y18.241107 Z-0.125000
G01 X80.353333 Y18.481877 Z-0.125000
G01 X78.931200 Y18.722648 Z-0.125000
G01 X77.509331 Y18.963418 Z-0.125000
G01 X76.965348 Y19.039354 Z-0.125000
G01 X76.421365 Y19.115289 Z-0.125000
G01 X75.877383 Y19.191224 Z-0.125000
G01 X75.333400 Y19.267424 Z-0.125000
G01 X74.789417 Y19.343360 Z-0.125000
G01 X74.245435 Y19.419295 Z-0.125000
G01 X73.701452 Y19.495495 Z-0.125000
G01 X73.157470 Y19.571430 Z-0.125000
G01 X72.613487 Y19.647365 Z-0.125000
G01 X72.069504 Y19.723301 Z-0.125000
G01 X71.525522 Y19.799501 Z-0.125000
G01 X70.271663 Y19.861678 Z-0.125000
G01 X69.018068 Y19.924119 Z-0.125000
G01 X67.764474 Y19.986561 Z-0.125000
G01 X66.510880 Y20.049002 Z-0.125000
G01 X65.257021 Y20.111179 Z-0.125000
G01 X64.003427 Y20.173621 Z-0.125000
G01 X62.749833 Y20.236063 Z-0.125000
G01 X61.496238 Y20.298504 Z-0.125000
G01 X60.242644 Y20.360946 Z-0.125000
G01 X58.988785 Y20.423123 Z-0.125000
G01 X57.735191 Y20.485564 Z-0.125000
G01 X56.816030 Y20.041594 Z-0.125000
G01 X55.896868 Y19.597888 Z-0.125000
G01 X54.977707 Y19.153918 Z-0.125000
G01 X54.058281 Y18.709948 Z-0.125000
G01 X53.139120 Y18.266242 Z-0.125000
G01 X52.219958 Y17.822272 Z-0.125000
G01 X51.300797 Y17.378302 Z-0.125000
G01 X50.381636 Y16.934596 Z-0.125000
G01 X49.462210 Y16.490626 Z-0.125000
G01 X48.543048 Y16.046655 Z-0.125000
G01 X47.623887 Y15.602950 Z-0.125000
G01 X46.497822 Y15.601098 Z-0.125000
G01 X45.371757 Y15.599246 Z-0.125000
G01 X44.245691 Y15.597394 Z-0.125000
G01 X43.119362 Y15.595541 Z-0.125000
G01 X41.993296 Y15.593689 Z-0.125000
G01 X40.867231 Y15.591837 Z-0.125000
G01 X39.741166 Y15.589985 Z-0.125000
G01 X38.615101 Y15.588398 Z-0.125000
G01 X37.489035 Y15.586546 Z-0.125000
G01 X36.362970 Y15.584694 Z-0.125000
G01 X35.236640 Y15.582841 Z-0.125000
G01 X34.183335 Y15.899018 Z-0.125000
G01 X33.129766 Y16.214930 Z-0.125000
G01 X32.076461 Y16.531107 Z-0.125000
G01 X31.022891 Y16.847284 Z-0.125000
G01 X29.969322 Y17.163196 Z-0.125000
G01 X28.916017 Y17.479372 Z-0.125000
G01 X27.862447 Y17.795549 Z-0.125000
G01 X26.808878 Y18.111461 Z-0.125000
G01 X25.755573 Y18.427638 Z-0.125000
G01 X24.702003 Y18.743815 Z-0.125000
G01 X23.648434 Y19.059727 Z-0.125000
G01 X22.542742 Y19.026654 Z-0.125000
G01 X21.437049 Y18.993581 Z-0.125000
G01 X20.331092 Y18.960508 Z-0.125000
G01 X19.225400 Y18.927435 Z-0.125000
G01 X18.119443 Y18.894362 Z-0.125000
G01 X17.013751 Y18.861289 Z-0.125000
G01 X15.907794 Y18.828217 Z-0.125000
G01 X14.802101 Y18.795144 Z-0.125000
G01 X13.696144 Y18.762071 Z-0.125000
G01 X12.590452 Y18.728998 Z-0.125000
G01 X11.484495 Y18.695925 Z-0.125000
G00 Z10.000000

(End cutting path id: path2240)


(Start cutting path id: path2242)
(Change tool to Default tool)

G00 Z10.000000
G00 X11.993024 Y20.055882

G00 Z4.875000 (Fast pre-penetrate)
G01 Z-0.125000 F100.0(Penetrate)
G01 X13.072522 Y20.071227 Z-0.125000 F800.000000
G01 X14.152021 Y20.086838 Z-0.125000
G01 X15.231520 Y20.102184 Z-0.125000
G01 X16.310754 Y20.117794 Z-0.125000
G01 X17.390252 Y20.133140 Z-0.125000
G01 X18.469751 Y20.148486 Z-0.125000
G01 X19.549250 Y20.164096 Z-0.125000
G01 X20.628748 Y20.179442 Z-0.125000
G01 X21.708247 Y20.194788 Z-0.125000
G01 X22.787745 Y20.210398 Z-0.125000
G01 X23.866980 Y20.225744 Z-0.125000
G01 X24.813922 Y19.894221 Z-0.125000
G01 X25.760600 Y19.562699 Z-0.125000
G01 X26.707278 Y19.231176 Z-0.125000
G01 X27.653956 Y18.899389 Z-0.125000
G01 X28.600899 Y18.567867 Z-0.125000
G01 X29.547577 Y18.236344 Z-0.125000
G01 X30.494255 Y17.904822 Z-0.125000
G01 X31.440932 Y17.573299 Z-0.125000
G01 X32.387610 Y17.241512 Z-0.125000
G01 X33.334553 Y16.909990 Z-0.125000
G01 X34.281231 Y16.578467 Z-0.125000
G01 X35.529269 Y16.515761 Z-0.125000
G01 X36.777307 Y16.453320 Z-0.125000
G01 X38.025345 Y16.390613 Z-0.125000
G01 X39.273383 Y16.327907 Z-0.125000
G01 X40.521421 Y16.265466 Z-0.125000
G01 X41.769459 Y16.202759 Z-0.125000
G01 X43.017497 Y16.140053 Z-0.125000
G01 X44.265800 Y16.077612 Z-0.125000
G01 X45.513838 Y16.014905 Z-0.125000
G01 X46.761876 Y15.952464 Z-0.125000
G01 X48.009914 Y15.889758 Z-0.125000
G01 X48.942569 Y16.452261 Z-0.125000
G01 X49.875224 Y17.015029 Z-0.125000
G01 X50.808143 Y17.577797 Z-0.125000
G01 X51.740799 Y18.140301 Z-0.125000
G01 X52.673718 Y18.703069 Z-0.125000
G01 X53.606373 Y19.265572 Z-0.125000
G01 X54.539028 Y19.828340 Z-0.125000
G01 X55.471948 Y20.390844 Z-0.125000
G01 X56.404603 Y20.953612 Z-0.125000
G01 X57.337258 Y21.516380 Z-0.125000
G01 X58.270178 Y22.078883 Z-0.125000
G01 X59.512660 Y21.959027 Z-0.125000
G01 X60.755141 Y21.839171 Z-0.125000
G01 X61.997623 Y21.719315 Z-0.125000
G01 X63.240105 Y21.599459 Z-0.125000
G01 X64.482587 Y21.479603 Z-0.125000
G01 X65.725068 Y21.359747 Z-0.125000
G01 X66.967550 Y21.239891 Z-0.125000
G01 X68.210032 Y21.120034 Z-0.125000
G01 X69.452778 Y21.000178 Z-0.125000
G01 X70.695260 Y20.880322 Z-0.125000
G01 X71.937742 Y20.760466 Z-0.125000
G01 X72.412933 Y20.672889 Z-0.125000
G01 X72.888389 Y20.585312 Z-0.125000
G01 X73.363844 Y20.497735 Z-0.125000
G01 X73.839035 Y20.410423 Z-0.125000
G01 X74.314491 Y20.322846 Z-0.125000
G01 X74.789682 Y20.235269 Z-0.125000
G01 X75.265138 Y20.147692 Z-0.125000
G01 X75.740593 Y20.060115 Z-0.125000
G01 X76.215784 Y19.972538 Z-0.125000
G01 X76.691240 Y19.885226 Z-0.125000
G01 X77.166431 Y19.797649 Z-0.125000
G01 X78.598619 Y19.580426 Z-0.125000
G01 X80.030807 Y19.363203 Z-0.125000
G01 X81.462994 Y19.145981 Z-0.125000
G01 X82.894918 Y18.929023 Z-0.125000
G01 X84.327105 Y18.711800 Z-0.125000
G01 X85.759293 Y18.494577 Z-0.125000
G01 X87.191216 Y18.277355 Z-0.125000
G01 X88.623404 Y18.060397 Z-0.125000
G01 X90.055592 Y17.843174 Z-0.125000
G01 X91.487780 Y17.625951 Z-0.125000
G01 X92.919703 Y17.408729 Z-0.125000
G01 X93.732767 Y17.494454 Z-0.125000
G01 X94.546095 Y17.580179 Z-0.125000
G01 X95.359158 Y17.665903 Z-0.125000
G01 X96.172222 Y17.751628 Z-0.125000
G01 X96.985285 Y17.837353 Z-0.125000
G01 X97.798349 Y17.923078 Z-0.125000
G01 X98.611412 Y18.008803 Z-0.125000
G01 X99.424476 Y18.094528 Z-0.125000
G01 X100.237804 Y18.180253 Z-0.125000
G01 X101.050868 Y18.265978 Z-0.125000
G01 X101.863931 Y18.351438 Z-0.125000
G01 X103.017778 Y18.501986 Z-0.125000
G01 X104.171360 Y18.652533 Z-0.125000
G01 X105.325206 Y18.803081 Z-0.125000
G01 X106.479053 Y18.953629 Z-0.125000
G01 X107.632899 Y19.104177 Z-0.125000
G01 X108.786481 Y19.254724 Z-0.125000
G01 X109.940327 Y19.405272 Z-0.125000
G01 X111.094174 Y19.555820 Z-0.125000
G01 X112.248020 Y19.706103 Z-0.125000
G01 X113.401602 Y19.856651 Z-0.125000
G01 X114.555449 Y20.007198 Z-0.125000
G00 Z10.000000

(End cutting path id: path2242)


(Start cutting path id: path2244)
(Change tool to Default tool)

G00 Z10.000000
G00 X114.045333 Y20.873708

G00 Z4.875000 (Fast pre-penetrate)
G01 Z-0.125000 F100.0(Penetrate)
G01 X112.906832 Y20.739829 Z-0.125000 F800.000000
G01 X111.768596 Y20.606214 Z-0.125000
G01 X110.630095 Y20.472335 Z-0.125000
G01 X109.491859 Y20.338721 Z-0.125000
G01 X108.353623 Y20.204842 Z-0.125000
G01 X107.215122 Y20.071227 Z-0.125000
G01 X106.076886 Y19.937613 Z-0.125000
G01 X104.938386 Y19.803734 Z-0.125000
G01 X103.800150 Y19.670120 Z-0.125000
G01 X102.661649 Y19.536241 Z-0.125000
G01 X101.523413 Y19.402626 Z-0.125000
G01 X100.720139 Y19.320605 Z-0.125000
G01 X99.917130 Y19.238849 Z-0.125000
G01 X99.114120 Y19.157093 Z-0.125000
G01 X98.310846 Y19.075337 Z-0.125000
G01 X97.507837 Y18.993581 Z-0.125000
G01 X96.704563 Y18.911560 Z-0.125000
G01 X95.901553 Y18.829804 Z-0.125000
G01 X95.098544 Y18.748048 Z-0.125000
G01 X94.295270 Y18.666292 Z-0.125000
G01 X93.492261 Y18.584536 Z-0.125000
G01 X92.688987 Y18.502515 Z-0.125000
G01 X91.246745 Y18.696190 Z-0.125000
G01 X89.804503 Y18.889600 Z-0.125000
G01 X88.362261 Y19.083275 Z-0.125000
G01 X86.919754 Y19.276949 Z-0.125000
G01 X85.477512 Y19.470359 Z-0.125000
G01 X84.035270 Y19.664034 Z-0.125000
G01 X82.593028 Y19.857444 Z-0.125000
G01 X81.150522 Y20.051119 Z-0.125000
G01 X79.708280 Y20.244794 Z-0.125000
G01 X78.266038 Y20.438204 Z-0.125000
G01 X76.823796 Y20.631879 Z-0.125000
G01 X76.417132 Y20.730833 Z-0.125000
G01 X76.010203 Y20.830052 Z-0.125000
G01 X75.603539 Y20.929006 Z-0.125000
G01 X75.196875 Y21.027960 Z-0.125000
G01 X74.790211 Y21.127178 Z-0.125000
G01 X74.383547 Y21.226132 Z-0.125000
G01 X73.976883 Y21.325351 Z-0.125000
G01 X73.569954 Y21.424305 Z-0.125000
G01 X73.163290 Y21.523259 Z-0.125000
G01 X72.756626 Y21.622478 Z-0.125000
G01 X72.349962 Y21.721432 Z-0.125000
G01 X71.118593 Y21.898967 Z-0.125000
G01 X69.887224 Y22.076237 Z-0.125000
G01 X68.655854 Y22.253508 Z-0.125000
G01 X67.424485 Y22.430779 Z-0.125000
G01 X66.193116 Y22.608314 Z-0.125000
G01 X64.961746 Y22.785584 Z-0.125000
G01 X63.730377 Y22.962855 Z-0.125000
G01 X62.499008 Y23.140390 Z-0.125000
G01 X61.267639 Y23.317661 Z-0.125000
G01 X60.036269 Y23.494931 Z-0.125000
G01 X58.804900 Y23.672202 Z-0.125000
G01 X57.858751 Y22.990901 Z-0.125000
G01 X56.912338 Y22.309335 Z-0.125000
G01 X55.966189 Y21.628034 Z-0.125000
G01 X55.019776 Y20.946468 Z-0.125000
G01 X54.073627 Y20.265167 Z-0.125000
G01 X53.127213 Y19.583601 Z-0.125000
G01 X52.181065 Y18.902300 Z-0.125000
G01 X51.234651 Y18.220734 Z-0.125000
G01 X50.288502 Y17.539433 Z-0.125000
G01 X49.342089 Y16.858132 Z-0.125000
G01 X48.395940 Y16.176566 Z-0.125000
G01 X47.025930 Y16.303566 Z-0.125000
G01 X45.655919 Y16.430565 Z-0.125000
G01 X44.285908 Y16.557830 Z-0.125000
G01 X42.915897 Y16.684830 Z-0.125000
G01 X41.545886 Y16.811829 Z-0.125000
G01 X40.175876 Y16.938829 Z-0.125000
G01 X38.805865 Y17.065829 Z-0.125000
G01 X37.435854 Y17.193094 Z-0.125000
G01 X36.065843 Y17.320093 Z-0.125000
G01 X34.695568 Y17.447093 Z-0.125000
G01 X33.325557 Y17.574093 Z-0.125000
G01 X32.485771 Y17.921226 Z-0.125000
G01 X31.645720 Y18.268094 Z-0.125000
G01 X30.805669 Y18.615227 Z-0.125000
G01 X29.965618 Y18.962360 Z-0.125000
G01 X29.125567 Y19.309493 Z-0.125000
G01 X28.285780 Y19.656361 Z-0.125000
G01 X27.445729 Y20.003494 Z-0.125000
G01 X26.605678 Y20.350627 Z-0.125000
G01 X25.765627 Y20.697495 Z-0.125000
G01 X24.925576 Y21.044628 Z-0.125000
G01 X24.085525 Y21.391761 Z-0.125000
G01 X23.032485 Y21.393878 Z-0.125000
G01 X21.979444 Y21.395995 Z-0.125000
G01 X20.926404 Y21.398376 Z-0.125000
G01 X19.873099 Y21.400492 Z-0.125000
G01 X18.820059 Y21.402609 Z-0.125000
G01 X17.767018 Y21.404990 Z-0.125000
G01 X16.713978 Y21.407107 Z-0.125000
G01 X15.660673 Y21.409224 Z-0.125000
G01 X14.607633 Y21.411605 Z-0.125000
G01 X13.554593 Y21.413722 Z-0.125000
G01 X12.501552 Y21.416103 Z-0.125000
G00 Z10.000000

(End cutting path id: path2244)


(Start cutting path id: path2246)
(Change tool to Default tool)

G00 Z10.000000
G00 X13.009816 Y22.776059

G00 Z4.875000 (Fast pre-penetrate)
G01 Z-0.125000 F100.0(Penetrate)
G01 X14.036663 Y22.756216 Z-0.125000 F800.000000
G01 X15.063245 Y22.736372 Z-0.125000
G01 X16.090091 Y22.716528 Z-0.125000
G01 X17.116938 Y22.696685 Z-0.125000
G01 X18.143520 Y22.676841 Z-0.125000
G01 X19.170367 Y22.656997 Z-0.125000
G01 X20.197213 Y22.637153 Z-0.125000
G01 X21.223795 Y22.617045 Z-0.125000
G01 X22.250642 Y22.597201 Z-0.125000
G01 X23.277489 Y22.577358 Z-0.125000
G01 X24.304071 Y22.557514 Z-0.125000
G01 X25.037495 Y22.195035 Z-0.125000
G01 X25.770654 Y21.832556 Z-0.125000
G01 X26.504078 Y21.470078 Z-0.125000
G01 X27.237238 Y21.107599 Z-0.125000
G01 X27.970397 Y20.744856 Z-0.125000
G01 X28.703821 Y20.382377 Z-0.125000
G01 X29.436981 Y20.019898 Z-0.125000
G01 X30.170405 Y19.657420 Z-0.125000
G01 X30.903564 Y19.294941 Z-0.125000
G01 X31.636988 Y18.932198 Z-0.125000
G01 X32.370148 Y18.569719 Z-0.125000
G01 X33.862132 Y18.378425 Z-0.125000
G01 X35.354115 Y18.186867 Z-0.125000
G01 X36.846099 Y17.995309 Z-0.125000
G01 X38.338082 Y17.803751 Z-0.125000
G01 X39.830066 Y17.612458 Z-0.125000
G01 X41.322049 Y17.420900 Z-0.125000
G01 X42.814033 Y17.229341 Z-0.125000
G01 X44.306016 Y17.037783 Z-0.125000
G01 X45.797735 Y16.846490 Z-0.125000
G01 X47.289719 Y16.654932 Z-0.125000
G01 X48.781702 Y16.463374 Z-0.125000
G01 X49.741609 Y17.263737 Z-0.125000
G01 X50.701517 Y18.063836 Z-0.125000
G01 X51.661159 Y18.863935 Z-0.125000
G01 X52.621066 Y19.664299 Z-0.125000
G01 X53.580973 Y20.464398 Z-0.125000
G01 X54.540880 Y21.264761 Z-0.125000
G01 X55.500523 Y22.064860 Z-0.125000
G01 X56.460430 Y22.864959 Z-0.125000
G01 X57.420337 Y23.665323 Z-0.125000
G01 X58.379980 Y24.465422 Z-0.125000
G01 X59.339887 Y25.265786 Z-0.125000
G01 X60.560144 Y25.030836 Z-0.125000
G01 X61.780401 Y24.795886 Z-0.125000
G01 X63.000657 Y24.561201 Z-0.125000
G01 X64.220650 Y24.326251 Z-0.125000
G01 X65.440906 Y24.091566 Z-0.125000
G01 X66.661163 Y23.856616 Z-0.125000
G01 X67.881420 Y23.621931 Z-0.125000
G01 X69.101677 Y23.386982 Z-0.125000
G01 X70.321933 Y23.152296 Z-0.125000
G01 X71.541926 Y22.917347 Z-0.125000
G01 X72.762183 Y22.682662 Z-0.125000
G01 X73.100320 Y22.572066 Z-0.125000
G01 X73.438457 Y22.461470 Z-0.125000
G01 X73.776329 Y22.350875 Z-0.125000
G01 X74.114466 Y22.240279 Z-0.125000
G01 X74.452603 Y22.129683 Z-0.125000
G01 X74.790476 Y22.019088 Z-0.125000
G01 X75.128613 Y21.908492 Z-0.125000
G01 X75.466750 Y21.797896 Z-0.125000
G01 X75.804887 Y21.687300 Z-0.125000
G01 X76.142759 Y21.576705 Z-0.125000
G01 X76.480897 Y21.466109 Z-0.125000
G01 X77.933457 Y21.296247 Z-0.125000
G01 X79.385753 Y21.126120 Z-0.125000
G01 X80.838314 Y20.956258 Z-0.125000
G01 X82.290875 Y20.786131 Z-0.125000
G01 X83.743435 Y20.616268 Z-0.125000
G01 X85.195996 Y20.446142 Z-0.125000
G01 X86.648292 Y20.276279 Z-0.125000
G01 X88.100853 Y20.106417 Z-0.125000
G01 X89.553413 Y19.936290 Z-0.125000
G01 X91.005974 Y19.766428 Z-0.125000
G01 X92.458535 Y19.596301 Z-0.125000
G01 X93.251490 Y19.674353 Z-0.125000
G01 X94.044710 Y19.752140 Z-0.125000
G01 X94.837930 Y19.830192 Z-0.125000
G01 X95.630885 Y19.907980 Z-0.125000
G01 X96.424105 Y19.986032 Z-0.125000
G01 X97.217325 Y20.063819 Z-0.125000
G01 X98.010280 Y20.141871 Z-0.125000
G01 X98.803500 Y20.219659 Z-0.125000
G01 X99.596455 Y20.297711 Z-0.125000
G01 X100.389675 Y20.375498 Z-0.125000
G01 X101.182895 Y20.453550 Z-0.125000
G01 X102.305785 Y20.570496 Z-0.125000
G01 X103.428675 Y20.687441 Z-0.125000
G01 X104.551565 Y20.804387 Z-0.125000
G01 X105.674456 Y20.921333 Z-0.125000
G01 X106.797610 Y21.038278 Z-0.125000
G01 X107.920501 Y21.155224 Z-0.125000
G01 X109.043391 Y21.272170 Z-0.125000
G01 X110.166281 Y21.389115 Z-0.125000
G01 X111.289171 Y21.506061 Z-0.125000
G01 X112.412062 Y21.623007 Z-0.125000
G01 X113.534952 Y21.739952 Z-0.125000
G00 Z10.000000

(End cutting path id: path2246)


(Start cutting path id: path2248)
(Change tool to Default tool)

G00 Z10.000000
G00 X112.933290 Y22.447447

G00 Z4.875000 (Fast pre-penetrate)
G01 Z-0.125000 F100.0(Penetrate)
G01 X111.793731 Y22.353785 Z-0.125000 F800.000000
G01 X110.654172 Y22.260387 Z-0.125000
G01 X109.514613 Y22.166725 Z-0.125000
G01 X108.374790 Y22.073327 Z-0.125000
G01 X107.235231 Y21.979665 Z-0.125000
G01 X106.095672 Y21.886267 Z-0.125000
G01 X104.956113 Y21.792604 Z-0.125000
G01 X103.816554 Y21.699207 Z-0.125000
G01 X102.676995 Y21.605809 Z-0.125000
G01 X101.537436 Y21.512146 Z-0.125000
G01 X100.730722 Y21.442032 Z-0.125000
G01 X99.924273 Y21.371917 Z-0.125000
G01 X99.117560 Y21.301803 Z-0.125000
G01 X98.310846 Y21.231424 Z-0.125000
G01 X97.504397 Y21.161309 Z-0.125000
G01 X96.697684 Y21.091195 Z-0.125000
G01 X95.890970 Y21.021080 Z-0.125000
G01 X95.084521 Y20.950966 Z-0.125000
G01 X94.277807 Y20.880587 Z-0.125000
G01 X93.471094 Y20.810472 Z-0.125000
G01 X92.664380 Y20.740358 Z-0.125000
G01 X91.243834 Y20.921862 Z-0.125000
G01 X89.823288 Y21.103101 Z-0.125000
G01 X88.402477 Y21.284605 Z-0.125000
G01 X86.981931 Y21.465844 Z-0.125000
G01 X85.561121 Y21.647348 Z-0.125000
G01 X84.140574 Y21.828588 Z-0.125000
G01 X82.720028 Y22.010092 Z-0.125000
G01 X81.299218 Y22.191331 Z-0.125000
G01 X79.878671 Y22.372570 Z-0.125000
G01 X78.457861 Y22.554074 Z-0.125000
G01 X77.037315 Y22.735314 Z-0.125000
G01 X76.637001 Y22.781880 Z-0.125000
G01 X76.236422 Y22.828182 Z-0.125000
G01 X75.836108 Y22.874484 Z-0.125000
G01 X75.435529 Y22.921051 Z-0.125000
G01 X75.035215 Y22.967353 Z-0.125000
G01 X74.634901 Y23.013920 Z-0.125000
G01 X74.234322 Y23.060222 Z-0.125000
G01 X73.834008 Y23.106524 Z-0.125000
G01 X73.433694 Y23.153090 Z-0.125000
G01 X73.033115 Y23.199392 Z-0.125000
G01 X72.632801 Y23.245694 Z-0.125000
G01 X71.423922 Y23.513188 Z-0.125000
G01 X70.215042 Y23.780417 Z-0.125000
G01 X69.005898 Y24.047910 Z-0.125000
G01 X67.797018 Y24.315139 Z-0.125000
G01 X66.588138 Y24.582632 Z-0.125000
G01 X65.379258 Y24.849861 Z-0.125000
G01 X64.170379 Y25.117354 Z-0.125000
G01 X62.961499 Y25.384848 Z-0.125000
G01 X61.752355 Y25.652077 Z-0.125000
G01 X60.543475 Y25.919570 Z-0.125000
G01 X59.334595 Y26.186799 Z-0.125000
G01 X58.342409 Y25.417921 Z-0.125000
G01 X57.350223 Y24.648778 Z-0.125000
G01 X56.357772 Y23.879635 Z-0.125000
G01 X55.365586 Y23.110492 Z-0.125000
G01 X54.373399 Y22.341614 Z-0.125000
G01 X53.380949 Y21.572471 Z-0.125000
G01 X52.388762 Y20.803329 Z-0.125000
G01 X51.396576 Y20.034450 Z-0.125000
G01 X50.404390 Y19.265308 Z-0.125000
G01 X49.411939 Y18.496165 Z-0.125000
G01 X48.419753 Y17.727287 Z-0.125000
G01 X46.994709 Y17.906409 Z-0.125000
G01 X45.569665 Y18.085532 Z-0.125000
G01 X44.144621 Y18.264655 Z-0.125000
G01 X42.719577 Y18.443777 Z-0.125000
G01 X41.294533 Y18.622900 Z-0.125000
G01 X39.869489 Y18.802023 Z-0.125000
G01 X38.444444 Y18.981146 Z-0.125000
G01 X37.019136 Y19.160268 Z-0.125000
G01 X35.594092 Y19.339126 Z-0.125000
G01 X34.169048 Y19.518249 Z-0.125000
G01 X32.744004 Y19.697372 Z-0.125000
G01 X32.024603 Y20.033392 Z-0.125000
G01 X31.304937 Y20.369148 Z-0.125000
G01 X30.585536 Y20.704904 Z-0.125000
G01 X29.866134 Y21.040660 Z-0.125000
G01 X29.146469 Y21.376415 Z-0.125000
G01 X28.427068 Y21.712171 Z-0.125000
G01 X27.707402 Y22.047927 Z-0.125000
G01 X26.988001 Y22.383683 Z-0.125000
G01 X26.268335 Y22.719439 Z-0.125000
G01 X25.548934 Y23.055195 Z-0.125000
G01 X24.829268 Y23.390950 Z-0.125000
G01 X23.763528 Y23.418467 Z-0.125000
G01 X22.697523 Y23.445719 Z-0.125000
G01 X21.631518 Y23.473236 Z-0.125000
G01 X20.565513 Y23.500752 Z-0.125000
G01 X19.499508 Y23.528269 Z-0.125000
G01 X18.433503 Y23.555521 Z-0.125000
G01 X17.367498 Y23.583038 Z-0.125000
G01 X16.301493 Y23.610554 Z-0.125000
G01 X15.235488 Y23.637806 Z-0.125000
G01 X14.169483 Y23.665323 Z-0.125000
G01 X13.103478 Y23.692840 Z-0.125000
G00 Z10.000000

(End cutting path id: path2248)


(Start cutting path id: path2250)
(Change tool to Default tool)

G00 Z10.000000
G00 X13.197405 Y24.609620

G00 Z4.875000 (Fast pre-penetrate)
G01 Z-0.125000 F100.0(Penetrate)
G01 X14.302569 Y24.574430 Z-0.125000 F800.000000
G01 X15.407732 Y24.539505 Z-0.125000
G01 X16.512895 Y24.504580 Z-0.125000
G01 X17.618058 Y24.469391 Z-0.125000
G01 X18.723486 Y24.434466 Z-0.125000
G01 X19.828649 Y24.399541 Z-0.125000
G01 X20.933812 Y24.364351 Z-0.125000
G01 X22.038976 Y24.329426 Z-0.125000
G01 X23.144139 Y24.294237 Z-0.125000
G01 X24.249302 Y24.259312 Z-0.125000
G01 X25.354730 Y24.224387 Z-0.125000
G01 X26.060373 Y23.915354 Z-0.125000
G01 X26.766015 Y23.606321 Z-0.125000
G01 X27.471923 Y23.297288 Z-0.125000
G01 X28.177566 Y22.988255 Z-0.125000
G01 X28.883473 Y22.679222 Z-0.125000
G01 X29.589116 Y22.370189 Z-0.125000
G01 X30.295024 Y22.061156 Z-0.125000
G01 X31.000666 Y21.752123 Z-0.125000
G01 X31.706574 Y21.443090 Z-0.125000
G01 X32.412217 Y21.134322 Z-0.125000
G01 X33.117860 Y20.825289 Z-0.125000
G01 X34.476229 Y20.658337 Z-0.125000
G01 X35.834333 Y20.491650 Z-0.125000
G01 X37.192438 Y20.324963 Z-0.125000
G01 X38.550542 Y20.158275 Z-0.125000
G01 X39.908647 Y19.991323 Z-0.125000
G01 X41.267016 Y19.824636 Z-0.125000
G01 X42.625120 Y19.657949 Z-0.125000
G01 X43.983225 Y19.491262 Z-0.125000
G01 X45.341330 Y19.324574 Z-0.125000
G01 X46.699699 Y19.157622 Z-0.125000
G01 X48.057803 Y18.990935 Z-0.125000
G01 X49.082533 Y19.728857 Z-0.125000
G01 X50.106999 Y20.466779 Z-0.125000
G01 X51.131729 Y21.204701 Z-0.125000
G01 X52.156458 Y21.942623 Z-0.125000
G01 X53.181188 Y22.680545 Z-0.125000
G01 X54.205918 Y23.418467 Z-0.125000
G01 X55.230648 Y24.156389 Z-0.125000
G01 X56.255378 Y24.894311 Z-0.125000
G01 X57.280108 Y25.632233 Z-0.125000
G01 X58.304574 Y26.370155 Z-0.125000
G01 X59.329304 Y27.108077 Z-0.125000
G01 X60.527071 Y26.808040 Z-0.125000
G01 X61.724573 Y26.508267 Z-0.125000
G01 X62.922341 Y26.208230 Z-0.125000
G01 X64.119843 Y25.908458 Z-0.125000
G01 X65.317611 Y25.608420 Z-0.125000
G01 X66.515113 Y25.308648 Z-0.125000
G01 X67.712881 Y25.008611 Z-0.125000
G01 X68.910383 Y24.708838 Z-0.125000
G01 X70.107886 Y24.408801 Z-0.125000
G01 X71.305653 Y24.108764 Z-0.125000
G01 X72.503156 Y23.808992 Z-0.125000
G01 X72.965911 Y23.826719 Z-0.125000
G01 X73.428932 Y23.844710 Z-0.125000
G01 X73.891687 Y23.862437 Z-0.125000
G01 X74.354443 Y23.880164 Z-0.125000
G01 X74.817199 Y23.897891 Z-0.125000
G01 X75.279954 Y23.915883 Z-0.125000
G01 X75.742710 Y23.933610 Z-0.125000
G01 X76.205466 Y23.951337 Z-0.125000
G01 X76.668221 Y23.969064 Z-0.125000
G01 X77.130977 Y23.987056 Z-0.125000
G01 X77.593733 Y24.004783 Z-0.125000
G01 X78.982529 Y23.811902 Z-0.125000
G01 X80.371325 Y23.619285 Z-0.125000
G01 X81.760121 Y23.426404 Z-0.125000
G01 X83.148917 Y23.233788 Z-0.125000
G01 X84.537714 Y23.040907 Z-0.125000
G01 X85.926510 Y22.848291 Z-0.125000
G01 X87.315306 Y22.655410 Z-0.125000
G01 X88.704102 Y22.462529 Z-0.125000
G01 X90.092898 Y22.269912 Z-0.125000
G01 X91.481694 Y22.077031 Z-0.125000
G01 X92.870491 Y21.884415 Z-0.125000
G01 X93.690698 Y21.946856 Z-0.125000
G01 X94.510905 Y22.009298 Z-0.125000
G01 X95.331112 Y22.071475 Z-0.125000
G01 X96.151055 Y22.133917 Z-0.125000
G01 X96.971262 Y22.196358 Z-0.125000
G01 X97.791470 Y22.258800 Z-0.125000
G01 X98.611677 Y22.321241 Z-0.125000
G01 X99.431620 Y22.383683 Z-0.125000
G01 X100.251827 Y22.446124 Z-0.125000
G01 X101.072034 Y22.508301 Z-0.125000
G01 X101.892242 Y22.570743 Z-0.125000
G01 X103.048469 Y22.640858 Z-0.125000
G01 X104.204697 Y22.710972 Z-0.125000
G01 X105.360925 Y22.781087 Z-0.125000
G01 X106.516888 Y22.851201 Z-0.125000
G01 X107.673116 Y22.921316 Z-0.125000
G01 X108.829343 Y22.991430 Z-0.125000
G01 X109.985571 Y23.061545 Z-0.125000
G01 X111.141799 Y23.131394 Z-0.125000
G01 X112.298026 Y23.201509 Z-0.125000
G01 X113.454254 Y23.271623 Z-0.125000
G01 X114.610482 Y23.341738 Z-0.125000
G00 Z10.000000

(End cutting path id: path2250)


(Start cutting path id: path2258)
(Change tool to Default tool)

G00 Z10.000000
G00 X115.148115 Y24.142631

G00 Z4.875000 (Fast pre-penetrate)
G01 Z-0.125000 F100.0(Penetrate)
G01 X113.975483 Y24.096064 Z-0.125000 F800.000000
G01 X112.802586 Y24.049233 Z-0.125000
G00 Z10.000000

(End cutting path id: path2258)


(Start cutting path id: path2254)
(Change tool to Default tool)

G00 Z10.000000
G00 X112.802586 Y24.049233

G00 Z4.875000 (Fast pre-penetrate)
G01 Z-0.125000 F100.0(Penetrate)
G01 X111.629690 Y24.002666 Z-0.125000 F800.000000
G01 X110.456793 Y23.956100 Z-0.125000
G01 X109.283897 Y23.909533 Z-0.125000
G01 X108.111000 Y23.862702 Z-0.125000
G01 X106.938104 Y23.816135 Z-0.125000
G01 X105.765472 Y23.769569 Z-0.125000
G01 X104.592576 Y23.722737 Z-0.125000
G01 X103.419679 Y23.676171 Z-0.125000
G01 X102.246783 Y23.629604 Z-0.125000
G01 X101.413082 Y23.574836 Z-0.125000
G01 X100.579381 Y23.520331 Z-0.125000
G01 X99.745944 Y23.465563 Z-0.125000
G01 X98.912243 Y23.410794 Z-0.125000
G01 X98.078542 Y23.356290 Z-0.125000
G01 X97.244841 Y23.301521 Z-0.125000
G01 X96.411140 Y23.247017 Z-0.125000
G01 X95.577704 Y23.192249 Z-0.125000
G01 X94.744003 Y23.137744 Z-0.125000
G01 X93.910302 Y23.082976 Z-0.125000
G01 X93.076601 Y23.028472 Z-0.125000
G01 X91.719819 Y23.232465 Z-0.125000
G01 X90.362773 Y23.436723 Z-0.125000
G01 X89.005727 Y23.640717 Z-0.125000
G01 X87.648945 Y23.844975 Z-0.125000
G01 X86.291899 Y24.049233 Z-0.125000
G01 X84.934853 Y24.253226 Z-0.125000
G01 X83.578071 Y24.457484 Z-0.125000
G01 X82.221025 Y24.661478 Z-0.125000
G01 X80.863979 Y24.865736 Z-0.125000
G01 X79.507197 Y25.069994 Z-0.125000
G01 X78.150151 Y25.273988 Z-0.125000
G01 X77.624953 Y25.191967 Z-0.125000
G01 X77.100021 Y25.110211 Z-0.125000
G01 X76.574824 Y25.028190 Z-0.125000
G01 X76.049626 Y24.946169 Z-0.125000
G01 X75.524429 Y24.864149 Z-0.125000
G01 X74.999496 Y24.782128 Z-0.125000
G01 X74.474299 Y24.700107 Z-0.125000
G01 X73.949102 Y24.618086 Z-0.125000
G01 X73.423905 Y24.536066 Z-0.125000
G01 X72.898972 Y24.454309 Z-0.125000
G01 X72.373775 Y24.372289 Z-0.125000
G01 X71.187384 Y24.704605 Z-0.125000
G01 X70.000994 Y25.037186 Z-0.125000
G01 X68.814869 Y25.369502 Z-0.125000
G01 X67.628479 Y25.702083 Z-0.125000
G01 X66.442088 Y26.034399 Z-0.125000
G01 X65.255698 Y26.366980 Z-0.125000
G01 X64.069308 Y26.699296 Z-0.125000
G01 X62.883182 Y27.031877 Z-0.125000
G01 X61.696792 Y27.364193 Z-0.125000
G01 X60.510402 Y27.696774 Z-0.125000
G01 X59.324012 Y28.029090 Z-0.125000
G01 X58.267003 Y27.322389 Z-0.125000
G01 X57.209729 Y26.615688 Z-0.125000
G01 X56.152720 Y25.908987 Z-0.125000
G01 X55.095446 Y25.202021 Z-0.125000
G01 X54.038437 Y24.495320 Z-0.125000
G01 X52.981428 Y23.788619 Z-0.125000
G01 X51.924155 Y23.081917 Z-0.125000
G01 X50.867146 Y22.374952 Z-0.125000
G01 X49.809872 Y21.668250 Z-0.125000
G01 X48.752863 Y20.961549 Z-0.125000
G01 X47.695589 Y20.254848 Z-0.125000
G01 X46.404424 Y20.409100 Z-0.125000
G01 X45.113259 Y20.563616 Z-0.125000
G01 X43.821829 Y20.717868 Z-0.125000
G01 X42.530664 Y20.872385 Z-0.125000
G01 X41.239499 Y21.026637 Z-0.125000
G01 X39.948070 Y21.180889 Z-0.125000
G01 X38.656905 Y21.335405 Z-0.125000
G01 X37.365740 Y21.489657 Z-0.125000
G01 X36.074310 Y21.644173 Z-0.125000
G01 X34.783145 Y21.798425 Z-0.125000
G01 X33.491980 Y21.952942 Z-0.125000
G01 X32.799831 Y22.235252 Z-0.125000
G01 X32.107946 Y22.517297 Z-0.125000
G01 X31.415797 Y22.799607 Z-0.125000
G01 X30.723913 Y23.081917 Z-0.125000
G01 X30.031763 Y23.364227 Z-0.125000
G01 X29.339879 Y23.646538 Z-0.125000
G01 X28.647994 Y23.928583 Z-0.125000
G01 X27.955845 Y24.210893 Z-0.125000
G01 X27.263961 Y24.493203 Z-0.125000
G01 X26.571812 Y24.775513 Z-0.125000
G01 X25.879927 Y25.057559 Z-0.125000
G01 X24.735341 Y25.100157 Z-0.125000
G01 X23.591019 Y25.142754 Z-0.125000
G01 X22.446433 Y25.185352 Z-0.125000
G01 X21.302112 Y25.227950 Z-0.125000
G01 X20.157790 Y25.270548 Z-0.125000
G01 X19.013204 Y25.313410 Z-0.125000
G01 X17.868883 Y25.355744 Z-0.125000
G01 X16.724297 Y25.398342 Z-0.125000
G01 X15.579975 Y25.440939 Z-0.125000
G01 X14.435389 Y25.483537 Z-0.125000
G01 X13.291068 Y25.526135 Z-0.125000
G00 Z10.000000

(End cutting path id: path2254)


(Start cutting path id: path2256)
(Change tool to Default tool)

G00 Z10.000000
G00 X13.384730 Y26.442915

G00 Z4.875000 (Fast pre-penetrate)
G01 Z-0.125000 F100.0(Penetrate)
G01 X14.568475 Y26.392909 Z-0.125000 F800.000000
G01 X15.751954 Y26.342638 Z-0.125000
G01 X16.935699 Y26.292368 Z-0.125000
G01 X18.119443 Y26.242361 Z-0.125000
G01 X19.303187 Y26.192091 Z-0.125000
G01 X20.486667 Y26.141820 Z-0.125000
G01 X21.670411 Y26.091814 Z-0.125000
G01 X22.854156 Y26.041543 Z-0.125000
G01 X24.037636 Y25.991272 Z-0.125000
G01 X25.221380 Y25.941266 Z-0.125000
G01 X26.405124 Y25.890995 Z-0.125000
G01 X27.083250 Y25.635673 Z-0.125000
G01 X27.761641 Y25.380085 Z-0.125000
G01 X28.439768 Y25.124498 Z-0.125000
G01 X29.118158 Y24.868911 Z-0.125000
G01 X29.796285 Y24.613588 Z-0.125000
G01 X30.474675 Y24.358001 Z-0.125000
G01 X31.152802 Y24.102679 Z-0.125000
G01 X31.830928 Y23.847091 Z-0.125000
G01 X32.509319 Y23.591504 Z-0.125000
G01 X33.187445 Y23.336182 Z-0.125000
G01 X33.865836 Y23.080595 Z-0.125000
G01 X35.090061 Y22.938513 Z-0.125000
G01 X36.314551 Y22.796432 Z-0.125000
G01 X37.538777 Y22.654616 Z-0.125000
G01 X38.763267 Y22.512535 Z-0.125000
G01 X39.987493 Y22.370454 Z-0.125000
G01 X41.211983 Y22.228637 Z-0.125000
G01 X42.436208 Y22.086556 Z-0.125000
G01 X43.660698 Y21.944475 Z-0.125000
G01 X44.884924 Y21.802659 Z-0.125000
G01 X46.109414 Y21.660578 Z-0.125000
G01 X47.333640 Y21.518496 Z-0.125000
G01 X48.423192 Y22.194241 Z-0.125000
G01 X49.512745 Y22.869722 Z-0.125000
G01 X50.602298 Y23.545467 Z-0.125000
G01 X51.691851 Y24.220947 Z-0.125000
G01 X52.781404 Y24.896692 Z-0.125000
G01 X53.870956 Y25.572173 Z-0.125000
G01 X54.960509 Y26.247918 Z-0.125000
G01 X56.050062 Y26.923663 Z-0.125000
G01 X57.139615 Y27.599143 Z-0.125000
G01 X58.229167 Y28.274888 Z-0.125000
G01 X59.318720 Y28.950368 Z-0.125000
G01 X60.493733 Y28.585508 Z-0.125000
G01 X61.668746 Y28.220384 Z-0.125000
G01 X62.844024 Y27.855524 Z-0.125000
G01 X64.019037 Y27.490399 Z-0.125000
G01 X65.194050 Y27.125539 Z-0.125000
G01 X66.369063 Y26.760415 Z-0.125000
G01 X67.544077 Y26.395290 Z-0.125000
G01 X68.719090 Y26.030430 Z-0.125000
G01 X69.894103 Y25.665306 Z-0.125000
G01 X71.069380 Y25.300446 Z-0.125000
G01 X72.244394 Y24.935321 Z-0.125000
G01 X72.831768 Y25.081636 Z-0.125000
G01 X73.419142 Y25.227686 Z-0.125000
G01 X74.006781 Y25.374000 Z-0.125000
G01 X74.594155 Y25.520050 Z-0.125000
G01 X75.181794 Y25.666364 Z-0.125000
G01 X75.769168 Y25.812414 Z-0.125000
G01 X76.356807 Y25.958728 Z-0.125000
G01 X76.944181 Y26.104778 Z-0.125000
G01 X77.531556 Y26.251093 Z-0.125000
G01 X78.119195 Y26.397142 Z-0.125000
G01 X78.706569 Y26.543457 Z-0.125000
G01 X80.031600 Y26.327822 Z-0.125000
G01 X81.356897 Y26.112187 Z-0.125000
G01 X82.681928 Y25.896816 Z-0.125000
G01 X84.006960 Y25.681181 Z-0.125000
G01 X85.332256 Y25.465546 Z-0.125000
G01 X86.657288 Y25.250175 Z-0.125000
G01 X87.982320 Y25.034540 Z-0.125000
G01 X89.307351 Y24.818905 Z-0.125000
G01 X90.632647 Y24.603534 Z-0.125000
G01 X91.957679 Y24.387899 Z-0.125000
G01 X93.282711 Y24.172264 Z-0.125000
G01 X94.129906 Y24.219095 Z-0.125000
G01 X94.977100 Y24.266191 Z-0.125000
G01 X95.824295 Y24.313022 Z-0.125000
G01 X96.671490 Y24.359853 Z-0.125000
G01 X97.518420 Y24.406685 Z-0.125000
G01 X98.365615 Y24.453780 Z-0.125000
G01 X99.212810 Y24.500611 Z-0.125000
G01 X100.060004 Y24.547443 Z-0.125000
G01 X100.907199 Y24.594274 Z-0.125000
G01 X101.754394 Y24.641370 Z-0.125000
G01 X102.601324 Y24.688201 Z-0.125000
G01 X103.790889 Y24.711484 Z-0.125000
G01 X104.980454 Y24.734503 Z-0.125000
G01 X106.170020 Y24.757786 Z-0.125000
G01 X107.359320 Y24.781069 Z-0.125000
G01 X108.548885 Y24.804353 Z-0.125000
G01 X109.738451 Y24.827371 Z-0.125000
G01 X110.928016 Y24.850655 Z-0.125000
G01 X112.117316 Y24.873938 Z-0.125000
G01 X113.306881 Y24.897221 Z-0.125000
G01 X114.496447 Y24.920240 Z-0.125000
G01 X115.686012 Y24.943523 Z-0.125000
G00 Z10.000000

(End cutting path id: path2256)


(Start cutting path id: path2454)
(Change tool to Default tool)

G00 Z10.000000
G00 X113.811441 Y25.744945

G00 Z4.875000 (Fast pre-penetrate)
G01 Z-0.125000 F100.0(Penetrate)
G01 X112.605207 Y25.744945 Z-0.125000 F800.000000
G00 Z10.000000

(End cutting path id: path2454)


(Start cutting path id: path2260)
(Change tool to Default tool)

G00 Z10.000000
G00 X112.605207 Y25.744945

G00 Z4.875000 (Fast pre-penetrate)
G01 Z-0.125000 F100.0(Penetrate)
G01 X111.398973 Y25.745210 Z-0.125000 F800.000000
G01 X110.193004 Y25.745474 Z-0.125000
G01 X108.986770 Y25.745739 Z-0.125000
G01 X107.780536 Y25.746004 Z-0.125000
G01 X106.574567 Y25.746268 Z-0.125000
G01 X105.368333 Y25.746533 Z-0.125000
G01 X104.162364 Y25.746533 Z-0.125000
G01 X102.956130 Y25.746797 Z-0.125000
G01 X102.095441 Y25.707639 Z-0.125000
G01 X101.234753 Y25.668481 Z-0.125000
G01 X100.374064 Y25.629323 Z-0.125000
G01 X99.513376 Y25.590164 Z-0.125000
G01 X98.652687 Y25.551271 Z-0.125000
G01 X97.792263 Y25.512112 Z-0.125000
G01 X96.931575 Y25.472954 Z-0.125000
G01 X96.070886 Y25.433796 Z-0.125000
G01 X95.210198 Y25.394637 Z-0.125000
G01 X94.349509 Y25.355479 Z-0.125000
G01 X93.488821 Y25.316321 Z-0.125000
G01 X92.195539 Y25.543333 Z-0.125000
G01 X90.902258 Y25.770081 Z-0.125000
G01 X89.608976 Y25.997093 Z-0.125000
G01 X88.315959 Y26.224105 Z-0.125000
G01 X87.022677 Y26.451117 Z-0.125000
G01 X85.729395 Y26.677865 Z-0.125000
G01 X84.436114 Y26.904877 Z-0.125000
G01 X83.142832 Y27.131889 Z-0.125000
G01 X81.849550 Y27.358902 Z-0.125000
G01 X80.556269 Y27.585914 Z-0.125000
G01 X79.262987 Y27.812661 Z-0.125000
G01 X78.613171 Y27.602318 Z-0.125000
G01 X77.963355 Y27.391974 Z-0.125000
G01 X77.313539 Y27.181631 Z-0.125000
G01 X76.663723 Y26.971288 Z-0.125000
G01 X76.013908 Y26.760944 Z-0.125000
G01 X75.364092 Y26.550601 Z-0.125000
G01 X74.714276 Y26.340257 Z-0.125000
G01 X74.064460 Y26.129649 Z-0.125000
G01 X73.414380 Y25.919306 Z-0.125000
G01 X72.764564 Y25.708962 Z-0.125000
G01 X72.114748 Y25.498619 Z-0.125000
G01 X70.951112 Y25.896287 Z-0.125000
G01 X69.787211 Y26.293690 Z-0.125000
G01 X68.623575 Y26.691359 Z-0.125000
G01 X67.459675 Y27.088762 Z-0.125000
G01 X66.296039 Y27.486431 Z-0.125000
G01 X65.132403 Y27.883834 Z-0.125000
G01 X63.968502 Y28.281503 Z-0.125000
G01 X62.804866 Y28.678906 Z-0.125000
G01 X61.640965 Y29.076574 Z-0.125000
G01 X60.477329 Y29.473978 Z-0.125000
G01 X59.313429 Y29.871646 Z-0.125000
G01 X58.191597 Y29.227122 Z-0.125000
G01 X57.069500 Y28.582598 Z-0.125000
G01 X55.947404 Y27.938074 Z-0.125000
G01 X54.825572 Y27.293550 Z-0.125000
G01 X53.703475 Y26.649290 Z-0.125000
G01 X52.581643 Y26.004766 Z-0.125000
G01 X51.459547 Y25.360242 Z-0.125000
G01 X50.337715 Y24.715717 Z-0.125000
G01 X49.215618 Y24.071193 Z-0.125000
G01 X48.093522 Y23.426934 Z-0.125000
G01 X46.971690 Y22.782409 Z-0.125000
G01 X45.814139 Y22.912055 Z-0.125000
G01 X44.656853 Y23.041701 Z-0.125000
G01 X43.499303 Y23.171346 Z-0.125000
G01 X42.341752 Y23.300728 Z-0.125000
G01 X41.184466 Y23.430373 Z-0.125000
G01 X40.026915 Y23.560019 Z-0.125000
G01 X38.869365 Y23.689665 Z-0.125000
G01 X37.712079 Y23.819310 Z-0.125000
G01 X36.554528 Y23.948956 Z-0.125000
G01 X35.397242 Y24.078602 Z-0.125000
G01 X34.239691 Y24.208247 Z-0.125000
G01 X33.575324 Y24.436847 Z-0.125000
G01 X32.910691 Y24.665711 Z-0.125000
G01 X32.246323 Y24.894576 Z-0.125000
G01 X31.581691 Y25.123175 Z-0.125000
G01 X30.917323 Y25.352040 Z-0.125000
G01 X30.252690 Y25.580639 Z-0.125000
G01 X29.588322 Y25.809504 Z-0.125000
G01 X28.923690 Y26.038103 Z-0.125000
G01 X28.259322 Y26.266968 Z-0.125000
G01 X27.594954 Y26.495567 Z-0.125000
G01 X26.930321 Y26.724432 Z-0.125000
G01 X25.707419 Y26.782111 Z-0.125000
G01 X24.484516 Y26.839790 Z-0.125000
G01 X23.261614 Y26.897733 Z-0.125000
G01 X22.038711 Y26.955413 Z-0.125000
G01 X20.815808 Y27.013092 Z-0.125000
G01 X19.592906 Y27.071035 Z-0.125000
G01 X18.370003 Y27.128714 Z-0.125000
G01 X17.147100 Y27.186393 Z-0.125000
G01 X15.924198 Y27.244337 Z-0.125000
G01 X14.701295 Y27.302016 Z-0.125000
G01 X13.478393 Y27.359695 Z-0.125000
G00 Z10.000000

(End cutting path id: path2260)


(Start cutting path id: path2262)
(Change tool to Default tool)

G00 Z10.000000
G00 X13.572055 Y28.276475

G00 Z4.875000 (Fast pre-penetrate)
G01 Z-0.125000 F100.0(Penetrate)
G01 X14.834380 Y28.211123 Z-0.125000 F800.000000
G01 X16.096441 Y28.145771 Z-0.125000
G01 X17.358502 Y28.080419 Z-0.125000
G01 X18.620563 Y28.015067 Z-0.125000
G01 X19.882889 Y27.949715 Z-0.125000
G01 X21.144950 Y27.884363 Z-0.125000
G01 X22.407011 Y27.819011 Z-0.125000
G01 X23.669071 Y27.753659 Z-0.125000
G01 X24.931397 Y27.688307 Z-0.125000
G01 X26.193458 Y27.623220 Z-0.125000
G01 X27.455519 Y27.557868 Z-0.125000
G01 X28.106393 Y27.355727 Z-0.125000
G01 X28.757003 Y27.153850 Z-0.125000
G01 X29.407877 Y26.951708 Z-0.125000
G01 X30.058486 Y26.749832 Z-0.125000
G01 X30.709096 Y26.547955 Z-0.125000
G01 X31.359970 Y26.345813 Z-0.125000
G01 X32.010580 Y26.143936 Z-0.125000
G01 X32.661454 Y25.941795 Z-0.125000
G01 X33.312063 Y25.739918 Z-0.125000
G01 X33.962938 Y25.538041 Z-0.125000
G01 X34.613547 Y25.335900 Z-0.125000
G01 X35.704158 Y25.218690 Z-0.125000
G01 X36.794769 Y25.101479 Z-0.125000
G01 X37.885116 Y24.984269 Z-0.125000
G01 X38.975727 Y24.866794 Z-0.125000
G01 X40.066338 Y24.749584 Z-0.125000
G01 X41.156949 Y24.632374 Z-0.125000
G01 X42.247296 Y24.515164 Z-0.125000
G01 X43.337907 Y24.397953 Z-0.125000
G01 X44.428518 Y24.280743 Z-0.125000
G01 X45.519129 Y24.163268 Z-0.125000
G01 X46.609476 Y24.046058 Z-0.125000
G01 X47.764116 Y24.659361 Z-0.125000
G01 X48.918492 Y25.272929 Z-0.125000
G01 X50.072867 Y25.886233 Z-0.125000
G01 X51.227243 Y26.499536 Z-0.125000
G01 X52.381619 Y27.112839 Z-0.125000
G01 X53.535994 Y27.726143 Z-0.125000
G01 X54.690634 Y28.339446 Z-0.125000
G01 X55.845010 Y28.952750 Z-0.125000
G01 X56.999386 Y29.566053 Z-0.125000
G01 X58.153761 Y30.179356 Z-0.125000
G01 X59.308137 Y30.792660 Z-0.125000
G01 X60.460661 Y30.362712 Z-0.125000
G01 X61.613184 Y29.932500 Z-0.125000
G01 X62.765708 Y29.502553 Z-0.125000
G01 X63.917967 Y29.072341 Z-0.125000
G01 X65.070490 Y28.642394 Z-0.125000
G01 X66.223014 Y28.212182 Z-0.125000
G01 X67.375537 Y27.782234 Z-0.125000
G01 X68.528061 Y27.352022 Z-0.125000
G01 X69.680320 Y26.922075 Z-0.125000
G01 X70.832843 Y26.491863 Z-0.125000
G01 X71.985367 Y26.061916 Z-0.125000
G01 X72.697624 Y26.336553 Z-0.125000
G01 X73.409617 Y26.610925 Z-0.125000
G01 X74.121875 Y26.885563 Z-0.125000
G01 X74.834132 Y27.160200 Z-0.125000
G01 X75.546389 Y27.434572 Z-0.125000
G01 X76.258382 Y27.709210 Z-0.125000
G01 X76.970640 Y27.983847 Z-0.125000
G01 X77.682897 Y28.258484 Z-0.125000
G01 X78.395155 Y28.532856 Z-0.125000
G01 X79.107147 Y28.807494 Z-0.125000
G01 X79.819405 Y29.082131 Z-0.125000
G01 X81.080937 Y28.843741 Z-0.125000
G01 X82.342204 Y28.605352 Z-0.125000
G01 X83.603736 Y28.366963 Z-0.125000
G01 X84.865003 Y28.128574 Z-0.125000
G01 X86.126534 Y27.890449 Z-0.125000
G01 X87.387802 Y27.652060 Z-0.125000
G01 X88.649333 Y27.413670 Z-0.125000
G01 X89.910600 Y27.175281 Z-0.125000
G01 X91.172132 Y26.936892 Z-0.125000
G01 X92.433664 Y26.698502 Z-0.125000
G01 X93.694931 Y26.460378 Z-0.125000
G01 X94.569113 Y26.491599 Z-0.125000
G01 X95.443296 Y26.523084 Z-0.125000
G01 X96.317478 Y26.554305 Z-0.125000
G01 X97.191660 Y26.585790 Z-0.125000
G01 X98.065842 Y26.617275 Z-0.125000
G01 X98.940025 Y26.648496 Z-0.125000
G01 X99.814207 Y26.679982 Z-0.125000
G01 X100.688124 Y26.711467 Z-0.125000
G01 X101.562307 Y26.742688 Z-0.125000
G01 X102.436489 Y26.774173 Z-0.125000
G01 X103.310671 Y26.805659 Z-0.125000
G01 X104.533574 Y26.781846 Z-0.125000
G01 X105.756212 Y26.758298 Z-0.125000
G01 X106.979114 Y26.734486 Z-0.125000
G01 X108.201752 Y26.710938 Z-0.125000
G01 X109.424655 Y26.687125 Z-0.125000
G01 X110.647558 Y26.663577 Z-0.125000
G01 X111.870196 Y26.640030 Z-0.125000
G01 X113.093098 Y26.616217 Z-0.125000
G01 X114.315736 Y26.592669 Z-0.125000
G01 X115.538639 Y26.568857 Z-0.125000
G01 X116.761277 Y26.545309 Z-0.125000
G00 Z10.000000

(End cutting path id: path2262)


(Start cutting path id: path2264)
(Change tool to Default tool)

G00 Z10.000000
G00 X117.299174 Y27.346202

G00 Z4.875000 (Fast pre-penetrate)
G01 Z-0.125000 F100.0(Penetrate)
G01 X116.059603 Y27.393297 Z-0.125000 F800.000000
G01 X114.820296 Y27.440393 Z-0.125000
G01 X113.580725 Y27.487489 Z-0.125000
G01 X112.341418 Y27.534585 Z-0.125000
G01 X111.101847 Y27.581681 Z-0.125000
G01 X109.862540 Y27.628776 Z-0.125000
G01 X108.623233 Y27.675872 Z-0.125000
G01 X107.383662 Y27.722968 Z-0.125000
G01 X106.144355 Y27.770064 Z-0.125000
G01 X104.904784 Y27.817159 Z-0.125000
G01 X103.665477 Y27.864255 Z-0.125000
G01 X102.777801 Y27.840707 Z-0.125000
G01 X101.890125 Y27.816895 Z-0.125000
G01 X101.002449 Y27.793347 Z-0.125000
G01 X100.114773 Y27.769799 Z-0.125000
G01 X99.227097 Y27.745987 Z-0.125000
G01 X98.339421 Y27.722439 Z-0.125000
G01 X97.451745 Y27.698891 Z-0.125000
G01 X96.564069 Y27.675078 Z-0.125000
G01 X95.676393 Y27.651530 Z-0.125000
G01 X94.788717 Y27.627983 Z-0.125000
G01 X93.901041 Y27.604170 Z-0.125000
G01 X92.671524 Y27.853936 Z-0.125000
G01 X91.442007 Y28.103703 Z-0.125000
G01 X90.212490 Y28.353469 Z-0.125000
G01 X88.982708 Y28.603235 Z-0.125000
G01 X87.753191 Y28.853002 Z-0.125000
G01 X86.523673 Y29.102768 Z-0.125000
G01 X85.294156 Y29.352535 Z-0.125000
G01 X84.064639 Y29.602301 Z-0.125000
G01 X82.835122 Y29.851803 Z-0.125000
G01 X81.605340 Y30.101569 Z-0.125000
G01 X80.375823 Y30.351335 Z-0.125000
G01 X79.601388 Y30.012669 Z-0.125000
G01 X78.826689 Y29.674003 Z-0.125000
G01 X78.052255 Y29.335072 Z-0.125000
G01 X77.277821 Y28.996406 Z-0.125000
G01 X76.503122 Y28.657740 Z-0.125000
G01 X75.728687 Y28.318809 Z-0.125000
G01 X74.953988 Y27.980142 Z-0.125000
G01 X74.179554 Y27.641476 Z-0.125000
G01 X73.404855 Y27.302545 Z-0.125000
G01 X72.630420 Y26.963879 Z-0.125000
G01 X71.855986 Y26.625213 Z-0.125000
G01 X70.714575 Y27.087704 Z-0.125000
G01 X69.573428 Y27.550460 Z-0.125000
G01 X68.432282 Y28.012951 Z-0.125000
G01 X67.291135 Y28.475706 Z-0.125000
G01 X66.149989 Y28.938198 Z-0.125000
G01 X65.008842 Y29.400689 Z-0.125000
G01 X63.867696 Y29.863444 Z-0.125000
G01 X62.726549 Y30.325935 Z-0.125000
G01 X61.585403 Y30.788691 Z-0.125000
G01 X60.443992 Y31.251182 Z-0.125000
G01 X59.302845 Y31.713938 Z-0.125000
G01 X58.116191 Y31.131855 Z-0.125000
G01 X56.929271 Y30.549508 Z-0.125000
G01 X55.742352 Y29.967425 Z-0.125000
G01 X54.555433 Y29.385343 Z-0.125000
G01 X53.368778 Y28.802996 Z-0.125000
G01 X52.181858 Y28.220913 Z-0.125000
G01 X50.994939 Y27.638566 Z-0.125000
G01 X49.808020 Y27.056483 Z-0.125000
G01 X48.621365 Y26.474401 Z-0.125000
G01 X47.434446 Y25.892053 Z-0.125000
G01 X46.247526 Y25.309971 Z-0.125000
G01 X45.223855 Y25.414746 Z-0.125000
G01 X44.200183 Y25.519785 Z-0.125000
G01 X43.176511 Y25.624560 Z-0.125000
G01 X42.153104 Y25.729335 Z-0.125000
G01 X41.129433 Y25.834374 Z-0.125000
G01 X40.105761 Y25.939149 Z-0.125000
G01 X39.082090 Y26.044189 Z-0.125000
G01 X38.058418 Y26.148964 Z-0.125000
G01 X37.034746 Y26.253738 Z-0.125000
G01 X36.011075 Y26.358778 Z-0.125000
G01 X34.987403 Y26.463553 Z-0.125000
G01 X34.350552 Y26.638971 Z-0.125000
G01 X33.713436 Y26.814125 Z-0.125000
G01 X33.076585 Y26.989279 Z-0.125000
G01 X32.439733 Y27.164433 Z-0.125000
G01 X31.802617 Y27.339852 Z-0.125000
G01 X31.165766 Y27.515006 Z-0.125000
G01 X30.528650 Y27.690160 Z-0.125000
G01 X29.891799 Y27.865313 Z-0.125000
G01 X29.254683 Y28.040732 Z-0.125000
G01 X28.617832 Y28.215886 Z-0.125000
G01 X27.980716 Y28.391040 Z-0.125000
G01 X26.679497 Y28.464065 Z-0.125000
G01 X25.378013 Y28.536825 Z-0.125000
G01 X24.076794 Y28.609850 Z-0.125000
G01 X22.775310 Y28.682875 Z-0.125000
G01 X21.474091 Y28.755635 Z-0.125000
G01 X20.172607 Y28.828660 Z-0.125000
G01 X18.871388 Y28.901421 Z-0.125000
G01 X17.569904 Y28.974445 Z-0.125000
G01 X16.268685 Y29.047470 Z-0.125000
G01 X14.967201 Y29.120231 Z-0.125000
G01 X13.665982 Y29.193256 Z-0.125000
G00 Z10.000000

(End cutting path id: path2264)


(Start cutting path id: path2266)
(Change tool to Default tool)

G00 Z10.000000
G00 X13.759644 Y30.110036

G00 Z4.875000 (Fast pre-penetrate)
G01 Z-0.125000 F100.0(Penetrate)
G01 X15.100286 Y30.029338 Z-0.125000 F800.000000
G01 X16.440664 Y29.948905 Z-0.125000
G01 X17.781306 Y29.868471 Z-0.125000
G01 X19.121948 Y29.788038 Z-0.125000
G01 X20.462590 Y29.707340 Z-0.125000
G01 X21.803232 Y29.626907 Z-0.125000
G01 X23.143610 Y29.546474 Z-0.125000
G01 X24.484252 Y29.466041 Z-0.125000
G01 X25.824894 Y29.385343 Z-0.125000
G01 X27.165536 Y29.304910 Z-0.125000
G01 X28.505913 Y29.224476 Z-0.125000
G01 X29.129271 Y29.076045 Z-0.125000
G01 X29.752364 Y28.927614 Z-0.125000
G01 X30.375721 Y28.779183 Z-0.125000
G01 X30.998814 Y28.630488 Z-0.125000
G01 X31.622172 Y28.482056 Z-0.125000
G01 X32.245265 Y28.333625 Z-0.125000
G01 X32.868622 Y28.185194 Z-0.125000
G01 X33.491715 Y28.036763 Z-0.125000
G01 X34.115073 Y27.888332 Z-0.125000
G01 X34.738166 Y27.739901 Z-0.125000
G01 X35.361523 Y27.591205 Z-0.125000
G01 X36.318256 Y27.498866 Z-0.125000
G01 X37.274988 Y27.406262 Z-0.125000
G01 X38.231720 Y27.313658 Z-0.125000
G01 X39.188452 Y27.221318 Z-0.125000
G01 X40.145184 Y27.128714 Z-0.125000
G01 X41.101916 Y27.036375 Z-0.125000
G01 X42.058648 Y26.943771 Z-0.125000
G01 X43.015380 Y26.851167 Z-0.125000
G01 X43.972113 Y26.758827 Z-0.125000
G01 X44.928845 Y26.666223 Z-0.125000
G01 X45.885577 Y26.573619 Z-0.125000
G01 X47.104775 Y27.124746 Z-0.125000
G01 X48.324238 Y27.675872 Z-0.125000
G01 X49.543437 Y28.226734 Z-0.125000
G01 X50.762635 Y28.777860 Z-0.125000
G01 X51.981834 Y29.328987 Z-0.125000
G01 X53.201297 Y29.879848 Z-0.125000
G01 X54.420495 Y30.430975 Z-0.125000
G01 X55.639694 Y30.982101 Z-0.125000
G01 X56.859157 Y31.532963 Z-0.125000
G01 X58.078355 Y32.084089 Z-0.125000
G01 X59.297554 Y32.635216 Z-0.125000
G01 X60.427588 Y32.139916 Z-0.125000
G01 X61.557357 Y31.644882 Z-0.125000
G01 X62.687391 Y31.149582 Z-0.125000
G01 X63.817160 Y30.654547 Z-0.125000
G01 X64.947194 Y30.159248 Z-0.125000
G01 X66.076964 Y29.664213 Z-0.125000
G01 X67.206733 Y29.168914 Z-0.125000
G01 X68.336767 Y28.673879 Z-0.125000
G01 X69.466537 Y28.178580 Z-0.125000
G01 X70.596571 Y27.683545 Z-0.125000
G01 X71.726340 Y27.188246 Z-0.125000
G01 X72.563216 Y27.591205 Z-0.125000
G01 X73.400092 Y27.994165 Z-0.125000
G01 X74.236968 Y28.397125 Z-0.125000
G01 X75.074109 Y28.800085 Z-0.125000
G01 X75.910985 Y29.203045 Z-0.125000
G01 X76.747861 Y29.606005 Z-0.125000
G01 X77.584737 Y30.008965 Z-0.125000
G01 X78.421613 Y30.411925 Z-0.125000
G01 X79.258489 Y30.814885 Z-0.125000
G01 X80.095365 Y31.217845 Z-0.125000
G01 X80.932241 Y31.620805 Z-0.125000
G01 X82.130008 Y31.359661 Z-0.125000
G01 X83.327775 Y31.098518 Z-0.125000
G01 X84.525543 Y30.837374 Z-0.125000
G01 X85.723045 Y30.576231 Z-0.125000
G01 X86.920813 Y30.315087 Z-0.125000
G01 X88.118580 Y30.053944 Z-0.125000
G01 X89.316347 Y29.792801 Z-0.125000
G01 X90.514114 Y29.531657 Z-0.125000
G01 X91.711617 Y29.270514 Z-0.125000
G01 X92.909384 Y29.009370 Z-0.125000
G01 X94.107151 Y28.748227 Z-0.125000
G01 X95.008321 Y28.764102 Z-0.125000
G01 X95.909491 Y28.779977 Z-0.125000
G01 X96.810661 Y28.795852 Z-0.125000
G01 X97.711830 Y28.811727 Z-0.125000
G01 X98.613000 Y28.827602 Z-0.125000
G01 X99.514170 Y28.843477 Z-0.125000
G01 X100.415339 Y28.859352 Z-0.125000
G01 X101.316509 Y28.875227 Z-0.125000
G01 X102.217679 Y28.891102 Z-0.125000
G01 X103.118848 Y28.906977 Z-0.125000
G01 X104.020018 Y28.922852 Z-0.125000
G01 X105.275994 Y28.852473 Z-0.125000
G01 X106.532234 Y28.781829 Z-0.125000
G01 X107.788209 Y28.711185 Z-0.125000
G01 X109.044449 Y28.640806 Z-0.125000
G01 X110.300425 Y28.570163 Z-0.125000
G01 X111.556400 Y28.499784 Z-0.125000
G01 X112.812640 Y28.429140 Z-0.125000
G01 X114.068616 Y28.358496 Z-0.125000
G01 X115.324591 Y28.288117 Z-0.125000
G01 X116.580831 Y28.217473 Z-0.125000
G01 X117.836807 Y28.147094 Z-0.125000
G00 Z10.000000

(End cutting path id: path2266)


(Start cutting path id: path2268)
(Change tool to Default tool)

G00 Z10.000000
G00 X118.374440 Y28.947987

G00 Z4.875000 (Fast pre-penetrate)
G01 Z-0.125000 F100.0(Penetrate)
G01 X117.101795 Y29.041914 Z-0.125000 F800.000000
G01 X115.829151 Y29.135841 Z-0.125000
G01 X114.556507 Y29.229768 Z-0.125000
G01 X113.283598 Y29.323695 Z-0.125000
G01 X112.010954 Y29.417622 Z-0.125000
G01 X110.738310 Y29.511813 Z-0.125000
G01 X109.465665 Y29.605740 Z-0.125000
G01 X108.192757 Y29.699667 Z-0.125000
G01 X106.920112 Y29.793594 Z-0.125000
G01 X105.647468 Y29.887521 Z-0.125000
G01 X104.374824 Y29.981448 Z-0.125000
G01 X103.459896 Y29.973511 Z-0.125000
G01 X102.545232 Y29.965309 Z-0.125000
G01 X101.630569 Y29.957107 Z-0.125000
G01 X100.715906 Y29.949169 Z-0.125000
G01 X99.801242 Y29.940967 Z-0.125000
G01 X98.886579 Y29.932765 Z-0.125000
G01 X97.971915 Y29.924828 Z-0.125000
G01 X97.057252 Y29.916625 Z-0.125000
G01 X96.142588 Y29.908423 Z-0.125000
G01 X95.227925 Y29.900221 Z-0.125000
G01 X94.313262 Y29.892284 Z-0.125000
G01 X93.147244 Y30.164804 Z-0.125000
G01 X91.981492 Y30.437325 Z-0.125000
G01 X90.815739 Y30.709845 Z-0.125000
G01 X89.649722 Y30.982366 Z-0.125000
G01 X88.483969 Y31.254886 Z-0.125000
G01 X87.317952 Y31.527407 Z-0.125000
G01 X86.152199 Y31.799927 Z-0.125000
G01 X84.986446 Y32.072448 Z-0.125000
G01 X83.820429 Y32.344968 Z-0.125000
G01 X82.654676 Y32.617489 Z-0.125000
G01 X81.488659 Y32.890009 Z-0.125000
G01 X80.589606 Y32.423020 Z-0.125000
G01 X79.690288 Y31.955767 Z-0.125000
G01 X78.790971 Y31.488513 Z-0.125000
G01 X77.891653 Y31.021524 Z-0.125000
G01 X76.992336 Y30.554271 Z-0.125000
G01 X76.093282 Y30.087282 Z-0.125000
G01 X75.193965 Y29.620028 Z-0.125000
G01 X74.294647 Y29.153039 Z-0.125000
G01 X73.395330 Y28.685785 Z-0.125000
G01 X72.496277 Y28.218796 Z-0.125000
G01 X71.596959 Y27.751543 Z-0.125000
G01 X70.478302 Y28.279121 Z-0.125000
G01 X69.359645 Y28.806964 Z-0.125000
G01 X68.241253 Y29.334543 Z-0.125000
G01 X67.122596 Y29.862386 Z-0.125000
G01 X66.003939 Y30.389964 Z-0.125000
G01 X64.885282 Y30.917808 Z-0.125000
G01 X63.766625 Y31.445386 Z-0.125000
G01 X62.648233 Y31.973229 Z-0.125000
G01 X61.529576 Y32.500808 Z-0.125000
G01 X60.410919 Y33.028651 Z-0.125000
G01 X59.292262 Y33.556229 Z-0.125000
G01 X58.040520 Y33.036324 Z-0.125000
G01 X56.789042 Y32.516418 Z-0.125000
G01 X55.537300 Y31.996512 Z-0.125000
G01 X54.285558 Y31.476607 Z-0.125000
G01 X53.033816 Y30.956966 Z-0.125000
G01 X51.782074 Y30.437060 Z-0.125000
G01 X50.530331 Y29.917155 Z-0.125000
G01 X49.278589 Y29.397249 Z-0.125000
G01 X48.026847 Y28.877343 Z-0.125000
G01 X46.775105 Y28.357438 Z-0.125000
G01 X45.523627 Y27.837532 Z-0.125000
G01 X44.633570 Y27.917701 Z-0.125000
G01 X43.743777 Y27.997870 Z-0.125000
G01 X42.853985 Y28.078038 Z-0.125000
G01 X41.964192 Y28.157942 Z-0.125000
G01 X41.074400 Y28.238111 Z-0.125000
G01 X40.184607 Y28.318280 Z-0.125000
G01 X39.294550 Y28.398448 Z-0.125000
G01 X38.404757 Y28.478617 Z-0.125000
G01 X37.514964 Y28.558786 Z-0.125000
G01 X36.625172 Y28.638954 Z-0.125000
G01 X35.735379 Y28.719123 Z-0.125000
G01 X35.125780 Y28.840831 Z-0.125000
G01 X34.516445 Y28.962539 Z-0.125000
G01 X33.906846 Y29.084247 Z-0.125000
G01 X33.297511 Y29.205956 Z-0.125000
G01 X32.687912 Y29.327664 Z-0.125000
G01 X32.078578 Y29.449372 Z-0.125000
G01 X31.469243 Y29.571080 Z-0.125000
G01 X30.859644 Y29.692788 Z-0.125000
G01 X30.250309 Y29.814496 Z-0.125000
G01 X29.640710 Y29.936205 Z-0.125000
G01 X29.031375 Y30.057913 Z-0.125000
G01 X27.651575 Y30.146019 Z-0.125000
G01 X26.271774 Y30.233860 Z-0.125000
G01 X24.891709 Y30.321967 Z-0.125000
G01 X23.511909 Y30.410073 Z-0.125000
G01 X22.132109 Y30.498179 Z-0.125000
G01 X20.752308 Y30.586285 Z-0.125000
G01 X19.372508 Y30.674391 Z-0.125000
G01 X17.992708 Y30.762497 Z-0.125000
G01 X16.612907 Y30.850603 Z-0.125000
G01 X15.233107 Y30.938445 Z-0.125000
G01 X13.853307 Y31.026551 Z-0.125000
G00 Z10.000000

(End cutting path id: path2268)


(Start cutting path id: path2270)
(Change tool to Default tool)

G00 Z10.000000
G00 X13.946969 Y31.943331

G00 Z4.875000 (Fast pre-penetrate)
G01 Z-0.125000 F100.0(Penetrate)
G01 X15.366192 Y31.847817 Z-0.125000 F800.000000
G01 X16.785151 Y31.752038 Z-0.125000
G01 X18.204110 Y31.656523 Z-0.125000
G01 X19.623068 Y31.560744 Z-0.125000
G01 X21.042291 Y31.465230 Z-0.125000
G01 X22.461250 Y31.369451 Z-0.125000
G01 X23.880209 Y31.273936 Z-0.125000
G01 X25.299432 Y31.178157 Z-0.125000
G01 X26.718391 Y31.082378 Z-0.125000
G01 X28.137349 Y30.986864 Z-0.125000
G01 X29.556572 Y30.891085 Z-0.125000
G01 X30.152149 Y30.796364 Z-0.125000
G01 X30.747990 Y30.701379 Z-0.125000
G01 X31.343566 Y30.606393 Z-0.125000
G01 X31.939407 Y30.511408 Z-0.125000
G01 X32.534983 Y30.416423 Z-0.125000
G01 X33.130824 Y30.321437 Z-0.125000
G01 X33.726400 Y30.226452 Z-0.125000
G01 X34.322241 Y30.131467 Z-0.125000
G01 X34.917818 Y30.036482 Z-0.125000
G01 X35.513659 Y29.941761 Z-0.125000
G01 X36.109235 Y29.846776 Z-0.125000
G01 X36.932088 Y29.779042 Z-0.125000
G01 X37.755206 Y29.711044 Z-0.125000
G01 X38.578059 Y29.643311 Z-0.125000
G01 X39.400912 Y29.575578 Z-0.125000
G01 X40.223765 Y29.507845 Z-0.125000
G01 X41.046883 Y29.440111 Z-0.125000
G01 X41.869736 Y29.372378 Z-0.125000
G01 X42.692589 Y29.304645 Z-0.125000
G01 X43.515707 Y29.236912 Z-0.125000
G01 X44.338560 Y29.169179 Z-0.125000
G01 X45.161413 Y29.101445 Z-0.125000
G01 X46.445699 Y29.590130 Z-0.125000
G01 X47.729720 Y30.078815 Z-0.125000
G01 X49.014006 Y30.567500 Z-0.125000
G01 X50.298027 Y31.056184 Z-0.125000
G01 X51.582313 Y31.545134 Z-0.125000
G01 X52.866335 Y32.033819 Z-0.125000
G01 X54.150356 Y32.522503 Z-0.125000
G01 X55.434642 Y33.011188 Z-0.125000
G01 X56.718663 Y33.499873 Z-0.125000
G01 X58.002949 Y33.988822 Z-0.125000
G01 X59.286970 Y34.477507 Z-0.125000
G01 X60.394250 Y33.917120 Z-0.125000
G01 X61.501795 Y33.356998 Z-0.125000
G01 X62.609074 Y32.796611 Z-0.125000
G01 X63.716354 Y32.236489 Z-0.125000
G01 X64.823634 Y31.676367 Z-0.125000
G01 X65.930914 Y31.115980 Z-0.125000
G01 X67.038194 Y30.555858 Z-0.125000
G01 X68.145474 Y29.995471 Z-0.125000
G01 X69.252754 Y29.435349 Z-0.125000
G01 X70.360033 Y28.874962 Z-0.125000
G01 X71.467313 Y28.314840 Z-0.125000
G01 X72.429073 Y28.846123 Z-0.125000
G01 X73.390567 Y29.377405 Z-0.125000
G01 X74.352326 Y29.908688 Z-0.125000
G01 X75.313821 Y30.439971 Z-0.125000
G01 X76.275580 Y30.971518 Z-0.125000
G01 X77.237075 Y31.502801 Z-0.125000
G01 X78.198834 Y32.034083 Z-0.125000
G01 X79.160329 Y32.565366 Z-0.125000
G01 X80.122088 Y33.096649 Z-0.125000
G01 X81.083582 Y33.627931 Z-0.125000
G01 X82.045077 Y34.159478 Z-0.125000
G01 X83.179080 Y33.875316 Z-0.125000
G01 X84.313083 Y33.591419 Z-0.125000
G01 X85.447350 Y33.307521 Z-0.125000
G01 X86.581353 Y33.023624 Z-0.125000
G01 X87.715355 Y32.739726 Z-0.125000
G01 X88.849358 Y32.455829 Z-0.125000
G01 X89.983361 Y32.171931 Z-0.125000
G01 X91.117364 Y31.888033 Z-0.125000
G01 X92.251366 Y31.604136 Z-0.125000
G01 X93.385369 Y31.320238 Z-0.125000
G01 X94.519372 Y31.036076 Z-0.125000
G01 X95.447529 Y31.036605 Z-0.125000
G01 X96.375686 Y31.036870 Z-0.125000
G01 X97.303843 Y31.037399 Z-0.125000
G01 X98.232000 Y31.037664 Z-0.125000
G01 X99.160158 Y31.037928 Z-0.125000
G01 X100.088315 Y31.038457 Z-0.125000
G01 X101.016472 Y31.038722 Z-0.125000
G01 X101.944894 Y31.039251 Z-0.125000
G01 X102.873051 Y31.039516 Z-0.125000
G01 X103.801208 Y31.039780 Z-0.125000
G01 X104.729365 Y31.040309 Z-0.125000
G01 X106.018678 Y30.922835 Z-0.125000
G01 X107.307991 Y30.805360 Z-0.125000
G01 X108.597304 Y30.687885 Z-0.125000
G01 X109.886882 Y30.570675 Z-0.125000
G01 X111.176195 Y30.453200 Z-0.125000
G01 X112.465507 Y30.335725 Z-0.125000
G01 X113.754820 Y30.218515 Z-0.125000
G01 X115.044133 Y30.101040 Z-0.125000
G01 X116.333446 Y29.983565 Z-0.125000
G01 X117.623024 Y29.866090 Z-0.125000
G01 X118.912337 Y29.748880 Z-0.125000
G00 Z10.000000

(End cutting path id: path2270)


(Start cutting path id: path2272)
(Change tool to Default tool)

G00 Z10.000000
G00 X119.449970 Y30.549773

G00 Z4.875000 (Fast pre-penetrate)
G01 Z-0.125000 F100.0(Penetrate)
G01 X118.143988 Y30.690531 Z-0.125000 F800.000000
G01 X116.838006 Y30.831289 Z-0.125000
G01 X115.532024 Y30.972047 Z-0.125000
G01 X114.226043 Y31.113070 Z-0.125000
G01 X112.920061 Y31.253828 Z-0.125000
G01 X111.614079 Y31.394586 Z-0.125000
G01 X110.308098 Y31.535609 Z-0.125000
G01 X109.002116 Y31.676367 Z-0.125000
G01 X107.695870 Y31.817125 Z-0.125000
G01 X106.389888 Y31.958148 Z-0.125000
G01 X105.083906 Y32.098906 Z-0.125000
G01 X104.142255 Y32.106314 Z-0.125000
G01 X103.200605 Y32.113723 Z-0.125000
G01 X102.258954 Y32.121131 Z-0.125000
G01 X101.317303 Y32.128539 Z-0.125000
G01 X100.375652 Y32.135948 Z-0.125000
G01 X99.433736 Y32.143356 Z-0.125000
G01 X98.492086 Y32.150500 Z-0.125000
G01 X97.550435 Y32.157908 Z-0.125000
G01 X96.608784 Y32.165316 Z-0.125000
G01 X95.667133 Y32.172725 Z-0.125000
G01 X94.725482 Y32.180133 Z-0.125000
G01 X93.623229 Y32.475408 Z-0.125000
G01 X92.520976 Y32.770682 Z-0.125000
G01 X91.418988 Y33.066222 Z-0.125000
G01 X90.316735 Y33.361496 Z-0.125000
G01 X89.214483 Y33.656771 Z-0.125000
G01 X88.112494 Y33.952045 Z-0.125000
G01 X87.010242 Y34.247320 Z-0.125000
G01 X85.907989 Y34.542595 Z-0.125000
G01 X84.806001 Y34.838134 Z-0.125000
G01 X83.703748 Y35.133408 Z-0.125000
G01 X82.601495 Y35.428683 Z-0.125000
G01 X81.577559 Y34.833107 Z-0.125000
G01 X80.553623 Y34.237530 Z-0.125000
G01 X79.529686 Y33.642219 Z-0.125000
G01 X78.505750 Y33.046642 Z-0.125000
G01 X77.481814 Y32.451066 Z-0.125000
G01 X76.457878 Y31.855490 Z-0.125000
G01 X75.433942 Y31.260178 Z-0.125000
G01 X74.409741 Y30.664602 Z-0.125000
G01 X73.385805 Y30.069025 Z-0.125000
G01 X72.361868 Y29.473449 Z-0.125000
G01 X71.337932 Y28.877873 Z-0.125000
G01 X70.242029 Y29.470803 Z-0.125000
G01 X69.145862 Y30.063469 Z-0.125000
G01 X68.049959 Y30.656400 Z-0.125000
G01 X66.953792 Y31.249065 Z-0.125000
G01 X65.857889 Y31.841996 Z-0.125000
G01 X64.761722 Y32.434662 Z-0.125000
G01 X63.665819 Y33.027592 Z-0.125000
G01 X62.569916 Y33.620258 Z-0.125000
G01 X61.473749 Y34.213189 Z-0.125000
G01 X60.377846 Y34.805855 Z-0.125000
G01 X59.281679 Y35.398521 Z-0.125000
G01 X57.965114 Y34.941057 Z-0.125000
G01 X56.648549 Y34.483328 Z-0.125000
G01 X55.331984 Y34.025864 Z-0.125000
G01 X54.015419 Y33.568400 Z-0.125000
G01 X52.698854 Y33.110671 Z-0.125000
G01 X51.382289 Y32.653207 Z-0.125000
G01 X50.065724 Y32.195479 Z-0.125000
G01 X48.749159 Y31.738015 Z-0.125000
G01 X47.432594 Y31.280286 Z-0.125000
G01 X46.116029 Y30.822822 Z-0.125000
G01 X44.799464 Y30.365094 Z-0.125000
G01 X44.043550 Y30.420392 Z-0.125000
G01 X43.287372 Y30.475954 Z-0.125000
G01 X42.531458 Y30.531252 Z-0.125000
G01 X41.775280 Y30.586550 Z-0.125000
G01 X41.019366 Y30.642112 Z-0.125000
G01 X40.263188 Y30.697410 Z-0.125000
G01 X39.507274 Y30.752708 Z-0.125000
G01 X38.751361 Y30.808270 Z-0.125000
G01 X37.995183 Y30.863568 Z-0.125000
G01 X37.239269 Y30.919130 Z-0.125000
G01 X36.483091 Y30.974428 Z-0.125000
G01 X35.901273 Y31.042691 Z-0.125000
G01 X35.319190 Y31.110689 Z-0.125000
G01 X34.737372 Y31.178951 Z-0.125000
G01 X34.155289 Y31.247213 Z-0.125000
G01 X33.573471 Y31.315476 Z-0.125000
G01 X32.991389 Y31.383474 Z-0.125000
G01 X32.409571 Y31.451736 Z-0.125000
G01 X31.827488 Y31.519998 Z-0.125000
G01 X31.245670 Y31.588261 Z-0.125000
G01 X30.663588 Y31.656259 Z-0.125000
G01 X30.081770 Y31.724521 Z-0.125000
G01 X28.623388 Y31.827708 Z-0.125000
G01 X27.165271 Y31.931160 Z-0.125000
G01 X25.706890 Y32.034348 Z-0.125000
G01 X24.248773 Y32.137535 Z-0.125000
G01 X22.790391 Y32.240723 Z-0.125000
G01 X21.332010 Y32.343910 Z-0.125000
G01 X19.873893 Y32.447097 Z-0.125000
G01 X18.415511 Y32.550285 Z-0.125000
G01 X16.957394 Y32.653737 Z-0.125000
G01 X15.499013 Y32.756924 Z-0.125000
G01 X14.040631 Y32.860111 Z-0.125000
G00 Z10.000000

(End cutting path id: path2272)


(Start cutting path id: path2274)
(Change tool to Default tool)

G00 Z10.000000
G00 X13.860980 Y33.967920

G00 Z4.875000 (Fast pre-penetrate)
G01 Z-0.125000 F100.0(Penetrate)
G01 X15.268297 Y33.829279 Z-0.125000 F800.000000
G01 X16.675614 Y33.690637 Z-0.125000
G01 X18.083195 Y33.551996 Z-0.125000
G01 X19.490512 Y33.413619 Z-0.125000
G01 X20.897829 Y33.274977 Z-0.125000
G01 X22.305411 Y33.136336 Z-0.125000
G01 X23.712728 Y32.997959 Z-0.125000
G01 X25.120045 Y32.859318 Z-0.125000
G01 X26.527626 Y32.720676 Z-0.125000
G01 X27.934943 Y32.582299 Z-0.125000
G01 X29.342260 Y32.443658 Z-0.125000
G01 X29.960326 Y32.414289 Z-0.125000
G01 X30.578127 Y32.384920 Z-0.125000
G01 X31.196193 Y32.355552 Z-0.125000
G01 X31.813995 Y32.326183 Z-0.125000
G01 X32.432060 Y32.296814 Z-0.125000
G01 X33.049862 Y32.267710 Z-0.125000
G01 X33.667928 Y32.238341 Z-0.125000
G01 X34.285993 Y32.208973 Z-0.125000
G01 X34.903795 Y32.179604 Z-0.125000
G01 X35.521861 Y32.150235 Z-0.125000
G01 X36.139662 Y32.120866 Z-0.125000
G01 X36.949551 Y32.044402 Z-0.125000
G01 X37.759439 Y31.967937 Z-0.125000
G01 X38.569063 Y31.891473 Z-0.125000
G01 X39.378952 Y31.815009 Z-0.125000
G01 X40.188840 Y31.738544 Z-0.125000
G01 X40.998729 Y31.662080 Z-0.125000
G01 X41.808617 Y31.585615 Z-0.125000
G01 X42.618241 Y31.509151 Z-0.125000
G01 X43.428130 Y31.432686 Z-0.125000
G01 X44.238018 Y31.356222 Z-0.125000
G01 X45.047907 Y31.279757 Z-0.125000
G01 X46.298855 Y31.741454 Z-0.125000
G01 X47.549539 Y32.202887 Z-0.125000
G01 X48.800488 Y32.664585 Z-0.125000
G01 X50.051436 Y33.126017 Z-0.125000
G01 X51.302120 Y33.587715 Z-0.125000
G01 X52.553068 Y34.049412 Z-0.125000
G01 X53.804017 Y34.510845 Z-0.125000
G01 X55.054701 Y34.972542 Z-0.125000
G01 X56.305649 Y35.433975 Z-0.125000
G01 X57.556597 Y35.895672 Z-0.125000
G01 X58.807281 Y36.357105 Z-0.125000
G01 X59.927790 Y35.825558 Z-0.125000
G01 X61.048299 Y35.294010 Z-0.125000
G01 X62.168808 Y34.762199 Z-0.125000
G01 X63.289317 Y34.230651 Z-0.125000
G01 X64.409826 Y33.699104 Z-0.125000
G01 X65.530335 Y33.167557 Z-0.125000
G01 X66.650844 Y32.635745 Z-0.125000
G01 X67.771089 Y32.104198 Z-0.125000
G01 X68.891598 Y31.572650 Z-0.125000
G01 X70.012107 Y31.041103 Z-0.125000
G01 X71.132616 Y30.509291 Z-0.125000
G01 X72.141735 Y31.048247 Z-0.125000
G01 X73.151120 Y31.587203 Z-0.125000
G01 X74.160239 Y32.126158 Z-0.125000
G01 X75.169359 Y32.664849 Z-0.125000
G01 X76.178478 Y33.203805 Z-0.125000
G01 X77.187598 Y33.742760 Z-0.125000
G01 X78.196982 Y34.281451 Z-0.125000
G01 X79.206101 Y34.820407 Z-0.125000
G01 X80.215221 Y35.359362 Z-0.125000
G01 X81.224341 Y35.898318 Z-0.125000
G01 X82.233460 Y36.437009 Z-0.125000
G01 X83.357144 Y36.139088 Z-0.125000
G01 X84.480564 Y35.840903 Z-0.125000
G01 X85.603983 Y35.542718 Z-0.125000
G01 X86.727667 Y35.244533 Z-0.125000
G01 X87.851086 Y34.946348 Z-0.125000
G01 X88.974506 Y34.648163 Z-0.125000
G01 X90.097925 Y34.350243 Z-0.125000
G01 X91.221609 Y34.052058 Z-0.125000
G01 X92.345029 Y33.753873 Z-0.125000
G01 X93.468448 Y33.455688 Z-0.125000
G01 X94.592132 Y33.157503 Z-0.125000
G01 X95.501504 Y33.172848 Z-0.125000
G01 X96.410611 Y33.187930 Z-0.125000
G01 X97.319983 Y33.203276 Z-0.125000
G01 X98.229355 Y33.218357 Z-0.125000
G01 X99.138726 Y33.233703 Z-0.125000
G01 X100.048098 Y33.248784 Z-0.125000
G01 X100.957470 Y33.264130 Z-0.125000
G01 X101.866842 Y33.279211 Z-0.125000
G01 X102.776213 Y33.294557 Z-0.125000
G01 X103.685585 Y33.309638 Z-0.125000
G01 X104.594692 Y33.324984 Z-0.125000
G01 X105.895382 Y33.159090 Z-0.125000
G01 X107.196072 Y32.993461 Z-0.125000
G01 X108.496762 Y32.827568 Z-0.125000
G01 X109.797453 Y32.661939 Z-0.125000
G01 X111.098143 Y32.496045 Z-0.125000
G01 X112.398833 Y32.330416 Z-0.125000
G01 X113.699258 Y32.164523 Z-0.125000
G01 X114.999948 Y31.998894 Z-0.125000
G01 X116.300638 Y31.833000 Z-0.125000
G01 X117.601328 Y31.667371 Z-0.125000
G01 X118.902018 Y31.501742 Z-0.125000
G00 Z10.000000

(End cutting path id: path2274)


(Start cutting path id: path2276)
(Change tool to Default tool)

G00 Z10.000000
G00 X118.354067 Y32.453712

G00 Z4.875000 (Fast pre-penetrate)
G01 Z-0.125000 F100.0(Penetrate)
G01 X117.058668 Y32.644212 Z-0.125000 F800.000000
G01 X115.763535 Y32.834976 Z-0.125000
G01 X114.468136 Y33.025476 Z-0.125000
G01 X113.172738 Y33.216240 Z-0.125000
G01 X111.877604 Y33.407004 Z-0.125000
G01 X110.582206 Y33.597504 Z-0.125000
G01 X109.286807 Y33.788269 Z-0.125000
G01 X107.991409 Y33.979033 Z-0.125000
G01 X106.696275 Y34.169533 Z-0.125000
G01 X105.400877 Y34.360297 Z-0.125000
G01 X104.105478 Y34.551061 Z-0.125000
G01 X103.228650 Y34.513226 Z-0.125000
G01 X102.351558 Y34.475391 Z-0.125000
G01 X101.474730 Y34.437555 Z-0.125000
G01 X100.597637 Y34.399720 Z-0.125000
G01 X99.720544 Y34.361884 Z-0.125000
G01 X98.843716 Y34.324049 Z-0.125000
G01 X97.966624 Y34.286214 Z-0.125000
G01 X97.089796 Y34.248378 Z-0.125000
G01 X96.212703 Y34.210808 Z-0.125000
G01 X95.335610 Y34.172972 Z-0.125000
G01 X94.458782 Y34.135137 Z-0.125000
G01 X93.313932 Y34.435968 Z-0.125000
G01 X92.169081 Y34.737063 Z-0.125000
G01 X91.024230 Y35.037894 Z-0.125000
G01 X89.879380 Y35.338989 Z-0.125000
G01 X88.734529 Y35.639820 Z-0.125000
G01 X87.589678 Y35.940651 Z-0.125000
G01 X86.444828 Y36.241747 Z-0.125000
G01 X85.299977 Y36.542578 Z-0.125000
G01 X84.155126 Y36.843673 Z-0.125000
G01 X83.010276 Y37.144504 Z-0.125000
G01 X81.865425 Y37.445599 Z-0.125000
G01 X80.871122 Y36.963265 Z-0.125000
G01 X79.876819 Y36.480930 Z-0.125000
G01 X78.882252 Y35.998859 Z-0.125000
G01 X77.887949 Y35.516525 Z-0.125000
G01 X76.893646 Y35.034190 Z-0.125000
G01 X75.899343 Y34.552120 Z-0.125000
G01 X74.904776 Y34.069785 Z-0.125000
G01 X73.910473 Y33.587450 Z-0.125000
G01 X72.916170 Y33.105380 Z-0.125000
G01 X71.921602 Y32.623045 Z-0.125000
G01 X70.927299 Y32.140710 Z-0.125000
G01 X69.782449 Y32.611139 Z-0.125000
G01 X68.637334 Y33.081567 Z-0.125000
G01 X67.492483 Y33.551996 Z-0.125000
G01 X66.347632 Y34.022424 Z-0.125000
G01 X65.202517 Y34.493118 Z-0.125000
G01 X64.057666 Y34.963546 Z-0.125000
G01 X62.912816 Y35.433975 Z-0.125000
G01 X61.767701 Y35.904403 Z-0.125000
G01 X60.622850 Y36.374832 Z-0.125000
G01 X59.477999 Y36.845260 Z-0.125000
G01 X58.332884 Y37.315689 Z-0.125000
G01 X57.147817 Y36.850023 Z-0.125000
G01 X55.962750 Y36.384621 Z-0.125000
G01 X54.777418 Y35.918955 Z-0.125000
G01 X53.592350 Y35.453554 Z-0.125000
G01 X52.407283 Y34.987888 Z-0.125000
G01 X51.221951 Y34.522486 Z-0.125000
G01 X50.036884 Y34.056820 Z-0.125000
G01 X48.851817 Y33.591154 Z-0.125000
G01 X47.666485 Y33.125753 Z-0.125000
G01 X46.481418 Y32.660087 Z-0.125000
G01 X45.296350 Y32.194685 Z-0.125000
G01 X44.432752 Y32.292052 Z-0.125000
G01 X43.568888 Y32.389683 Z-0.125000
G01 X42.705289 Y32.487314 Z-0.125000
G01 X41.841690 Y32.584680 Z-0.125000
G01 X40.978091 Y32.682312 Z-0.125000
G01 X40.114492 Y32.779678 Z-0.125000
G01 X39.250893 Y32.877309 Z-0.125000
G01 X38.387030 Y32.974676 Z-0.125000
G01 X37.523431 Y33.072307 Z-0.125000
G01 X36.659832 Y33.169938 Z-0.125000
G01 X35.796233 Y33.267305 Z-0.125000
G01 X35.142184 Y33.257780 Z-0.125000
G01 X34.488399 Y33.248255 Z-0.125000
G01 X33.834350 Y33.238730 Z-0.125000
G01 X33.180566 Y33.229205 Z-0.125000
G01 X32.526517 Y33.219680 Z-0.125000
G01 X31.872732 Y33.210419 Z-0.125000
G01 X31.218683 Y33.200894 Z-0.125000
G01 X30.564898 Y33.191369 Z-0.125000
G01 X29.910849 Y33.181844 Z-0.125000
G01 X29.256800 Y33.172319 Z-0.125000
G01 X28.603015 Y33.162794 Z-0.125000
G01 X27.246498 Y33.336625 Z-0.125000
G01 X25.889981 Y33.510456 Z-0.125000
G01 X24.533464 Y33.684287 Z-0.125000
G01 X23.176947 Y33.858383 Z-0.125000
G01 X21.820430 Y34.032214 Z-0.125000
G01 X20.463648 Y34.206045 Z-0.125000
G01 X19.107131 Y34.379876 Z-0.125000
G01 X17.750614 Y34.553972 Z-0.125000
G01 X16.394097 Y34.727803 Z-0.125000
G01 X15.037580 Y34.901634 Z-0.125000
G01 X13.681063 Y35.075465 Z-0.125000
G00 Z10.000000

(End cutting path id: path2276)


(Start cutting path id: path2278)
(Change tool to Default tool)

G00 Z10.000000
G00 X13.501147 Y36.183274

G00 Z4.875000 (Fast pre-penetrate)
G01 Z-0.125000 F100.0(Penetrate)
G01 X14.806864 Y35.973989 Z-0.125000 F800.000000
G01 X16.112581 Y35.764704 Z-0.125000
G01 X17.418298 Y35.555683 Z-0.125000
G01 X18.724015 Y35.346398 Z-0.125000
G01 X20.029732 Y35.137113 Z-0.125000
G01 X21.335185 Y34.927827 Z-0.125000
G01 X22.640902 Y34.718807 Z-0.125000
G01 X23.946619 Y34.509522 Z-0.125000
G01 X25.252336 Y34.300237 Z-0.125000
G01 X26.558053 Y34.090951 Z-0.125000
G01 X27.863506 Y33.881931 Z-0.125000
G01 X28.553538 Y33.930085 Z-0.125000
G01 X29.243571 Y33.978504 Z-0.125000
G01 X29.933339 Y34.026922 Z-0.125000
G01 X30.623371 Y34.075341 Z-0.125000
G01 X31.313139 Y34.123760 Z-0.125000
G01 X32.003171 Y34.171914 Z-0.125000
G01 X32.692939 Y34.220333 Z-0.125000
G01 X33.382972 Y34.268751 Z-0.125000
G01 X34.073004 Y34.317170 Z-0.125000
G01 X34.762772 Y34.365589 Z-0.125000
G01 X35.452805 Y34.413743 Z-0.125000
G01 X36.370114 Y34.295210 Z-0.125000
G01 X37.287688 Y34.176676 Z-0.125000
G01 X38.204997 Y34.058143 Z-0.125000
G01 X39.122571 Y33.939610 Z-0.125000
G01 X40.039880 Y33.820812 Z-0.125000
G01 X40.957454 Y33.702279 Z-0.125000
G01 X41.875028 Y33.583746 Z-0.125000
G01 X42.792337 Y33.465213 Z-0.125000
G01 X43.709911 Y33.346679 Z-0.125000
G01 X44.627220 Y33.227882 Z-0.125000
G01 X45.544794 Y33.109349 Z-0.125000
G01 X46.664245 Y33.578983 Z-0.125000
G01 X47.783695 Y34.048354 Z-0.125000
G01 X48.903146 Y34.517988 Z-0.125000
G01 X50.022332 Y34.987359 Z-0.125000
G01 X51.141783 Y35.456993 Z-0.125000
G01 X52.261233 Y35.926628 Z-0.125000
G01 X53.380684 Y36.395999 Z-0.125000
G01 X54.500135 Y36.865633 Z-0.125000
G01 X55.619585 Y37.335004 Z-0.125000
G01 X56.739036 Y37.804638 Z-0.125000
G01 X57.858487 Y38.274009 Z-0.125000
G01 X59.027944 Y37.864699 Z-0.125000
G01 X60.197400 Y37.455653 Z-0.125000
G01 X61.366857 Y37.046344 Z-0.125000
G01 X62.536050 Y36.637034 Z-0.125000
G01 X63.705506 Y36.227724 Z-0.125000
G01 X64.874963 Y35.818414 Z-0.125000
G01 X66.044420 Y35.409369 Z-0.125000
G01 X67.213877 Y35.000059 Z-0.125000
G01 X68.383069 Y34.590749 Z-0.125000
G01 X69.552526 Y34.181439 Z-0.125000
G01 X70.721983 Y33.772129 Z-0.125000
G01 X71.701469 Y34.197843 Z-0.125000
G01 X72.681220 Y34.623557 Z-0.125000
G01 X73.660706 Y35.049007 Z-0.125000
G01 X74.640457 Y35.474721 Z-0.125000
G01 X75.619943 Y35.900170 Z-0.125000
G01 X76.599430 Y36.325884 Z-0.125000
G01 X77.579181 Y36.751598 Z-0.125000
G01 X78.558667 Y37.177048 Z-0.125000
G01 X79.538153 Y37.602762 Z-0.125000
G01 X80.517904 Y38.028211 Z-0.125000
G01 X81.497390 Y38.453925 Z-0.125000
G01 X82.663672 Y38.150184 Z-0.125000
G01 X83.829689 Y37.846443 Z-0.125000
G01 X84.995971 Y37.542701 Z-0.125000
G01 X86.162253 Y37.238960 Z-0.125000
G01 X87.328270 Y36.935219 Z-0.125000
G01 X88.494552 Y36.631213 Z-0.125000
G01 X89.660834 Y36.327472 Z-0.125000
G01 X90.826851 Y36.023730 Z-0.125000
G01 X91.993133 Y35.719989 Z-0.125000
G01 X93.159151 Y35.416248 Z-0.125000
G01 X94.325432 Y35.112506 Z-0.125000
G01 X95.169981 Y35.172831 Z-0.125000
G01 X96.014795 Y35.233421 Z-0.125000
G01 X96.859344 Y35.293746 Z-0.125000
G01 X97.703893 Y35.354071 Z-0.125000
G01 X98.548706 Y35.414660 Z-0.125000
G01 X99.393255 Y35.474985 Z-0.125000
G01 X100.237804 Y35.535310 Z-0.125000
G01 X101.082618 Y35.595900 Z-0.125000
G01 X101.927167 Y35.656224 Z-0.125000
G01 X102.771716 Y35.716549 Z-0.125000
G01 X103.616264 Y35.776874 Z-0.125000
G01 X104.906371 Y35.561504 Z-0.125000
G01 X106.196478 Y35.345869 Z-0.125000
G01 X107.486320 Y35.130233 Z-0.125000
G01 X108.776162 Y34.914598 Z-0.125000
G01 X110.066269 Y34.698963 Z-0.125000
G01 X111.356111 Y34.483593 Z-0.125000
G01 X112.646218 Y34.267957 Z-0.125000
G01 X113.936060 Y34.052322 Z-0.125000
G01 X115.226167 Y33.836687 Z-0.125000
G01 X116.516009 Y33.621052 Z-0.125000
G01 X117.806115 Y33.405681 Z-0.125000
G00 Z10.000000

(End cutting path id: path2278)


(Start cutting path id: path2280)
(Change tool to Default tool)

G00 Z10.000000
G00 X117.258164 Y34.357651

G00 Z4.875000 (Fast pre-penetrate)
G01 Z-0.125000 F100.0(Penetrate)
G01 X115.973613 Y34.598157 Z-0.125000 F800.000000
G01 X114.688798 Y34.838663 Z-0.125000
G01 X113.404248 Y35.078904 Z-0.125000
G01 X112.119698 Y35.319410 Z-0.125000
G01 X110.834882 Y35.559916 Z-0.125000
G01 X109.550332 Y35.800422 Z-0.125000
G01 X108.265782 Y36.040928 Z-0.125000
G01 X106.980966 Y36.281434 Z-0.125000
G01 X105.696416 Y36.521940 Z-0.125000
G01 X104.411866 Y36.762446 Z-0.125000
G01 X103.127315 Y37.002952 Z-0.125000
G01 X102.314781 Y36.920137 Z-0.125000
G01 X101.502511 Y36.837058 Z-0.125000
G01 X100.690241 Y36.753979 Z-0.125000
G01 X99.877971 Y36.670900 Z-0.125000
G01 X99.065701 Y36.588086 Z-0.125000
G01 X98.253432 Y36.505007 Z-0.125000
G01 X97.441162 Y36.421928 Z-0.125000
G01 X96.628892 Y36.339113 Z-0.125000
G01 X95.816622 Y36.256034 Z-0.125000
G01 X95.004352 Y36.172955 Z-0.125000
G01 X94.192083 Y36.089876 Z-0.125000
G01 X93.004634 Y36.396528 Z-0.125000
G01 X91.817186 Y36.703179 Z-0.125000
G01 X90.629472 Y37.009831 Z-0.125000
G01 X89.442024 Y37.316218 Z-0.125000
G01 X88.254575 Y37.622870 Z-0.125000
G01 X87.066862 Y37.929522 Z-0.125000
G01 X85.879414 Y38.235909 Z-0.125000
G01 X84.691965 Y38.542560 Z-0.125000
G01 X83.504517 Y38.849212 Z-0.125000
G01 X82.316804 Y39.155864 Z-0.125000
G01 X81.129355 Y39.462251 Z-0.125000
G01 X80.164686 Y39.093422 Z-0.125000
G01 X79.199751 Y38.724329 Z-0.125000
G01 X78.235082 Y38.355500 Z-0.125000
G01 X77.270148 Y37.986407 Z-0.125000
G01 X76.305478 Y37.617578 Z-0.125000
G01 X75.340544 Y37.248485 Z-0.125000
G01 X74.375874 Y36.879656 Z-0.125000
G01 X73.410940 Y36.510563 Z-0.125000
G01 X72.446270 Y36.141470 Z-0.125000
G01 X71.481601 Y35.772641 Z-0.125000
G01 X70.516667 Y35.403548 Z-0.125000
G01 X69.322868 Y35.751739 Z-0.125000
G01 X68.129070 Y36.099930 Z-0.125000
G01 X66.935007 Y36.447857 Z-0.125000
G01 X65.741208 Y36.796048 Z-0.125000
G01 X64.547410 Y37.143975 Z-0.125000
G01 X63.353346 Y37.492166 Z-0.125000
G01 X62.159548 Y37.840357 Z-0.125000
G01 X60.965749 Y38.188284 Z-0.125000
G01 X59.771951 Y38.536475 Z-0.125000
G01 X58.577888 Y38.884402 Z-0.125000
G01 X57.384089 Y39.232593 Z-0.125000
G01 X56.330255 Y38.758989 Z-0.125000
G01 X55.276686 Y38.285650 Z-0.125000
G01 X54.222852 Y37.812047 Z-0.125000
G01 X53.169282 Y37.338708 Z-0.125000
G01 X52.115448 Y36.865104 Z-0.125000
G01 X51.061879 Y36.391501 Z-0.125000
G01 X50.008045 Y35.918162 Z-0.125000
G01 X48.954210 Y35.444558 Z-0.125000
G01 X47.900641 Y34.971219 Z-0.125000
G01 X46.846807 Y34.497616 Z-0.125000
G01 X45.793237 Y34.024277 Z-0.125000
G01 X44.821953 Y34.163712 Z-0.125000
G01 X43.850669 Y34.303412 Z-0.125000
G01 X42.879385 Y34.443111 Z-0.125000
G01 X41.908101 Y34.582811 Z-0.125000
G01 X40.936816 Y34.722511 Z-0.125000
G01 X39.965532 Y34.861946 Z-0.125000
G01 X38.994248 Y35.001646 Z-0.125000
G01 X38.022964 Y35.141346 Z-0.125000
G01 X37.051680 Y35.281046 Z-0.125000
G01 X36.080395 Y35.420746 Z-0.125000
G01 X35.109111 Y35.560181 Z-0.125000
G01 X34.383360 Y35.473133 Z-0.125000
G01 X33.657344 Y35.385821 Z-0.125000
G01 X32.931593 Y35.298773 Z-0.125000
G01 X32.205577 Y35.211460 Z-0.125000
G01 X31.479826 Y35.124148 Z-0.125000
G01 X30.753810 Y35.037100 Z-0.125000
G01 X30.027795 Y34.949788 Z-0.125000
G01 X29.302044 Y34.862475 Z-0.125000
G01 X28.576028 Y34.775428 Z-0.125000
G01 X27.850277 Y34.688115 Z-0.125000
G01 X27.124261 Y34.601067 Z-0.125000
G01 X25.869344 Y34.845542 Z-0.125000
G01 X24.614691 Y35.090017 Z-0.125000
G01 X23.359774 Y35.334492 Z-0.125000
G01 X22.105121 Y35.579231 Z-0.125000
G01 X20.850204 Y35.823706 Z-0.125000
G01 X19.595552 Y36.068180 Z-0.125000
G01 X18.340634 Y36.312655 Z-0.125000
G01 X17.085982 Y36.557394 Z-0.125000
G01 X15.831065 Y36.801869 Z-0.125000
G01 X14.576147 Y37.046344 Z-0.125000
G01 X13.321495 Y37.290818 Z-0.125000
G00 Z10.000000

(End cutting path id: path2280)


(Start cutting path id: path2282)
(Change tool to Default tool)

G00 Z10.000000
G00 X13.141578 Y38.398627

G00 Z4.875000 (Fast pre-penetrate)
G01 Z-0.125000 F100.0(Penetrate)
G01 X14.345696 Y38.118698 Z-0.125000 F800.000000
G01 X15.549548 Y37.838770 Z-0.125000
G01 X16.753401 Y37.559105 Z-0.125000
G01 X17.957254 Y37.279177 Z-0.125000
G01 X19.161371 Y36.999248 Z-0.125000
G01 X20.365224 Y36.719319 Z-0.125000
G01 X21.569076 Y36.439655 Z-0.125000
G01 X22.773193 Y36.159726 Z-0.125000
G01 X23.977046 Y35.879797 Z-0.125000
G01 X25.180899 Y35.599868 Z-0.125000
G01 X26.385016 Y35.319940 Z-0.125000
G01 X27.146750 Y35.446146 Z-0.125000
G01 X27.908749 Y35.572087 Z-0.125000
G01 X28.670484 Y35.698293 Z-0.125000
G01 X29.432483 Y35.824235 Z-0.125000
G01 X30.194482 Y35.950441 Z-0.125000
G01 X30.956216 Y36.076382 Z-0.125000
G01 X31.718215 Y36.202588 Z-0.125000
G01 X32.479950 Y36.328530 Z-0.125000
G01 X33.241949 Y36.454736 Z-0.125000
G01 X34.003948 Y36.580677 Z-0.125000
G01 X34.765682 Y36.706884 Z-0.125000
G01 X35.790942 Y36.546017 Z-0.125000
G01 X36.815936 Y36.385415 Z-0.125000
G01 X37.840931 Y36.224549 Z-0.125000
G01 X38.865925 Y36.063947 Z-0.125000
G01 X39.891184 Y35.903345 Z-0.125000
G01 X40.916179 Y35.742479 Z-0.125000
G01 X41.941173 Y35.581877 Z-0.125000
G01 X42.966433 Y35.421010 Z-0.125000
G01 X43.991427 Y35.260408 Z-0.125000
G01 X45.016422 Y35.099806 Z-0.125000
G01 X46.041681 Y34.938940 Z-0.125000
G01 X47.029634 Y35.416512 Z-0.125000
G01 X48.017587 Y35.893820 Z-0.125000
G01 X49.005540 Y36.371392 Z-0.125000
G01 X49.993492 Y36.848700 Z-0.125000
G01 X50.981710 Y37.326272 Z-0.125000
G01 X51.969663 Y37.803845 Z-0.125000
G01 X52.957616 Y38.281152 Z-0.125000
G01 X53.945569 Y38.758725 Z-0.125000
G01 X54.933786 Y39.236032 Z-0.125000
G01 X55.921739 Y39.713605 Z-0.125000
G01 X56.909692 Y40.190913 Z-0.125000
G01 X58.128097 Y39.904105 Z-0.125000
G01 X59.346237 Y39.617297 Z-0.125000
G01 X60.564642 Y39.330224 Z-0.125000
G01 X61.783046 Y39.043416 Z-0.125000
G01 X63.001451 Y38.756608 Z-0.125000
G01 X64.219591 Y38.469536 Z-0.125000
G01 X65.437996 Y38.182728 Z-0.125000
G01 X66.656401 Y37.895920 Z-0.125000
G01 X67.874805 Y37.608847 Z-0.125000
G01 X69.092945 Y37.322039 Z-0.125000
G01 X70.311350 Y37.034967 Z-0.125000
G01 X71.261468 Y37.347439 Z-0.125000
G01 X72.211321 Y37.659647 Z-0.125000
G01 X73.161438 Y37.972119 Z-0.125000
G01 X74.111291 Y38.284327 Z-0.125000
G01 X75.061409 Y38.596800 Z-0.125000
G01 X76.011262 Y38.909008 Z-0.125000
G01 X76.961379 Y39.221480 Z-0.125000
G01 X77.911232 Y39.533688 Z-0.125000
G01 X78.861350 Y39.846161 Z-0.125000
G01 X79.811203 Y40.158369 Z-0.125000
G01 X80.761320 Y40.470841 Z-0.125000
G01 X81.970200 Y40.161279 Z-0.125000
G01 X83.179080 Y39.851982 Z-0.125000
G01 X84.387960 Y39.542684 Z-0.125000
G01 X85.596839 Y39.233122 Z-0.125000
G01 X86.805719 Y38.923825 Z-0.125000
G01 X88.014599 Y38.614262 Z-0.125000
G01 X89.223478 Y38.304965 Z-0.125000
G01 X90.432094 Y37.995667 Z-0.125000
G01 X91.640973 Y37.686105 Z-0.125000
G01 X92.849853 Y37.376808 Z-0.125000
G01 X94.058733 Y37.067510 Z-0.125000
G01 X94.838723 Y37.173079 Z-0.125000
G01 X95.618714 Y37.278647 Z-0.125000
G01 X96.398705 Y37.384216 Z-0.125000
G01 X97.178431 Y37.489785 Z-0.125000
G01 X97.958422 Y37.595353 Z-0.125000
G01 X98.738412 Y37.701187 Z-0.125000
G01 X99.518403 Y37.806755 Z-0.125000
G01 X100.298129 Y37.912324 Z-0.125000
G01 X101.078120 Y38.017892 Z-0.125000
G01 X101.858110 Y38.123461 Z-0.125000
G01 X102.638101 Y38.229030 Z-0.125000
G01 X103.917360 Y37.963653 Z-0.125000
G01 X105.196619 Y37.698276 Z-0.125000
G01 X106.475878 Y37.432899 Z-0.125000
G01 X107.755136 Y37.167523 Z-0.125000
G01 X109.034395 Y36.901881 Z-0.125000
G01 X110.313654 Y36.636505 Z-0.125000
G01 X111.592913 Y36.371128 Z-0.125000
G01 X112.872436 Y36.105751 Z-0.125000
G01 X114.151695 Y35.840374 Z-0.125000
G01 X115.430954 Y35.574998 Z-0.125000
G01 X116.710213 Y35.309621 Z-0.125000
G00 Z10.000000

(End cutting path id: path2282)


(Start cutting path id: path2284)
(Change tool to Default tool)

G00 Z10.000000
G00 X116.162261 Y36.261590

G00 Z4.875000 (Fast pre-penetrate)
G01 Z-0.125000 F100.0(Penetrate)
G01 X114.888294 Y36.551838 Z-0.125000 F800.000000
G01 X113.614327 Y36.842086 Z-0.125000
G01 X112.340360 Y37.132598 Z-0.125000
G01 X111.066393 Y37.422845 Z-0.125000
G01 X109.792425 Y37.713093 Z-0.125000
G01 X108.518458 Y38.003340 Z-0.125000
G01 X107.244491 Y38.293852 Z-0.125000
G01 X105.970524 Y38.584100 Z-0.125000
G01 X104.696557 Y38.874348 Z-0.125000
G01 X103.422854 Y39.164860 Z-0.125000
G01 X102.148887 Y39.455107 Z-0.125000
G01 X101.401176 Y39.326784 Z-0.125000
G01 X100.653729 Y39.198726 Z-0.125000
G01 X99.906017 Y39.070404 Z-0.125000
G01 X99.158570 Y38.942345 Z-0.125000
G01 X98.410859 Y38.814023 Z-0.125000
G01 X97.663412 Y38.685964 Z-0.125000
G01 X96.915700 Y38.557642 Z-0.125000
G01 X96.168253 Y38.429584 Z-0.125000
G01 X95.420541 Y38.301261 Z-0.125000
G01 X94.673094 Y38.173203 Z-0.125000
G01 X93.925383 Y38.044880 Z-0.125000
G01 X92.695337 Y38.357088 Z-0.125000
G01 X91.465026 Y38.669296 Z-0.125000
G01 X90.234979 Y38.981504 Z-0.125000
G01 X89.004668 Y39.293712 Z-0.125000
G01 X87.774357 Y39.605920 Z-0.125000
G01 X86.544311 Y39.918127 Z-0.125000
G01 X85.314000 Y40.230335 Z-0.125000
G01 X84.083954 Y40.542543 Z-0.125000
G01 X82.853643 Y40.854751 Z-0.125000
G01 X81.623332 Y41.166959 Z-0.125000
G01 X80.393285 Y41.479167 Z-0.125000
G01 X79.457984 Y41.223315 Z-0.125000
G01 X78.522948 Y40.967728 Z-0.125000
G01 X77.587647 Y40.712141 Z-0.125000
G01 X76.652346 Y40.456289 Z-0.125000
G01 X75.717310 Y40.200702 Z-0.125000
G01 X74.782009 Y39.944850 Z-0.125000
G01 X73.846973 Y39.689263 Z-0.125000
G01 X72.911672 Y39.433676 Z-0.125000
G01 X71.976371 Y39.177824 Z-0.125000
G01 X71.041335 Y38.922237 Z-0.125000
G01 X70.106034 Y38.666385 Z-0.125000
G01 X68.863287 Y38.892339 Z-0.125000
G01 X67.620541 Y39.118028 Z-0.125000
G01 X66.377795 Y39.343718 Z-0.125000
G01 X65.134784 Y39.569407 Z-0.125000
G01 X63.892037 Y39.795096 Z-0.125000
G01 X62.649291 Y40.020786 Z-0.125000
G01 X61.406545 Y40.246475 Z-0.125000
G01 X60.163798 Y40.472429 Z-0.125000
G01 X58.920787 Y40.698118 Z-0.125000
G01 X57.678041 Y40.923807 Z-0.125000
G01 X56.435295 Y41.149497 Z-0.125000
G01 X55.512958 Y40.667956 Z-0.125000
G01 X54.590622 Y40.186679 Z-0.125000
G01 X53.668286 Y39.705138 Z-0.125000
G01 X52.745949 Y39.223862 Z-0.125000
G01 X51.823878 Y38.742321 Z-0.125000
G01 X50.901541 Y38.260780 Z-0.125000
G01 X49.979205 Y37.779503 Z-0.125000
G01 X49.056869 Y37.297962 Z-0.125000
G01 X48.134532 Y36.816686 Z-0.125000
G01 X47.212196 Y36.335144 Z-0.125000
G01 X46.289860 Y35.853868 Z-0.125000
G01 X45.211155 Y36.035637 Z-0.125000
G01 X44.132185 Y36.217405 Z-0.125000
G01 X43.053216 Y36.399174 Z-0.125000
G01 X41.974511 Y36.580942 Z-0.125000
G01 X40.895541 Y36.762711 Z-0.125000
G01 X39.816572 Y36.944479 Z-0.125000
G01 X38.737867 Y37.126248 Z-0.125000
G01 X37.658898 Y37.308016 Z-0.125000
G01 X36.579928 Y37.489785 Z-0.125000
G01 X35.501223 Y37.671553 Z-0.125000
G01 X34.422254 Y37.853322 Z-0.125000
G01 X33.624271 Y37.688222 Z-0.125000
G01 X32.826554 Y37.523387 Z-0.125000
G01 X32.028571 Y37.358552 Z-0.125000
G01 X31.230854 Y37.193452 Z-0.125000
G01 X30.432871 Y37.028617 Z-0.125000
G01 X29.634889 Y36.863781 Z-0.125000
G01 X28.837171 Y36.698682 Z-0.125000
G01 X28.039189 Y36.533846 Z-0.125000
G01 X27.241207 Y36.369011 Z-0.125000
G01 X26.443489 Y36.204176 Z-0.125000
G01 X25.645506 Y36.039076 Z-0.125000
G01 X24.492454 Y36.354459 Z-0.125000
G01 X23.339401 Y36.669577 Z-0.125000
G01 X22.186348 Y36.984696 Z-0.125000
G01 X21.033296 Y37.299814 Z-0.125000
G01 X19.880243 Y37.615197 Z-0.125000
G01 X18.727190 Y37.930315 Z-0.125000
G01 X17.574137 Y38.245434 Z-0.125000
G01 X16.421085 Y38.560817 Z-0.125000
G01 X15.268032 Y38.875935 Z-0.125000
G01 X14.114979 Y39.191053 Z-0.125000
G01 X12.961927 Y39.506172 Z-0.125000
G00 Z10.000000

(End cutting path id: path2284)


(Start cutting path id: path2286)
(Change tool to Default tool)

G00 Z10.000000
G00 X12.782010 Y40.613981

G00 Z4.875000 (Fast pre-penetrate)
G01 Z-0.125000 F100.0(Penetrate)
G01 X13.884263 Y40.263408 Z-0.125000 F800.000000
G01 X14.986516 Y39.912836 Z-0.125000
G01 X16.088504 Y39.562528 Z-0.125000
G01 X17.190757 Y39.211955 Z-0.125000
G01 X18.293009 Y38.861383 Z-0.125000
G01 X19.395262 Y38.510810 Z-0.125000
G01 X20.497250 Y38.160238 Z-0.125000
G01 X21.599503 Y37.809930 Z-0.125000
G01 X22.701756 Y37.459358 Z-0.125000
G01 X23.804009 Y37.108785 Z-0.125000
G01 X24.906262 Y36.758213 Z-0.125000
G01 X25.739963 Y36.961942 Z-0.125000
G01 X26.573928 Y37.165671 Z-0.125000
G01 X27.407894 Y37.369664 Z-0.125000
G01 X28.241595 Y37.573393 Z-0.125000
G01 X29.075560 Y37.777122 Z-0.125000
G01 X29.909526 Y37.980851 Z-0.125000
G01 X30.743227 Y38.184580 Z-0.125000
G01 X31.577193 Y38.388309 Z-0.125000
G01 X32.411158 Y38.592302 Z-0.125000
G01 X33.244859 Y38.796031 Z-0.125000
G01 X34.078825 Y38.999760 Z-0.125000
G01 X35.211505 Y38.796825 Z-0.125000
G01 X36.344185 Y38.594154 Z-0.125000
G01 X37.476864 Y38.391219 Z-0.125000
G01 X38.609544 Y38.188284 Z-0.125000
G01 X39.742224 Y37.985613 Z-0.125000
G01 X40.874904 Y37.782678 Z-0.125000
G01 X42.007584 Y37.579743 Z-0.125000
G01 X43.140264 Y37.377072 Z-0.125000
G01 X44.272943 Y37.174137 Z-0.125000
G01 X45.405623 Y36.971467 Z-0.125000
G01 X46.538303 Y36.768531 Z-0.125000
G01 X47.395023 Y37.254041 Z-0.125000
G01 X48.251478 Y37.739286 Z-0.125000
G01 X49.108198 Y38.224796 Z-0.125000
G01 X49.964653 Y38.710041 Z-0.125000
G01 X50.821373 Y39.195551 Z-0.125000
G01 X51.677828 Y39.681061 Z-0.125000
G01 X52.534548 Y40.166306 Z-0.125000
G01 X53.391003 Y40.651816 Z-0.125000
G01 X54.247722 Y41.137061 Z-0.125000
G01 X55.104178 Y41.622571 Z-0.125000
G01 X55.960897 Y42.108081 Z-0.125000
G01 X57.228250 Y41.943510 Z-0.125000
G01 X58.495338 Y41.778940 Z-0.125000
G01 X59.762691 Y41.614369 Z-0.125000
G01 X61.030043 Y41.449798 Z-0.125000
G01 X62.297131 Y41.285228 Z-0.125000
G01 X63.564484 Y41.120657 Z-0.125000
G01 X64.831836 Y40.956087 Z-0.125000
G01 X66.098924 Y40.791516 Z-0.125000
G01 X67.366277 Y40.626945 Z-0.125000
G01 X68.633629 Y40.462375 Z-0.125000
G01 X69.900717 Y40.297804 Z-0.125000
G01 X70.821202 Y40.497035 Z-0.125000
G01 X71.741686 Y40.696001 Z-0.125000
G01 X72.661906 Y40.894968 Z-0.125000
G01 X73.582390 Y41.094199 Z-0.125000
G01 X74.502874 Y41.293165 Z-0.125000
G01 X75.423094 Y41.492132 Z-0.125000
G01 X76.343578 Y41.691363 Z-0.125000
G01 X77.264062 Y41.890329 Z-0.125000
G01 X78.184282 Y42.089560 Z-0.125000
G01 X79.104766 Y42.288527 Z-0.125000
G01 X80.025250 Y42.487493 Z-0.125000
G01 X81.276728 Y42.172639 Z-0.125000
G01 X82.528206 Y41.857521 Z-0.125000
G01 X83.779683 Y41.542402 Z-0.125000
G01 X85.031425 Y41.227549 Z-0.125000
G01 X86.282903 Y40.912430 Z-0.125000
G01 X87.534381 Y40.597312 Z-0.125000
G01 X88.785858 Y40.282458 Z-0.125000
G01 X90.037600 Y39.967340 Z-0.125000
G01 X91.289078 Y39.652486 Z-0.125000
G01 X92.540556 Y39.337368 Z-0.125000
G01 X93.792033 Y39.022249 Z-0.125000
G01 X94.507466 Y39.173062 Z-0.125000
G01 X95.222633 Y39.323874 Z-0.125000
G01 X95.937801 Y39.474686 Z-0.125000
G01 X96.652969 Y39.625499 Z-0.125000
G01 X97.368137 Y39.776311 Z-0.125000
G01 X98.083569 Y39.927123 Z-0.125000
G01 X98.798737 Y40.077936 Z-0.125000
G01 X99.513905 Y40.228748 Z-0.125000
G01 X100.229073 Y40.379560 Z-0.125000
G01 X100.944241 Y40.530373 Z-0.125000
G01 X101.659673 Y40.681185 Z-0.125000
G01 X102.928084 Y40.365802 Z-0.125000
G01 X104.196760 Y40.050684 Z-0.125000
G01 X105.465435 Y39.735301 Z-0.125000
G01 X106.734111 Y39.420182 Z-0.125000
G01 X108.002521 Y39.104799 Z-0.125000
G01 X109.271197 Y38.789681 Z-0.125000
G01 X110.539872 Y38.474298 Z-0.125000
G01 X111.808548 Y38.159180 Z-0.125000
G01 X113.076959 Y37.844061 Z-0.125000
G01 X114.345634 Y37.528678 Z-0.125000
G01 X115.614310 Y37.213560 Z-0.125000
G00 Z10.000000

(End cutting path id: path2286)


(Start cutting path id: path2288)
(Change tool to Default tool)

G00 Z10.000000
G00 X115.066358 Y38.165530

G00 Z4.875000 (Fast pre-penetrate)
G01 Z-0.125000 F100.0(Penetrate)
G01 X113.802975 Y38.505519 Z-0.125000 F800.000000
G01 X112.539855 Y38.845773 Z-0.125000
G01 X111.276471 Y39.186026 Z-0.125000
G01 X110.013352 Y39.526015 Z-0.125000
G01 X108.749968 Y39.866269 Z-0.125000
G01 X107.486585 Y40.206258 Z-0.125000
G01 X106.223465 Y40.546512 Z-0.125000
G01 X104.960082 Y40.886766 Z-0.125000
G01 X103.696962 Y41.226755 Z-0.125000
G01 X102.433578 Y41.567009 Z-0.125000
G01 X101.170459 Y41.907262 Z-0.125000
G01 X100.487570 Y41.733696 Z-0.125000
G01 X99.804682 Y41.560394 Z-0.125000
G01 X99.121793 Y41.387092 Z-0.125000
G01 X98.438904 Y41.213526 Z-0.125000
G01 X97.756016 Y41.040224 Z-0.125000
G01 X97.073127 Y40.866658 Z-0.125000
G01 X96.390238 Y40.693356 Z-0.125000
G01 X95.707349 Y40.520054 Z-0.125000
G01 X95.024461 Y40.346487 Z-0.125000
G01 X94.341572 Y40.173185 Z-0.125000
G01 X93.658948 Y39.999884 Z-0.125000
G01 X92.386039 Y40.317648 Z-0.125000
G01 X91.113130 Y40.635412 Z-0.125000
G01 X89.840221 Y40.953176 Z-0.125000
G01 X88.567313 Y41.271205 Z-0.125000
G01 X87.294404 Y41.588969 Z-0.125000
G01 X86.021495 Y41.906733 Z-0.125000
G01 X84.748586 Y42.224497 Z-0.125000
G01 X83.475677 Y42.542526 Z-0.125000
G01 X82.202769 Y42.860290 Z-0.125000
G01 X80.930124 Y43.178055 Z-0.125000
G01 X79.657215 Y43.496083 Z-0.125000
G01 X78.751548 Y43.353473 Z-0.125000
G01 X77.845880 Y43.211127 Z-0.125000
G01 X76.940213 Y43.068782 Z-0.125000
G01 X76.034810 Y42.926172 Z-0.125000
G01 X75.129142 Y42.783826 Z-0.125000
G01 X74.223474 Y42.641480 Z-0.125000
G01 X73.317807 Y42.499135 Z-0.125000
G01 X72.412404 Y42.356524 Z-0.125000
G01 X71.506736 Y42.214179 Z-0.125000
G01 X70.601069 Y42.071833 Z-0.125000
G01 X69.695401 Y41.929223 Z-0.125000
G01 X68.403707 Y42.032675 Z-0.125000
G01 X67.112013 Y42.136127 Z-0.125000
G01 X65.820318 Y42.239579 Z-0.125000
G01 X64.528624 Y42.342766 Z-0.125000
G01 X63.236930 Y42.446218 Z-0.125000
G01 X61.944971 Y42.549670 Z-0.125000
G01 X60.653277 Y42.652857 Z-0.125000
G01 X59.361583 Y42.756309 Z-0.125000
G01 X58.069889 Y42.859761 Z-0.125000
G01 X56.778194 Y42.963213 Z-0.125000
G01 X55.486500 Y43.066401 Z-0.125000
G01 X54.695662 Y42.577187 Z-0.125000
G01 X53.904823 Y42.087708 Z-0.125000
G01 X53.113720 Y41.598230 Z-0.125000
G01 X52.322881 Y41.109016 Z-0.125000
G01 X51.532043 Y40.619537 Z-0.125000
G01 X50.741204 Y40.130058 Z-0.125000
G01 X49.950365 Y39.640844 Z-0.125000
G01 X49.159527 Y39.151366 Z-0.125000
G01 X48.368688 Y38.662152 Z-0.125000
G01 X47.577585 Y38.172673 Z-0.125000
G01 X46.786746 Y37.683195 Z-0.125000
G01 X45.600356 Y37.907297 Z-0.125000
G01 X44.413702 Y38.131134 Z-0.125000
G01 X43.227311 Y38.354971 Z-0.125000
G01 X42.040921 Y38.578808 Z-0.125000
G01 X40.854266 Y38.802910 Z-0.125000
G01 X39.667876 Y39.026747 Z-0.125000
G01 X38.481222 Y39.250585 Z-0.125000
G01 X37.294831 Y39.474422 Z-0.125000
G01 X36.108441 Y39.698524 Z-0.125000
G01 X34.921786 Y39.922361 Z-0.125000
G01 X33.735396 Y40.146198 Z-0.125000
G01 X32.865447 Y39.903575 Z-0.125000
G01 X31.995498 Y39.660953 Z-0.125000
G01 X31.125814 Y39.418330 Z-0.125000
G01 X30.255865 Y39.175708 Z-0.125000
G01 X29.385916 Y38.933085 Z-0.125000
G01 X28.516232 Y38.690462 Z-0.125000
G01 X27.646283 Y38.447840 Z-0.125000
G01 X26.776334 Y38.205217 Z-0.125000
G01 X25.906650 Y37.962595 Z-0.125000
G01 X25.036701 Y37.719972 Z-0.125000
G01 X24.166752 Y37.477349 Z-0.125000
G01 X23.115564 Y37.863111 Z-0.125000
G01 X22.064111 Y38.249138 Z-0.125000
G01 X21.012923 Y38.634900 Z-0.125000
G01 X19.961470 Y39.020662 Z-0.125000
G01 X18.910282 Y39.406689 Z-0.125000
G01 X17.858829 Y39.792451 Z-0.125000
G01 X16.807376 Y40.178213 Z-0.125000
G01 X15.756188 Y40.564239 Z-0.125000
G01 X14.704735 Y40.950001 Z-0.125000
G01 X13.653547 Y41.335763 Z-0.125000
G01 X12.602094 Y41.721790 Z-0.125000
G00 Z10.000000

(End cutting path id: path2288)


(Start cutting path id: path2462)
(Change tool to Default tool)

G00 Z10.000000
G00 X13.422830 Y42.408118

G00 Z4.875000 (Fast pre-penetrate)
G01 Z-0.125000 F100.0(Penetrate)
G01 X12.422442 Y42.829334 Z-0.125000 F800.000000
G00 Z10.000000

(End cutting path id: path2462)


(Start cutting path id: path2290)
(Change tool to Default tool)

G00 Z10.000000
G00 X13.422830 Y42.408118

G00 Z4.875000 (Fast pre-penetrate)
G01 Z-0.125000 F100.0(Penetrate)
G01 X14.423219 Y41.986902 Z-0.125000 F800.000000
G01 X15.423607 Y41.565950 Z-0.125000
G01 X16.424260 Y41.144734 Z-0.125000
G01 X17.424648 Y40.723518 Z-0.125000
G01 X18.425036 Y40.302302 Z-0.125000
G01 X19.425689 Y39.881086 Z-0.125000
G01 X20.426078 Y39.459870 Z-0.125000
G01 X21.426466 Y39.038654 Z-0.125000
G01 X22.426854 Y38.617702 Z-0.125000
G01 X23.427507 Y38.196486 Z-0.125000
G01 X24.333175 Y38.478002 Z-0.125000
G01 X25.239107 Y38.759519 Z-0.125000
G01 X26.145039 Y39.040770 Z-0.125000
G01 X27.050971 Y39.322287 Z-0.125000
G01 X27.956639 Y39.603803 Z-0.125000
G01 X28.862571 Y39.885319 Z-0.125000
G01 X29.768503 Y40.166835 Z-0.125000
