%
(Header)
(Generated by gcodetools from Inkscape.)
(Using default header. To add your own header create file "header" in the output dir.)
M3
(Header end.)
G21 (All units in mm)

(Start cutting path id: polygon306371)
(Change tool to Default tool)

G00 Z3.000000
G00 X62.639970 Y217.860031

G00 Z4.875000 (Fast pre-penetrate)
G01 Z-0.125000 F400.0(Penetrate)
G01 X62.323873 Y217.801162 Z-0.125000 F800.000000
G01 X62.007776 Y217.860031 Z-0.125000
G01 X61.743034 Y218.021877 Z-0.125000
G01 X61.508190 Y218.359617 Z-0.125000
G01 X61.449320 Y218.675714 Z-0.125000
G01 X61.508190 Y218.991812 Z-0.125000
G01 X61.670035 Y219.256553 Z-0.125000
G01 X62.007776 Y219.491397 Z-0.125000
G01 X62.323873 Y219.550267 Z-0.125000
G01 X62.639970 Y219.491397 Z-0.125000
G01 X62.904712 Y219.329552 Z-0.125000
G01 X63.139556 Y218.991812 Z-0.125000
G01 X63.198426 Y218.675714 Z-0.125000
G01 X63.139556 Y218.359617 Z-0.125000
G01 X62.977711 Y218.094875 Z-0.125000
G01 X62.639970 Y217.860031 Z-0.125000
G00 Z3.000000

(End cutting path id: polygon306371)


(Start cutting path id: polygon302579)
(Change tool to Default tool)

G00 Z3.000000
G00 X61.614261 Y214.742212

G00 Z4.875000 (Fast pre-penetrate)
G01 Z-0.125000 F400.0(Penetrate)
G01 X61.485753 Y215.023278 Z-0.125000 F800.000000
G01 X61.466095 Y215.344588 Z-0.125000
G01 X61.560657 Y215.642535 Z-0.125000
G01 X61.829949 Y215.945747 Z-0.125000
G01 X62.111016 Y216.074255 Z-0.125000
G01 X62.432326 Y216.093913 Z-0.125000
G01 X62.730272 Y215.999351 Z-0.125000
G01 X63.033485 Y215.730059 Z-0.125000
G01 X63.161993 Y215.448992 Z-0.125000
G01 X63.181651 Y215.127683 Z-0.125000
G01 X63.087089 Y214.829736 Z-0.125000
G01 X62.817797 Y214.526524 Z-0.125000
G01 X62.536730 Y214.398016 Z-0.125000
G01 X62.215420 Y214.378357 Z-0.125000
G01 X61.917474 Y214.472919 Z-0.125000
G01 X61.614261 Y214.742212 Z-0.125000
G00 Z3.000000

(End cutting path id: polygon302579)


(Start cutting path id: polygon302577)
(Change tool to Default tool)

G00 Z3.000000
G00 X59.380334 Y215.948816

G00 Z4.875000 (Fast pre-penetrate)
G01 Z-0.125000 F400.0(Penetrate)
G01 X59.650817 Y215.644307 Z-0.125000 F800.000000
G01 X59.745776 Y215.345038 Z-0.125000
G01 X59.726012 Y215.022352 Z-0.125000
G01 X59.596975 Y214.740095 Z-0.125000
G01 X59.292466 Y214.469612 Z-0.125000
G01 X58.993196 Y214.374653 Z-0.125000
G01 X58.670511 Y214.394417 Z-0.125000
G01 X58.388254 Y214.523455 Z-0.125000
G01 X58.117771 Y214.827963 Z-0.125000
G01 X58.022812 Y215.127233 Z-0.125000
G01 X58.042576 Y215.449918 Z-0.125000
G01 X58.171613 Y215.732176 Z-0.125000
G01 X58.476122 Y216.002659 Z-0.125000
G01 X58.775392 Y216.097618 Z-0.125000
G01 X59.098077 Y216.077853 Z-0.125000
G01 X59.380334 Y215.948816 Z-0.125000
G00 Z3.000000

(End cutting path id: polygon302577)


(Start cutting path id: polygon302575)
(Change tool to Default tool)

G00 Z3.000000
G00 X58.000746 Y218.467620

G00 Z4.875000 (Fast pre-penetrate)
G01 Z-0.125000 F400.0(Penetrate)
G01 X57.982860 Y218.781548 Z-0.125000 F800.000000
G01 X58.069008 Y219.074811 Z-0.125000
G01 X58.316684 Y219.383871 Z-0.125000
G01 X58.676199 Y219.559263 Z-0.125000
G01 X58.990127 Y219.577149 Z-0.125000
G01 X59.283391 Y219.491000 Z-0.125000
G01 X59.592450 Y219.243324 Z-0.125000
G01 X59.767842 Y218.883809 Z-0.125000
G01 X59.785728 Y218.569881 Z-0.125000
G01 X59.699580 Y218.276617 Z-0.125000
G01 X59.451904 Y217.967558 Z-0.125000
G01 X59.092389 Y217.792166 Z-0.125000
G01 X58.778461 Y217.774280 Z-0.125000
G01 X58.485197 Y217.860428 Z-0.125000
G01 X58.176138 Y218.108104 Z-0.125000
G01 X58.000746 Y218.467620 Z-0.125000
G00 Z3.000000

(End cutting path id: polygon302575)


(Start cutting path id: polygon302041)
(Change tool to Default tool)

G00 Z3.000000
G00 X55.661117 Y219.594585

G00 Z4.875000 (Fast pre-penetrate)
G01 Z-0.125000 F400.0(Penetrate)
G01 X56.035000 Y219.412155 Z-0.125000 F800.000000
G01 X56.292571 Y219.090766 Z-0.125000
G01 X56.382159 Y218.785781 Z-0.125000
G01 X56.363585 Y218.459312 Z-0.125000
G01 X56.181155 Y218.085430 Z-0.125000
G01 X55.859766 Y217.827858 Z-0.125000
G01 X55.554782 Y217.738270 Z-0.125000
G01 X55.228313 Y217.756844 Z-0.125000
G01 X54.854430 Y217.939274 Z-0.125000
G01 X54.596859 Y218.260663 Z-0.125000
G01 X54.507271 Y218.565648 Z-0.125000
G01 X54.525845 Y218.892117 Z-0.125000
G01 X54.708275 Y219.265999 Z-0.125000
G01 X55.029664 Y219.523571 Z-0.125000
G01 X55.334648 Y219.613158 Z-0.125000
G01 X55.661117 Y219.594585 Z-0.125000
G00 Z3.000000

(End cutting path id: polygon302041)


(Start cutting path id: polygon302039)
(Change tool to Default tool)

G00 Z3.000000
G00 X54.640092 Y221.604410

G00 Z4.875000 (Fast pre-penetrate)
G01 Z-0.125000 F400.0(Penetrate)
G01 X54.516902 Y221.896774 Z-0.125000 F800.000000
G01 X54.498143 Y222.226445 Z-0.125000
G01 X54.640092 Y222.626177 Z-0.125000
G01 X54.933832 Y222.919917 Z-0.125000
G01 X55.226196 Y223.043107 Z-0.125000
G01 X55.555866 Y223.061865 Z-0.125000
G01 X55.955598 Y222.919917 Z-0.125000
G01 X56.249338 Y222.626177 Z-0.125000
G01 X56.372528 Y222.333812 Z-0.125000
G01 X56.391287 Y222.004142 Z-0.125000
G01 X56.249338 Y221.604410 Z-0.125000
G01 X55.955598 Y221.310670 Z-0.125000
G01 X55.663234 Y221.187480 Z-0.125000
G01 X55.333564 Y221.168721 Z-0.125000
G01 X54.933832 Y221.310670 Z-0.125000
G01 X54.640092 Y221.604410 Z-0.125000
G00 Z3.000000

(End cutting path id: polygon302039)


(Start cutting path id: polygon302025)
(Change tool to Default tool)

G00 Z3.000000
G00 X51.147464 Y221.613961

G00 Z4.875000 (Fast pre-penetrate)
G01 Z-0.125000 F400.0(Penetrate)
G01 X51.017686 Y222.007052 Z-0.125000 F800.000000
G01 X51.034751 Y222.328388 Z-0.125000
G01 X51.203502 Y222.701927 Z-0.125000
G01 X51.503804 Y222.972966 Z-0.125000
G01 X51.896895 Y223.102744 Z-0.125000
G01 X52.218231 Y223.085678 Z-0.125000
G01 X52.591769 Y222.916927 Z-0.125000
G01 X52.862808 Y222.616625 Z-0.125000
G01 X52.992586 Y222.223534 Z-0.125000
G01 X52.975521 Y221.902198 Z-0.125000
G01 X52.806770 Y221.528660 Z-0.125000
G01 X52.506468 Y221.257621 Z-0.125000
G01 X52.113377 Y221.127843 Z-0.125000
G01 X51.792041 Y221.144909 Z-0.125000
G01 X51.418503 Y221.313660 Z-0.125000
G01 X51.147464 Y221.613961 Z-0.125000
G00 Z3.000000

(End cutting path id: polygon302025)


(Start cutting path id: polygon304817)
(Change tool to Default tool)

G00 Z3.000000
G00 X49.588144 Y222.010201

G00 Z4.875000 (Fast pre-penetrate)
G01 Z-0.125000 F400.0(Penetrate)
G01 X49.469399 Y221.625339 Z-0.125000 F800.000000
G01 X49.219395 Y221.322126 Z-0.125000
G01 X48.871230 Y221.133611 Z-0.125000
G01 X48.460465 Y221.092706 Z-0.125000
G01 X48.075602 Y221.211451 Z-0.125000
G01 X47.772390 Y221.461456 Z-0.125000
G01 X47.583875 Y221.809621 Z-0.125000
G01 X47.542970 Y222.220386 Z-0.125000
G01 X47.661715 Y222.605248 Z-0.125000
G01 X47.911719 Y222.908460 Z-0.125000
G01 X48.259884 Y223.096976 Z-0.125000
G01 X48.670649 Y223.137880 Z-0.125000
G01 X49.055512 Y223.019135 Z-0.125000
G01 X49.358724 Y222.769131 Z-0.125000
G01 X49.547239 Y222.420966 Z-0.125000
G01 X49.588144 Y222.010201 Z-0.125000
G00 Z3.000000

(End cutting path id: polygon304817)


(Start cutting path id: polygon304815)
(Change tool to Default tool)

G00 Z3.000000
G00 X48.459036 Y224.518474

G00 Z4.875000 (Fast pre-penetrate)
G01 Z-0.125000 F400.0(Penetrate)
G01 X48.068988 Y224.638833 Z-0.125000 F800.000000
G01 X47.761674 Y224.892198 Z-0.125000
G01 X47.570593 Y225.245072 Z-0.125000
G01 X47.529159 Y225.661393 Z-0.125000
G01 X47.649518 Y226.051442 Z-0.125000
G01 X47.902882 Y226.358755 Z-0.125000
G01 X48.255757 Y226.549837 Z-0.125000
G01 X48.672078 Y226.591270 Z-0.125000
G01 X49.062126 Y226.470912 Z-0.125000
G01 X49.369440 Y226.217547 Z-0.125000
G01 X49.560521 Y225.864673 Z-0.125000
G01 X49.601955 Y225.448351 Z-0.125000
G01 X49.481596 Y225.058303 Z-0.125000
G01 X49.228232 Y224.750990 Z-0.125000
G01 X48.875357 Y224.559908 Z-0.125000
G01 X48.459036 Y224.518474 Z-0.125000
G00 Z3.000000

(End cutting path id: polygon304815)


(Start cutting path id: polygon304813)
(Change tool to Default tool)

G00 Z3.000000
G00 X49.598595 Y228.781938

G00 Z4.875000 (Fast pre-penetrate)
G01 Z-0.125000 F400.0(Penetrate)
G01 X49.439951 Y228.404881 Z-0.125000 F800.000000
G01 X49.155127 Y228.120057 Z-0.125000
G01 X48.778070 Y227.961413 Z-0.125000
G01 X48.353044 Y227.961413 Z-0.125000
G01 X47.975987 Y228.120057 Z-0.125000
G01 X47.691163 Y228.404881 Z-0.125000
G01 X47.532519 Y228.781938 Z-0.125000
G01 X47.532519 Y229.206964 Z-0.125000
G01 X47.691163 Y229.584022 Z-0.125000
G01 X47.975987 Y229.868845 Z-0.125000
G01 X48.353044 Y230.027489 Z-0.125000
G01 X48.778070 Y230.027489 Z-0.125000
G01 X49.155127 Y229.868845 Z-0.125000
G01 X49.439951 Y229.584022 Z-0.125000
G01 X49.598595 Y229.206964 Z-0.125000
G01 X49.598595 Y228.781938 Z-0.125000
G00 Z3.000000

(End cutting path id: polygon304813)


(Start cutting path id: polygon302029)
(Change tool to Default tool)

G00 Z3.000000
G00 X51.796433 Y228.043963

G00 Z4.875000 (Fast pre-penetrate)
G01 Z-0.125000 F400.0(Penetrate)
G01 X51.430541 Y228.209248 Z-0.125000 F800.000000
G01 X51.165059 Y228.503412 Z-0.125000
G01 X51.037926 Y228.888433 Z-0.125000
G01 X51.054648 Y229.203154 Z-0.125000
G01 X51.219933 Y229.569046 Z-0.125000
G01 X51.514096 Y229.834529 Z-0.125000
G01 X51.899118 Y229.961661 Z-0.125000
G01 X52.213839 Y229.944939 Z-0.125000
G01 X52.579731 Y229.779654 Z-0.125000
G01 X52.845213 Y229.485491 Z-0.125000
G01 X52.972346 Y229.100470 Z-0.125000
G01 X52.955624 Y228.785748 Z-0.125000
G01 X52.790339 Y228.419856 Z-0.125000
G01 X52.496176 Y228.154374 Z-0.125000
G01 X52.111154 Y228.027242 Z-0.125000
G01 X51.796433 Y228.043963 Z-0.125000
G00 Z3.000000

(End cutting path id: polygon302029)


(Start cutting path id: polygon302027)
(Change tool to Default tool)

G00 Z3.000000
G00 X52.979569 Y225.448060

G00 Z4.875000 (Fast pre-penetrate)
G01 Z-0.125000 F400.0(Penetrate)
G01 X52.851484 Y225.060155 Z-0.125000 F800.000000
G01 X52.584017 Y224.763796 Z-0.125000
G01 X52.215400 Y224.597294 Z-0.125000
G01 X51.898324 Y224.580440 Z-0.125000
G01 X51.510419 Y224.708524 Z-0.125000
G01 X51.214059 Y224.975991 Z-0.125000
G01 X51.047557 Y225.344608 Z-0.125000
G01 X51.030703 Y225.661684 Z-0.125000
G01 X51.158788 Y226.049590 Z-0.125000
G01 X51.426255 Y226.345949 Z-0.125000
G01 X51.794872 Y226.512451 Z-0.125000
G01 X52.111948 Y226.529305 Z-0.125000
G01 X52.499853 Y226.401220 Z-0.125000
G01 X52.796213 Y226.133753 Z-0.125000
G01 X52.962715 Y225.765136 Z-0.125000
G01 X52.979569 Y225.448060 Z-0.125000
G00 Z3.000000

(End cutting path id: polygon302027)


(Start cutting path id: polygon302037)
(Change tool to Default tool)

G00 Z3.000000
G00 X55.444715 Y226.476971

G00 Z4.875000 (Fast pre-penetrate)
G01 Z-0.125000 F400.0(Penetrate)
G01 X55.850241 Y226.383255 Z-0.125000 F800.000000
G01 X56.164248 Y226.131610 Z-0.125000
G01 X56.313050 Y225.865863 Z-0.125000
G01 X56.366813 Y225.554872 Z-0.125000
G01 X56.273098 Y225.149346 Z-0.125000
G01 X56.021453 Y224.835339 Z-0.125000
G01 X55.755706 Y224.686537 Z-0.125000
G01 X55.444715 Y224.632774 Z-0.125000
G01 X55.039189 Y224.726489 Z-0.125000
G01 X54.725182 Y224.978134 Z-0.125000
G01 X54.576380 Y225.243881 Z-0.125000
G01 X54.522617 Y225.554872 Z-0.125000
G01 X54.616332 Y225.960399 Z-0.125000
G01 X54.867977 Y226.274406 Z-0.125000
G01 X55.133724 Y226.423207 Z-0.125000
G01 X55.444715 Y226.476971 Z-0.125000
G00 Z3.000000

(End cutting path id: polygon302037)


(Start cutting path id: polygon302035)
(Change tool to Default tool)

G00 Z3.000000
G00 X54.879936 Y228.289814

G00 Z4.875000 (Fast pre-penetrate)
G01 Z-0.125000 F400.0(Penetrate)
G01 X54.633477 Y228.597339 Z-0.125000 F800.000000
G01 X54.541693 Y228.994451 Z-0.125000
G01 X54.594345 Y229.299013 Z-0.125000
G01 X54.740078 Y229.559230 Z-0.125000
G01 X55.047602 Y229.805689 Z-0.125000
G01 X55.444715 Y229.897473 Z-0.125000
G01 X55.749276 Y229.844821 Z-0.125000
G01 X56.009494 Y229.699089 Z-0.125000
G01 X56.255953 Y229.391564 Z-0.125000
G01 X56.347737 Y228.994451 Z-0.125000
G01 X56.295085 Y228.689890 Z-0.125000
G01 X56.149352 Y228.429672 Z-0.125000
G01 X55.841828 Y228.183213 Z-0.125000
G01 X55.444715 Y228.091430 Z-0.125000
G01 X55.140154 Y228.144082 Z-0.125000
G01 X54.879936 Y228.289814 Z-0.125000
G00 Z3.000000

(End cutting path id: polygon302035)


(Start cutting path id: polygon302569)
(Change tool to Default tool)

G00 Z3.000000
G00 X58.572959 Y229.797831

G00 Z4.875000 (Fast pre-penetrate)
G01 Z-0.125000 F400.0(Penetrate)
G01 X58.884294 Y229.855828 Z-0.125000 F800.000000
G01 X59.195629 Y229.797831 Z-0.125000
G01 X59.456375 Y229.638420 Z-0.125000
G01 X59.687674 Y229.305786 Z-0.125000
G01 X59.745670 Y228.994451 Z-0.125000
G01 X59.687674 Y228.683116 Z-0.125000
G01 X59.528263 Y228.422370 Z-0.125000
G01 X59.195629 Y228.191071 Z-0.125000
G01 X58.884294 Y228.133075 Z-0.125000
G01 X58.572959 Y228.191071 Z-0.125000
G01 X58.312213 Y228.350483 Z-0.125000
G01 X58.080914 Y228.683116 Z-0.125000
G01 X58.022918 Y228.994451 Z-0.125000
G01 X58.080914 Y229.305786 Z-0.125000
G01 X58.240325 Y229.566533 Z-0.125000
G01 X58.572959 Y229.797831 Z-0.125000
G00 Z3.000000

(End cutting path id: polygon302569)


(Start cutting path id: polygon302567)
(Change tool to Default tool)

G00 Z3.000000
G00 X59.185522 Y231.592921

G00 Z4.875000 (Fast pre-penetrate)
G01 Z-0.125000 F400.0(Penetrate)
G01 X58.884294 Y231.540851 Z-0.125000 F800.000000
G01 X58.583066 Y231.592921 Z-0.125000
G01 X58.252708 Y231.802444 Z-0.125000
G01 X58.043185 Y232.132803 Z-0.125000
G01 X57.991115 Y232.434030 Z-0.125000
G01 X58.043185 Y232.735258 Z-0.125000
G01 X58.252708 Y233.065616 Z-0.125000
G01 X58.583066 Y233.275140 Z-0.125000
G01 X58.884294 Y233.327210 Z-0.125000
G01 X59.185522 Y233.275140 Z-0.125000
G01 X59.515880 Y233.065616 Z-0.125000
G01 X59.725403 Y232.735258 Z-0.125000
G01 X59.777473 Y232.434030 Z-0.125000
G01 X59.725403 Y232.132803 Z-0.125000
G01 X59.515880 Y231.802444 Z-0.125000
G01 X59.185522 Y231.592921 Z-0.125000
G00 Z3.000000

(End cutting path id: polygon302567)


(Start cutting path id: polygon302565)
(Change tool to Default tool)

G00 Z3.000000
G00 X61.909854 Y231.656527

G00 Z4.875000 (Fast pre-penetrate)
G01 Z-0.125000 F400.0(Penetrate)
G01 X61.600979 Y231.930873 Z-0.125000 F800.000000
G01 X61.470090 Y232.217178 Z-0.125000
G01 X61.450061 Y232.544494 Z-0.125000
G01 X61.546369 Y232.848050 Z-0.125000
G01 X61.820716 Y233.156924 Z-0.125000
G01 X62.107021 Y233.287813 Z-0.125000
G01 X62.434336 Y233.307842 Z-0.125000
G01 X62.737892 Y233.211534 Z-0.125000
G01 X63.046767 Y232.937188 Z-0.125000
G01 X63.177656 Y232.650883 Z-0.125000
G01 X63.197685 Y232.323567 Z-0.125000
G01 X63.101377 Y232.020011 Z-0.125000
G01 X62.827030 Y231.711137 Z-0.125000
G01 X62.540725 Y231.580247 Z-0.125000
G01 X62.213410 Y231.560218 Z-0.125000
G01 X61.909854 Y231.656527 Z-0.125000
G00 Z3.000000

(End cutting path id: polygon302565)


(Start cutting path id: polygon302539)
(Change tool to Default tool)

G00 Z3.000000
G00 X63.110981 Y228.689440

G00 Z4.875000 (Fast pre-penetrate)
G01 Z-0.125000 F400.0(Penetrate)
G01 X62.954798 Y228.433985 Z-0.125000 F800.000000
G01 X62.628884 Y228.207343 Z-0.125000
G01 X62.323873 Y228.150537 Z-0.125000
G01 X62.018862 Y228.207343 Z-0.125000
G01 X61.763407 Y228.363527 Z-0.125000
G01 X61.536765 Y228.689440 Z-0.125000
G01 X61.479959 Y228.994451 Z-0.125000
G01 X61.536765 Y229.299463 Z-0.125000
G01 X61.692948 Y229.554917 Z-0.125000
G01 X62.018862 Y229.781559 Z-0.125000
G01 X62.323873 Y229.838365 Z-0.125000
G01 X62.628884 Y229.781559 Z-0.125000
G01 X62.884339 Y229.625376 Z-0.125000
G01 X63.110981 Y229.299463 Z-0.125000
G01 X63.167787 Y228.994451 Z-0.125000
G01 X63.110981 Y228.689440 Z-0.125000
G00 Z3.000000

(End cutting path id: polygon302539)


(Start cutting path id: polygon302541)
(Change tool to Default tool)

G00 Z3.000000
G00 X65.197588 Y229.631435

G00 Z4.875000 (Fast pre-penetrate)
G01 Z-0.125000 F400.0(Penetrate)
G01 X65.455504 Y229.789126 Z-0.125000 F800.000000
G01 X65.763452 Y229.846461 Z-0.125000
G01 X66.071400 Y229.789126 Z-0.125000
G01 X66.400436 Y229.560315 Z-0.125000
G01 X66.558127 Y229.302399 Z-0.125000
G01 X66.615462 Y228.994451 Z-0.125000
G01 X66.558127 Y228.686503 Z-0.125000
G01 X66.400436 Y228.428588 Z-0.125000
G01 X66.071400 Y228.199776 Z-0.125000
G01 X65.763452 Y228.142441 Z-0.125000
G01 X65.455504 Y228.199776 Z-0.125000
G01 X65.126468 Y228.428588 Z-0.125000
G01 X64.968777 Y228.686503 Z-0.125000
G01 X64.911442 Y228.994451 Z-0.125000
G01 X64.968777 Y229.302399 Z-0.125000
G01 X65.197588 Y229.631435 Z-0.125000
G00 Z3.000000

(End cutting path id: polygon302541)


(Start cutting path id: polygon302563)
(Change tool to Default tool)

G00 Z3.000000
G00 X66.155882 Y231.632397

G00 Z4.875000 (Fast pre-penetrate)
G01 Z-0.125000 F400.0(Penetrate)
G01 X65.867512 Y231.547704 Z-0.125000 F800.000000
G01 X65.558850 Y231.565272 Z-0.125000
G01 X65.205341 Y231.737727 Z-0.125000
G01 X64.961818 Y232.041601 Z-0.125000
G01 X64.877125 Y232.329970 Z-0.125000
G01 X64.894694 Y232.638632 Z-0.125000
G01 X65.067149 Y232.992142 Z-0.125000
G01 X65.371022 Y233.235664 Z-0.125000
G01 X65.659392 Y233.320357 Z-0.125000
G01 X65.968054 Y233.302789 Z-0.125000
G01 X66.321563 Y233.130333 Z-0.125000
G01 X66.565086 Y232.826460 Z-0.125000
G01 X66.649779 Y232.538091 Z-0.125000
G01 X66.632210 Y232.229428 Z-0.125000
G01 X66.459755 Y231.875919 Z-0.125000
G01 X66.155882 Y231.632397 Z-0.125000
G00 Z3.000000

(End cutting path id: polygon302563)


(Start cutting path id: polygon302561)
(Change tool to Default tool)

G00 Z3.000000
G00 X68.988428 Y233.345281

G00 Z4.875000 (Fast pre-penetrate)
G01 Z-0.125000 F400.0(Penetrate)
G01 X69.312171 Y233.363696 Z-0.125000 F800.000000
G01 X69.614643 Y233.274875 Z-0.125000
G01 X69.933386 Y233.019420 Z-0.125000
G01 X70.114281 Y232.648634 Z-0.125000
G01 X70.132696 Y232.324890 Z-0.125000
G01 X70.043876 Y232.022419 Z-0.125000
G01 X69.788421 Y231.703675 Z-0.125000
G01 X69.417634 Y231.522780 Z-0.125000
G01 X69.093891 Y231.504365 Z-0.125000
G01 X68.791419 Y231.593186 Z-0.125000
G01 X68.472676 Y231.848640 Z-0.125000
G01 X68.291781 Y232.219427 Z-0.125000
G01 X68.273366 Y232.543171 Z-0.125000
G01 X68.362186 Y232.845642 Z-0.125000
G01 X68.617641 Y233.164385 Z-0.125000
G01 X68.988428 Y233.345281 Z-0.125000
G00 Z3.000000

(End cutting path id: polygon302561)


(Start cutting path id: polygon302559)
(Change tool to Default tool)

G00 Z3.000000
G00 X73.040596 Y231.491930

G00 Z4.875000 (Fast pre-penetrate)
G01 Z-0.125000 F400.0(Penetrate)
G01 X72.642610 Y231.411576 Z-0.125000 F800.000000
G01 X72.244624 Y231.491930 Z-0.125000
G01 X71.919637 Y231.711057 Z-0.125000
G01 X71.700509 Y232.036045 Z-0.125000
G01 X71.620155 Y232.434030 Z-0.125000
G01 X71.700509 Y232.832016 Z-0.125000
G01 X71.919637 Y233.157003 Z-0.125000
G01 X72.244624 Y233.376131 Z-0.125000
G01 X72.642610 Y233.456485 Z-0.125000
G01 X73.040596 Y233.376131 Z-0.125000
G01 X73.365583 Y233.157003 Z-0.125000
G01 X73.584711 Y232.832016 Z-0.125000
G01 X73.665065 Y232.434030 Z-0.125000
G01 X73.584711 Y232.036045 Z-0.125000
G01 X73.365583 Y231.711057 Z-0.125000
G01 X73.040596 Y231.491930 Z-0.125000
G00 Z3.000000

(End cutting path id: polygon302559)


(Start cutting path id: polygon302545)
(Change tool to Default tool)

G00 Z3.000000
G00 X73.575212 Y229.305045

G00 Z4.875000 (Fast pre-penetrate)
G01 Z-0.125000 F400.0(Penetrate)
G01 X73.625298 Y228.994451 Z-0.125000 F800.000000
G01 X73.537827 Y228.588581 Z-0.125000
G01 X73.301025 Y228.264943 Z-0.125000
G01 X72.953204 Y228.061849 Z-0.125000
G01 X72.642610 Y228.011764 Z-0.125000
G01 X72.236740 Y228.099235 Z-0.125000
G01 X71.913102 Y228.336037 Z-0.125000
G01 X71.710008 Y228.683857 Z-0.125000
G01 X71.659922 Y228.994451 Z-0.125000
G01 X71.747393 Y229.400322 Z-0.125000
G01 X71.984195 Y229.723960 Z-0.125000
G01 X72.332016 Y229.927053 Z-0.125000
G01 X72.642610 Y229.977139 Z-0.125000
G01 X73.048480 Y229.889668 Z-0.125000
G01 X73.372118 Y229.652866 Z-0.125000
G01 X73.575212 Y229.305045 Z-0.125000
G00 Z3.000000

(End cutting path id: polygon302545)


(Start cutting path id: polygon302547)
(Change tool to Default tool)

G00 Z3.000000
G00 X76.592728 Y228.052642

G00 Z4.875000 (Fast pre-penetrate)
G01 Z-0.125000 F400.0(Penetrate)
G01 X76.191700 Y227.928896 Z-0.125000 F800.000000
G01 X75.763684 Y227.971521 Z-0.125000
G01 X75.400888 Y228.167947 Z-0.125000
G01 X75.140379 Y228.483912 Z-0.125000
G01 X75.016634 Y228.884940 Z-0.125000
G01 X75.059258 Y229.312956 Z-0.125000
G01 X75.255685 Y229.675753 Z-0.125000
G01 X75.571650 Y229.936261 Z-0.125000
G01 X75.972678 Y230.060006 Z-0.125000
G01 X76.400694 Y230.017382 Z-0.125000
G01 X76.763490 Y229.820956 Z-0.125000
G01 X77.023999 Y229.504991 Z-0.125000
G01 X77.147744 Y229.103962 Z-0.125000
G01 X77.105120 Y228.675946 Z-0.125000
G01 X76.908693 Y228.313150 Z-0.125000
G01 X76.592728 Y228.052642 Z-0.125000
G00 Z3.000000

(End cutting path id: polygon302547)


(Start cutting path id: polygon302529)
(Change tool to Default tool)

G00 Z3.000000
G00 X76.082189 Y226.560870

G00 Z4.875000 (Fast pre-penetrate)
G01 Z-0.125000 F400.0(Penetrate)
G01 X76.400165 Y226.509567 Z-0.125000 F800.000000
G01 X76.756214 Y226.301684 Z-0.125000
G01 X76.998652 Y225.970347 Z-0.125000
G01 X77.088186 Y225.554872 Z-0.125000
G01 X77.036884 Y225.236896 Z-0.125000
G01 X76.829001 Y224.880847 Z-0.125000
G01 X76.497664 Y224.638410 Z-0.125000
G01 X76.082189 Y224.548875 Z-0.125000
G01 X75.764213 Y224.600177 Z-0.125000
G01 X75.408164 Y224.808060 Z-0.125000
G01 X75.165726 Y225.139398 Z-0.125000
G01 X75.076192 Y225.554872 Z-0.125000
G01 X75.127494 Y225.872848 Z-0.125000
G01 X75.335377 Y226.228897 Z-0.125000
G01 X75.666714 Y226.471335 Z-0.125000
G01 X76.082189 Y226.560870 Z-0.125000
G00 Z3.000000

(End cutting path id: polygon302529)


(Start cutting path id: polygon302531)
(Change tool to Default tool)

G00 Z3.000000
G00 X73.578546 Y225.444991

G00 Z4.875000 (Fast pre-penetrate)
G01 Z-0.125000 F400.0(Penetrate)
G01 X73.438185 Y225.049730 Z-0.125000 F800.000000
G01 X73.147752 Y224.759298 Z-0.125000
G01 X72.858668 Y224.637484 Z-0.125000
G01 X72.532729 Y224.618936 Z-0.125000
G01 X72.137468 Y224.759298 Z-0.125000
G01 X71.847035 Y225.049730 Z-0.125000
G01 X71.725221 Y225.338814 Z-0.125000
G01 X71.706674 Y225.664754 Z-0.125000
G01 X71.847035 Y226.060014 Z-0.125000
G01 X72.137468 Y226.350447 Z-0.125000
G01 X72.426552 Y226.472261 Z-0.125000
G01 X72.752491 Y226.490808 Z-0.125000
G01 X73.147752 Y226.350447 Z-0.125000
G01 X73.438185 Y226.060014 Z-0.125000
G01 X73.559999 Y225.770931 Z-0.125000
G01 X73.578546 Y225.444991 Z-0.125000
G00 Z3.000000

(End cutting path id: polygon302531)


(Start cutting path id: polygon302619)
(Change tool to Default tool)

G00 Z3.000000
G00 X75.143978 Y222.225439

G00 Z4.875000 (Fast pre-penetrate)
G01 Z-0.125000 F400.0(Penetrate)
G01 X75.284683 Y222.621652 Z-0.125000 F800.000000
G01 X75.575830 Y222.912799 Z-0.125000
G01 X75.865601 Y223.034904 Z-0.125000
G01 X76.192335 Y223.053505 Z-0.125000
G01 X76.588548 Y222.912799 Z-0.125000
G01 X76.879695 Y222.621652 Z-0.125000
G01 X77.001800 Y222.331881 Z-0.125000
G01 X77.020400 Y222.005147 Z-0.125000
G01 X76.879695 Y221.608934 Z-0.125000
G01 X76.588548 Y221.317787 Z-0.125000
G01 X76.298777 Y221.195682 Z-0.125000
G01 X75.972043 Y221.177082 Z-0.125000
G01 X75.575830 Y221.317787 Z-0.125000
G01 X75.284683 Y221.608934 Z-0.125000
G01 X75.162578 Y221.898706 Z-0.125000
G01 X75.143978 Y222.225439 Z-0.125000
G00 Z3.000000

(End cutting path id: polygon302619)


(Start cutting path id: polygon302617)
(Change tool to Default tool)

G00 Z3.000000
G00 X72.242455 Y221.297864

G00 Z4.875000 (Fast pre-penetrate)
G01 Z-0.125000 F400.0(Penetrate)
G01 X71.932602 Y221.546202 Z-0.125000 F800.000000
G01 X71.756733 Y221.906670 Z-0.125000
G01 X71.738821 Y222.221418 Z-0.125000
G01 X71.825181 Y222.515449 Z-0.125000
G01 X72.073518 Y222.825302 Z-0.125000
G01 X72.433986 Y223.001170 Z-0.125000
G01 X72.748734 Y223.019082 Z-0.125000
G01 X73.042765 Y222.932722 Z-0.125000
G01 X73.352618 Y222.684385 Z-0.125000
G01 X73.528487 Y222.323917 Z-0.125000
G01 X73.546399 Y222.009169 Z-0.125000
G01 X73.460039 Y221.715138 Z-0.125000
G01 X73.211702 Y221.405285 Z-0.125000
G01 X72.851234 Y221.229416 Z-0.125000
G01 X72.536486 Y221.211504 Z-0.125000
G01 X72.242455 Y221.297864 Z-0.125000
G00 Z3.000000

(End cutting path id: polygon302617)


(Start cutting path id: polygon302607)
(Change tool to Default tool)

G00 Z3.000000
G00 X73.037606 Y219.482613

G00 Z4.875000 (Fast pre-penetrate)
G01 Z-0.125000 F400.0(Penetrate)
G01 X73.343464 Y219.237477 Z-0.125000 F800.000000
G01 X73.517057 Y218.881666 Z-0.125000
G01 X73.534757 Y218.570966 Z-0.125000
G01 X73.449509 Y218.280718 Z-0.125000
G01 X73.204373 Y217.974860 Z-0.125000
G01 X72.848561 Y217.801267 Z-0.125000
G01 X72.537862 Y217.783567 Z-0.125000
G01 X72.247614 Y217.868816 Z-0.125000
G01 X71.941756 Y218.113952 Z-0.125000
G01 X71.768163 Y218.469763 Z-0.125000
G01 X71.750463 Y218.780463 Z-0.125000
G01 X71.835711 Y219.070710 Z-0.125000
G01 X72.080847 Y219.376568 Z-0.125000
G01 X72.436659 Y219.550161 Z-0.125000
G01 X72.747358 Y219.567862 Z-0.125000
G01 X73.037606 Y219.482613 Z-0.125000
G00 Z3.000000

(End cutting path id: polygon302607)


(Start cutting path id: polygon302605)
(Change tool to Default tool)

G00 Z3.000000
G00 X75.156969 Y218.675714

G00 Z4.875000 (Fast pre-penetrate)
G01 Z-0.125000 F400.0(Penetrate)
G01 X75.210917 Y218.987763 Z-0.125000 F800.000000
G01 X75.360221 Y219.254384 Z-0.125000
G01 X75.675313 Y219.506902 Z-0.125000
G01 X76.082189 Y219.600935 Z-0.125000
G01 X76.394238 Y219.546986 Z-0.125000
G01 X76.660858 Y219.397682 Z-0.125000
G01 X76.913376 Y219.082590 Z-0.125000
G01 X77.007409 Y218.675714 Z-0.125000
G01 X76.953461 Y218.363665 Z-0.125000
G01 X76.804157 Y218.097045 Z-0.125000
G01 X76.489065 Y217.844527 Z-0.125000
G01 X76.082189 Y217.750494 Z-0.125000
G01 X75.770140 Y217.804442 Z-0.125000
G01 X75.503520 Y217.953747 Z-0.125000
G01 X75.251002 Y218.268839 Z-0.125000
G01 X75.156969 Y218.675714 Z-0.125000
G00 Z3.000000

(End cutting path id: polygon302605)


(Start cutting path id: polygon302587)
(Change tool to Default tool)

G00 Z3.000000
G00 X75.865707 Y216.155323

G00 Z4.875000 (Fast pre-penetrate)
G01 Z-0.125000 F400.0(Penetrate)
G01 X76.192282 Y216.173897 Z-0.125000 F800.000000
G01 X76.497399 Y216.084309 Z-0.125000
G01 X76.818894 Y215.826632 Z-0.125000
G01 X77.001377 Y215.452617 Z-0.125000
G01 X77.019951 Y215.126042 Z-0.125000
G01 X76.930363 Y214.820925 Z-0.125000
G01 X76.672685 Y214.499430 Z-0.125000
G01 X76.298671 Y214.316947 Z-0.125000
G01 X75.972096 Y214.298374 Z-0.125000
G01 X75.666979 Y214.387962 Z-0.125000
G01 X75.345484 Y214.645639 Z-0.125000
G01 X75.163001 Y215.019653 Z-0.125000
G01 X75.144427 Y215.346228 Z-0.125000
G01 X75.234015 Y215.651345 Z-0.125000
G01 X75.491693 Y215.972840 Z-0.125000
G01 X75.865707 Y216.155323 Z-0.125000
G00 Z3.000000

(End cutting path id: polygon302587)


(Start cutting path id: polygon302585)
(Change tool to Default tool)

G00 Z3.000000
G00 X73.501790 Y215.543845

G00 Z4.875000 (Fast pre-penetrate)
G01 Z-0.125000 F400.0(Penetrate)
G01 X73.554972 Y215.236135 Z-0.125000 F800.000000
G01 X73.501790 Y214.928425 Z-0.125000
G01 X73.287743 Y214.591003 Z-0.125000
G01 X72.950320 Y214.376955 Z-0.125000
G01 X72.642610 Y214.323774 Z-0.125000
G01 X72.334900 Y214.376955 Z-0.125000
G01 X71.997477 Y214.591003 Z-0.125000
G01 X71.783430 Y214.928425 Z-0.125000
G01 X71.730248 Y215.236135 Z-0.125000
G01 X71.783430 Y215.543845 Z-0.125000
G01 X71.997477 Y215.881268 Z-0.125000
G01 X72.334900 Y216.095316 Z-0.125000
G01 X72.642610 Y216.148497 Z-0.125000
G01 X72.950320 Y216.095316 Z-0.125000
G01 X73.287743 Y215.881268 Z-0.125000
G01 X73.501790 Y215.543845 Z-0.125000
G00 Z3.000000

(End cutting path id: polygon302585)


(Start cutting path id: polygon302055)
(Change tool to Default tool)

G00 Z3.000000
G00 X73.228847 Y212.527943

G00 Z4.875000 (Fast pre-penetrate)
G01 Z-0.125000 F400.0(Penetrate)
G01 X73.484645 Y212.208750 Z-0.125000 F800.000000
G01 X73.579895 Y211.796556 Z-0.125000
G01 X73.525259 Y211.480433 Z-0.125000
G01 X73.373997 Y211.210320 Z-0.125000
G01 X73.054804 Y210.954521 Z-0.125000
G01 X72.642610 Y210.859271 Z-0.125000
G01 X72.326486 Y210.913907 Z-0.125000
G01 X72.056373 Y211.065170 Z-0.125000
G01 X71.800575 Y211.384362 Z-0.125000
G01 X71.705325 Y211.796556 Z-0.125000
G01 X71.759961 Y212.112680 Z-0.125000
G01 X71.911223 Y212.382793 Z-0.125000
G01 X72.230416 Y212.638592 Z-0.125000
G01 X72.642610 Y212.733842 Z-0.125000
G01 X72.958734 Y212.679205 Z-0.125000
G01 X73.228847 Y212.527943 Z-0.125000
G00 Z3.000000

(End cutting path id: polygon302055)


(Start cutting path id: polygon302057)
(Change tool to Default tool)

G00 Z3.000000
G00 X75.429013 Y212.520297

G00 Z4.875000 (Fast pre-penetrate)
G01 Z-0.125000 F400.0(Penetrate)
G01 X75.774056 Y212.721750 Z-0.125000 F800.000000
G01 X76.082189 Y212.771465 Z-0.125000
G01 X76.484831 Y212.684682 Z-0.125000
G01 X76.805929 Y212.449732 Z-0.125000
G01 X77.007383 Y212.104690 Z-0.125000
G01 X77.057098 Y211.796556 Z-0.125000
G01 X76.970315 Y211.393914 Z-0.125000
G01 X76.735365 Y211.072816 Z-0.125000
G01 X76.390322 Y210.871362 Z-0.125000
G01 X76.082189 Y210.821647 Z-0.125000
G01 X75.679547 Y210.908431 Z-0.125000
G01 X75.358449 Y211.143380 Z-0.125000
G01 X75.156995 Y211.488423 Z-0.125000
G01 X75.107280 Y211.796556 Z-0.125000
G01 X75.194063 Y212.199199 Z-0.125000
G01 X75.429013 Y212.520297 Z-0.125000
G00 Z3.000000

(End cutting path id: polygon302057)


(Start cutting path id: polygon302079)
(Change tool to Default tool)

G00 Z3.000000
G00 X76.394847 Y209.295744

G00 Z4.875000 (Fast pre-penetrate)
G01 Z-0.125000 F400.0(Penetrate)
G01 X76.744969 Y209.091327 Z-0.125000 F800.000000
G01 X76.983359 Y208.765520 Z-0.125000
G01 X77.071385 Y208.356977 Z-0.125000
G01 X77.020956 Y208.044320 Z-0.125000
G01 X76.816539 Y207.694197 Z-0.125000
G01 X76.490732 Y207.455808 Z-0.125000
G01 X76.082189 Y207.367781 Z-0.125000
G01 X75.673646 Y207.455808 Z-0.125000
G01 X75.347839 Y207.694197 Z-0.125000
G01 X75.143422 Y208.044320 Z-0.125000
G01 X75.092993 Y208.356977 Z-0.125000
G01 X75.143422 Y208.669635 Z-0.125000
G01 X75.347839 Y209.019758 Z-0.125000
G01 X75.673646 Y209.258147 Z-0.125000
G01 X76.082189 Y209.346174 Z-0.125000
G01 X76.394847 Y209.295744 Z-0.125000
G00 Z3.000000

(End cutting path id: polygon302079)


(Start cutting path id: polygon302081)
(Change tool to Default tool)

G00 Z3.000000
G00 X73.566587 Y208.574570

G00 Z4.875000 (Fast pre-penetrate)
G01 Z-0.125000 F400.0(Penetrate)
G01 X73.585266 Y208.246302 Z-0.125000 F800.000000
G01 X73.495176 Y207.939624 Z-0.125000
G01 X73.236176 Y207.616436 Z-0.125000
G01 X72.860203 Y207.433001 Z-0.125000
G01 X72.531935 Y207.414321 Z-0.125000
G01 X72.225257 Y207.504411 Z-0.125000
G01 X71.902069 Y207.763412 Z-0.125000
G01 X71.718633 Y208.139384 Z-0.125000
G01 X71.699954 Y208.467652 Z-0.125000
G01 X71.790044 Y208.774331 Z-0.125000
G01 X72.049044 Y209.097519 Z-0.125000
G01 X72.425017 Y209.280954 Z-0.125000
G01 X72.753285 Y209.299634 Z-0.125000
G01 X73.059963 Y209.209543 Z-0.125000
G01 X73.383151 Y208.950543 Z-0.125000
G01 X73.566587 Y208.574570 Z-0.125000
G00 Z3.000000

(End cutting path id: polygon302081)


(Start cutting path id: polygon302083)
(Change tool to Default tool)

G00 Z3.000000
G00 X69.923782 Y208.934694

G00 Z4.875000 (Fast pre-penetrate)
G01 Z-0.125000 F400.0(Penetrate)
G01 X70.072874 Y208.668497 Z-0.125000 F800.000000
G01 X70.126717 Y208.356977 Z-0.125000
G01 X70.032816 Y207.950763 Z-0.125000
G01 X69.780748 Y207.636227 Z-0.125000
G01 X69.514551 Y207.487134 Z-0.125000
G01 X69.203031 Y207.433292 Z-0.125000
G01 X68.796817 Y207.527192 Z-0.125000
G01 X68.482280 Y207.779260 Z-0.125000
G01 X68.333188 Y208.045457 Z-0.125000
G01 X68.279345 Y208.356977 Z-0.125000
G01 X68.373246 Y208.763192 Z-0.125000
G01 X68.625314 Y209.077728 Z-0.125000
G01 X68.891511 Y209.226820 Z-0.125000
G01 X69.203031 Y209.280663 Z-0.125000
G01 X69.609245 Y209.186763 Z-0.125000
G01 X69.923782 Y208.934694 Z-0.125000
G00 Z3.000000

(End cutting path id: polygon302083)


(Start cutting path id: polygon302053)
(Change tool to Default tool)

G00 Z3.000000
G00 X68.312445 Y212.006291

G00 Z4.875000 (Fast pre-penetrate)
G01 Z-0.125000 F400.0(Penetrate)
G01 X68.489239 Y212.368691 Z-0.125000 F800.000000
G01 X68.800759 Y212.618325 Z-0.125000
G01 X69.096351 Y212.705161 Z-0.125000
G01 X69.412766 Y212.687143 Z-0.125000
G01 X69.775165 Y212.510348 Z-0.125000
G01 X70.024799 Y212.198828 Z-0.125000
G01 X70.111635 Y211.903236 Z-0.125000
G01 X70.093617 Y211.586821 Z-0.125000
G01 X69.916823 Y211.224422 Z-0.125000
G01 X69.605303 Y210.974788 Z-0.125000
G01 X69.309711 Y210.887952 Z-0.125000
G01 X68.993296 Y210.905970 Z-0.125000
G01 X68.630897 Y211.082764 Z-0.125000
G01 X68.381263 Y211.394284 Z-0.125000
G01 X68.294427 Y211.689876 Z-0.125000
G01 X68.312445 Y212.006291 Z-0.125000
G00 Z3.000000

(End cutting path id: polygon302053)


(Start cutting path id: polygon302051)
(Change tool to Default tool)

G00 Z3.000000
G00 X66.649832 Y211.692496

G00 Z4.875000 (Fast pre-penetrate)
G01 Z-0.125000 F400.0(Penetrate)
G01 X66.516905 Y211.318164 Z-0.125000 F800.000000
G01 X66.241845 Y211.043103 Z-0.125000
G01 X65.968054 Y210.927745 Z-0.125000
G01 X65.659392 Y210.910177 Z-0.125000
G01 X65.285059 Y211.043103 Z-0.125000
G01 X65.009999 Y211.318164 Z-0.125000
G01 X64.894641 Y211.591954 Z-0.125000
G01 X64.877072 Y211.900617 Z-0.125000
G01 X65.009999 Y212.274949 Z-0.125000
G01 X65.285059 Y212.550009 Z-0.125000
G01 X65.558850 Y212.665367 Z-0.125000
G01 X65.867512 Y212.682936 Z-0.125000
G01 X66.241845 Y212.550009 Z-0.125000
G01 X66.516905 Y212.274949 Z-0.125000
G01 X66.632263 Y212.001158 Z-0.125000
G01 X66.649832 Y211.692496 Z-0.125000
G00 Z3.000000

(End cutting path id: polygon302051)


(Start cutting path id: polygon302581)
(Change tool to Default tool)

G00 Z3.000000
G00 X65.979246 Y214.386506

G00 Z4.875000 (Fast pre-penetrate)
G01 Z-0.125000 F400.0(Penetrate)
G01 X65.653518 Y214.366583 Z-0.125000 F800.000000
G01 X65.351470 Y214.462442 Z-0.125000
G01 X65.044077 Y214.735438 Z-0.125000
G01 X64.913823 Y215.020341 Z-0.125000
G01 X64.893900 Y215.346070 Z-0.125000
G01 X64.989758 Y215.648117 Z-0.125000
G01 X65.262755 Y215.955510 Z-0.125000
G01 X65.547658 Y216.085764 Z-0.125000
G01 X65.873386 Y216.105687 Z-0.125000
G01 X66.175434 Y216.009829 Z-0.125000
G01 X66.482827 Y215.736832 Z-0.125000
G01 X66.613081 Y215.451929 Z-0.125000
G01 X66.633004 Y215.126201 Z-0.125000
G01 X66.537146 Y214.824153 Z-0.125000
G01 X66.264149 Y214.516761 Z-0.125000
G01 X65.979246 Y214.386506 Z-0.125000
G00 Z3.000000

(End cutting path id: polygon302581)


(Start cutting path id: polygon302583)
(Change tool to Default tool)

G00 Z3.000000
G00 X68.359249 Y215.538342

G00 Z4.875000 (Fast pre-penetrate)
G01 Z-0.125000 F400.0(Penetrate)
G01 X68.569434 Y215.869732 Z-0.125000 F800.000000
G01 X68.900824 Y216.079917 Z-0.125000
G01 X69.203031 Y216.132172 Z-0.125000
G01 X69.505238 Y216.079917 Z-0.125000
G01 X69.836628 Y215.869732 Z-0.125000
G01 X70.046813 Y215.538342 Z-0.125000
G01 X70.099068 Y215.236135 Z-0.125000
G01 X70.046813 Y214.933929 Z-0.125000
G01 X69.836628 Y214.602538 Z-0.125000
G01 X69.505238 Y214.392354 Z-0.125000
G01 X69.203031 Y214.340099 Z-0.125000
G01 X68.900824 Y214.392354 Z-0.125000
G01 X68.569434 Y214.602538 Z-0.125000
G01 X68.359249 Y214.933929 Z-0.125000
G01 X68.306994 Y215.236135 Z-0.125000
G01 X68.359249 Y215.538342 Z-0.125000
G00 Z3.000000

(End cutting path id: polygon302583)


(Start cutting path id: polygon302609)
(Change tool to Default tool)

G00 Z3.000000
G00 X69.203031 Y219.562120

G00 Z4.875000 (Fast pre-penetrate)
G01 Z-0.125000 F400.0(Penetrate)
G01 X69.523388 Y219.502457 Z-0.125000 F800.000000
G01 X69.791728 Y219.338415 Z-0.125000
G01 X70.029774 Y218.996071 Z-0.125000
G01 X70.089437 Y218.675714 Z-0.125000
G01 X70.029774 Y218.355357 Z-0.125000
G01 X69.865732 Y218.087017 Z-0.125000
G01 X69.523388 Y217.848972 Z-0.125000
G01 X69.203031 Y217.789308 Z-0.125000
G01 X68.882674 Y217.848972 Z-0.125000
G01 X68.540330 Y218.087017 Z-0.125000
G01 X68.376288 Y218.355357 Z-0.125000
G01 X68.316625 Y218.675714 Z-0.125000
G01 X68.376288 Y218.996071 Z-0.125000
G01 X68.540330 Y219.264411 Z-0.125000
G01 X68.882674 Y219.502457 Z-0.125000
G01 X69.203031 Y219.562120 Z-0.125000
G00 Z3.000000

(End cutting path id: polygon302609)


(Start cutting path id: polygon302615)
(Change tool to Default tool)

G00 Z3.000000
G00 X68.613355 Y221.451481

G00 Z4.875000 (Fast pre-penetrate)
G01 Z-0.125000 F400.0(Penetrate)
G01 X68.374913 Y221.794381 Z-0.125000 F800.000000
G01 X68.315143 Y222.115293 Z-0.125000
G01 X68.374913 Y222.436206 Z-0.125000
G01 X68.539219 Y222.704969 Z-0.125000
G01 X68.882118 Y222.943412 Z-0.125000
G01 X69.203031 Y223.003181 Z-0.125000
G01 X69.523944 Y222.943412 Z-0.125000
G01 X69.866843 Y222.704969 Z-0.125000
G01 X70.031149 Y222.436206 Z-0.125000
G01 X70.090919 Y222.115293 Z-0.125000
G01 X70.031149 Y221.794381 Z-0.125000
G01 X69.866843 Y221.525617 Z-0.125000
G01 X69.523944 Y221.287175 Z-0.125000
G01 X69.203031 Y221.227406 Z-0.125000
G01 X68.882118 Y221.287175 Z-0.125000
G01 X68.613355 Y221.451481 Z-0.125000
G00 Z3.000000

(End cutting path id: polygon302615)


(Start cutting path id: polygon302611)
(Change tool to Default tool)

G00 Z3.000000
G00 X65.977314 Y219.517750

G00 Z4.875000 (Fast pre-penetrate)
G01 Z-0.125000 F400.0(Penetrate)
G01 X66.259677 Y219.388660 Z-0.125000 F800.000000
G01 X66.530240 Y219.084019 Z-0.125000
G01 X66.625252 Y218.784670 Z-0.125000
G01 X66.605487 Y218.461852 Z-0.125000
G01 X66.476397 Y218.179489 Z-0.125000
G01 X66.171756 Y217.908926 Z-0.125000
G01 X65.872407 Y217.813915 Z-0.125000
G01 X65.549590 Y217.833679 Z-0.125000
G01 X65.267227 Y217.962769 Z-0.125000
G01 X64.996664 Y218.267410 Z-0.125000
G01 X64.901652 Y218.566759 Z-0.125000
G01 X64.921417 Y218.889577 Z-0.125000
G01 X65.050507 Y219.171940 Z-0.125000
G01 X65.355148 Y219.442502 Z-0.125000
G01 X65.654497 Y219.537514 Z-0.125000
G01 X65.977314 Y219.517750 Z-0.125000
G00 Z3.000000

(End cutting path id: polygon302611)


(Start cutting path id: polygon302613)
(Change tool to Default tool)

G00 Z3.000000
G00 X64.903663 Y222.223984

G00 Z4.875000 (Fast pre-penetrate)
G01 Z-0.125000 F400.0(Penetrate)
G01 X64.998437 Y222.522645 Z-0.125000 F800.000000
G01 X65.268391 Y222.826572 Z-0.125000
G01 X65.550092 Y222.955371 Z-0.125000
G01 X65.872143 Y222.975082 Z-0.125000
G01 X66.170804 Y222.880309 Z-0.125000
G01 X66.474730 Y222.610355 Z-0.125000
G01 X66.603529 Y222.328653 Z-0.125000
G01 X66.623241 Y222.006603 Z-0.125000
G01 X66.528467 Y221.707941 Z-0.125000
G01 X66.258513 Y221.404015 Z-0.125000
G01 X65.976812 Y221.275216 Z-0.125000
G01 X65.654761 Y221.255504 Z-0.125000
G01 X65.356100 Y221.350278 Z-0.125000
G01 X65.052174 Y221.620232 Z-0.125000
G01 X64.923375 Y221.901934 Z-0.125000
G01 X64.903663 Y222.223984 Z-0.125000
G00 Z3.000000

(End cutting path id: polygon302613)


(Start cutting path id: polygon306369)
(Change tool to Default tool)

G00 Z3.000000
G00 X62.903733 Y222.768046

G00 Z4.875000 (Fast pre-penetrate)
G01 Z-0.125000 F400.0(Penetrate)
G01 X63.138207 Y222.430861 Z-0.125000 F800.000000
G01 X63.196970 Y222.115293 Z-0.125000
G01 X63.138207 Y221.799725 Z-0.125000
G01 X62.976626 Y221.535433 Z-0.125000
G01 X62.639441 Y221.300960 Z-0.125000
G01 X62.323873 Y221.242196 Z-0.125000
G01 X62.008305 Y221.300960 Z-0.125000
G01 X61.744013 Y221.462541 Z-0.125000
G01 X61.509539 Y221.799725 Z-0.125000
G01 X61.450776 Y222.115293 Z-0.125000
G01 X61.509539 Y222.430861 Z-0.125000
G01 X61.744013 Y222.768046 Z-0.125000
G01 X62.008305 Y222.929627 Z-0.125000
G01 X62.323873 Y222.988391 Z-0.125000
G01 X62.639441 Y222.929627 Z-0.125000
G01 X62.903733 Y222.768046 Z-0.125000
G00 Z3.000000

(End cutting path id: polygon306369)


(Start cutting path id: polygon302535)
(Change tool to Default tool)

G00 Z3.000000
G00 X65.870291 Y224.709874

G00 Z4.875000 (Fast pre-penetrate)
G01 Z-0.125000 F400.0(Penetrate)
G01 X65.553744 Y224.729241 Z-0.125000 F800.000000
G01 X65.276884 Y224.855818 Z-0.125000
G01 X65.011586 Y225.154505 Z-0.125000
G01 X64.918453 Y225.448034 Z-0.125000
G01 X64.937821 Y225.764581 Z-0.125000
G01 X65.064397 Y226.041440 Z-0.125000
G01 X65.363085 Y226.306738 Z-0.125000
G01 X65.656613 Y226.399871 Z-0.125000
G01 X65.973160 Y226.380504 Z-0.125000
G01 X66.250020 Y226.253927 Z-0.125000
G01 X66.515318 Y225.955239 Z-0.125000
G01 X66.608451 Y225.661711 Z-0.125000
G01 X66.589083 Y225.345164 Z-0.125000
G01 X66.462507 Y225.068304 Z-0.125000
G01 X66.163819 Y224.803007 Z-0.125000
G01 X65.870291 Y224.709874 Z-0.125000
G00 Z3.000000

(End cutting path id: polygon302535)


(Start cutting path id: polygon302533)
(Change tool to Default tool)

G00 Z3.000000
G00 X68.345385 Y225.772703

G00 Z4.875000 (Fast pre-penetrate)
G01 Z-0.125000 F400.0(Penetrate)
G01 X68.476883 Y226.060305 Z-0.125000 F800.000000
G01 X68.787159 Y226.335868 Z-0.125000
G01 X69.092065 Y226.432626 Z-0.125000
G01 X69.420862 Y226.412518 Z-0.125000
G01 X69.708464 Y226.281020 Z-0.125000
G01 X69.984027 Y225.970744 Z-0.125000
G01 X70.080785 Y225.665838 Z-0.125000
G01 X70.060677 Y225.337041 Z-0.125000
G01 X69.929179 Y225.049439 Z-0.125000
G01 X69.618903 Y224.773876 Z-0.125000
G01 X69.313997 Y224.677118 Z-0.125000
G01 X68.985200 Y224.697227 Z-0.125000
G01 X68.697598 Y224.828724 Z-0.125000
G01 X68.422035 Y225.139001 Z-0.125000
G01 X68.325277 Y225.443906 Z-0.125000
G01 X68.345385 Y225.772703 Z-0.125000
G00 Z3.000000

(End cutting path id: polygon302533)


(Start cutting path id: polygon302543)
(Change tool to Default tool)

G00 Z3.000000
G00 X70.007152 Y228.600805

G00 Z4.875000 (Fast pre-penetrate)
G01 Z-0.125000 F400.0(Penetrate)
G01 X69.762862 Y228.296005 Z-0.125000 F800.000000
G01 X69.408268 Y228.122994 Z-0.125000
G01 X69.098653 Y228.105373 Z-0.125000
G01 X68.809384 Y228.190331 Z-0.125000
G01 X68.504585 Y228.434620 Z-0.125000
G01 X68.331574 Y228.789214 Z-0.125000
G01 X68.313953 Y229.098829 Z-0.125000
G01 X68.398910 Y229.388098 Z-0.125000
G01 X68.643200 Y229.692898 Z-0.125000
G01 X68.997794 Y229.865908 Z-0.125000
G01 X69.307409 Y229.883530 Z-0.125000
G01 X69.596678 Y229.798572 Z-0.125000
G01 X69.901477 Y229.554282 Z-0.125000
G01 X70.074488 Y229.199688 Z-0.125000
G01 X70.092109 Y228.890073 Z-0.125000
G01 X70.007152 Y228.600805 Z-0.125000
G00 Z3.000000

(End cutting path id: polygon302543)


(Start cutting path id: polygon302557)
(Change tool to Default tool)

G00 Z3.000000
G00 X77.072629 Y231.933069

G00 Z4.875000 (Fast pre-penetrate)
G01 Z-0.125000 F400.0(Penetrate)
G01 X76.753648 Y231.550455 Z-0.125000 F800.000000
G01 X76.393709 Y231.368660 Z-0.125000
G01 X75.975324 Y231.329423 Z-0.125000
G01 X75.581228 Y231.443590 Z-0.125000
G01 X75.198614 Y231.762572 Z-0.125000
G01 X75.016819 Y232.122510 Z-0.125000
G01 X74.977581 Y232.540895 Z-0.125000
G01 X75.091749 Y232.934992 Z-0.125000
G01 X75.410730 Y233.317605 Z-0.125000
G01 X75.770669 Y233.499400 Z-0.125000
G01 X76.189054 Y233.538638 Z-0.125000
G01 X76.583150 Y233.424470 Z-0.125000
G01 X76.965764 Y233.105489 Z-0.125000
G01 X77.147559 Y232.745550 Z-0.125000
G01 X77.186797 Y232.327165 Z-0.125000
G01 X77.072629 Y231.933069 Z-0.125000
G00 Z3.000000

(End cutting path id: polygon302557)


(Start cutting path id: polygon302555)
(Change tool to Default tool)

G00 Z3.000000
G00 X78.381839 Y232.642284

G00 Z4.875000 (Fast pre-penetrate)
G01 Z-0.125000 F400.0(Penetrate)
G01 X78.575143 Y233.102208 Z-0.125000 F800.000000
G01 X78.937013 Y233.434445 Z-0.125000
G01 X79.313515 Y233.573960 Z-0.125000
G01 X79.730021 Y233.573960 Z-0.125000
G01 X80.189946 Y233.380655 Z-0.125000
G01 X80.522183 Y233.018785 Z-0.125000
G01 X80.661697 Y232.642284 Z-0.125000
G01 X80.661697 Y232.225777 Z-0.125000
G01 X80.468393 Y231.765852 Z-0.125000
G01 X80.106523 Y231.433616 Z-0.125000
G01 X79.730021 Y231.294101 Z-0.125000
G01 X79.313515 Y231.294101 Z-0.125000
G01 X78.853590 Y231.487405 Z-0.125000
G01 X78.521353 Y231.849275 Z-0.125000
G01 X78.381839 Y232.225777 Z-0.125000
G01 X78.381839 Y232.642284 Z-0.125000
G00 Z3.000000

(End cutting path id: polygon302555)


(Start cutting path id: polygon302553)
(Change tool to Default tool)

G00 Z3.000000
G00 X81.909577 Y231.935133

G00 Z4.875000 (Fast pre-penetrate)
G01 Z-0.125000 F400.0(Penetrate)
G01 X81.802288 Y232.328091 Z-0.125000 F800.000000
G01 X81.839092 Y232.743434 Z-0.125000
G01 X82.071237 Y233.183859 Z-0.125000
G01 X82.462449 Y233.485801 Z-0.125000
G01 X82.855408 Y233.593089 Z-0.125000
G01 X83.270750 Y233.556286 Z-0.125000
G01 X83.711175 Y233.324140 Z-0.125000
G01 X84.013117 Y232.932928 Z-0.125000
G01 X84.120406 Y232.539969 Z-0.125000
G01 X84.083602 Y232.124627 Z-0.125000
G01 X83.851457 Y231.684202 Z-0.125000
G01 X83.460245 Y231.382260 Z-0.125000
G01 X83.067286 Y231.274972 Z-0.125000
G01 X82.651944 Y231.311775 Z-0.125000
G01 X82.211519 Y231.543920 Z-0.125000
G01 X81.909577 Y231.935133 Z-0.125000
G00 Z3.000000

(End cutting path id: polygon302553)


(Start cutting path id: polygon302549)
(Change tool to Default tool)

G00 Z3.000000
G00 X80.621587 Y229.207282

G00 Z4.875000 (Fast pre-penetrate)
G01 Z-0.125000 F400.0(Penetrate)
G01 X80.621587 Y228.781621 Z-0.125000 F800.000000
G01 X80.471277 Y228.400171 Z-0.125000
G01 X80.116048 Y228.044942 Z-0.125000
G01 X79.734599 Y227.894633 Z-0.125000
G01 X79.308937 Y227.894633 Z-0.125000
G01 X78.927488 Y228.044942 Z-0.125000
G01 X78.572259 Y228.400171 Z-0.125000
G01 X78.421949 Y228.781621 Z-0.125000
G01 X78.421949 Y229.207282 Z-0.125000
G01 X78.572259 Y229.588731 Z-0.125000
G01 X78.927488 Y229.943960 Z-0.125000
G01 X79.308937 Y230.094270 Z-0.125000
G01 X79.734599 Y230.094270 Z-0.125000
G01 X80.116048 Y229.943960 Z-0.125000
G01 X80.471277 Y229.588731 Z-0.125000
G01 X80.621587 Y229.207282 Z-0.125000
G00 Z3.000000

(End cutting path id: polygon302549)


(Start cutting path id: polygon302551)
(Change tool to Default tool)

G00 Z3.000000
G00 X81.915318 Y228.580564

G00 Z4.875000 (Fast pre-penetrate)
G01 Z-0.125000 F400.0(Penetrate)
G01 X81.836711 Y228.994451 Z-0.125000 F800.000000
G01 X81.915318 Y229.408338 Z-0.125000
G01 X82.131006 Y229.752984 Z-0.125000
G01 X82.547460 Y230.040480 Z-0.125000
G01 X82.961347 Y230.119088 Z-0.125000
G01 X83.375234 Y230.040480 Z-0.125000
G01 X83.719880 Y229.824792 Z-0.125000
G01 X84.007376 Y229.408338 Z-0.125000
G01 X84.085983 Y228.994451 Z-0.125000
G01 X84.007376 Y228.580564 Z-0.125000
G01 X83.791688 Y228.235918 Z-0.125000
G01 X83.375234 Y227.948422 Z-0.125000
G01 X82.961347 Y227.869815 Z-0.125000
G01 X82.547460 Y227.948422 Z-0.125000
G01 X82.202814 Y228.164110 Z-0.125000
G01 X81.915318 Y228.580564 Z-0.125000
G00 Z3.000000

(End cutting path id: polygon302551)


(Start cutting path id: polygon302525)
(Change tool to Default tool)

G00 Z3.000000
G00 X83.978351 Y225.152494

G00 Z4.875000 (Fast pre-penetrate)
G01 Z-0.125000 F400.0(Penetrate)
G01 X83.768643 Y224.817400 Z-0.125000 F800.000000
G01 X83.363725 Y224.537868 Z-0.125000
G01 X82.961347 Y224.461457 Z-0.125000
G01 X82.558969 Y224.537868 Z-0.125000
G01 X82.154051 Y224.817400 Z-0.125000
G01 X81.944343 Y225.152494 Z-0.125000
G01 X81.867931 Y225.554872 Z-0.125000
G01 X81.944343 Y225.957250 Z-0.125000
G01 X82.223875 Y226.362168 Z-0.125000
G01 X82.558969 Y226.571876 Z-0.125000
G01 X82.961347 Y226.648288 Z-0.125000
G01 X83.363725 Y226.571876 Z-0.125000
G01 X83.698819 Y226.362168 Z-0.125000
G01 X83.978351 Y225.957250 Z-0.125000
G01 X84.054763 Y225.554872 Z-0.125000
G01 X83.978351 Y225.152494 Z-0.125000
G00 Z3.000000

(End cutting path id: polygon302525)


(Start cutting path id: polygon302523)
(Change tool to Default tool)

G00 Z3.000000
G00 X86.712869 Y226.621724

G00 Z4.875000 (Fast pre-penetrate)
G01 Z-0.125000 F400.0(Penetrate)
G01 X87.073311 Y226.439664 Z-0.125000 F800.000000
G01 X87.392742 Y226.056522 Z-0.125000
G01 X87.507068 Y225.661896 Z-0.125000
G01 X87.467778 Y225.242929 Z-0.125000
G01 X87.285718 Y224.882488 Z-0.125000
G01 X86.902575 Y224.563056 Z-0.125000
G01 X86.507950 Y224.448730 Z-0.125000
G01 X86.088983 Y224.488021 Z-0.125000
G01 X85.728541 Y224.670080 Z-0.125000
G01 X85.409110 Y225.053223 Z-0.125000
G01 X85.294784 Y225.447848 Z-0.125000
G01 X85.334074 Y225.866816 Z-0.125000
G01 X85.516134 Y226.227257 Z-0.125000
G01 X85.899277 Y226.546688 Z-0.125000
G01 X86.293902 Y226.661014 Z-0.125000
G01 X86.712869 Y226.621724 Z-0.125000
G00 Z3.000000

(End cutting path id: polygon302523)


(Start cutting path id: polygon302507)
(Change tool to Default tool)

G00 Z3.000000
G00 X88.736532 Y228.887639

G00 Z4.875000 (Fast pre-penetrate)
G01 Z-0.125000 F400.0(Penetrate)
G01 X88.775744 Y229.305786 Z-0.125000 F800.000000
G01 X88.957433 Y229.665540 Z-0.125000
G01 X89.339835 Y229.984336 Z-0.125000
G01 X89.733693 Y230.098424 Z-0.125000
G01 X90.151840 Y230.059213 Z-0.125000
G01 X90.511593 Y229.877524 Z-0.125000
G01 X90.830389 Y229.495122 Z-0.125000
G01 X90.944478 Y229.101263 Z-0.125000
G01 X90.905266 Y228.683116 Z-0.125000
G01 X90.723577 Y228.323363 Z-0.125000
G01 X90.341175 Y228.004567 Z-0.125000
G01 X89.947317 Y227.890479 Z-0.125000
G01 X89.529170 Y227.929690 Z-0.125000
G01 X89.169417 Y228.111379 Z-0.125000
G01 X88.850621 Y228.493781 Z-0.125000
G01 X88.736532 Y228.887639 Z-0.125000
G00 Z3.000000

(End cutting path id: polygon302507)


(Start cutting path id: polygon306365)
(Change tool to Default tool)

G00 Z3.000000
G00 X87.285295 Y229.666519

G00 Z4.875000 (Fast pre-penetrate)
G01 Z-0.125000 F400.0(Penetrate)
G01 X87.467275 Y229.306262 Z-0.125000 F800.000000
G01 X87.506539 Y228.887480 Z-0.125000
G01 X87.392292 Y228.493040 Z-0.125000
G01 X87.072993 Y228.110083 Z-0.125000
G01 X86.712737 Y227.928102 Z-0.125000
G01 X86.293955 Y227.888838 Z-0.125000
G01 X85.899515 Y228.003085 Z-0.125000
G01 X85.516557 Y228.322384 Z-0.125000
G01 X85.334577 Y228.682640 Z-0.125000
G01 X85.295313 Y229.101422 Z-0.125000
G01 X85.409560 Y229.495863 Z-0.125000
G01 X85.728859 Y229.878820 Z-0.125000
G01 X86.089115 Y230.060800 Z-0.125000
G01 X86.507897 Y230.100064 Z-0.125000
G01 X86.902337 Y229.985817 Z-0.125000
G01 X87.285295 Y229.666519 Z-0.125000
G00 Z3.000000

(End cutting path id: polygon306365)


(Start cutting path id: polygon302505)
(Change tool to Default tool)

G00 Z3.000000
G00 X89.260698 Y231.442109

G00 Z4.875000 (Fast pre-penetrate)
G01 Z-0.125000 F400.0(Penetrate)
G01 X88.901923 Y231.771541 Z-0.125000 F800.000000
G01 X88.710259 Y232.227550 Z-0.125000
G01 X88.710259 Y232.640511 Z-0.125000
G01 X88.848583 Y233.013837 Z-0.125000
G01 X89.178016 Y233.372612 Z-0.125000
G01 X89.634024 Y233.564276 Z-0.125000
G01 X90.046986 Y233.564276 Z-0.125000
G01 X90.420312 Y233.425952 Z-0.125000
G01 X90.779087 Y233.096520 Z-0.125000
G01 X90.970751 Y232.640511 Z-0.125000
G01 X90.970751 Y232.227550 Z-0.125000
G01 X90.832427 Y231.854223 Z-0.125000
G01 X90.502994 Y231.495449 Z-0.125000
G01 X90.046986 Y231.303785 Z-0.125000
G01 X89.634024 Y231.303785 Z-0.125000
G01 X89.260698 Y231.442109 Z-0.125000
G00 Z3.000000

(End cutting path id: polygon302505)


(Start cutting path id: polygon306367)
(Change tool to Default tool)

G00 Z3.000000
G00 X86.400926 Y233.584543

G00 Z4.875000 (Fast pre-penetrate)
G01 Z-0.125000 F400.0(Penetrate)
G01 X86.802378 Y233.512550 Z-0.125000 F800.000000
G01 X87.142182 Y233.313954 Z-0.125000
G01 X87.440658 Y232.927239 Z-0.125000
G01 X87.551439 Y232.434030 Z-0.125000
G01 X87.479446 Y232.032579 Z-0.125000
G01 X87.280850 Y231.692775 Z-0.125000
G01 X86.894135 Y231.394298 Z-0.125000
G01 X86.400926 Y231.283518 Z-0.125000
G01 X85.999474 Y231.355511 Z-0.125000
G01 X85.659670 Y231.554107 Z-0.125000
G01 X85.361194 Y231.940821 Z-0.125000
G01 X85.250413 Y232.434030 Z-0.125000
G01 X85.322406 Y232.835482 Z-0.125000
G01 X85.521002 Y233.175286 Z-0.125000
G01 X85.907717 Y233.473762 Z-0.125000
G01 X86.400926 Y233.584543 Z-0.125000
G00 Z3.000000

(End cutting path id: polygon306367)


(Start cutting path id: polygon302503)
(Change tool to Default tool)

G00 Z3.000000
G00 X94.036342 Y231.536300

G00 Z4.875000 (Fast pre-penetrate)
G01 Z-0.125000 F400.0(Penetrate)
G01 X93.689658 Y231.333683 Z-0.125000 F800.000000
G01 X93.280084 Y231.260261 Z-0.125000
G01 X92.776900 Y231.373264 Z-0.125000
G01 X92.382354 Y231.677773 Z-0.125000
G01 X92.179736 Y232.024456 Z-0.125000
G01 X92.106314 Y232.434030 Z-0.125000
G01 X92.219318 Y232.937214 Z-0.125000
G01 X92.523826 Y233.331760 Z-0.125000
G01 X92.870510 Y233.534378 Z-0.125000
G01 X93.280084 Y233.607800 Z-0.125000
G01 X93.783268 Y233.494796 Z-0.125000
G01 X94.177814 Y233.190288 Z-0.125000
G01 X94.380432 Y232.843605 Z-0.125000
G01 X94.453854 Y232.434030 Z-0.125000
G01 X94.340850 Y231.930846 Z-0.125000
G01 X94.036342 Y231.536300 Z-0.125000
G00 Z3.000000

(End cutting path id: polygon302503)


(Start cutting path id: polygon302501)
(Change tool to Default tool)

G00 Z3.000000
G00 X96.202641 Y231.344054

G00 Z4.875000 (Fast pre-penetrate)
G01 Z-0.125000 F400.0(Penetrate)
G01 X95.797221 Y231.656950 Z-0.125000 F800.000000
G01 X95.556636 Y232.113409 Z-0.125000
G01 X95.518483 Y232.543806 Z-0.125000
G01 X95.629687 Y232.951052 Z-0.125000
G01 X95.942583 Y233.356472 Z-0.125000
G01 X96.399041 Y233.597058 Z-0.125000
G01 X96.829438 Y233.635211 Z-0.125000
G01 X97.236685 Y233.524006 Z-0.125000
G01 X97.642105 Y233.211111 Z-0.125000
G01 X97.882690 Y232.754652 Z-0.125000
G01 X97.920843 Y232.324255 Z-0.125000
G01 X97.809639 Y231.917009 Z-0.125000
G01 X97.496743 Y231.511588 Z-0.125000
G01 X97.040285 Y231.271003 Z-0.125000
G01 X96.609888 Y231.232850 Z-0.125000
G01 X96.202641 Y231.344054 Z-0.125000
G00 Z3.000000

(End cutting path id: polygon302501)


(Start cutting path id: polygon302511)
(Change tool to Default tool)

G00 Z3.000000
G00 X95.546925 Y228.994451

G00 Z4.875000 (Fast pre-penetrate)
G01 Z-0.125000 F400.0(Penetrate)
G01 X95.620294 Y229.403655 Z-0.125000 F800.000000
G01 X95.822753 Y229.750021 Z-0.125000
G01 X96.216929 Y230.054265 Z-0.125000
G01 X96.719663 Y230.167189 Z-0.125000
G01 X97.128867 Y230.093820 Z-0.125000
G01 X97.475233 Y229.891361 Z-0.125000
G01 X97.779477 Y229.497185 Z-0.125000
G01 X97.892401 Y228.994451 Z-0.125000
G01 X97.819032 Y228.585247 Z-0.125000
G01 X97.616573 Y228.238882 Z-0.125000
G01 X97.222397 Y227.934638 Z-0.125000
G01 X96.719663 Y227.821714 Z-0.125000
G01 X96.310459 Y227.895082 Z-0.125000
G01 X95.964093 Y228.097541 Z-0.125000
G01 X95.659849 Y228.491717 Z-0.125000
G01 X95.546925 Y228.994451 Z-0.125000
G00 Z3.000000

(End cutting path id: polygon302511)


(Start cutting path id: polygon302509)
(Change tool to Default tool)

G00 Z3.000000
G00 X94.337464 Y228.576093

G00 Z4.875000 (Fast pre-penetrate)
G01 Z-0.125000 F400.0(Penetrate)
G01 X94.119421 Y228.227716 Z-0.125000 F800.000000
G01 X93.698443 Y227.937072 Z-0.125000
G01 X93.280084 Y227.857644 Z-0.125000
G01 X92.861725 Y227.937072 Z-0.125000
G01 X92.513349 Y228.155115 Z-0.125000
G01 X92.222704 Y228.576093 Z-0.125000
G01 X92.143277 Y228.994451 Z-0.125000
G01 X92.222704 Y229.412810 Z-0.125000
G01 X92.513349 Y229.833788 Z-0.125000
G01 X92.861725 Y230.051831 Z-0.125000
G01 X93.280084 Y230.131259 Z-0.125000
G01 X93.698443 Y230.051831 Z-0.125000
G01 X94.119421 Y229.761186 Z-0.125000
G01 X94.337464 Y229.412810 Z-0.125000
G01 X94.416891 Y228.994451 Z-0.125000
G01 X94.337464 Y228.576093 Z-0.125000
G00 Z3.000000

(End cutting path id: polygon302509)


(Start cutting path id: polygon302519)
(Change tool to Default tool)

G00 Z3.000000
G00 X93.877618 Y226.509594

G00 Z4.875000 (Fast pre-penetrate)
G01 Z-0.125000 F400.0(Penetrate)
G01 X94.234805 Y226.152407 Z-0.125000 F800.000000
G01 X94.385909 Y225.768867 Z-0.125000
G01 X94.385909 Y225.340878 Z-0.125000
G01 X94.234805 Y224.957338 Z-0.125000
G01 X93.877618 Y224.600151 Z-0.125000
G01 X93.494079 Y224.449048 Z-0.125000
G01 X93.066089 Y224.449048 Z-0.125000
G01 X92.682550 Y224.600151 Z-0.125000
G01 X92.325363 Y224.957338 Z-0.125000
G01 X92.174259 Y225.340878 Z-0.125000
G01 X92.174259 Y225.768867 Z-0.125000
G01 X92.325363 Y226.152407 Z-0.125000
G01 X92.682550 Y226.509594 Z-0.125000
G01 X93.066089 Y226.660697 Z-0.125000
G01 X93.494079 Y226.660697 Z-0.125000
G01 X93.877618 Y226.509594 Z-0.125000
G00 Z3.000000

(End cutting path id: polygon302519)


(Start cutting path id: polygon302517)
(Change tool to Default tool)

G00 Z3.000000
G00 X96.300537 Y224.495561

G00 Z4.875000 (Fast pre-penetrate)
G01 Z-0.125000 F400.0(Penetrate)
G01 X95.951526 Y224.714001 Z-0.125000 F800.000000
G01 X95.660352 Y225.135746 Z-0.125000
G01 X95.580765 Y225.554872 Z-0.125000
G01 X95.660352 Y225.973998 Z-0.125000
G01 X95.951526 Y226.395744 Z-0.125000
G01 X96.300537 Y226.614183 Z-0.125000
G01 X96.719663 Y226.693770 Z-0.125000
G01 X97.138789 Y226.614183 Z-0.125000
G01 X97.487800 Y226.395744 Z-0.125000
G01 X97.778974 Y225.973998 Z-0.125000
G01 X97.858561 Y225.554872 Z-0.125000
G01 X97.778974 Y225.135746 Z-0.125000
G01 X97.560534 Y224.786735 Z-0.125000
G01 X97.138789 Y224.495561 Z-0.125000
G01 X96.719663 Y224.415975 Z-0.125000
G01 X96.300537 Y224.495561 Z-0.125000
G00 Z3.000000

(End cutting path id: polygon302517)


(Start cutting path id: polygon302799)
(Change tool to Default tool)

G00 Z3.000000
G00 X95.833283 Y222.788895

G00 Z4.875000 (Fast pre-penetrate)
G01 Z-0.125000 F400.0(Penetrate)
G01 X96.217114 Y223.108882 Z-0.125000 F800.000000
G01 X96.612454 Y223.223420 Z-0.125000
G01 X97.032188 Y223.184050 Z-0.125000
G01 X97.393265 Y223.001673 Z-0.125000
G01 X97.713252 Y222.617842 Z-0.125000
G01 X97.827790 Y222.222502 Z-0.125000
G01 X97.788420 Y221.802768 Z-0.125000
G01 X97.606043 Y221.441691 Z-0.125000
G01 X97.222212 Y221.121705 Z-0.125000
G01 X96.826872 Y221.007167 Z-0.125000
G01 X96.407138 Y221.046537 Z-0.125000
G01 X96.046061 Y221.228914 Z-0.125000
G01 X95.726074 Y221.612744 Z-0.125000
G01 X95.611536 Y222.008084 Z-0.125000
G01 X95.650906 Y222.427819 Z-0.125000
G01 X95.833283 Y222.788895 Z-0.125000
G00 Z3.000000

(End cutting path id: polygon302799)


(Start cutting path id: polygon302629)
(Change tool to Default tool)

G00 Z3.000000
G00 X94.289574 Y221.604701

G00 Z4.875000 (Fast pre-penetrate)
G01 Z-0.125000 F400.0(Penetrate)
G01 X93.964454 Y221.214732 Z-0.125000 F800.000000
G01 X93.597610 Y221.029445 Z-0.125000
G01 X93.171155 Y220.989440 Z-0.125000
G01 X92.769492 Y221.105803 Z-0.125000
G01 X92.379523 Y221.430923 Z-0.125000
G01 X92.194235 Y221.797767 Z-0.125000
G01 X92.154230 Y222.224222 Z-0.125000
G01 X92.270594 Y222.625886 Z-0.125000
G01 X92.595714 Y223.015854 Z-0.125000
G01 X92.962558 Y223.201142 Z-0.125000
G01 X93.389013 Y223.241147 Z-0.125000
G01 X93.790676 Y223.124783 Z-0.125000
G01 X94.180645 Y222.799664 Z-0.125000
G01 X94.365933 Y222.432819 Z-0.125000
G01 X94.405938 Y222.006364 Z-0.125000
G01 X94.289574 Y221.604701 Z-0.125000
G00 Z3.000000

(End cutting path id: polygon302629)


(Start cutting path id: polygon302631)
(Change tool to Default tool)

G00 Z3.000000
G00 X94.406334 Y218.784670

G00 Z4.875000 (Fast pre-penetrate)
G01 Z-0.125000 F400.0(Penetrate)
G01 X94.366330 Y218.358082 Z-0.125000 F800.000000
G01 X94.180963 Y217.991106 Z-0.125000
G01 X93.790861 Y217.665854 Z-0.125000
G01 X93.389039 Y217.549464 Z-0.125000
G01 X92.962452 Y217.589469 Z-0.125000
G01 X92.595475 Y217.774836 Z-0.125000
G01 X92.270224 Y218.164937 Z-0.125000
G01 X92.153834 Y218.566759 Z-0.125000
G01 X92.193838 Y218.993346 Z-0.125000
G01 X92.379205 Y219.360323 Z-0.125000
G01 X92.769307 Y219.685575 Z-0.125000
G01 X93.171129 Y219.801965 Z-0.125000
G01 X93.597716 Y219.761960 Z-0.125000
G01 X93.964693 Y219.576593 Z-0.125000
G01 X94.289944 Y219.186492 Z-0.125000
G01 X94.406334 Y218.784670 Z-0.125000
G00 Z3.000000

(End cutting path id: polygon302631)


(Start cutting path id: polygon302635)
(Change tool to Default tool)

G00 Z3.000000
G00 X96.318661 Y216.249647

G00 Z4.875000 (Fast pre-penetrate)
G01 Z-0.125000 F400.0(Penetrate)
G01 X96.719663 Y216.325820 Z-0.125000 F800.000000
G01 X97.120665 Y216.249647 Z-0.125000
G01 X97.524181 Y215.971094 Z-0.125000
G01 X97.733175 Y215.637137 Z-0.125000
G01 X97.809348 Y215.236135 Z-0.125000
G01 X97.733175 Y214.835133 Z-0.125000
G01 X97.454622 Y214.431618 Z-0.125000
G01 X97.120665 Y214.222624 Z-0.125000
G01 X96.719663 Y214.146450 Z-0.125000
G01 X96.318661 Y214.222624 Z-0.125000
G01 X95.915145 Y214.501177 Z-0.125000
G01 X95.706151 Y214.835133 Z-0.125000
G01 X95.629978 Y215.236135 Z-0.125000
G01 X95.706151 Y215.637137 Z-0.125000
G01 X95.984704 Y216.040653 Z-0.125000
G01 X96.318661 Y216.249647 Z-0.125000
G00 Z3.000000

(End cutting path id: polygon302635)


(Start cutting path id: polygon302801)
(Change tool to Default tool)

G00 Z3.000000
G00 X97.773894 Y218.367449

G00 Z4.875000 (Fast pre-penetrate)
G01 Z-0.125000 F400.0(Penetrate)
G01 X97.594004 Y218.011267 Z-0.125000 F800.000000
G01 X97.215386 Y217.695619 Z-0.125000
G01 X96.825417 Y217.582643 Z-0.125000
G01 X96.411397 Y217.621483 Z-0.125000
G01 X96.055216 Y217.801373 Z-0.125000
G01 X95.739568 Y218.179992 Z-0.125000
G01 X95.626591 Y218.569960 Z-0.125000
G01 X95.665432 Y218.983980 Z-0.125000
G01 X95.845322 Y219.340162 Z-0.125000
G01 X96.223940 Y219.655809 Z-0.125000
G01 X96.613909 Y219.768786 Z-0.125000
G01 X97.027929 Y219.729945 Z-0.125000
G01 X97.384110 Y219.550055 Z-0.125000
G01 X97.699758 Y219.171437 Z-0.125000
G01 X97.812735 Y218.781468 Z-0.125000
G01 X97.773894 Y218.367449 Z-0.125000
G00 Z3.000000

(End cutting path id: polygon302801)


(Start cutting path id: polygon302795)
(Change tool to Default tool)

G00 Z3.000000
G00 X99.335092 Y217.996345

G00 Z4.875000 (Fast pre-penetrate)
G01 Z-0.125000 F400.0(Penetrate)
G01 X99.139195 Y218.358109 Z-0.125000 F800.000000
G01 X99.096703 Y218.784908 Z-0.125000
G01 X99.220105 Y219.184825 Z-0.125000
G01 X99.479872 Y219.499864 Z-0.125000
G01 X99.841637 Y219.695761 Z-0.125000
G01 X100.268435 Y219.738253 Z-0.125000
G01 X100.668353 Y219.614852 Z-0.125000
G01 X100.983392 Y219.355084 Z-0.125000
G01 X101.179289 Y218.993320 Z-0.125000
G01 X101.221781 Y218.566521 Z-0.125000
G01 X101.098379 Y218.166604 Z-0.125000
G01 X100.838612 Y217.851565 Z-0.125000
G01 X100.476847 Y217.655667 Z-0.125000
G01 X100.050049 Y217.613175 Z-0.125000
G01 X99.650131 Y217.736577 Z-0.125000
G01 X99.335092 Y217.996345 Z-0.125000
G00 Z3.000000

(End cutting path id: polygon302795)


(Start cutting path id: polygon302793)
(Change tool to Default tool)

G00 Z3.000000
G00 X99.152001 Y215.549772

G00 Z4.875000 (Fast pre-penetrate)
G01 Z-0.125000 F400.0(Penetrate)
G01 X99.345411 Y215.907012 Z-0.125000 F800.000000
G01 X99.656534 Y216.163499 Z-0.125000
G01 X100.051398 Y216.285366 Z-0.125000
G01 X100.472879 Y216.243376 Z-0.125000
G01 X100.830119 Y216.049966 Z-0.125000
G01 X101.086605 Y215.738843 Z-0.125000
G01 X101.208472 Y215.343979 Z-0.125000
G01 X101.166483 Y214.922499 Z-0.125000
G01 X100.973073 Y214.565259 Z-0.125000
G01 X100.661950 Y214.308772 Z-0.125000
G01 X100.267086 Y214.186905 Z-0.125000
G01 X99.845605 Y214.228894 Z-0.125000
G01 X99.488365 Y214.422304 Z-0.125000
G01 X99.231879 Y214.733428 Z-0.125000
G01 X99.110012 Y215.128291 Z-0.125000
G01 X99.152001 Y215.549772 Z-0.125000
G00 Z3.000000

(End cutting path id: polygon302793)


(Start cutting path id: polygon302791)
(Change tool to Default tool)

G00 Z3.000000
G00 X101.127563 Y211.387485

G00 Z4.875000 (Fast pre-penetrate)
G01 Z-0.125000 F400.0(Penetrate)
G01 X100.902350 Y211.053448 Z-0.125000 F800.000000
G01 X100.568314 Y210.828235 Z-0.125000
G01 X100.159242 Y210.745633 Z-0.125000
G01 X99.750170 Y210.828235 Z-0.125000
G01 X99.416134 Y211.053448 Z-0.125000
G01 X99.190921 Y211.387485 Z-0.125000
G01 X99.108318 Y211.796556 Z-0.125000
G01 X99.190921 Y212.205628 Z-0.125000
G01 X99.416134 Y212.539664 Z-0.125000
G01 X99.750170 Y212.764877 Z-0.125000
G01 X100.159242 Y212.847480 Z-0.125000
G01 X100.568314 Y212.764877 Z-0.125000
G01 X100.902350 Y212.539664 Z-0.125000
G01 X101.127563 Y212.205628 Z-0.125000
G01 X101.210166 Y211.796556 Z-0.125000
G01 X101.127563 Y211.387485 Z-0.125000
G00 Z3.000000

(End cutting path id: polygon302791)


(Start cutting path id: polygon302485)
(Change tool to Default tool)

G00 Z3.000000
G00 X103.086059 Y210.919331

G00 Z4.875000 (Fast pre-penetrate)
G01 Z-0.125000 F400.0(Penetrate)
G01 X102.778905 Y211.196561 Z-0.125000 F800.000000
G01 X102.606317 Y211.578619 Z-0.125000
G01 X102.588855 Y211.907258 Z-0.125000
G01 X102.721596 Y212.309318 Z-0.125000
G01 X102.998826 Y212.616473 Z-0.125000
G01 X103.380884 Y212.789060 Z-0.125000
G01 X103.709523 Y212.806523 Z-0.125000
G01 X104.111583 Y212.673781 Z-0.125000
G01 X104.418737 Y212.396551 Z-0.125000
G01 X104.591325 Y212.014493 Z-0.125000
G01 X104.608787 Y211.685855 Z-0.125000
G01 X104.476046 Y211.283794 Z-0.125000
G01 X104.198816 Y210.976640 Z-0.125000
G01 X103.816758 Y210.804053 Z-0.125000
G01 X103.488119 Y210.786590 Z-0.125000
G01 X103.086059 Y210.919331 Z-0.125000
G00 Z3.000000

(End cutting path id: polygon302485)


(Start cutting path id: polygon302483)
(Change tool to Default tool)

G00 Z3.000000
G00 X104.352644 Y209.037326

G00 Z4.875000 (Fast pre-penetrate)
G01 Z-0.125000 F400.0(Penetrate)
G01 X104.562512 Y208.677943 Z-0.125000 F800.000000
G01 X104.614264 Y208.356977 Z-0.125000
G01 X104.523883 Y207.937587 Z-0.125000
G01 X104.279170 Y207.603154 Z-0.125000
G01 X103.919787 Y207.393287 Z-0.125000
G01 X103.598821 Y207.341534 Z-0.125000
G01 X103.179430 Y207.431916 Z-0.125000
G01 X102.844998 Y207.676629 Z-0.125000
G01 X102.635130 Y208.036012 Z-0.125000
G01 X102.583378 Y208.356977 Z-0.125000
G01 X102.673759 Y208.776368 Z-0.125000
G01 X102.918472 Y209.110801 Z-0.125000
G01 X103.277855 Y209.320668 Z-0.125000
G01 X103.598821 Y209.372420 Z-0.125000
G01 X104.018212 Y209.282039 Z-0.125000
G01 X104.352644 Y209.037326 Z-0.125000
G00 Z3.000000

(End cutting path id: polygon302483)


(Start cutting path id: polygon302809)
(Change tool to Default tool)

G00 Z3.000000
G00 X107.945232 Y208.768113

G00 Z4.875000 (Fast pre-penetrate)
G01 Z-0.125000 F400.0(Penetrate)
G01 X108.033841 Y208.356977 Z-0.125000 F800.000000
G01 X107.983094 Y208.042335 Z-0.125000
G01 X107.777380 Y207.690016 Z-0.125000
G01 X107.449536 Y207.450146 Z-0.125000
G01 X107.038400 Y207.361537 Z-0.125000
G01 X106.723758 Y207.412284 Z-0.125000
G01 X106.371439 Y207.617997 Z-0.125000
G01 X106.131568 Y207.945842 Z-0.125000
G01 X106.042959 Y208.356977 Z-0.125000
G01 X106.093706 Y208.671619 Z-0.125000
G01 X106.299420 Y209.023938 Z-0.125000
G01 X106.627264 Y209.263809 Z-0.125000
G01 X107.038400 Y209.352418 Z-0.125000
G01 X107.353042 Y209.301671 Z-0.125000
G01 X107.705361 Y209.095958 Z-0.125000
G01 X107.945232 Y208.768113 Z-0.125000
G00 Z3.000000

(End cutting path id: polygon302809)


(Start cutting path id: polygon304213)
(Change tool to Default tool)

G00 Z3.000000
G00 X110.973173 Y209.204172

G00 Z4.875000 (Fast pre-penetrate)
G01 Z-0.125000 F400.0(Penetrate)
G01 X111.269823 Y208.936414 Z-0.125000 F800.000000
G01 X111.436484 Y208.567453 Z-0.125000
G01 X111.453364 Y208.250059 Z-0.125000
G01 X111.325174 Y207.861784 Z-0.125000
G01 X111.057416 Y207.565133 Z-0.125000
G01 X110.688455 Y207.398472 Z-0.125000
G01 X110.371061 Y207.381592 Z-0.125000
G01 X109.982785 Y207.509783 Z-0.125000
G01 X109.686135 Y207.777541 Z-0.125000
G01 X109.519474 Y208.146502 Z-0.125000
G01 X109.502594 Y208.463895 Z-0.125000
G01 X109.630784 Y208.852171 Z-0.125000
G01 X109.898542 Y209.148821 Z-0.125000
G01 X110.267503 Y209.315482 Z-0.125000
G01 X110.584897 Y209.332363 Z-0.125000
G01 X110.973173 Y209.204172 Z-0.125000
G00 Z3.000000

(End cutting path id: polygon304213)


(Start cutting path id: polygon304207)
(Change tool to Default tool)

G00 Z3.000000
G00 X112.955587 Y208.462414

G00 Z4.875000 (Fast pre-penetrate)
G01 Z-0.125000 F400.0(Penetrate)
G01 X113.082031 Y208.845371 Z-0.125000 F800.000000
G01 X113.346085 Y209.137920 Z-0.125000
G01 X113.709966 Y209.302306 Z-0.125000
G01 X114.022994 Y209.318948 Z-0.125000
G01 X114.405952 Y209.192504 Z-0.125000
G01 X114.698501 Y208.928450 Z-0.125000
G01 X114.862887 Y208.564569 Z-0.125000
G01 X114.879529 Y208.251541 Z-0.125000
G01 X114.753085 Y207.868584 Z-0.125000
G01 X114.489031 Y207.576034 Z-0.125000
G01 X114.125150 Y207.411649 Z-0.125000
G01 X113.812122 Y207.395006 Z-0.125000
G01 X113.429164 Y207.521451 Z-0.125000
G01 X113.136615 Y207.785504 Z-0.125000
G01 X112.972229 Y208.149385 Z-0.125000
G01 X112.955587 Y208.462414 Z-0.125000
G00 Z3.000000

(End cutting path id: polygon304207)


(Start cutting path id: polygon304215)
(Change tool to Default tool)

G00 Z3.000000
G00 X111.322713 Y211.302792

G00 Z4.875000 (Fast pre-penetrate)
G01 Z-0.125000 F400.0(Penetrate)
G01 X111.055749 Y211.007014 Z-0.125000 F800.000000
G01 X110.687846 Y210.840830 Z-0.125000
G01 X110.371379 Y210.824002 Z-0.125000
G01 X109.984214 Y210.951822 Z-0.125000
G01 X109.688437 Y211.218786 Z-0.125000
G01 X109.522252 Y211.586689 Z-0.125000
G01 X109.505425 Y211.903157 Z-0.125000
G01 X109.633245 Y212.290321 Z-0.125000
G01 X109.900209 Y212.586098 Z-0.125000
G01 X110.268112 Y212.752283 Z-0.125000
G01 X110.584579 Y212.769110 Z-0.125000
G01 X110.971744 Y212.641290 Z-0.125000
G01 X111.267521 Y212.374326 Z-0.125000
G01 X111.433706 Y212.006424 Z-0.125000
G01 X111.450533 Y211.689956 Z-0.125000
G01 X111.322713 Y211.302792 Z-0.125000
G00 Z3.000000

(End cutting path id: polygon304215)


(Start cutting path id: polygon302807)
(Change tool to Default tool)

G00 Z3.000000
G00 X108.026459 Y211.904850

G00 Z4.875000 (Fast pre-penetrate)
G01 Z-0.125000 F400.0(Penetrate)
G01 X108.009367 Y211.583355 Z-0.125000 F800.000000
G01 X107.840536 Y211.209579 Z-0.125000
G01 X107.540049 Y210.938355 Z-0.125000
G01 X107.146694 Y210.808498 Z-0.125000
G01 X106.825199 Y210.825590 Z-0.125000
G01 X106.451423 Y210.994420 Z-0.125000
G01 X106.180199 Y211.294907 Z-0.125000
G01 X106.050341 Y211.688262 Z-0.125000
G01 X106.067433 Y212.009757 Z-0.125000
G01 X106.236264 Y212.383534 Z-0.125000
G01 X106.536751 Y212.654758 Z-0.125000
G01 X106.930106 Y212.784615 Z-0.125000
G01 X107.251601 Y212.767523 Z-0.125000
G01 X107.625377 Y212.598693 Z-0.125000
G01 X107.896601 Y212.298206 Z-0.125000
G01 X108.026459 Y211.904850 Z-0.125000
G00 Z3.000000

(End cutting path id: polygon302807)


(Start cutting path id: polygon302805)
(Change tool to Default tool)

G00 Z3.000000
G00 X107.146985 Y216.226813

G00 Z4.875000 (Fast pre-penetrate)
G01 Z-0.125000 F400.0(Penetrate)
G01 X107.541372 Y216.096586 Z-0.125000 F800.000000
G01 X107.842653 Y215.824674 Z-0.125000
G01 X108.011933 Y215.449918 Z-0.125000
G01 X108.029078 Y215.127550 Z-0.125000
G01 X107.898850 Y214.733163 Z-0.125000
G01 X107.626938 Y214.431882 Z-0.125000
G01 X107.252183 Y214.262602 Z-0.125000
G01 X106.929815 Y214.245457 Z-0.125000
G01 X106.535428 Y214.375685 Z-0.125000
G01 X106.234147 Y214.647597 Z-0.125000
G01 X106.064867 Y215.022352 Z-0.125000
G01 X106.047722 Y215.344720 Z-0.125000
G01 X106.177950 Y215.739108 Z-0.125000
G01 X106.449862 Y216.040388 Z-0.125000
G01 X106.824617 Y216.209668 Z-0.125000
G01 X107.146985 Y216.226813 Z-0.125000
G00 Z3.000000

(End cutting path id: polygon302805)


(Start cutting path id: polygon302803)
(Change tool to Default tool)

G00 Z3.000000
G00 X107.552352 Y217.796452

G00 Z4.875000 (Fast pre-penetrate)
G01 Z-0.125000 F400.0(Penetrate)
G01 X107.149366 Y217.663393 Z-0.125000 F800.000000
G01 X106.819960 Y217.680909 Z-0.125000
G01 X106.437003 Y217.853893 Z-0.125000
G01 X106.159138 Y218.161762 Z-0.125000
G01 X106.026079 Y218.564748 Z-0.125000
G01 X106.043594 Y218.894154 Z-0.125000
G01 X106.216579 Y219.277111 Z-0.125000
G01 X106.524448 Y219.554977 Z-0.125000
G01 X106.927434 Y219.688035 Z-0.125000
G01 X107.256840 Y219.670520 Z-0.125000
G01 X107.639797 Y219.497536 Z-0.125000
G01 X107.917662 Y219.189667 Z-0.125000
G01 X108.050721 Y218.786680 Z-0.125000
G01 X108.033206 Y218.457275 Z-0.125000
G01 X107.860221 Y218.074317 Z-0.125000
G01 X107.552352 Y217.796452 Z-0.125000
G00 Z3.000000

(End cutting path id: polygon302803)


(Start cutting path id: polygon304219)
(Change tool to Default tool)

G00 Z3.000000
G00 X111.341499 Y219.180459

G00 Z4.875000 (Fast pre-penetrate)
G01 Z-0.125000 F400.0(Penetrate)
G01 X111.472150 Y218.784670 Z-0.125000 F800.000000
G01 X111.454952 Y218.461190 Z-0.125000
G01 X111.285089 Y218.085086 Z-0.125000
G01 X110.982724 Y217.812195 Z-0.125000
G01 X110.586934 Y217.681544 Z-0.125000
G01 X110.263455 Y217.698742 Z-0.125000
G01 X109.887350 Y217.868604 Z-0.125000
G01 X109.614459 Y218.170969 Z-0.125000
G01 X109.483808 Y218.566759 Z-0.125000
G01 X109.501006 Y218.890238 Z-0.125000
G01 X109.670869 Y219.266343 Z-0.125000
G01 X109.973234 Y219.539234 Z-0.125000
G01 X110.369024 Y219.669885 Z-0.125000
G01 X110.692503 Y219.652687 Z-0.125000
G01 X111.068608 Y219.482825 Z-0.125000
G01 X111.341499 Y219.180459 Z-0.125000
G00 Z3.000000

(End cutting path id: polygon304219)


(Start cutting path id: polygon304201)
(Change tool to Default tool)

G00 Z3.000000
G00 X113.121957 Y219.257903

G00 Z4.875000 (Fast pre-penetrate)
G01 Z-0.125000 F400.0(Penetrate)
G01 X113.420010 Y219.526931 Z-0.125000 F800.000000
G01 X113.810137 Y219.655730 Z-0.125000
G01 X114.129039 Y219.638770 Z-0.125000
G01 X114.499746 Y219.471315 Z-0.125000
G01 X114.768774 Y219.173263 Z-0.125000
G01 X114.897573 Y218.783135 Z-0.125000
G01 X114.880614 Y218.464233 Z-0.125000
G01 X114.713159 Y218.093526 Z-0.125000
G01 X114.415106 Y217.824498 Z-0.125000
G01 X114.024979 Y217.695699 Z-0.125000
G01 X113.706077 Y217.712659 Z-0.125000
G01 X113.335370 Y217.880113 Z-0.125000
G01 X113.066342 Y218.178166 Z-0.125000
G01 X112.937543 Y218.568294 Z-0.125000
G01 X112.954502 Y218.887195 Z-0.125000
G01 X113.121957 Y219.257903 Z-0.125000
G00 Z3.000000

(End cutting path id: polygon304201)


(Start cutting path id: polygon304199)
(Change tool to Default tool)

G00 Z3.000000
G00 X114.639737 Y221.393114

G00 Z4.875000 (Fast pre-penetrate)
G01 Z-0.125000 F400.0(Penetrate)
G01 X114.315120 Y221.174224 Z-0.125000 F800.000000
G01 X113.917558 Y221.093950 Z-0.125000
G01 X113.519996 Y221.174224 Z-0.125000
G01 X113.195379 Y221.393114 Z-0.125000
G01 X112.976489 Y221.717731 Z-0.125000
G01 X112.896215 Y222.115293 Z-0.125000
G01 X112.976489 Y222.512856 Z-0.125000
G01 X113.195379 Y222.837473 Z-0.125000
G01 X113.519996 Y223.056362 Z-0.125000
G01 X113.917558 Y223.136637 Z-0.125000
G01 X114.315120 Y223.056362 Z-0.125000
G01 X114.639737 Y222.837473 Z-0.125000
G01 X114.858627 Y222.512856 Z-0.125000
G01 X114.938901 Y222.115293 Z-0.125000
G01 X114.858627 Y221.717731 Z-0.125000
G01 X114.639737 Y221.393114 Z-0.125000
G00 Z3.000000

(End cutting path id: polygon304199)


(Start cutting path id: polygon304185)
(Change tool to Default tool)

G00 Z3.000000
G00 X116.850990 Y222.981221

G00 Z4.875000 (Fast pre-penetrate)
G01 Z-0.125000 F400.0(Penetrate)
G01 X117.247864 Y223.112242 Z-0.125000 F800.000000
G01 X117.572269 Y223.094991 Z-0.125000
G01 X117.949406 Y222.924626 Z-0.125000
G01 X118.223064 Y222.621441 Z-0.125000
G01 X118.354086 Y222.224566 Z-0.125000
G01 X118.336835 Y221.900161 Z-0.125000
G01 X118.166470 Y221.523024 Z-0.125000
G01 X117.863284 Y221.249366 Z-0.125000
G01 X117.466410 Y221.118345 Z-0.125000
G01 X117.142005 Y221.135595 Z-0.125000
G01 X116.764868 Y221.305960 Z-0.125000
G01 X116.491210 Y221.609146 Z-0.125000
G01 X116.360188 Y222.006021 Z-0.125000
G01 X116.377439 Y222.330426 Z-0.125000
G01 X116.547804 Y222.707562 Z-0.125000
G01 X116.850990 Y222.981221 Z-0.125000
G00 Z3.000000

(End cutting path id: polygon304185)


(Start cutting path id: polygon304187)
(Change tool to Default tool)

G00 Z3.000000
G00 X116.374740 Y225.248988

G00 Z4.875000 (Fast pre-penetrate)
G01 Z-0.125000 F400.0(Penetrate)
G01 X116.333809 Y225.660044 Z-0.125000 F800.000000
G01 X116.452634 Y226.045198 Z-0.125000
G01 X116.702823 Y226.348621 Z-0.125000
G01 X117.051253 Y226.537269 Z-0.125000
G01 X117.462309 Y226.578200 Z-0.125000
G01 X117.847462 Y226.459376 Z-0.125000
G01 X118.150886 Y226.209186 Z-0.125000
G01 X118.339534 Y225.860757 Z-0.125000
G01 X118.380465 Y225.449701 Z-0.125000
G01 X118.261640 Y225.064547 Z-0.125000
G01 X118.011451 Y224.761123 Z-0.125000
G01 X117.663021 Y224.572476 Z-0.125000
G01 X117.251965 Y224.531545 Z-0.125000
G01 X116.866812 Y224.650369 Z-0.125000
G01 X116.563388 Y224.900559 Z-0.125000
G01 X116.374740 Y225.248988 Z-0.125000
G00 Z3.000000

(End cutting path id: polygon304187)


(Start cutting path id: polygon304197)
(Change tool to Default tool)

G00 Z3.000000
G00 X114.415556 Y224.636187

G00 Z4.875000 (Fast pre-penetrate)
G01 Z-0.125000 F400.0(Penetrate)
G01 X114.024370 Y224.515484 Z-0.125000 F800.000000
G01 X113.606885 Y224.557077 Z-0.125000
G01 X113.252978 Y224.748688 Z-0.125000
G01 X112.998873 Y225.056874 Z-0.125000
G01 X112.878170 Y225.448060 Z-0.125000
G01 X112.919763 Y225.865546 Z-0.125000
G01 X113.111374 Y226.219452 Z-0.125000
G01 X113.419560 Y226.473557 Z-0.125000
G01 X113.810746 Y226.594260 Z-0.125000
G01 X114.228231 Y226.552668 Z-0.125000
G01 X114.582138 Y226.361057 Z-0.125000
G01 X114.836243 Y226.052870 Z-0.125000
G01 X114.956946 Y225.661684 Z-0.125000
G01 X114.915353 Y225.244199 Z-0.125000
G01 X114.723742 Y224.890293 Z-0.125000
G01 X114.415556 Y224.636187 Z-0.125000
G00 Z3.000000

(End cutting path id: polygon304197)


(Start cutting path id: polygon304223)
(Change tool to Default tool)

G00 Z3.000000
G00 X111.489639 Y225.239886

G00 Z4.875000 (Fast pre-penetrate)
G01 Z-0.125000 F400.0(Penetrate)
G01 X111.295355 Y224.881085 Z-0.125000 F800.000000
G01 X110.982883 Y224.623434 Z-0.125000
G01 X110.586273 Y224.501065 Z-0.125000
G01 X110.162993 Y224.543213 Z-0.125000
G01 X109.804192 Y224.737496 Z-0.125000
G01 X109.546541 Y225.049969 Z-0.125000
G01 X109.424171 Y225.446578 Z-0.125000
G01 X109.466319 Y225.869858 Z-0.125000
G01 X109.660603 Y226.228659 Z-0.125000
G01 X109.973075 Y226.486310 Z-0.125000
G01 X110.369685 Y226.608680 Z-0.125000
G01 X110.792965 Y226.566532 Z-0.125000
G01 X111.151766 Y226.372249 Z-0.125000
G01 X111.409417 Y226.059776 Z-0.125000
G01 X111.531787 Y225.663166 Z-0.125000
G01 X111.489639 Y225.239886 Z-0.125000
G00 Z3.000000

(End cutting path id: polygon304223)


(Start cutting path id: polygon304221)
(Change tool to Default tool)

G00 Z3.000000
G00 X111.278157 Y222.774899

G00 Z4.875000 (Fast pre-penetrate)
G01 Z-0.125000 F400.0(Penetrate)
G01 X111.468313 Y222.423665 Z-0.125000 F800.000000
G01 X111.509588 Y222.009275 Z-0.125000
G01 X111.389785 Y221.621026 Z-0.125000
G01 X111.137584 Y221.315115 Z-0.125000
G01 X110.786350 Y221.124959 Z-0.125000
G01 X110.371961 Y221.083684 Z-0.125000
G01 X109.983711 Y221.203487 Z-0.125000
G01 X109.677801 Y221.455688 Z-0.125000
G01 X109.487645 Y221.806922 Z-0.125000
G01 X109.446370 Y222.221312 Z-0.125000
G01 X109.566173 Y222.609561 Z-0.125000
G01 X109.818374 Y222.915472 Z-0.125000
G01 X110.169608 Y223.105627 Z-0.125000
G01 X110.583997 Y223.146902 Z-0.125000
G01 X110.972247 Y223.027099 Z-0.125000
G01 X111.278157 Y222.774899 Z-0.125000
G00 Z3.000000

(End cutting path id: polygon304221)


(Start cutting path id: polygon304235)
(Change tool to Default tool)

G00 Z3.000000
G00 X107.038400 Y223.170794

G00 Z4.875000 (Fast pre-penetrate)
G01 Z-0.125000 F400.0(Penetrate)
G01 X107.449244 Y223.087847 Z-0.125000 F800.000000
G01 X107.784762 Y222.861655 Z-0.125000
G01 X108.010954 Y222.526138 Z-0.125000
G01 X108.093901 Y222.115293 Z-0.125000
G01 X108.010954 Y221.704449 Z-0.125000
G01 X107.784762 Y221.368931 Z-0.125000
G01 X107.449244 Y221.142739 Z-0.125000
G01 X107.038400 Y221.059792 Z-0.125000
G01 X106.627556 Y221.142739 Z-0.125000
G01 X106.292038 Y221.368931 Z-0.125000
G01 X106.065846 Y221.704449 Z-0.125000
G01 X105.982899 Y222.115293 Z-0.125000
G01 X106.065846 Y222.526138 Z-0.125000
G01 X106.292038 Y222.861655 Z-0.125000
G01 X106.627556 Y223.087847 Z-0.125000
G01 X107.038400 Y223.170794 Z-0.125000
G00 Z3.000000

(End cutting path id: polygon304235)


(Start cutting path id: polygon302493)
(Change tool to Default tool)

G00 Z3.000000
G00 X104.191990 Y224.607136

G00 Z4.875000 (Fast pre-penetrate)
G01 Z-0.125000 F400.0(Penetrate)
G01 X103.811255 Y224.457117 Z-0.125000 F800.000000
G01 X103.386387 Y224.457117 Z-0.125000
G01 X103.005652 Y224.607136 Z-0.125000
G01 X102.651085 Y224.961704 Z-0.125000
G01 X102.501066 Y225.342439 Z-0.125000
G01 X102.501066 Y225.767306 Z-0.125000
G01 X102.651085 Y226.148041 Z-0.125000
G01 X103.005652 Y226.502609 Z-0.125000
G01 X103.386387 Y226.652627 Z-0.125000
G01 X103.811255 Y226.652627 Z-0.125000
G01 X104.191990 Y226.502609 Z-0.125000
G01 X104.546557 Y226.148041 Z-0.125000
G01 X104.696576 Y225.767306 Z-0.125000
G01 X104.696576 Y225.342439 Z-0.125000
G01 X104.546557 Y224.961704 Z-0.125000
G01 X104.191990 Y224.607136 Z-0.125000
G00 Z3.000000

(End cutting path id: polygon302493)


(Start cutting path id: polygon304233)
(Change tool to Default tool)

G00 Z3.000000
G00 X106.237428 Y226.286550

G00 Z4.875000 (Fast pre-penetrate)
G01 Z-0.125000 F400.0(Penetrate)
G01 X106.639171 Y226.563886 Z-0.125000 F800.000000
G01 X107.038400 Y226.639716 Z-0.125000
G01 X107.437629 Y226.563886 Z-0.125000
G01 X107.770078 Y226.355844 Z-0.125000
G01 X108.047414 Y225.954102 Z-0.125000
G01 X108.123243 Y225.554872 Z-0.125000
G01 X108.047414 Y225.155643 Z-0.125000
G01 X107.770078 Y224.753900 Z-0.125000
G01 X107.437629 Y224.545859 Z-0.125000
G01 X107.038400 Y224.470029 Z-0.125000
G01 X106.639171 Y224.545859 Z-0.125000
G01 X106.237428 Y224.823194 Z-0.125000
G01 X106.029386 Y225.155643 Z-0.125000
G01 X105.953557 Y225.554872 Z-0.125000
G01 X106.029386 Y225.954102 Z-0.125000
G01 X106.237428 Y226.286550 Z-0.125000
G00 Z3.000000

(End cutting path id: polygon304233)


(Start cutting path id: polygon304231)
(Change tool to Default tool)

G00 Z3.000000
G00 X106.151174 Y228.320188

G00 Z4.875000 (Fast pre-penetrate)
G01 Z-0.125000 F400.0(Penetrate)
G01 X105.968612 Y228.681635 Z-0.125000 F800.000000
G01 X105.929189 Y229.101766 Z-0.125000
G01 X106.043833 Y229.497503 Z-0.125000
G01 X106.364137 Y229.881677 Z-0.125000
G01 X106.725584 Y230.064240 Z-0.125000
G01 X107.145715 Y230.103663 Z-0.125000
G01 X107.541452 Y229.989019 Z-0.125000
G01 X107.925626 Y229.668715 Z-0.125000
G01 X108.108188 Y229.307268 Z-0.125000
G01 X108.147611 Y228.887136 Z-0.125000
G01 X108.032967 Y228.491400 Z-0.125000
G01 X107.712663 Y228.107225 Z-0.125000
G01 X107.351216 Y227.924663 Z-0.125000
G01 X106.931085 Y227.885240 Z-0.125000
G01 X106.535348 Y227.999884 Z-0.125000
G01 X106.151174 Y228.320188 Z-0.125000
G00 Z3.000000

(End cutting path id: polygon304231)


(Start cutting path id: polygon302495)
(Change tool to Default tool)

G00 Z3.000000
G00 X104.646067 Y229.491206

G00 Z4.875000 (Fast pre-penetrate)
G01 Z-0.125000 F400.0(Penetrate)
G01 X104.752906 Y229.099914 Z-0.125000 F800.000000
G01 X104.716234 Y228.686397 Z-0.125000
G01 X104.485095 Y228.247851 Z-0.125000
G01 X104.095576 Y227.947205 Z-0.125000
G01 X103.704284 Y227.840367 Z-0.125000
G01 X103.290767 Y227.877038 Z-0.125000
G01 X102.852221 Y228.108178 Z-0.125000
G01 X102.551575 Y228.497697 Z-0.125000
G01 X102.444736 Y228.888989 Z-0.125000
G01 X102.481408 Y229.302505 Z-0.125000
G01 X102.712547 Y229.741052 Z-0.125000
G01 X103.102066 Y230.041697 Z-0.125000
G01 X103.493358 Y230.148536 Z-0.125000
G01 X103.906875 Y230.111865 Z-0.125000
G01 X104.345421 Y229.880725 Z-0.125000
G01 X104.646067 Y229.491206 Z-0.125000
G00 Z3.000000

(End cutting path id: polygon302495)


(Start cutting path id: polygon302497)
(Change tool to Default tool)

G00 Z3.000000
G00 X103.384456 Y231.260737

G00 Z4.875000 (Fast pre-penetrate)
G01 Z-0.125000 F400.0(Penetrate)
G01 X102.911090 Y231.459677 Z-0.125000 F800.000000
G01 X102.569117 Y231.832157 Z-0.125000
G01 X102.425528 Y232.219665 Z-0.125000
G01 X102.425528 Y232.648395 Z-0.125000
G01 X102.624468 Y233.121761 Z-0.125000
G01 X102.996948 Y233.463734 Z-0.125000
G01 X103.384456 Y233.607324 Z-0.125000
G01 X103.813186 Y233.607324 Z-0.125000
G01 X104.286552 Y233.408384 Z-0.125000
G01 X104.628525 Y233.035904 Z-0.125000
G01 X104.772114 Y232.648395 Z-0.125000
G01 X104.772114 Y232.219665 Z-0.125000
G01 X104.573174 Y231.746300 Z-0.125000
G01 X104.200694 Y231.404326 Z-0.125000
G01 X103.813186 Y231.260737 Z-0.125000
G01 X103.384456 Y231.260737 Z-0.125000
G00 Z3.000000

(End cutting path id: polygon302497)


(Start cutting path id: polygon302499)
(Change tool to Default tool)

G00 Z3.000000
G00 X101.375477 Y232.434030

G00 Z4.875000 (Fast pre-penetrate)
G01 Z-0.125000 F400.0(Penetrate)
G01 X101.269961 Y231.937752 Z-0.125000 F800.000000
G01 X100.983815 Y231.539978 Z-0.125000
G01 X100.562678 Y231.286296 Z-0.125000
G01 X100.159242 Y231.217795 Z-0.125000
G01 X99.662964 Y231.323311 Z-0.125000
G01 X99.265190 Y231.609457 Z-0.125000
G01 X99.011507 Y232.030594 Z-0.125000
G01 X98.943007 Y232.434030 Z-0.125000
G01 X99.048523 Y232.930309 Z-0.125000
G01 X99.334669 Y233.328083 Z-0.125000
G01 X99.755806 Y233.581765 Z-0.125000
G01 X100.159242 Y233.650265 Z-0.125000
G01 X100.655520 Y233.544750 Z-0.125000
G01 X101.053294 Y233.258603 Z-0.125000
G01 X101.306977 Y232.837466 Z-0.125000
G01 X101.375477 Y232.434030 Z-0.125000
G00 Z3.000000

(End cutting path id: polygon302499)


(Start cutting path id: polygon302513)
(Change tool to Default tool)

G00 Z3.000000
G00 X101.269326 Y228.581252

G00 Z4.875000 (Fast pre-penetrate)
G01 Z-0.125000 F400.0(Penetrate)
G01 X100.996568 Y228.157125 Z-0.125000 F800.000000
G01 X100.572441 Y227.884367 Z-0.125000
G01 X100.159242 Y227.810284 Z-0.125000
G01 X99.746043 Y227.884367 Z-0.125000
G01 X99.321916 Y228.157125 Z-0.125000
G01 X99.049158 Y228.581252 Z-0.125000
G01 X98.975074 Y228.994451 Z-0.125000
G01 X99.049158 Y229.407651 Z-0.125000
G01 X99.321916 Y229.831777 Z-0.125000
G01 X99.746043 Y230.104536 Z-0.125000
G01 X100.159242 Y230.178619 Z-0.125000
G01 X100.572441 Y230.104536 Z-0.125000
G01 X100.996568 Y229.831777 Z-0.125000
G01 X101.269326 Y229.407651 Z-0.125000
G01 X101.343410 Y228.994451 Z-0.125000
G01 X101.269326 Y228.581252 Z-0.125000
G00 Z3.000000

(End cutting path id: polygon302513)


(Start cutting path id: polygon302515)
(Change tool to Default tool)

G00 Z3.000000
G00 X99.839493 Y224.461351

G00 Z4.875000 (Fast pre-penetrate)
G01 Z-0.125000 F400.0(Penetrate)
G01 X99.470030 Y224.647961 Z-0.125000 F800.000000
G01 X99.142608 Y225.040682 Z-0.125000
G01 X99.025424 Y225.445176 Z-0.125000
G01 X99.065720 Y225.874621 Z-0.125000
G01 X99.252331 Y226.244085 Z-0.125000
G01 X99.645051 Y226.571506 Z-0.125000
G01 X100.049546 Y226.688690 Z-0.125000
G01 X100.478991 Y226.648394 Z-0.125000
G01 X100.848454 Y226.461783 Z-0.125000
G01 X101.175876 Y226.069063 Z-0.125000
G01 X101.293060 Y225.664568 Z-0.125000
G01 X101.252764 Y225.235124 Z-0.125000
G01 X101.066153 Y224.865660 Z-0.125000
G01 X100.673433 Y224.538239 Z-0.125000
G01 X100.268938 Y224.421055 Z-0.125000
G01 X99.839493 Y224.461351 Z-0.125000
G00 Z3.000000

(End cutting path id: polygon302515)


(Start cutting path id: polygon302797)
(Change tool to Default tool)

G00 Z3.000000
G00 X101.211833 Y222.423083

G00 Z4.875000 (Fast pre-penetrate)
G01 Z-0.125000 F400.0(Penetrate)
G01 X101.250620 Y222.009698 Z-0.125000 F800.000000
G01 X101.137802 Y221.620338 Z-0.125000
G01 X100.822657 Y221.242328 Z-0.125000
G01 X100.467031 Y221.062703 Z-0.125000
G01 X100.053647 Y221.023915 Z-0.125000
G01 X99.664287 Y221.136733 Z-0.125000
G01 X99.286277 Y221.451878 Z-0.125000
G01 X99.106651 Y221.807504 Z-0.125000
G01 X99.067864 Y222.220888 Z-0.125000
G01 X99.180682 Y222.610249 Z-0.125000
G01 X99.495827 Y222.988258 Z-0.125000
G01 X99.851453 Y223.167884 Z-0.125000
G01 X100.264837 Y223.206672 Z-0.125000
G01 X100.654197 Y223.093854 Z-0.125000
G01 X101.032207 Y222.778709 Z-0.125000
G01 X101.211833 Y222.423083 Z-0.125000
G00 Z3.000000

(End cutting path id: polygon302797)


(Start cutting path id: polygon302491)
(Change tool to Default tool)

G00 Z3.000000
G00 X102.705562 Y221.512997

G00 Z4.875000 (Fast pre-penetrate)
G01 Z-0.125000 F400.0(Penetrate)
G01 X102.543479 Y221.898203 Z-0.125000 F800.000000
G01 X102.543479 Y222.332384 Z-0.125000
G01 X102.705562 Y222.717590 Z-0.125000
G01 X102.996524 Y223.008552 Z-0.125000
G01 X103.381731 Y223.170636 Z-0.125000
G01 X103.815911 Y223.170636 Z-0.125000
G01 X104.201118 Y223.008552 Z-0.125000
G01 X104.492080 Y222.717590 Z-0.125000
G01 X104.654163 Y222.332384 Z-0.125000
G01 X104.654163 Y221.898203 Z-0.125000
G01 X104.492080 Y221.512997 Z-0.125000
G01 X104.201118 Y221.222035 Z-0.125000
G01 X103.815911 Y221.059951 Z-0.125000
G01 X103.381731 Y221.059951 Z-0.125000
G01 X102.996524 Y221.222035 Z-0.125000
G01 X102.705562 Y221.512997 Z-0.125000
G00 Z3.000000

(End cutting path id: polygon302491)


(Start cutting path id: polygon302489)
(Change tool to Default tool)

G00 Z3.000000
G00 X103.492300 Y219.712192

G00 Z4.875000 (Fast pre-penetrate)
G01 Z-0.125000 F400.0(Penetrate)
G01 X103.908621 Y219.670732 Z-0.125000 F800.000000
G01 X104.261522 Y219.479650 Z-0.125000
G01 X104.514913 Y219.172310 Z-0.125000
G01 X104.635298 Y218.782235 Z-0.125000
G01 X104.593838 Y218.365914 Z-0.125000
G01 X104.402756 Y218.013013 Z-0.125000
G01 X104.095417 Y217.759622 Z-0.125000
G01 X103.705342 Y217.639237 Z-0.125000
G01 X103.289021 Y217.680697 Z-0.125000
G01 X102.936120 Y217.871779 Z-0.125000
G01 X102.682729 Y218.179118 Z-0.125000
G01 X102.562344 Y218.569193 Z-0.125000
G01 X102.603804 Y218.985515 Z-0.125000
G01 X102.794886 Y219.338415 Z-0.125000
G01 X103.102225 Y219.591806 Z-0.125000
G01 X103.492300 Y219.712192 Z-0.125000
G00 Z3.000000

(End cutting path id: polygon302489)


(Start cutting path id: polygon302487)
(Change tool to Default tool)

G00 Z3.000000
G00 X104.170109 Y214.388861

G00 Z4.875000 (Fast pre-penetrate)
G01 Z-0.125000 F400.0(Penetrate)
G01 X103.804746 Y214.235112 Z-0.125000 F800.000000
G01 X103.392896 Y214.235112 Z-0.125000
G01 X103.027533 Y214.388861 Z-0.125000
G01 X102.751547 Y214.664848 Z-0.125000
G01 X102.597798 Y215.030210 Z-0.125000
G01 X102.597798 Y215.442060 Z-0.125000
G01 X102.751547 Y215.807423 Z-0.125000
G01 X103.027533 Y216.083409 Z-0.125000
G01 X103.392896 Y216.237159 Z-0.125000
G01 X103.804746 Y216.237159 Z-0.125000
G01 X104.170109 Y216.083409 Z-0.125000
G01 X104.446095 Y215.807423 Z-0.125000
G01 X104.599844 Y215.442060 Z-0.125000
G01 X104.599844 Y215.030210 Z-0.125000
G01 X104.446095 Y214.664848 Z-0.125000
G01 X104.170109 Y214.388861 Z-0.125000
G00 Z3.000000

(End cutting path id: polygon302487)


(Start cutting path id: polygon304217)
(Change tool to Default tool)

G00 Z3.000000
G00 X111.456460 Y215.236135

G00 Z4.875000 (Fast pre-penetrate)
G01 Z-0.125000 F400.0(Penetrate)
G01 X111.369386 Y214.832011 Z-0.125000 F800.000000
G01 X111.133589 Y214.509723 Z-0.125000
G01 X110.787250 Y214.307528 Z-0.125000
G01 X110.477979 Y214.257654 Z-0.125000
G01 X110.073855 Y214.344729 Z-0.125000
G01 X109.751566 Y214.580525 Z-0.125000
G01 X109.549372 Y214.926864 Z-0.125000
G01 X109.499498 Y215.236135 Z-0.125000
G01 X109.586572 Y215.640259 Z-0.125000
G01 X109.822369 Y215.962548 Z-0.125000
G01 X110.168708 Y216.164742 Z-0.125000
G01 X110.477979 Y216.214616 Z-0.125000
G01 X110.882103 Y216.127542 Z-0.125000
G01 X111.204392 Y215.891746 Z-0.125000
G01 X111.406586 Y215.545406 Z-0.125000
G01 X111.456460 Y215.236135 Z-0.125000
G00 Z3.000000

(End cutting path id: polygon304217)


(Start cutting path id: polygon304203)
(Change tool to Default tool)

G00 Z3.000000
G00 X114.316258 Y214.356688

G00 Z4.875000 (Fast pre-penetrate)
G01 Z-0.125000 F400.0(Penetrate)
G01 X113.917558 Y214.270751 Z-0.125000 F800.000000
G01 X113.612414 Y214.319964 Z-0.125000
G01 X113.270758 Y214.519486 Z-0.125000
G01 X113.038111 Y214.837435 Z-0.125000
G01 X112.952174 Y215.236135 Z-0.125000
G01 X113.001386 Y215.541279 Z-0.125000
G01 X113.200908 Y215.882935 Z-0.125000
G01 X113.518858 Y216.115583 Z-0.125000
G01 X113.917558 Y216.201519 Z-0.125000
G01 X114.222702 Y216.152307 Z-0.125000
G01 X114.564358 Y215.952785 Z-0.125000
G01 X114.797005 Y215.634835 Z-0.125000
G01 X114.882942 Y215.236135 Z-0.125000
G01 X114.833730 Y214.930992 Z-0.125000
G01 X114.634208 Y214.589336 Z-0.125000
G01 X114.316258 Y214.356688 Z-0.125000
G00 Z3.000000

(End cutting path id: polygon304203)


(Start cutting path id: polygon304205)
(Change tool to Default tool)

G00 Z3.000000
G00 X114.860320 Y212.003566

G00 Z4.875000 (Fast pre-penetrate)
G01 Z-0.125000 F400.0(Penetrate)
G01 X114.876936 Y211.691411 Z-0.125000 F800.000000
G01 X114.750836 Y211.309485 Z-0.125000
G01 X114.487496 Y211.017730 Z-0.125000
G01 X114.124568 Y210.853794 Z-0.125000
G01 X113.812413 Y210.837178 Z-0.125000
G01 X113.430487 Y210.963279 Z-0.125000
G01 X113.138731 Y211.226618 Z-0.125000
G01 X112.974796 Y211.589547 Z-0.125000
G01 X112.958180 Y211.901702 Z-0.125000
G01 X113.084280 Y212.283627 Z-0.125000
G01 X113.347620 Y212.575383 Z-0.125000
G01 X113.710548 Y212.739318 Z-0.125000
G01 X114.022703 Y212.755934 Z-0.125000
G01 X114.404629 Y212.629834 Z-0.125000
G01 X114.696385 Y212.366495 Z-0.125000
G01 X114.860320 Y212.003566 Z-0.125000
G00 Z3.000000

(End cutting path id: polygon304205)


(Start cutting path id: polygon304179)
(Change tool to Default tool)

G00 Z3.000000
G00 X117.245853 Y210.848714

G00 Z4.875000 (Fast pre-penetrate)
G01 Z-0.125000 F400.0(Penetrate)
G01 X116.845566 Y210.990875 Z-0.125000 F800.000000
G01 X116.551455 Y211.284985 Z-0.125000
G01 X116.428080 Y211.577746 Z-0.125000
G01 X116.409295 Y211.907840 Z-0.125000
G01 X116.551455 Y212.308128 Z-0.125000
G01 X116.845566 Y212.602238 Z-0.125000
G01 X117.138327 Y212.725613 Z-0.125000
G01 X117.468421 Y212.744398 Z-0.125000
G01 X117.868708 Y212.602238 Z-0.125000
G01 X118.162819 Y212.308128 Z-0.125000
G01 X118.286194 Y212.015366 Z-0.125000
G01 X118.304979 Y211.685273 Z-0.125000
G01 X118.162819 Y211.284985 Z-0.125000
G01 X117.868708 Y210.990875 Z-0.125000
G01 X117.575947 Y210.867500 Z-0.125000
G01 X117.245853 Y210.848714 Z-0.125000
G00 Z3.000000

(End cutting path id: polygon304179)


(Start cutting path id: polygon304177)
(Change tool to Default tool)

G00 Z3.000000
G00 X117.752212 Y209.228408

G00 Z4.875000 (Fast pre-penetrate)
G01 Z-0.125000 F400.0(Penetrate)
G01 X118.067251 Y208.997877 Z-0.125000 F800.000000
G01 X118.264921 Y208.659316 Z-0.125000
G01 X118.313684 Y208.356977 Z-0.125000
G01 X118.228568 Y207.961902 Z-0.125000
G01 X117.998036 Y207.646863 Z-0.125000
G01 X117.659476 Y207.449193 Z-0.125000
G01 X117.357137 Y207.400430 Z-0.125000
G01 X117.054798 Y207.449193 Z-0.125000
G01 X116.716238 Y207.646863 Z-0.125000
G01 X116.485706 Y207.961902 Z-0.125000
G01 X116.400590 Y208.356977 Z-0.125000
G01 X116.485706 Y208.752053 Z-0.125000
G01 X116.716238 Y209.067092 Z-0.125000
G01 X117.054798 Y209.264762 Z-0.125000
G01 X117.357137 Y209.313524 Z-0.125000
G01 X117.752212 Y209.228408 Z-0.125000
G00 Z3.000000

(End cutting path id: polygon304177)


(Start cutting path id: polygon304171)
(Change tool to Default tool)

G00 Z3.000000
G00 X119.852710 Y208.246143

G00 Z4.875000 (Fast pre-penetrate)
G01 Z-0.125000 F400.0(Penetrate)
G01 X119.871416 Y208.574888 Z-0.125000 F800.000000
G01 X119.994262 Y208.866485 Z-0.125000
G01 X120.287209 Y209.159431 Z-0.125000
G01 X120.685882 Y209.300983 Z-0.125000
G01 X121.014627 Y209.282277 Z-0.125000
G01 X121.306223 Y209.159431 Z-0.125000
G01 X121.599170 Y208.866485 Z-0.125000
G01 X121.740722 Y208.467811 Z-0.125000
G01 X121.722016 Y208.139067 Z-0.125000
G01 X121.599170 Y207.847470 Z-0.125000
G01 X121.306223 Y207.554524 Z-0.125000
G01 X120.907550 Y207.412972 Z-0.125000
G01 X120.578805 Y207.431678 Z-0.125000
G01 X120.287209 Y207.554524 Z-0.125000
G01 X119.994262 Y207.847470 Z-0.125000
G01 X119.852710 Y208.246143 Z-0.125000
G00 Z3.000000

(End cutting path id: polygon304171)


(Start cutting path id: polygon304173)
(Change tool to Default tool)

G00 Z3.000000
G00 X119.954972 Y204.505337

G00 Z4.875000 (Fast pre-penetrate)
G01 Z-0.125000 F400.0(Penetrate)
G01 X119.866045 Y204.808126 Z-0.125000 F800.000000
G01 X119.884487 Y205.132240 Z-0.125000
G01 X120.065594 Y205.503423 Z-0.125000
G01 X120.384654 Y205.759143 Z-0.125000
G01 X120.687443 Y205.848069 Z-0.125000
G01 X121.011557 Y205.829628 Z-0.125000
G01 X121.382741 Y205.648521 Z-0.125000
G01 X121.638460 Y205.329460 Z-0.125000
G01 X121.727387 Y205.026671 Z-0.125000
G01 X121.708945 Y204.702557 Z-0.125000
G01 X121.527838 Y204.331373 Z-0.125000
G01 X121.208778 Y204.075654 Z-0.125000
G01 X120.905989 Y203.986728 Z-0.125000
G01 X120.581875 Y204.005169 Z-0.125000
G01 X120.210691 Y204.186276 Z-0.125000
G01 X119.954972 Y204.505337 Z-0.125000
G00 Z3.000000

(End cutting path id: polygon304173)


(Start cutting path id: polygon304175)
(Change tool to Default tool)

G00 Z3.000000
G00 X116.855170 Y204.126824

G00 Z4.875000 (Fast pre-penetrate)
G01 Z-0.125000 F400.0(Penetrate)
G01 X116.566563 Y204.415431 Z-0.125000 F800.000000
G01 X116.427101 Y204.808205 Z-0.125000
G01 X116.445516 Y205.132081 Z-0.125000
G01 X116.566563 Y205.419365 Z-0.125000
G01 X116.855170 Y205.707972 Z-0.125000
G01 X117.247944 Y205.847434 Z-0.125000
G01 X117.571820 Y205.829019 Z-0.125000
G01 X117.859104 Y205.707972 Z-0.125000
G01 X118.147711 Y205.419365 Z-0.125000
G01 X118.287173 Y205.026592 Z-0.125000
G01 X118.268758 Y204.702716 Z-0.125000
G01 X118.147711 Y204.415431 Z-0.125000
G01 X117.859104 Y204.126824 Z-0.125000
G01 X117.466330 Y203.987363 Z-0.125000
G01 X117.142454 Y204.005778 Z-0.125000
G01 X116.855170 Y204.126824 Z-0.125000
G00 Z3.000000

(End cutting path id: polygon304175)


(Start cutting path id: polygon303831)
(Change tool to Default tool)

G00 Z3.000000
G00 X116.485786 Y201.683030

G00 Z4.875000 (Fast pre-penetrate)
G01 Z-0.125000 F400.0(Penetrate)
G01 X116.658770 Y202.037598 Z-0.125000 F800.000000
G01 X116.963543 Y202.281834 Z-0.125000
G01 X117.252759 Y202.366792 Z-0.125000
G01 X117.562348 Y202.349170 Z-0.125000
G01 X117.916915 Y202.176186 Z-0.125000
G01 X118.161152 Y201.871413 Z-0.125000
G01 X118.246109 Y201.582197 Z-0.125000
G01 X118.228488 Y201.272609 Z-0.125000
G01 X118.055504 Y200.918041 Z-0.125000
G01 X117.750731 Y200.673804 Z-0.125000
G01 X117.461515 Y200.588847 Z-0.125000
G01 X117.151926 Y200.606468 Z-0.125000
G01 X116.797359 Y200.779452 Z-0.125000
G01 X116.553122 Y201.084226 Z-0.125000
G01 X116.468165 Y201.373441 Z-0.125000
G01 X116.485786 Y201.683030 Z-0.125000
G00 Z3.000000

(End cutting path id: polygon303831)


(Start cutting path id: polygon303833)
(Change tool to Default tool)

G00 Z3.000000
G00 X114.694559 Y201.891574

G00 Z4.875000 (Fast pre-penetrate)
G01 Z-0.125000 F400.0(Penetrate)
G01 X114.790814 Y201.588230 Z-0.125000 F800.000000
G01 X114.770812 Y201.261099 Z-0.125000
G01 X114.640002 Y200.974979 Z-0.125000
G01 X114.331313 Y200.700818 Z-0.125000
G01 X114.027968 Y200.604563 Z-0.125000
G01 X113.700838 Y200.624566 Z-0.125000
G01 X113.414718 Y200.755375 Z-0.125000
G01 X113.140557 Y201.064064 Z-0.125000
G01 X113.044302 Y201.367409 Z-0.125000
G01 X113.064304 Y201.694539 Z-0.125000
G01 X113.195114 Y201.980659 Z-0.125000
G01 X113.503803 Y202.254820 Z-0.125000
G01 X113.807148 Y202.351075 Z-0.125000
G01 X114.134278 Y202.331073 Z-0.125000
G01 X114.420398 Y202.200263 Z-0.125000
G01 X114.694559 Y201.891574 Z-0.125000
G00 Z3.000000

(End cutting path id: polygon303833)


(Start cutting path id: polygon304209)
(Change tool to Default tool)

G00 Z3.000000
G00 X114.710566 Y205.420900

G00 Z4.875000 (Fast pre-penetrate)
G01 Z-0.125000 F400.0(Penetrate)
G01 X114.831983 Y205.132742 Z-0.125000 F800.000000
G01 X114.850478 Y204.807861 Z-0.125000
G01 X114.710566 Y204.413897 Z-0.125000
G01 X114.421059 Y204.124390 Z-0.125000
G01 X114.132902 Y204.002973 Z-0.125000
G01 X113.808021 Y203.984479 Z-0.125000
G01 X113.414057 Y204.124390 Z-0.125000
G01 X113.124550 Y204.413897 Z-0.125000
G01 X113.003133 Y204.702054 Z-0.125000
G01 X112.984638 Y205.026936 Z-0.125000
G01 X113.124550 Y205.420900 Z-0.125000
G01 X113.414057 Y205.710406 Z-0.125000
G01 X113.702214 Y205.831824 Z-0.125000
G01 X114.027095 Y205.850318 Z-0.125000
G01 X114.421059 Y205.710406 Z-0.125000
G01 X114.710566 Y205.420900 Z-0.125000
G00 Z3.000000

(End cutting path id: polygon304209)


(Start cutting path id: polygon304211)
(Change tool to Default tool)

G00 Z3.000000
G00 X109.968921 Y204.115659

G00 Z4.875000 (Fast pre-penetrate)
G01 Z-0.125000 F400.0(Penetrate)
G01 X109.676240 Y204.408341 Z-0.125000 F800.000000
G01 X109.534794 Y204.806670 Z-0.125000
G01 X109.553473 Y205.135124 Z-0.125000
G01 X109.676240 Y205.426456 Z-0.125000
G01 X109.968921 Y205.719138 Z-0.125000
G01 X110.367251 Y205.860584 Z-0.125000
G01 X110.695704 Y205.841904 Z-0.125000
G01 X110.987037 Y205.719138 Z-0.125000
G01 X111.279718 Y205.426456 Z-0.125000
G01 X111.421164 Y205.028126 Z-0.125000
G01 X111.402485 Y204.699673 Z-0.125000
G01 X111.279718 Y204.408341 Z-0.125000
G01 X110.987037 Y204.115659 Z-0.125000
G01 X110.588707 Y203.974213 Z-0.125000
G01 X110.260254 Y203.992892 Z-0.125000
G01 X109.968921 Y204.115659 Z-0.125000
G00 Z3.000000

(End cutting path id: polygon304211)


(Start cutting path id: polygon302811)
