%
(Header)
(Generated by gcodetools from Inkscape.)
(Using default header. To add your own header create file "header" in the output dir.)
M3
(Header end.)
G21 (All units in mm)

(Start cutting path id: path110070)
(Change tool to Default tool)

G00 Z10.000000
G00 X65.666853 Y53.324681

G00 Z4.875000 (Fast pre-penetrate)
G01 Z-0.125000 F100.0(Penetrate)
G01 X65.668879 Y53.329074 Z-0.125000 F800.000000
G01 X65.671027 Y53.333409 Z-0.125000
G01 X65.673464 Y53.337610 Z-0.125000
G01 X65.675960 Y53.341772 Z-0.125000
G01 X65.678637 Y53.345829 Z-0.125000
G01 X65.681993 Y53.349497 Z-0.125000
G01 X65.685094 Y53.353275 Z-0.125000
G01 X65.688483 Y53.356862 Z-0.125000
G01 X65.691987 Y53.360344 Z-0.125000
G01 X65.695808 Y53.363585 Z-0.125000
G01 X65.699708 Y53.366727 Z-0.125000
G01 X65.703802 Y53.369686 Z-0.125000
G01 X65.709506 Y53.371230 Z-0.125000
G01 X65.714048 Y53.373651 Z-0.125000
G01 X65.718921 Y53.375695 Z-0.125000
G01 X65.723600 Y53.377866 Z-0.125000
G01 X65.728781 Y53.379442 Z-0.125000
G01 X65.734098 Y53.380760 Z-0.125000
G01 X65.739346 Y53.382061 Z-0.125000
G01 X65.744698 Y53.383137 Z-0.125000
G01 X65.750343 Y53.383720 Z-0.125000
G01 X65.755871 Y53.384332 Z-0.125000
G01 X65.761466 Y53.384726 Z-0.125000
G01 X65.767319 Y53.384585 Z-0.125000
G01 X65.773032 Y53.384562 Z-0.125000
G01 X65.778772 Y53.384252 Z-0.125000
G01 X65.784737 Y53.383432 Z-0.125000
G01 X65.790524 Y53.382736 Z-0.125000
G01 X65.796327 Y53.381848 Z-0.125000
G01 X65.802302 Y53.380365 Z-0.125000
G01 X65.808107 Y53.379101 Z-0.125000
G01 X65.814057 Y53.377246 Z-0.125000
G01 X65.819827 Y53.375610 Z-0.125000
G01 X65.825576 Y53.373788 Z-0.125000
G01 X65.831436 Y53.371345 Z-0.125000
G01 X65.837122 Y53.369157 Z-0.125000
G01 X65.842781 Y53.366804 Z-0.125000
G01 X65.848513 Y53.363825 Z-0.125000
G01 X65.854077 Y53.361139 Z-0.125000
G01 X65.859597 Y53.358300 Z-0.125000
G01 X65.865158 Y53.354813 Z-0.125000
G01 X65.870576 Y53.351651 Z-0.125000
G01 X65.875940 Y53.348338 Z-0.125000
G01 X65.881295 Y53.344358 Z-0.125000
G01 X65.886530 Y53.340727 Z-0.125000
G01 X65.891700 Y53.336938 Z-0.125000
G01 X65.896829 Y53.332458 Z-0.125000
G01 X65.901852 Y53.328354 Z-0.125000
G01 X65.906801 Y53.324092 Z-0.125000
G01 X65.911665 Y53.319109 Z-0.125000
G01 X65.916436 Y53.314520 Z-0.125000
G01 X65.921124 Y53.309774 Z-0.125000
G01 X65.925718 Y53.304866 Z-0.125000
G01 X65.930220 Y53.299803 Z-0.125000
G01 X65.934566 Y53.293983 Z-0.125000
G01 X65.938861 Y53.288644 Z-0.125000
G01 X65.943064 Y53.283207 Z-0.125000
G01 X65.947071 Y53.277058 Z-0.125000
G01 X65.950959 Y53.270816 Z-0.125000
G01 X65.954840 Y53.265093 Z-0.125000
G01 X65.958622 Y53.259284 Z-0.125000
G01 X65.962165 Y53.252789 Z-0.125000
G01 X65.965732 Y53.246828 Z-0.125000
G01 X65.969201 Y53.240788 Z-0.125000
G01 X65.972396 Y53.234079 Z-0.125000
G01 X65.975643 Y53.227898 Z-0.125000
G01 X65.978794 Y53.221648 Z-0.125000
G01 X65.981643 Y53.214733 Z-0.125000
G01 X65.984575 Y53.208360 Z-0.125000
G01 X65.987401 Y53.201920 Z-0.125000
G01 X65.989898 Y53.194819 Z-0.125000
G01 X65.992503 Y53.188246 Z-0.125000
G01 X65.995005 Y53.181616 Z-0.125000
G01 X65.997137 Y53.174312 Z-0.125000
G01 X65.999407 Y53.167542 Z-0.125000
G01 X66.001563 Y53.160706 Z-0.125000
G01 X66.003300 Y53.153186 Z-0.125000
G01 X66.005203 Y53.146195 Z-0.125000
G01 X66.006978 Y53.139121 Z-0.125000
G01 X66.008276 Y53.131345 Z-0.125000
G01 X66.009756 Y53.124086 Z-0.125000
G01 X66.011088 Y53.116729 Z-0.125000
G01 X66.011880 Y53.108642 Z-0.125000
G01 X66.012872 Y53.101060 Z-0.125000
G01 X66.013693 Y53.093365 Z-0.125000
G01 X66.013895 Y53.084906 Z-0.125000
G01 X66.014777 Y53.077626 Z-0.125000
G01 X66.014560 Y53.068927 Z-0.125000
G01 X66.014122 Y53.060143 Z-0.125000
G01 X66.014003 Y53.051965 Z-0.125000
G01 X66.013753 Y53.043791 Z-0.125000
G01 X66.012931 Y53.035024 Z-0.125000
G01 X66.012557 Y53.027012 Z-0.125000
G01 X66.012188 Y53.019141 Z-0.125000
G01 X66.011357 Y53.010876 Z-0.125000
G01 X66.011064 Y53.003341 Z-0.125000
G01 X66.010814 Y52.995950 Z-0.125000
G01 X66.010165 Y52.988211 Z-0.125000
G01 X66.009988 Y52.981081 Z-0.125000
G01 X66.009817 Y52.974044 Z-0.125000
G01 X66.009226 Y52.966644 Z-0.125000
G01 X66.009041 Y52.959751 Z-0.125000
G01 X66.008834 Y52.952890 Z-0.125000
G01 X66.008174 Y52.945644 Z-0.125000
G01 X66.007872 Y52.938836 Z-0.125000
G01 X66.007477 Y52.932036 Z-0.125000
G01 X66.006541 Y52.924826 Z-0.125000
G01 X66.006044 Y52.917986 Z-0.125000
G01 X66.005357 Y52.911131 Z-0.125000
G01 X66.004570 Y52.904245 Z-0.125000
G01 X66.003234 Y52.896906 Z-0.125000
G01 X66.002242 Y52.889923 Z-0.125000
G01 X66.000513 Y52.882489 Z-0.125000
G01 X65.999125 Y52.875394 Z-0.125000
G01 X65.997629 Y52.868222 Z-0.125000
G01 X65.995325 Y52.860565 Z-0.125000
G01 X65.993333 Y52.853251 Z-0.125000
G01 X65.991138 Y52.845849 Z-0.125000
G01 X65.988061 Y52.837917 Z-0.125000
G01 X65.985352 Y52.830319 Z-0.125000
G01 X65.982363 Y52.822627 Z-0.125000
G01 X65.978315 Y52.814368 Z-0.125000
G01 X65.974648 Y52.806460 Z-0.125000
G01 X65.970622 Y52.798443 Z-0.125000
G01 X65.966219 Y52.790311 Z-0.125000
G01 X65.960475 Y52.781557 Z-0.125000
G01 X65.955153 Y52.773184 Z-0.125000
G01 X65.948308 Y52.764169 Z-0.125000
G01 X65.941910 Y52.755561 Z-0.125000
G01 X65.924127 Y52.741874 Z-0.125000
G01 X65.915868 Y52.732976 Z-0.125000
G01 X65.906877 Y52.723991 Z-0.125000
G01 X65.895611 Y52.714362 Z-0.125000
G01 X65.884891 Y52.705247 Z-0.125000
G01 X65.873249 Y52.696103 Z-0.125000
G01 X65.858781 Y52.686396 Z-0.125000
G01 X65.846897 Y52.677852 Z-0.125000
G01 X65.829937 Y52.668294 Z-0.125000
G01 X65.811426 Y52.658928 Z-0.125000
G01 X65.793674 Y52.650315 Z-0.125000
G01 X65.774483 Y52.642007 Z-0.125000
G01 X65.750988 Y52.633749 Z-0.125000
G01 X65.728472 Y52.626438 Z-0.125000
G01 X65.704260 Y52.619797 Z-0.125000
G01 X65.674910 Y52.613923 Z-0.125000
G01 X65.646938 Y52.609238 Z-0.125000
G01 X65.617149 Y52.605767 Z-0.125000
G01 X65.585561 Y52.603712 Z-0.125000
G01 X65.548044 Y52.603962 Z-0.125000
G01 X65.512912 Y52.605639 Z-0.125000
G01 X65.471822 Y52.610607 Z-0.125000
G01 X65.433903 Y52.616930 Z-0.125000
G01 X65.395075 Y52.625694 Z-0.125000
G01 X65.350980 Y52.639141 Z-0.125000
G01 X65.311416 Y52.653322 Z-0.125000
G01 X65.272113 Y52.670023 Z-0.125000
G01 X65.229064 Y52.692152 Z-0.125000
G01 X65.191688 Y52.713654 Z-0.125000
G01 X65.155789 Y52.737008 Z-0.125000
G01 X65.117973 Y52.765489 Z-0.125000
G01 X65.086187 Y52.791526 Z-0.125000
G01 X65.056644 Y52.818155 Z-0.125000
G01 X65.029483 Y52.844873 Z-0.125000
G01 X65.002421 Y52.874638 Z-0.125000
G01 X64.980784 Y52.899311 Z-0.125000
G01 X64.960883 Y52.923556 Z-0.125000
G01 X64.949470 Y52.934231 Z-0.125000
G01 X64.943630 Y52.934841 Z-0.125000
G01 X64.939395 Y52.932500 Z-0.125000
G01 X64.936659 Y52.927369 Z-0.125000
G01 X64.935203 Y52.919870 Z-0.125000
G01 X64.935554 Y52.909286 Z-0.125000
G01 X64.936525 Y52.897844 Z-0.125000
G01 X64.938418 Y52.885104 Z-0.125000
G01 X64.942006 Y52.869954 Z-0.125000
G01 X64.945433 Y52.855518 Z-0.125000
G01 X64.949405 Y52.840680 Z-0.125000
G01 X64.953822 Y52.825631 Z-0.125000
G01 X64.958597 Y52.810522 Z-0.125000
G01 X64.964787 Y52.793967 Z-0.125000
G01 X64.967774 Y52.782064 Z-0.125000
G01 X64.973175 Y52.767363 Z-0.125000
G01 X64.977511 Y52.754344 Z-0.125000
G01 X64.984184 Y52.738855 Z-0.125000
G01 X64.989684 Y52.725134 Z-0.125000
G01 X64.995110 Y52.711814 Z-0.125000
G01 X65.001506 Y52.697756 Z-0.125000
G01 X65.006602 Y52.685378 Z-0.125000
G01 X65.011466 Y52.673475 Z-0.125000
G01 X65.017025 Y52.661107 Z-0.125000
G01 X65.020298 Y52.651177 Z-0.125000
G01 X65.025022 Y52.640005 Z-0.125000
G01 X65.028359 Y52.630280 Z-0.125000
G01 X65.031174 Y52.621154 Z-0.125000
G01 X65.034034 Y52.612076 Z-0.125000
G01 X65.034413 Y52.605276 Z-0.125000
G01 X65.035347 Y52.598024 Z-0.125000
G01 X65.035851 Y52.591185 Z-0.125000
G01 X65.034740 Y52.585731 Z-0.125000
G01 X65.033221 Y52.580658 Z-0.125000
G01 X65.030493 Y52.576629 Z-0.125000
G01 X65.026757 Y52.573450 Z-0.125000
G01 X65.022512 Y52.570715 Z-0.125000
G01 X65.017040 Y52.569037 Z-0.125000
G01 X65.010631 Y52.568177 Z-0.125000
G01 X65.003922 Y52.567613 Z-0.125000
G01 X64.995984 Y52.568201 Z-0.125000
G01 X64.987360 Y52.569471 Z-0.125000
G01 X64.977385 Y52.572007 Z-0.125000
G01 X64.967637 Y52.574410 Z-0.125000
G01 X64.957381 Y52.577427 Z-0.125000
G01 X64.945617 Y52.582039 Z-0.125000
G01 X64.934192 Y52.586499 Z-0.125000
G01 X64.922210 Y52.591704 Z-0.125000
G01 X64.909700 Y52.597659 Z-0.125000
G01 X64.896725 Y52.604353 Z-0.125000
G01 X64.882129 Y52.613095 Z-0.125000
G01 X64.868482 Y52.621138 Z-0.125000
G01 X64.853410 Y52.631187 Z-0.125000
G01 X64.839548 Y52.640210 Z-0.125000
G01 X64.825705 Y52.649588 Z-0.125000
G01 X64.811930 Y52.659266 Z-0.125000
G01 X64.797042 Y52.670831 Z-0.125000
G01 X64.783516 Y52.681033 Z-0.125000
G01 X64.770127 Y52.691457 Z-0.125000
G01 X64.746700 Y52.717320 Z-0.125000
G01 X64.732714 Y52.730076 Z-0.125000
G01 X64.705385 Y52.765884 Z-0.125000
G01 X64.690117 Y52.783086 Z-0.125000
G01 X64.678021 Y52.795259 Z-0.125000
G01 X64.666055 Y52.807706 Z-0.125000
G01 X64.653299 Y52.822304 Z-0.125000
G01 X64.641633 Y52.835326 Z-0.125000
G01 X64.630113 Y52.848624 Z-0.125000
G01 X64.617888 Y52.864162 Z-0.125000
G01 X64.606701 Y52.878044 Z-0.125000
G01 X64.594873 Y52.894221 Z-0.125000
G01 X64.584042 Y52.908693 Z-0.125000
G01 X64.573385 Y52.923451 Z-0.125000
G01 X64.562908 Y52.938494 Z-0.125000
G01 X64.552617 Y52.953828 Z-0.125000
G01 X64.542517 Y52.969456 Z-0.125000
G01 X64.531972 Y52.987559 Z-0.125000
G01 X64.521691 Y53.006022 Z-0.125000
G01 X64.512261 Y53.022604 Z-0.125000
G01 X64.503050 Y53.039492 Z-0.125000
G01 X64.493550 Y53.058995 Z-0.125000
G01 X64.484830 Y53.076539 Z-0.125000
G01 X64.476806 Y53.092037 Z-0.125000
G01 X64.467714 Y53.114987 Z-0.125000
G01 X64.459783 Y53.133534 Z-0.125000
G01 X64.452121 Y53.152413 Z-0.125000
G01 X64.444438 Y53.174126 Z-0.125000
G01 X64.437649 Y53.191186 Z-0.125000
G01 X64.430635 Y53.213651 Z-0.125000
G01 X64.424198 Y53.233937 Z-0.125000
G01 X64.417950 Y53.257211 Z-0.125000
G01 X64.412223 Y53.278240 Z-0.125000
G01 X64.406850 Y53.299631 Z-0.125000
G01 X64.401842 Y53.324128 Z-0.125000
G01 X64.397259 Y53.346286 Z-0.125000
G01 X64.393078 Y53.368808 Z-0.125000
G01 X64.390588 Y53.411730 Z-0.125000
G01 X64.387630 Y53.435239 Z-0.125000
G01 X64.396965 Y53.542605 Z-0.125000
G01 X64.396703 Y53.567775 Z-0.125000
G01 X64.397662 Y53.596372 Z-0.125000
G01 X64.398604 Y53.622248 Z-0.125000
G01 X64.400963 Y53.651594 Z-0.125000
G01 X64.402292 Y53.674962 Z-0.125000
G01 X64.406046 Y53.704973 Z-0.125000
G01 X64.409567 Y53.732099 Z-0.125000
G01 X64.414936 Y53.762733 Z-0.125000
G01 X64.419897 Y53.790397 Z-0.125000
G01 X64.425578 Y53.818300 Z-0.125000
G01 X64.433398 Y53.849704 Z-0.125000
G01 X64.439146 Y53.874718 Z-0.125000
G01 X64.448641 Y53.906490 Z-0.125000
G01 X64.459106 Y53.938417 Z-0.125000
G01 X64.468765 Y53.967141 Z-0.125000
G01 X64.479220 Y53.995942 Z-0.125000
G01 X64.492468 Y54.028090 Z-0.125000
G01 X64.504649 Y54.056947 Z-0.125000
G01 X64.517648 Y54.085783 Z-0.125000
G01 X64.533751 Y54.117812 Z-0.125000
G01 X64.548494 Y54.146484 Z-0.125000
G01 X64.564059 Y54.175027 Z-0.125000
G01 X64.583018 Y54.206557 Z-0.125000
G01 X64.600309 Y54.234699 Z-0.125000
G01 X64.618404 Y54.262600 Z-0.125000
G01 X64.640146 Y54.293241 Z-0.125000
G01 X64.659897 Y54.320502 Z-0.125000
G01 X64.680408 Y54.347411 Z-0.125000
G01 X64.704777 Y54.376773 Z-0.125000
G01 X64.726829 Y54.402813 Z-0.125000
G01 X64.749576 Y54.428396 Z-0.125000
G01 X64.776336 Y54.456117 Z-0.125000
G01 X64.800464 Y54.480626 Z-0.125000
G01 X64.825200 Y54.504587 Z-0.125000
G01 X64.850519 Y54.527979 Z-0.125000
G01 X64.879980 Y54.553071 Z-0.125000
G01 X64.910064 Y54.577365 Z-0.125000
G01 X64.937025 Y54.598735 Z-0.125000
G01 X64.964429 Y54.619454 Z-0.125000
G01 X64.992241 Y54.639502 Z-0.125000
G01 X65.024236 Y54.660698 Z-0.125000
G01 X65.052791 Y54.679284 Z-0.125000
G01 X65.081650 Y54.697173 Z-0.125000
G01 X65.114661 Y54.715896 Z-0.125000
G01 X65.144045 Y54.732285 Z-0.125000
G01 X65.173633 Y54.747968 Z-0.125000
G01 X65.207310 Y54.764191 Z-0.125000
G01 X65.237221 Y54.778374 Z-0.125000
G01 X65.267251 Y54.791860 Z-0.125000
G01 X65.301284 Y54.805619 Z-0.125000
G01 X65.327559 Y54.816765 Z-0.125000
G01 X65.361693 Y54.828988 Z-0.125000
G01 X65.391941 Y54.839668 Z-0.125000
G01 X65.585653 Y54.866795 Z-0.125000
G01 X65.615156 Y54.872865 Z-0.125000
G01 X65.648282 Y54.878410 Z-0.125000
G01 X65.673985 Y54.883309 Z-0.125000
G01 X65.706964 Y54.887609 Z-0.125000
G01 X65.736228 Y54.891396 Z-0.125000
G01 X65.769061 Y54.894409 Z-0.125000
G01 X65.794646 Y54.897366 Z-0.125000
G01 X65.827412 Y54.899192 Z-0.125000
G01 X65.860161 Y54.900352 Z-0.125000
G01 X65.917848 Y54.897050 Z-0.125000
G01 X65.950661 Y54.896350 Z-0.125000
G01 X65.980045 Y54.895673 Z-0.125000
G01 X66.009585 Y54.894423 Z-0.125000
G01 X66.042903 Y54.891732 Z-0.125000
G01 X66.072856 Y54.889223 Z-0.125000
G01 X66.103010 Y54.886096 Z-0.125000
G01 X66.133298 Y54.882351 Z-0.125000
G01 X66.167133 Y54.876913 Z-0.125000
G01 X66.193445 Y54.873312 Z-0.125000
G01 X66.229050 Y54.865886 Z-0.125000
G01 X66.252927 Y54.862131 Z-0.125000
G01 X66.280562 Y54.856515 Z-0.125000
G01 X66.302586 Y54.852745 Z-0.125000
G01 X66.324096 Y54.848919 Z-0.125000
G01 X66.340978 Y54.846819 Z-0.125000
G01 X66.355870 Y54.845452 Z-0.125000
G01 X66.171556 Y54.430211 Z-0.125000
G01 X66.173269 Y54.428346 Z-0.125000
G01 X66.175467 Y54.404472 Z-0.125000
G01 X66.183081 Y54.361959 Z-0.125000
G01 X66.191532 Y54.338543 Z-0.125000
G01 X66.202081 Y54.315511 Z-0.125000
G01 X66.223520 Y54.272409 Z-0.125000
G01 X66.237335 Y54.253514 Z-0.125000
G01 X66.253895 Y54.232146 Z-0.125000
G01 X66.269969 Y54.213929 Z-0.125000
G01 X66.288773 Y54.193257 Z-0.125000
G01 X66.306642 Y54.175563 Z-0.125000
G01 X66.325230 Y54.158053 Z-0.125000
G01 X66.363193 Y54.117171 Z-0.125000
G01 X66.383477 Y54.100070 Z-0.125000
G01 X66.406414 Y54.080434 Z-0.125000
G01 X66.425358 Y54.065929 Z-0.125000
G01 X66.449127 Y54.046277 Z-0.125000
G01 X66.473265 Y54.026573 Z-0.125000
G01 X66.495399 Y54.009328 Z-0.125000
G01 X66.517761 Y53.991973 Z-0.125000
G01 X66.542661 Y53.971929 Z-0.125000
G01 X66.565382 Y53.954281 Z-0.125000
G01 X66.588227 Y53.936463 Z-0.125000
G01 X66.613525 Y53.915872 Z-0.125000
G01 X66.636526 Y53.897653 Z-0.125000
G01 X66.659561 Y53.879217 Z-0.125000
G01 X66.684947 Y53.857921 Z-0.125000
G01 X66.707960 Y53.838997 Z-0.125000
G01 X66.730929 Y53.819819 Z-0.125000
G01 X66.756128 Y53.797687 Z-0.125000
G01 X66.778913 Y53.777948 Z-0.125000
G01 X66.803837 Y53.755183 Z-0.125000
G01 X66.826335 Y53.734835 Z-0.125000
G01 X66.848665 Y53.714180 Z-0.125000
G01 X66.872975 Y53.690383 Z-0.125000
G01 X66.894864 Y53.669049 Z-0.125000
G01 X66.916509 Y53.647375 Z-0.125000
G01 X66.939949 Y53.622430 Z-0.125000
G01 X66.960990 Y53.600007 Z-0.125000
G01 X66.981708 Y53.577211 Z-0.125000
G01 X67.003996 Y53.551001 Z-0.125000
G01 X67.023929 Y53.527385 Z-0.125000
G01 X67.043447 Y53.503365 Z-0.125000
G01 X67.064266 Y53.475776 Z-0.125000
G01 X67.082793 Y53.450874 Z-0.125000
G01 X67.100799 Y53.425539 Z-0.125000
G01 X67.119788 Y53.396481 Z-0.125000
G01 X67.136568 Y53.370220 Z-0.125000
G01 X67.152712 Y53.343513 Z-0.125000
G01 X67.169460 Y53.312939 Z-0.125000
G01 X67.184120 Y53.285298 Z-0.125000
G01 X67.198020 Y53.257221 Z-0.125000
G01 X67.211119 Y53.228716 Z-0.125000
G01 X67.223379 Y53.199798 Z-0.125000
G01 X67.235628 Y53.166885 Z-0.125000
G01 X67.246719 Y53.137402 Z-0.125000
G01 X67.257575 Y53.107778 Z-0.125000
G01 X67.268899 Y53.074381 Z-0.125000
G01 X67.279910 Y53.040840 Z-0.125000
G01 X67.289953 Y53.010807 Z-0.125000
G01 X67.299729 Y52.980648 Z-0.125000
G01 X67.309804 Y52.946706 Z-0.125000
G01 X67.318979 Y52.916297 Z-0.125000
G01 X67.327854 Y52.885769 Z-0.125000
G01 X67.336883 Y52.851449 Z-0.125000
G01 X67.345083 Y52.820681 Z-0.125000
G01 X67.352941 Y52.789801 Z-0.125000
G01 X67.360781 Y52.755114 Z-0.125000
G01 X67.367861 Y52.724000 Z-0.125000
G01 X67.374543 Y52.692775 Z-0.125000
G01 X67.380991 Y52.657731 Z-0.125000
G01 X67.386750 Y52.626278 Z-0.125000
G01 X67.392030 Y52.594716 Z-0.125000
G01 X67.396801 Y52.559323 Z-0.125000
G01 X67.400949 Y52.527541 Z-0.125000
G01 X67.404500 Y52.495657 Z-0.125000
G01 X67.407168 Y52.459939 Z-0.125000
G01 X67.409272 Y52.427864 Z-0.125000
G01 X67.410589 Y52.395710 Z-0.125000
G01 X67.410499 Y52.359757 Z-0.125000
G01 X67.409876 Y52.327506 Z-0.125000
G01 X67.408176 Y52.295253 Z-0.125000
G01 X67.404311 Y52.259340 Z-0.125000
G01 X67.399897 Y52.227270 Z-0.125000
G01 X67.393946 Y52.195426 Z-0.125000
G01 X67.384717 Y52.160377 Z-0.125000
G01 X67.376768 Y52.133004 Z-0.125000
G01 X67.363078 Y52.099525 Z-0.125000
G01 X67.346604 Y52.067538 Z-0.125000
G01 X67.329999 Y52.040470 Z-0.125000
G01 X67.311230 Y52.015397 Z-0.125000
G01 X67.287348 Y51.990381 Z-0.125000
G01 X67.264873 Y51.970547 Z-0.125000
G01 X67.241233 Y51.953348 Z-0.125000
G01 X67.213252 Y51.937437 Z-0.125000
G01 X67.188288 Y51.925429 Z-0.125000
G01 X67.163088 Y51.915513 Z-0.125000
G01 X67.134214 Y51.906970 Z-0.125000
G01 X67.108969 Y51.900699 Z-0.125000
G01 X67.083812 Y51.895802 Z-0.125000
G01 X67.055232 Y51.892145 Z-0.125000
G01 X67.030350 Y51.889598 Z-0.125000
G01 X67.005603 Y51.887944 Z-0.125000
G01 X66.977510 Y51.887449 Z-0.125000
G01 X66.953033 Y51.887334 Z-0.125000
G01 X66.928661 Y51.887804 Z-0.125000
G01 X66.900954 Y51.889414 Z-0.125000
G01 X66.876757 Y51.890921 Z-0.125000
G01 X66.852614 Y51.892825 Z-0.125000
G01 X66.828508 Y51.895090 Z-0.125000
G01 X66.801032 Y51.898481 Z-0.125000
G01 X66.776948 Y51.901366 Z-0.125000
G01 X66.749456 Y51.905354 Z-0.125000
G01 X66.725303 Y51.908684 Z-0.125000
G01 X66.701092 Y51.912212 Z-0.125000
G01 X66.673409 Y51.916890 Z-0.125000
G01 X66.649007 Y51.920733 Z-0.125000
G01 X66.624479 Y51.924692 Z-0.125000
G01 X66.596383 Y51.929821 Z-0.125000
G01 X66.571525 Y51.933996 Z-0.125000
G01 X66.546471 Y51.938234 Z-0.125000
G01 X66.517696 Y51.943572 Z-0.125000
G01 X66.492140 Y51.947905 Z-0.125000
G01 X66.466301 Y51.952260 Z-0.125000
G01 X66.440146 Y51.956628 Z-0.125000
G01 X66.410018 Y51.962100 Z-0.125000
G01 X66.383089 Y51.966465 Z-0.125000
G01 X66.352009 Y51.971910 Z-0.125000
G01 X66.324132 Y51.976247 Z-0.125000
G01 X66.260882 Y51.990376 Z-0.125000
G01 X66.231307 Y51.994717 Z-0.125000
G01 X66.201042 Y51.998986 Z-0.125000
G01 X66.165892 Y52.004364 Z-0.125000
G01 X66.133992 Y52.008683 Z-0.125000
G01 X66.101206 Y52.013029 Z-0.125000
G01 X66.062991 Y52.018548 Z-0.125000
G01 X66.032668 Y52.021902 Z-0.125000
G01 X65.992035 Y52.027698 Z-0.125000
G01 X65.949885 Y52.033741 Z-0.125000
G01 X65.911149 Y52.038867 Z-0.125000
G01 X65.870996 Y52.044336 Z-0.125000
G01 X65.823947 Y52.051632 Z-0.125000
G01 X65.780501 Y52.058130 Z-0.125000
G01 X65.735385 Y52.065382 Z-0.125000
G01 X65.682516 Y52.075077 Z-0.125000
G01 X65.633651 Y52.084283 Z-0.125000
G01 X65.582971 Y52.094693 Z-0.125000
G01 X65.530490 Y52.106520 Z-0.125000
G01 X65.469463 Y52.122378 Z-0.125000
G01 X65.413420 Y52.137902 Z-0.125000
G01 X65.348787 Y52.158429 Z-0.125000
G01 X65.289918 Y52.178545 Z-0.125000
G01 X65.230110 Y52.201057 Z-0.125000
G01 X65.162370 Y52.229903 Z-0.125000
G01 X65.101737 Y52.257696 Z-0.125000
G01 X65.041307 Y52.287918 Z-0.125000
G01 X64.974408 Y52.325125 Z-0.125000
G01 X64.915736 Y52.359882 Z-0.125000
G01 X64.858435 Y52.396317 Z-0.125000
G01 X64.796381 Y52.439245 Z-0.125000
G01 X64.742869 Y52.477815 Z-0.125000
G01 X64.691380 Y52.516588 Z-0.125000
G01 X64.641986 Y52.554915 Z-0.125000
G01 X64.589438 Y52.596788 Z-0.125000
G01 X64.544537 Y52.630824 Z-0.125000
G01 X64.497412 Y52.662336 Z-0.125000
G01 X64.461367 Y52.670790 Z-0.125000
G01 X64.432437 Y52.661662 Z-0.125000
G01 X64.403351 Y52.645975 Z-0.125000
G01 X64.379776 Y52.626899 Z-0.125000
G01 X64.358894 Y52.603581 Z-0.125000
G01 X64.339179 Y52.573173 Z-0.125000
G01 X64.323999 Y52.542548 Z-0.125000
G01 X64.311310 Y52.509405 Z-0.125000
G01 X64.300263 Y52.470134 Z-0.125000
G01 X64.292125 Y52.433447 Z-0.125000
G01 X64.285739 Y52.395768 Z-0.125000
G01 X64.280850 Y52.357429 Z-0.125000
G01 X64.277223 Y52.318688 Z-0.125000
G01 X64.274857 Y52.275244 Z-0.125000
G01 X64.272583 Y52.245280 Z-0.125000
G01 X64.271418 Y52.206370 Z-0.125000
G01 X64.270346 Y52.172081 Z-0.125000
G01 X64.270426 Y52.129155 Z-0.125000
G01 X64.270293 Y52.090991 Z-0.125000
G01 X64.270195 Y52.053204 Z-0.125000
G01 X64.270389 Y52.011621 Z-0.125000
G01 X64.269897 Y51.974789 Z-0.125000
G01 X64.269010 Y51.938470 Z-0.125000
G01 X64.267777 Y51.898714 Z-0.125000
G01 X64.265461 Y51.867555 Z-0.125000
G01 X64.262481 Y51.829236 Z-0.125000
G01 X64.258380 Y51.795561 Z-0.125000
G01 X64.253106 Y51.762694 Z-0.125000
G01 X64.245923 Y51.727248 Z-0.125000
G01 X64.238975 Y51.703121 Z-0.125000
G01 X64.229284 Y51.673150 Z-0.125000
G01 X64.216503 Y51.641416 Z-0.125000
G01 X64.204058 Y51.617188 Z-0.125000
G01 X64.186463 Y51.588933 Z-0.125000
G01 X64.168014 Y51.565360 Z-0.125000
G01 X64.147208 Y51.543816 Z-0.125000
G01 X64.129284 Y51.528170 Z-0.125000
G01 X64.104465 Y51.510537 Z-0.125000
G01 X64.077544 Y51.495263 Z-0.125000
G01 X64.052029 Y51.483389 Z-0.125000
G01 X64.021761 Y51.472528 Z-0.125000
G01 X63.990071 Y51.463912 Z-0.125000
G01 X63.953456 Y51.457166 Z-0.125000
G01 X63.919548 Y51.452890 Z-0.125000
G01 X63.884730 Y51.450854 Z-0.125000
G01 X63.844968 Y51.452031 Z-0.125000
G01 X63.808481 Y51.455701 Z-0.125000
G01 X63.771482 Y51.462523 Z-0.125000
G01 X63.734241 Y51.472595 Z-0.125000
G01 X63.697114 Y51.486014 Z-0.125000
G01 X63.656415 Y51.505427 Z-0.125000
G01 X63.620795 Y51.525545 Z-0.125000
G01 X63.582630 Y51.551782 Z-0.125000
G01 X63.549798 Y51.577202 Z-0.125000
G01 X63.518474 Y51.604556 Z-0.125000
G01 X63.488677 Y51.633524 Z-0.125000
G01 X63.457430 Y51.668066 Z-0.125000
G01 X63.430748 Y51.699618 Z-0.125000
G01 X63.405416 Y51.732094 Z-0.125000
G01 X63.360251 Y51.806603 Z-0.125000
G01 X63.336565 Y51.845853 Z-0.125000
G01 X63.290126 Y51.947913 Z-0.125000
G01 X63.267381 Y51.998784 Z-0.125000
G01 X63.250505 Y52.035579 Z-0.125000
G01 X63.234315 Y52.072750 Z-0.125000
G01 X63.217474 Y52.115268 Z-0.125000
G01 X63.202772 Y52.153189 Z-0.125000
G01 X63.188775 Y52.191446 Z-0.125000
G01 X63.174431 Y52.235123 Z-0.125000
G01 X63.161952 Y52.274055 Z-0.125000
G01 X63.149331 Y52.318437 Z-0.125000
G01 X63.138379 Y52.357992 Z-0.125000
G01 X63.128146 Y52.397827 Z-0.125000
G01 X63.118632 Y52.437934 Z-0.125000
G01 X63.109836 Y52.478306 Z-0.125000
G01 X63.101756 Y52.518934 Z-0.125000
G01 X63.094102 Y52.565106 Z-0.125000
G01 X63.087355 Y52.611564 Z-0.125000
G01 X63.081599 Y52.652957 Z-0.125000
G01 X63.076549 Y52.694581 Z-0.125000
G01 X63.072303 Y52.741808 Z-0.125000
G01 X63.068754 Y52.783895 Z-0.125000
G01 X63.065634 Y52.820784 Z-0.125000
G01 X63.064137 Y52.874154 Z-0.125000
G01 X63.062773 Y52.916908 Z-0.125000
G01 X63.062105 Y52.959873 Z-0.125000
G01 X63.062787 Y53.008534 Z-0.125000
G01 X63.062858 Y53.046442 Z-0.125000
G01 X63.065107 Y53.095557 Z-0.125000
G01 X63.067321 Y53.139385 Z-0.125000
G01 X63.071245 Y53.188978 Z-0.125000
G01 X63.074948 Y53.233247 Z-0.125000
G01 X63.079358 Y53.277733 Z-0.125000
G01 X63.085778 Y53.328029 Z-0.125000
G01 X63.091707 Y53.372963 Z-0.125000
G01 X63.098360 Y53.418107 Z-0.125000
G01 X63.117031 Y53.503028 Z-0.125000
G01 X63.125804 Y53.548713 Z-0.125000
G01 X63.191402 Y53.753913 Z-0.125000
G01 X63.204383 Y53.800384 Z-0.125000
G01 X63.220541 Y53.852756 Z-0.125000
G01 X63.235254 Y53.899596 Z-0.125000
G01 X63.253390 Y53.952339 Z-0.125000
G01 X63.267196 Y53.993760 Z-0.125000
G01 X63.287249 Y54.046807 Z-0.125000
G01 X63.305487 Y54.094241 Z-0.125000
G01 X63.327642 Y54.147537 Z-0.125000
G01 X63.347780 Y54.195169 Z-0.125000
G01 X63.368842 Y54.242885 Z-0.125000
G01 X63.394205 Y54.296392 Z-0.125000
G01 X63.413768 Y54.338458 Z-0.125000
G01 X63.441246 Y54.391972 Z-0.125000
G01 X63.469938 Y54.445448 Z-0.125000
G01 X63.495985 Y54.493159 Z-0.125000
G01 X63.523012 Y54.540790 Z-0.125000
G01 X63.555111 Y54.593933 Z-0.125000
G01 X63.584230 Y54.641290 Z-0.125000
G01 X63.614336 Y54.688467 Z-0.125000
G01 X63.649887 Y54.740946 Z-0.125000
G01 X63.682088 Y54.787627 Z-0.125000
G01 X63.715271 Y54.834024 Z-0.125000
G01 X63.754237 Y54.885452 Z-0.125000
G01 X63.789477 Y54.931115 Z-0.125000
G01 X63.825671 Y54.976381 Z-0.125000
G01 X63.867952 Y55.026368 Z-0.125000
G01 X63.906119 Y55.070659 Z-0.125000
G01 X63.945190 Y55.114440 Z-0.125000
G01 X63.990609 Y55.162594 Z-0.125000
G01 X64.031524 Y55.205168 Z-0.125000
G01 X64.073269 Y55.247124 Z-0.125000
G01 X64.121571 Y55.293072 Z-0.125000
G01 X64.164990 Y55.333610 Z-0.125000
G01 X64.209154 Y55.373437 Z-0.125000
G01 X64.254035 Y55.412529 Z-0.125000
G01 X64.305660 Y55.455086 Z-0.125000
G01 X64.358074 Y55.496628 Z-0.125000
G01 X64.405024 Y55.533152 Z-0.125000
G01 X64.452548 Y55.568850 Z-0.125000
G01 X64.500608 Y55.603702 Z-0.125000
G01 X64.555535 Y55.641340 Z-0.125000
G01 X64.604610 Y55.674349 Z-0.125000
G01 X64.654119 Y55.706477 Z-0.125000
G01 X64.710514 Y55.740997 Z-0.125000
G01 X64.760820 Y55.771223 Z-0.125000
G01 X64.811457 Y55.800546 Z-0.125000
G01 X64.868967 Y55.831876 Z-0.125000
G01 X64.920199 Y55.859268 Z-0.125000
G01 X64.971681 Y55.885754 Z-0.125000
G01 X65.030001 Y55.913876 Z-0.125000
G01 X65.075284 Y55.936000 Z-0.125000
G01 X65.134001 Y55.962075 Z-0.125000
G01 X65.186243 Y55.984813 Z-0.125000
G01 X65.523397 Y56.082506 Z-0.125000
G01 X65.575928 Y56.098519 Z-0.125000
G01 X65.635140 Y56.114826 Z-0.125000
G01 X65.681264 Y56.127765 Z-0.125000
G01 X65.740675 Y56.141946 Z-0.125000
G01 X65.793600 Y56.154050 Z-0.125000
G01 X65.853244 Y56.165858 Z-0.125000
G01 X65.899825 Y56.175202 Z-0.125000
G01 X65.959769 Y56.184609 Z-0.125000
G01 X66.019904 Y56.192562 Z-0.125000
G01 X66.126779 Y56.199065 Z-0.125000
G01 X66.187521 Y56.202375 Z-0.125000
G01 X66.241865 Y56.204174 Z-0.125000
G01 X66.296452 Y56.204216 Z-0.125000
G01 X66.357982 Y56.201311 Z-0.125000
G01 X66.412936 Y56.196858 Z-0.125000
G01 X66.467858 Y56.189815 Z-0.125000
G01 X66.522428 Y56.179833 Z-0.125000
G01 X66.582494 Y56.164053 Z-0.125000
G01 X66.627920 Y56.149673 Z-0.125000
G01 X66.687816 Y56.122515 Z-0.125000
G01 X66.725902 Y56.102069 Z-0.125000
G01 X66.767842 Y56.072181 Z-0.125000
G01 X66.798794 Y56.044994 Z-0.125000
G01 X66.826459 Y56.013624 Z-0.125000
G01 X66.845866 Y55.986580 Z-0.125000
G01 X66.860978 Y55.960137 Z-0.125000
G01 X66.676236 Y55.535511 Z-0.125000
G01 X66.677644 Y55.527377 Z-0.125000
G01 X66.679880 Y55.475294 Z-0.125000
G01 X66.692673 Y55.386072 Z-0.125000
G01 X66.707080 Y55.335080 Z-0.125000
G01 X66.725503 Y55.284955 Z-0.125000
G01 X66.765029 Y55.195087 Z-0.125000
G01 X66.789559 Y55.153516 Z-0.125000
G01 X66.819290 Y55.107194 Z-0.125000
G01 X66.847936 Y55.067274 Z-0.125000
G01 X66.881724 Y55.022693 Z-0.125000
G01 X66.913561 Y54.984167 Z-0.125000
G01 X66.946644 Y54.946187 Z-0.125000
G01 X67.016864 Y54.862879 Z-0.125000
G01 X67.052892 Y54.826252 Z-0.125000
G01 X67.093891 Y54.784935 Z-0.125000
G01 X67.127104 Y54.753756 Z-0.125000
G01 X67.169463 Y54.712873 Z-0.125000
G01 X67.212419 Y54.672143 Z-0.125000
G01 X67.251441 Y54.636354 Z-0.125000
G01 X67.290814 Y54.600566 Z-0.125000
G01 X67.334969 Y54.559894 Z-0.125000
G01 X67.374885 Y54.523985 Z-0.125000
G01 X67.414978 Y54.487957 Z-0.125000
G01 X67.459720 Y54.446916 Z-0.125000
G01 X67.500018 Y54.410531 Z-0.125000
G01 X67.540346 Y54.373926 Z-0.125000
G01 X67.585158 Y54.332164 Z-0.125000
G01 X67.625396 Y54.295006 Z-0.125000
G01 X67.665530 Y54.257540 Z-0.125000
G01 X67.709951 Y54.214748 Z-0.125000
G01 X67.749721 Y54.176554 Z-0.125000
G01 X67.793621 Y54.132904 Z-0.125000
G01 X67.832847 Y54.093866 Z-0.125000
G01 X67.871755 Y54.054390 Z-0.125000
G01 X67.914517 Y54.009242 Z-0.125000
G01 X67.952605 Y53.968760 Z-0.125000
G01 X67.990241 Y53.927760 Z-0.125000
G01 X68.031393 Y53.880850 Z-0.125000
G01 X68.067907 Y53.838686 Z-0.125000
G01 X68.103819 Y53.795933 Z-0.125000
G01 X68.142837 Y53.746999 Z-0.125000
G01 X68.177288 Y53.702931 Z-0.125000
G01 X68.210962 Y53.658205 Z-0.125000
G01 X68.247242 Y53.607011 Z-0.125000
G01 X68.279063 Y53.560840 Z-0.125000
G01 X68.309909 Y53.513958 Z-0.125000
G01 X68.342756 Y53.460320 Z-0.125000
G01 X68.371297 Y53.411904 Z-0.125000
G01 X68.398640 Y53.362755 Z-0.125000
G01 X68.427270 Y53.306589 Z-0.125000
G01 X68.451816 Y53.255896 Z-0.125000
G01 X68.474926 Y53.204489 Z-0.125000
G01 X68.496525 Y53.152388 Z-0.125000
G01 X68.516541 Y53.099617 Z-0.125000
G01 X68.536695 Y53.039617 Z-0.125000
G01 X68.554579 Y52.985988 Z-0.125000
G01 X68.572093 Y52.932182 Z-0.125000
G01 X68.590735 Y52.871531 Z-0.125000
G01 X68.608873 Y52.810687 Z-0.125000
G01 X68.625081 Y52.756341 Z-0.125000
G01 X68.640854 Y52.701828 Z-0.125000
G01 X68.657462 Y52.640435 Z-0.125000
G01 X68.672247 Y52.585578 Z-0.125000
G01 X68.686533 Y52.530558 Z-0.125000
G01 X68.701397 Y52.468630 Z-0.125000
G01 X68.714545 Y52.413273 Z-0.125000
G01 X68.727111 Y52.357755 Z-0.125000
G01 X68.739942 Y52.295296 Z-0.125000
G01 X68.751167 Y52.239445 Z-0.125000
G01 X68.761700 Y52.183433 Z-0.125000
G01 X68.772101 Y52.120451 Z-0.125000
G01 X68.781012 Y52.064114 Z-0.125000
G01 X68.789070 Y52.007624 Z-0.125000
G01 X68.796482 Y51.944138 Z-0.125000
G01 X68.802509 Y51.887344 Z-0.125000
G01 X68.807451 Y51.830416 Z-0.125000
G01 X68.811052 Y51.766496 Z-0.125000
G01 X68.813353 Y51.709341 Z-0.125000
G01 X68.814213 Y51.652110 Z-0.125000
G01 X68.812744 Y51.587974 Z-0.125000
G01 X68.810016 Y51.530729 Z-0.125000
G01 X68.805286 Y51.473578 Z-0.125000
G01 X68.796752 Y51.409838 Z-0.125000
G01 X68.786906 Y51.353284 Z-0.125000
G01 X68.774210 Y51.297286 Z-0.125000
G01 X68.755551 Y51.235648 Z-0.125000
G01 X68.738780 Y51.188184 Z-0.125000
G01 X68.711619 Y51.129924 Z-0.125000
G01 X68.679106 Y51.074739 Z-0.125000
G01 X68.646017 Y51.028782 Z-0.125000
G01 X68.608727 Y50.986816 Z-0.125000
G01 X68.561806 Y50.945542 Z-0.125000
G01 X68.517225 Y50.913884 Z-0.125000
G01 X68.470313 Y50.887359 Z-0.125000
G01 X68.415183 Y50.863806 Z-0.125000
G01 X68.365543 Y50.847325 Z-0.125000
G01 X68.315395 Y50.834883 Z-0.125000
G01 X68.258322 Y50.825533 Z-0.125000
G01 X68.208012 Y50.820116 Z-0.125000
G01 X68.157866 Y50.817357 Z-0.125000
G01 X68.101319 Y50.817434 Z-0.125000
G01 X68.051737 Y50.819243 Z-0.125000
G01 X68.002453 Y50.822785 Z-0.125000
G01 X67.946959 Y50.829028 Z-0.125000
G01 X67.898310 Y50.835604 Z-0.125000
G01 X67.849928 Y50.843313 Z-0.125000
G01 X67.795416 Y50.853739 Z-0.125000
G01 X67.747565 Y50.863585 Z-0.125000
G01 X67.699921 Y50.874255 Z-0.125000
G01 X67.652461 Y50.885668 Z-0.125000
G01 X67.598883 Y50.899775 Z-0.125000
G01 X67.551741 Y50.912530 Z-0.125000
G01 X67.498465 Y50.928001 Z-0.125000
G01 X67.451527 Y50.941843 Z-0.125000
G01 X67.404644 Y50.956120 Z-0.125000
G01 X67.351582 Y50.973131 Z-0.125000
G01 X67.304737 Y50.988194 Z-0.125000
G01 X67.257869 Y51.003572 Z-0.125000
G01 X67.204740 Y51.021706 Z-0.125000
G01 X67.157734 Y51.037655 Z-0.125000
G01 X67.110617 Y51.053830 Z-0.125000
G01 X67.057121 Y51.072776 Z-0.125000
G01 X67.009674 Y51.089346 Z-0.125000
G01 X66.962015 Y51.106075 Z-0.125000
G01 X66.914113 Y51.122939 Z-0.125000
G01 X66.859598 Y51.142588 Z-0.125000
G01 X66.811063 Y51.159701 Z-0.125000
G01 X66.755748 Y51.179596 Z-0.125000
G01 X66.706391 Y51.196885 Z-0.125000
G01 X66.597674 Y51.238826 Z-0.125000
G01 X66.546776 Y51.256358 Z-0.125000
G01 X66.495246 Y51.273958 Z-0.125000
G01 X66.436221 Y51.294398 Z-0.125000
G01 X66.383139 Y51.312148 Z-0.125000
G01 X66.329208 Y51.329984 Z-0.125000
G01 X66.267253 Y51.350769 Z-0.125000
G01 X66.218491 Y51.366034 Z-0.125000
G01 X66.154186 Y51.387189 Z-0.125000
G01 X66.088399 Y51.408646 Z-0.125000
G01 X66.028678 Y51.427509 Z-0.125000
G01 X65.967563 Y51.446749 Z-0.125000
G01 X65.896952 Y51.469548 Z-0.125000
G01 X65.832584 Y51.489900 Z-0.125000
G01 X65.766548 Y51.510960 Z-0.125000
G01 X65.690171 Y51.536286 Z-0.125000
G01 X65.620409 Y51.559355 Z-0.125000
G01 X65.548837 Y51.583643 Z-0.125000
G01 X65.475461 Y51.609345 Z-0.125000
G01 X65.390923 Y51.640801 Z-0.125000
G01 X65.313971 Y51.670180 Z-0.125000
G01 X65.225796 Y51.706263 Z-0.125000
G01 X65.145975 Y51.740171 Z-0.125000
G01 X65.065187 Y51.776430 Z-0.125000
G01 X64.973800 Y51.820674 Z-0.125000
G01 X64.892099 Y51.862077 Z-0.125000
G01 X64.810544 Y51.905821 Z-0.125000
G01 X64.719792 Y51.958107 Z-0.125000
G01 X64.639825 Y52.006120 Z-0.125000
G01 X64.561123 Y52.055634 Z-0.125000
G01 X64.474830 Y52.113010 Z-0.125000
G01 X64.399592 Y52.164112 Z-0.125000
G01 X64.326157 Y52.215031 Z-0.125000
G01 X64.254529 Y52.264967 Z-0.125000
G01 X64.176495 Y52.318946 Z-0.125000
G01 X64.108332 Y52.362345 Z-0.125000
G01 X64.033984 Y52.401125 Z-0.125000
G01 X63.973307 Y52.407367 Z-0.125000
G01 X63.921285 Y52.388465 Z-0.125000
G01 X63.867347 Y52.359436 Z-0.125000
G01 X63.822934 Y52.326416 Z-0.125000
G01 X63.782596 Y52.287281 Z-0.125000
G01 X63.742816 Y52.237049 Z-0.125000
G01 X63.711487 Y52.187242 Z-0.125000
G01 X63.684220 Y52.133695 Z-0.125000
G01 X63.658548 Y52.070301 Z-0.125000
G01 X63.638849 Y52.011360 Z-0.125000
G01 X63.622097 Y51.950843 Z-0.125000
G01 X63.607902 Y51.889213 Z-0.125000
G01 X63.595864 Y51.826842 Z-0.125000
G01 X63.584942 Y51.756509 Z-0.125000
G01 X63.577388 Y51.708487 Z-0.125000
G01 X63.569667 Y51.645368 Z-0.125000
G01 X63.563195 Y51.589806 Z-0.125000
G01 X63.556683 Y51.519443 Z-0.125000
G01 X63.550908 Y51.456838 Z-0.125000
G01 X63.545286 Y51.394584 Z-0.125000
G01 X63.539288 Y51.325475 Z-0.125000
G01 X63.533207 Y51.264189 Z-0.125000
G01 X63.526560 Y51.203457 Z-0.125000
G01 X63.518535 Y51.136312 Z-0.125000
G01 X63.510621 Y51.083930 Z-0.125000
G01 X63.499928 Y51.018466 Z-0.125000
G01 X63.488390 Y50.960837 Z-0.125000
G01 X63.475007 Y50.904234 Z-0.125000
G01 X63.457781 Y50.842420 Z-0.125000
G01 X63.443516 Y50.800964 Z-0.125000
G01 X63.423190 Y50.748278 Z-0.125000
G01 X63.397136 Y50.691650 Z-0.125000
G01 X63.373309 Y50.648659 Z-0.125000
G01 X63.339636 Y50.597222 Z-0.125000
G01 X63.305467 Y50.554107 Z-0.125000
G01 X63.267588 Y50.514196 Z-0.125000
G01 X63.235984 Y50.485639 Z-0.125000
G01 X63.191815 Y50.452054 Z-0.125000
G01 X63.144379 Y50.422360 Z-0.125000
G01 X63.100061 Y50.399173 Z-0.125000
G01 X63.047470 Y50.376887 Z-0.125000
G01 X62.992716 Y50.358426 Z-0.125000
G01 X62.929458 Y50.342399 Z-0.125000
G01 X62.871386 Y50.331415 Z-0.125000
G01 X62.812005 Y50.324316 Z-0.125000
G01 X62.744245 Y50.322056 Z-0.125000
G01 X62.682697 Y50.324945 Z-0.125000
G01 X62.620667 Y50.333302 Z-0.125000
G01 X62.558695 Y50.347489 Z-0.125000
G01 X62.497420 Y50.367645 Z-0.125000
G01 X62.430616 Y50.397726 Z-0.125000
G01 X62.373022 Y50.429917 Z-0.125000
G01 X62.311765 Y50.472344 Z-0.125000
G01 X62.259961 Y50.514157 Z-0.125000
G01 X62.211157 Y50.559488 Z-0.125000
G01 X62.165341 Y50.607747 Z-0.125000
G01 X62.117733 Y50.665272 Z-0.125000
G01 X62.077895 Y50.718176 Z-0.125000
G01 X62.040622 Y50.772705 Z-0.125000
G01 X61.973720 Y50.895859 Z-0.125000
G01 X61.940332 Y50.961605 Z-0.125000
G01 X61.874783 Y51.129917 Z-0.125000
G01 X61.844561 Y51.214457 Z-0.125000
G01 X61.822906 Y51.275873 Z-0.125000
G01 X61.802492 Y51.337769 Z-0.125000
G01 X61.781566 Y51.408208 Z-0.125000
G01 X61.763827 Y51.471025 Z-0.125000
G01 X61.747353 Y51.534241 Z-0.125000
G01 X61.730890 Y51.606058 Z-0.125000
G01 X61.717119 Y51.670040 Z-0.125000
G01 X61.703706 Y51.742628 Z-0.125000
G01 X61.692634 Y51.807264 Z-0.125000
G01 X61.682824 Y51.872178 Z-0.125000
G01 X61.674273 Y51.937347 Z-0.125000
G01 X61.666971 Y52.002759 Z-0.125000
G01 X61.660911 Y52.068386 Z-0.125000
G01 X61.656149 Y52.142627 Z-0.125000
G01 X61.652937 Y52.217081 Z-0.125000
G01 X61.650852 Y52.283286 Z-0.125000
G01 X61.649964 Y52.349644 Z-0.125000
G01 X61.650974 Y52.424595 Z-0.125000
G01 X61.652592 Y52.491226 Z-0.125000
G01 X61.654373 Y52.549507 Z-0.125000
G01 X61.660476 Y52.633295 Z-0.125000
G01 X61.665686 Y52.700255 Z-0.125000
G01 X61.672015 Y52.767306 Z-0.125000
G01 X61.681065 Y52.842914 Z-0.125000
G01 X61.688001 Y52.901668 Z-0.125000
G01 X61.699520 Y52.977432 Z-0.125000
G01 X61.710348 Y53.044810 Z-0.125000
G01 X61.724449 Y53.120720 Z-0.125000
G01 X61.737582 Y53.188230 Z-0.125000
G01 X61.751783 Y53.255808 Z-0.125000
G01 X61.769623 Y53.331906 Z-0.125000
G01 X61.786063 Y53.399616 Z-0.125000
G01 X61.803551 Y53.467381 Z-0.125000
G01 X61.843381 Y53.594302 Z-0.125000
G01 X61.863875 Y53.662164 Z-0.125000
G01 X61.985736 Y53.965198 Z-0.125000
G01 X62.011955 Y54.032972 Z-0.125000
G01 X62.043312 Y54.109119 Z-0.125000
G01 X62.071792 Y54.176924 Z-0.125000
G01 X62.105705 Y54.253062 Z-0.125000
G01 X62.131983 Y54.312538 Z-0.125000
G01 X62.168333 Y54.388621 Z-0.125000
G01 X62.201292 Y54.456362 Z-0.125000
G01 X62.240269 Y54.532316 Z-0.125000
G01 X62.275582 Y54.599915 Z-0.125000
G01 X62.312026 Y54.667444 Z-0.125000
G01 X62.354936 Y54.743053 Z-0.125000
G01 X62.388316 Y54.802171 Z-0.125000
G01 X62.433775 Y54.877429 Z-0.125000
G01 X62.480689 Y54.952454 Z-0.125000
G01 X62.523127 Y55.019151 Z-0.125000
G01 X62.566724 Y55.085610 Z-0.125000
G01 X62.617675 Y55.159750 Z-0.125000
G01 X62.663735 Y55.225606 Z-0.125000
G01 X62.710950 Y55.291124 Z-0.125000
G01 X62.765948 Y55.364051 Z-0.125000
G01 X62.815609 Y55.428744 Z-0.125000
G01 X62.866409 Y55.492993 Z-0.125000
G01 X62.925382 Y55.564320 Z-0.125000
G01 X62.978569 Y55.627504 Z-0.125000
G01 X63.032863 Y55.690134 Z-0.125000
G01 X63.095686 Y55.759469 Z-0.125000
G01 X63.152268 Y55.820790 Z-0.125000
G01 X63.209897 Y55.881443 Z-0.125000
G01 X63.276367 Y55.948387 Z-0.125000
G01 X63.336144 Y56.007497 Z-0.125000
G01 X63.396890 Y56.065825 Z-0.125000
G01 X63.466730 Y56.130000 Z-0.125000
G01 X63.529443 Y56.186568 Z-0.125000
G01 X63.593033 Y56.242260 Z-0.125000
G01 X63.657476 Y56.297053 Z-0.125000
G01 X63.731266 Y56.357073 Z-0.125000
G01 X63.806010 Y56.415864 Z-0.125000
G01 X63.872948 Y56.467540 Z-0.125000
G01 X63.940592 Y56.518218 Z-0.125000
G01 X64.008900 Y56.567875 Z-0.125000
G01 X64.086760 Y56.621955 Z-0.125000
G01 X64.156356 Y56.669387 Z-0.125000
G01 X64.226512 Y56.715755 Z-0.125000
G01 X64.306293 Y56.766070 Z-0.125000
G01 X64.377520 Y56.810132 Z-0.125000
G01 X64.449206 Y56.853096 Z-0.125000
G01 X64.530550 Y56.899534 Z-0.125000
G01 X64.603103 Y56.940135 Z-0.125000
G01 X64.676037 Y56.979621 Z-0.125000
G01 X64.758645 Y57.022107 Z-0.125000
G01 X64.822934 Y57.055207 Z-0.125000
G01 X64.906236 Y57.095135 Z-0.125000
G01 X64.980471 Y57.129932 Z-0.125000
G01 X65.461067 Y57.298190 Z-0.125000
G01 X65.536627 Y57.324146 Z-0.125000
G01 X65.621923 Y57.351214 Z-0.125000
G01 X65.688469 Y57.372192 Z-0.125000
G01 X65.774311 Y57.396254 Z-0.125000
G01 X65.850898 Y57.416680 Z-0.125000
G01 X65.937353 Y57.437283 Z-0.125000
G01 X66.004930 Y57.453018 Z-0.125000
G01 X66.092053 Y57.470008 Z-0.125000
G01 X66.179573 Y57.484753 Z-0.125000
G01 X66.335638 Y57.501064 Z-0.125000
G01 X66.424309 Y57.508384 Z-0.125000
G01 X66.503612 Y57.512659 Z-0.125000
G01 X66.583246 Y57.513990 Z-0.125000
G01 X66.672987 Y57.510867 Z-0.125000
G01 X66.752942 Y57.504469 Z-0.125000
G01 X66.832632 Y57.493512 Z-0.125000
G01 X66.911480 Y57.477273 Z-0.125000
G01 X66.997784 Y57.451171 Z-0.125000
G01 X67.062327 Y57.426044 Z-0.125000
G01 X67.146513 Y57.379154 Z-0.125000
G01 X67.198807 Y57.342008 Z-0.125000
G01 X67.255053 Y57.287845 Z-0.125000
G01 X67.294932 Y57.237241 Z-0.125000
G01 X67.328756 Y57.178357 Z-0.125000
G01 X67.350687 Y57.126368 Z-0.125000
G01 X67.366021 Y57.074851 Z-0.125000
G01 X67.180853 Y56.640839 Z-0.125000
G01 X67.181947 Y56.626445 Z-0.125000
G01 X67.184228 Y56.546153 Z-0.125000
G01 X67.202198 Y56.410221 Z-0.125000
G01 X67.222562 Y56.331654 Z-0.125000
G01 X67.248857 Y56.254437 Z-0.125000
G01 X67.306472 Y56.117802 Z-0.125000
G01 X67.341717 Y56.053554 Z-0.125000
G01 X67.384619 Y55.982279 Z-0.125000
G01 X67.425837 Y55.920657 Z-0.125000
G01 X67.474610 Y55.852167 Z-0.125000
G01 X67.520414 Y55.792808 Z-0.125000
G01 X67.567994 Y55.734360 Z-0.125000
G01 X67.670471 Y55.608625 Z-0.125000
G01 X67.722240 Y55.552470 Z-0.125000
G01 X67.781302 Y55.489474 Z-0.125000
G01 X67.828785 Y55.441620 Z-0.125000
G01 X67.889731 Y55.379508 Z-0.125000
G01 X67.951507 Y55.317752 Z-0.125000
G01 X68.007417 Y55.263418 Z-0.125000
G01 X68.063801 Y55.209197 Z-0.125000
G01 X68.127210 Y55.147897 Z-0.125000
G01 X68.184322 Y55.093727 Z-0.125000
G01 X68.241663 Y55.039487 Z-0.125000
G01 X68.305849 Y54.977997 Z-0.125000
G01 X68.363445 Y54.923448 Z-0.125000
G01 X68.421065 Y54.868674 Z-0.125000
G01 X68.485303 Y54.806446 Z-0.125000
G01 X68.542765 Y54.751054 Z-0.125000
G01 X68.600065 Y54.695300 Z-0.125000
G01 X68.663706 Y54.631848 Z-0.125000
G01 X68.720463 Y54.575198 Z-0.125000
G01 X68.783338 Y54.510662 Z-0.125000
G01 X68.839292 Y54.452936 Z-0.125000
G01 X68.894780 Y54.394637 Z-0.125000
G01 X68.955991 Y54.328140 Z-0.125000
G01 X69.010280 Y54.268508 Z-0.125000
G01 X69.063905 Y54.208183 Z-0.125000
G01 X69.122769 Y54.139307 Z-0.125000
G01 X69.174758 Y54.077402 Z-0.125000
G01 X69.225865 Y54.014693 Z-0.125000
G01 X69.281611 Y53.943036 Z-0.125000
G01 X69.330580 Y53.878513 Z-0.125000
G01 X69.378413 Y53.813082 Z-0.125000
G01 X69.430152 Y53.738284 Z-0.125000
G01 X69.475267 Y53.670843 Z-0.125000
G01 X69.518952 Y53.602414 Z-0.125000
G01 X69.565658 Y53.524196 Z-0.125000
G01 X69.605960 Y53.453628 Z-0.125000
G01 X69.644502 Y53.382036 Z-0.125000
G01 X69.685014 Y53.300277 Z-0.125000
G01 X69.719446 Y53.226531 Z-0.125000
G01 X69.751767 Y53.151796 Z-0.125000
G01 X69.781867 Y53.076097 Z-0.125000
G01 X69.809638 Y52.999475 Z-0.125000
G01 X69.837695 Y52.912386 Z-0.125000
G01 X69.862374 Y52.834612 Z-0.125000
G01 X69.886544 Y52.756623 Z-0.125000
G01 X69.912505 Y52.668720 Z-0.125000
G01 X69.937768 Y52.580573 Z-0.125000
G01 X69.960142 Y52.501913 Z-0.125000
G01 X69.981912 Y52.423045 Z-0.125000
G01 X70.005055 Y52.334201 Z-0.125000
G01 X70.025449 Y52.254897 Z-0.125000
G01 X70.045145 Y52.175386 Z-0.125000
G01 X70.065844 Y52.085849 Z-0.125000
G01 X70.083939 Y52.005903 Z-0.125000
G01 X70.101216 Y51.925748 Z-0.125000
G01 X70.119037 Y51.835516 Z-0.125000
G01 X70.134408 Y51.754926 Z-0.125000
G01 X70.148792 Y51.674130 Z-0.125000
G01 X70.163147 Y51.583208 Z-0.125000
G01 X70.175206 Y51.501988 Z-0.125000
G01 X70.186042 Y51.420570 Z-0.125000
G01 X70.196097 Y51.328990 Z-0.125000
G01 X70.204003 Y51.247184 Z-0.125000
G01 X70.210340 Y51.165213 Z-0.125000
G01 X70.214870 Y51.073091 Z-0.125000
G01 X70.217371 Y50.990855 Z-0.125000
G01 X70.217776 Y50.908546 Z-0.125000
G01 X70.214914 Y50.816228 Z-0.125000
G01 X70.210073 Y50.733991 Z-0.125000
G01 X70.202312 Y50.651945 Z-0.125000
G01 X70.189120 Y50.560376 Z-0.125000
G01 X70.173886 Y50.479328 Z-0.125000
G01 X70.154427 Y50.399179 Z-0.125000
G01 X70.126342 Y50.310953 Z-0.125000
G01 X70.100743 Y50.243400 Z-0.125000
G01 X70.060110 Y50.160358 Z-0.125000
G01 X70.011558 Y50.081975 Z-0.125000
G01 X69.961986 Y50.017128 Z-0.125000
G01 X69.906173 Y49.958270 Z-0.125000
G01 X69.836214 Y49.900738 Z-0.125000
G01 X69.769528 Y49.857256 Z-0.125000
G01 X69.699343 Y49.821404 Z-0.125000
G01 X69.617063 Y49.790210 Z-0.125000
G01 X69.542749 Y49.769257 Z-0.125000
G01 X69.467652 Y49.754286 Z-0.125000
G01 X69.382379 Y49.744130 Z-0.125000
G01 X69.307005 Y49.739570 Z-0.125000
G01 X69.231871 Y49.738948 Z-0.125000
G01 X69.147357 Y49.742760 Z-0.125000
G01 X69.073074 Y49.748916 Z-0.125000
G01 X68.999253 Y49.757655 Z-0.125000
G01 X68.916359 Y49.770644 Z-0.125000
G01 X68.843537 Y49.783911 Z-0.125000
G01 X68.771160 Y49.798943 Z-0.125000
G01 X68.689846 Y49.818193 Z-0.125000
G01 X68.618339 Y49.836379 Z-0.125000
G01 X68.547194 Y49.855815 Z-0.125000
G01 X68.476383 Y49.876384 Z-0.125000
G01 X68.396701 Y49.901211 Z-0.125000
G01 X68.326502 Y49.923840 Z-0.125000
G01 X68.247439 Y49.950766 Z-0.125000
G01 X68.177707 Y49.975077 Z-0.125000
G01 X68.108147 Y50.000070 Z-0.125000
G01 X68.029708 Y50.029419 Z-0.125000
G01 X67.960416 Y50.055674 Z-0.125000
G01 X67.891200 Y50.082441 Z-0.125000
G01 X67.813045 Y50.113615 Z-0.125000
G01 X67.743890 Y50.141334 Z-0.125000
G01 X67.674711 Y50.169438 Z-0.125000
G01 X67.596493 Y50.201987 Z-0.125000
G01 X67.527153 Y50.230805 Z-0.125000
G01 X67.457677 Y50.259910 Z-0.125000
G01 X67.388030 Y50.289278 Z-0.125000
G01 X67.309130 Y50.323129 Z-0.125000
G01 X67.238988 Y50.352977 Z-0.125000
G01 X67.159439 Y50.387326 Z-0.125000
G01 X67.088602 Y50.417569 Z-0.125000
G01 X66.934417 Y50.487325 Z-0.125000
G01 X66.862203 Y50.518073 Z-0.125000
G01 X66.789400 Y50.548960 Z-0.125000
G01 X66.706495 Y50.584435 Z-0.125000
G01 X66.632231 Y50.615619 Z-0.125000
G01 X66.557157 Y50.646954 Z-0.125000
G01 X66.471458 Y50.682985 Z-0.125000
G01 X66.404256 Y50.710150 Z-0.125000
G01 X66.316279 Y50.746662 Z-0.125000
G01 X66.226854 Y50.783531 Z-0.125000
G01 X66.146150 Y50.816134 Z-0.125000
G01 X66.064072 Y50.849146 Z-0.125000
G01 X65.969902 Y50.887473 Z-0.125000
G01 X65.884609 Y50.921656 Z-0.125000
G01 X65.797660 Y50.956567 Z-0.125000
G01 X65.697769 Y50.997493 Z-0.125000
G01 X65.607112 Y51.034439 Z-0.125000
G01 X65.514649 Y51.072606 Z-0.125000
G01 X65.420380 Y51.112188 Z-0.125000
G01 X65.312331 Y51.159247 Z-0.125000
G01 X65.214469 Y51.202479 Z-0.125000
G01 X65.102751 Y51.254118 Z-0.125000
G01 X65.001980 Y51.301817 Z-0.125000
G01 X64.900211 Y51.351824 Z-0.125000
G01 X64.785179 Y51.411465 Z-0.125000
G01 X64.682409 Y51.466480 Z-0.125000
G01 X64.579727 Y51.523745 Z-0.125000
G01 X64.465125 Y51.591110 Z-0.125000
G01 X64.363862 Y51.652378 Z-0.125000
G01 X64.263757 Y51.714972 Z-0.125000
G01 X64.153228 Y51.786796 Z-0.125000
G01 X64.056264 Y51.850430 Z-0.125000
G01 X63.960881 Y51.913493 Z-0.125000
G01 X63.867020 Y51.975039 Z-0.125000
G01 X63.763501 Y52.041124 Z-0.125000
G01 X63.672074 Y52.093886 Z-0.125000
G01 X63.570503 Y52.139934 Z-0.125000
G01 X63.485196 Y52.143966 Z-0.125000
G01 X63.410081 Y52.115292 Z-0.125000
G01 X63.331293 Y52.072920 Z-0.125000
G01 X63.266040 Y52.025956 Z-0.125000
G01 X63.206246 Y51.971006 Z-0.125000
G01 X63.146402 Y51.900950 Z-0.125000
G01 X63.098924 Y51.831958 Z-0.125000
G01 X63.057077 Y51.758008 Z-0.125000
G01 X63.016776 Y51.670493 Z-0.125000
G01 X62.985513 Y51.589300 Z-0.125000
G01 X62.958403 Y51.505941 Z-0.125000
G01 X62.934893 Y51.421024 Z-0.125000
G01 X62.914453 Y51.335021 Z-0.125000
G01 X62.894984 Y51.237798 Z-0.125000
G01 X62.882195 Y51.171708 Z-0.125000
G01 X62.867900 Y51.084383 Z-0.125000
G01 X62.856030 Y51.007549 Z-0.125000
G01 X62.842925 Y50.909750 Z-0.125000
G01 X62.831507 Y50.822703 Z-0.125000
G01 X62.820352 Y50.735983 Z-0.125000
G01 X62.808161 Y50.639347 Z-0.125000
G01 X62.796492 Y50.553608 Z-0.125000
G01 X62.784094 Y50.468460 Z-0.125000
G01 X62.769278 Y50.373928 Z-0.125000
G01 X62.755774 Y50.300322 Z-0.125000
G01 X62.737387 Y50.207709 Z-0.125000
G01 X62.718421 Y50.126124 Z-0.125000
G01 X62.696930 Y50.045786 Z-0.125000
G01 X62.669658 Y49.957604 Z-0.125000
G01 X62.648073 Y49.898819 Z-0.125000
G01 X62.617115 Y49.823418 Z-0.125000
G01 X62.577782 Y49.741897 Z-0.125000
G01 X62.542576 Y49.680141 Z-0.125000
G01 X62.492822 Y49.605524 Z-0.125000
G01 X62.442936 Y49.542865 Z-0.125000
G01 X62.387981 Y49.484588 Z-0.125000
G01 X62.342699 Y49.443121 Z-0.125000
G01 X62.279180 Y49.393583 Z-0.125000
G01 X62.211228 Y49.349470 Z-0.125000
G01 X62.148106 Y49.314970 Z-0.125000
G01 X62.073192 Y49.281260 Z-0.125000
G01 X61.995374 Y49.252953 Z-0.125000
G01 X61.905476 Y49.227643 Z-0.125000
G01 X61.823240 Y49.209953 Z-0.125000
G01 X61.739295 Y49.197794 Z-0.125000
G01 X61.643536 Y49.192096 Z-0.125000
G01 X61.556927 Y49.194198 Z-0.125000
G01 X61.469875 Y49.204136 Z-0.125000
G01 X61.383170 Y49.222430 Z-0.125000
G01 X61.297745 Y49.249320 Z-0.125000
G01 X61.204837 Y49.290068 Z-0.125000
G01 X61.125269 Y49.334332 Z-0.125000
G01 X61.040919 Y49.392947 Z-0.125000
G01 X60.970144 Y49.451154 Z-0.125000
G01 X60.903859 Y49.514462 Z-0.125000
G01 X60.842022 Y49.582013 Z-0.125000
G01 X60.778055 Y49.662520 Z-0.125000
G01 X60.725062 Y49.736775 Z-0.125000
G01 X60.675847 Y49.813358 Z-0.125000
G01 X60.587208 Y49.985159 Z-0.125000
G01 X60.544119 Y50.077399 Z-0.125000
G01 X60.459459 Y50.311962 Z-0.125000
G01 X60.421760 Y50.430173 Z-0.125000
G01 X60.395326 Y50.516210 Z-0.125000
G01 X60.370689 Y50.602831 Z-0.125000
G01 X60.345678 Y50.701189 Z-0.125000
G01 X60.324902 Y50.788904 Z-0.125000
G01 X60.305951 Y50.877079 Z-0.125000
G01 X60.287368 Y50.977036 Z-0.125000
G01 X60.272305 Y51.066066 Z-0.125000
G01 X60.258101 Y51.166861 Z-0.125000
G01 X60.246908 Y51.256579 Z-0.125000
G01 X60.237521 Y51.346571 Z-0.125000
G01 X60.229933 Y51.436804 Z-0.125000
G01 X60.224125 Y51.527253 Z-0.125000
G01 X60.220086 Y51.617881 Z-0.125000
G01 X60.218215 Y51.720191 Z-0.125000
G01 X60.218538 Y51.822639 Z-0.125000
G01 X60.220125 Y51.913656 Z-0.125000
G01 X60.223399 Y52.004750 Z-0.125000
G01 X60.229663 Y52.107424 Z-0.125000
G01 X60.236450 Y52.198599 Z-0.125000
G01 X60.243121 Y52.278274 Z-0.125000
G01 X60.256821 Y52.392481 Z-0.125000
G01 X60.268596 Y52.483647 Z-0.125000
G01 X60.281923 Y52.574785 Z-0.125000
G01 X60.299344 Y52.677339 Z-0.125000
G01 X60.313181 Y52.756935 Z-0.125000
G01 X60.333971 Y52.859347 Z-0.125000
G01 X60.353477 Y52.950264 Z-0.125000
G01 X60.377754 Y53.052491 Z-0.125000
G01 X60.400317 Y53.143241 Z-0.125000
G01 X60.424300 Y53.233913 Z-0.125000
G01 X60.453558 Y53.335813 Z-0.125000
G01 X60.480505 Y53.426300 Z-0.125000
G01 X60.508824 Y53.516686 Z-0.125000
G01 X60.569814 Y53.685608 Z-0.125000
G01 X60.602027 Y53.775647 Z-0.125000
G01 X60.780151 Y54.176514 Z-0.125000
G01 X60.819610 Y54.265590 Z-0.125000
G01 X60.866164 Y54.365513 Z-0.125000
G01 X60.908414 Y54.454283 Z-0.125000
G01 X60.958106 Y54.553817 Z-0.125000
G01 X60.996859 Y54.631346 Z-0.125000
G01 X61.049506 Y54.730464 Z-0.125000
G01 X61.097187 Y54.818513 Z-0.125000
G01 X61.152986 Y54.917124 Z-0.125000
G01 X61.203470 Y55.004691 Z-0.125000
G01 X61.255298 Y55.092033 Z-0.125000
G01 X61.315755 Y55.189744 Z-0.125000
G01 X61.362954 Y55.265915 Z-0.125000
G01 X61.426393 Y55.362916 Z-0.125000
G01 X61.491529 Y55.459490 Z-0.125000
G01 X61.550358 Y55.545173 Z-0.125000
G01 X61.610524 Y55.630462 Z-0.125000
G01 X61.680328 Y55.725598 Z-0.125000
G01 X61.743329 Y55.809953 Z-0.125000
G01 X61.807653 Y55.893812 Z-0.125000
G01 X61.882098 Y55.987188 Z-0.125000
G01 X61.949216 Y56.069891 Z-0.125000
G01 X62.017634 Y56.151993 Z-0.125000
G01 X62.096615 Y56.243218 Z-0.125000
G01 X62.167750 Y56.323924 Z-0.125000
G01 X62.240144 Y56.403918 Z-0.125000
G01 X62.323506 Y56.492600 Z-0.125000
G01 X62.398503 Y56.570951 Z-0.125000
G01 X62.474692 Y56.648475 Z-0.125000
G01 X62.562212 Y56.734212 Z-0.125000
G01 X62.640852 Y56.809854 Z-0.125000
G01 X62.720597 Y56.884556 Z-0.125000
G01 X62.811979 Y56.966958 Z-0.125000
G01 X62.893983 Y57.039555 Z-0.125000
G01 X62.977001 Y57.111113 Z-0.125000
G01 X63.061006 Y57.181608 Z-0.125000
G01 X63.156960 Y57.259090 Z-0.125000
G01 X63.254033 Y57.335131 Z-0.125000
G01 X63.340961 Y57.401960 Z-0.125000
G01 X63.428724 Y57.467618 Z-0.125000
G01 X63.517279 Y57.532078 Z-0.125000
G01 X63.618072 Y57.602600 Z-0.125000
G01 X63.708189 Y57.664456 Z-0.125000
G01 X63.798995 Y57.725063 Z-0.125000
G01 X63.902160 Y57.791173 Z-0.125000
G01 X63.994308 Y57.849073 Z-0.125000
G01 X64.087044 Y57.905677 Z-0.125000
G01 X64.192221 Y57.967221 Z-0.125000
G01 X64.286094 Y58.021034 Z-0.125000
G01 X64.380481 Y58.073517 Z-0.125000
G01 X64.487376 Y58.130367 Z-0.125000
G01 X64.570672 Y58.174445 Z-0.125000
G01 X64.678559 Y58.228225 Z-0.125000
G01 X64.774786 Y58.275081 Z-0.125000
G01 X65.398825 Y58.513904 Z-0.125000
G01 X65.497413 Y58.549802 Z-0.125000
G01 X65.608795 Y58.587632 Z-0.125000
G01 X65.695762 Y58.616650 Z-0.125000
G01 X65.808036 Y58.650593 Z-0.125000
G01 X65.908285 Y58.679339 Z-0.125000
G01 X66.021550 Y58.708737 Z-0.125000
G01 X66.110124 Y58.730864 Z-0.125000
G01 X66.224425 Y58.755436 Z-0.125000
G01 X66.339332 Y58.776975 Z-0.125000
G01 X66.544585 Y58.803094 Z-0.125000
G01 X66.661185 Y58.814423 Z-0.125000
G01 X66.765447 Y58.821174 Z-0.125000
G01 X66.870128 Y58.823794 Z-0.125000
G01 X66.988080 Y58.820455 Z-0.125000
G01 X67.093034 Y58.812103 Z-0.125000
G01 X67.197493 Y58.797231 Z-0.125000
G01 X67.300620 Y58.774736 Z-0.125000
G01 X67.413159 Y58.738314 Z-0.125000
G01 X67.496819 Y58.702436 Z-0.125000
G01 X67.605297 Y58.635815 Z-0.125000
G01 X67.671799 Y58.581968 Z-0.125000
G01 X67.742351 Y58.503531 Z-0.125000
G01 X67.791156 Y58.429509 Z-0.125000
G01 X67.831139 Y58.343111 Z-0.125000
G01 X67.855595 Y58.266177 Z-0.125000
G01 X67.871151 Y58.189586 Z-0.125000
G01 X67.685557 Y57.746189 Z-0.125000
G01 X67.686337 Y57.725533 Z-0.125000
G01 X67.688662 Y57.617031 Z-0.125000
G01 X67.711808 Y57.434390 Z-0.125000
G01 X67.738130 Y57.328247 Z-0.125000
G01 X67.772297 Y57.223938 Z-0.125000
G01 X67.848000 Y57.040536 Z-0.125000
G01 X67.893960 Y56.953612 Z-0.125000
G01 X67.950033 Y56.857383 Z-0.125000
G01 X68.003823 Y56.774059 Z-0.125000
G01 X68.067581 Y56.681660 Z-0.125000
G01 X68.127352 Y56.601467 Z-0.125000
G01 X68.189428 Y56.522550 Z-0.125000
G01 X68.324161 Y56.354388 Z-0.125000
G01 X68.391674 Y56.278708 Z-0.125000
G01 X68.468798 Y56.194032 Z-0.125000
G01 X68.530550 Y56.129503 Z-0.125000
G01 X68.610085 Y56.046161 Z-0.125000
G01 X68.690680 Y55.963380 Z-0.125000
G01 X68.763478 Y55.890499 Z-0.125000
G01 X68.836873 Y55.817847 Z-0.125000
G01 X68.919537 Y55.735919 Z-0.125000
G01 X68.993844 Y55.663487 Z-0.125000
G01 X69.068433 Y55.591037 Z-0.125000
G01 X69.152063 Y55.509096 Z-0.125000
G01 X69.226956 Y55.436384 Z-0.125000
G01 X69.301869 Y55.363440 Z-0.125000
G01 X69.385534 Y55.280745 Z-0.125000
G01 X69.460221 Y55.207121 Z-0.125000
G01 X69.534685 Y55.133077 Z-0.125000
G01 X69.617548 Y55.048967 Z-0.125000
G01 X69.691290 Y54.973860 Z-0.125000
G01 X69.773140 Y54.888439 Z-0.125000
G01 X69.845823 Y54.812023 Z-0.125000
G01 X69.917890 Y54.734903 Z-0.125000
G01 X69.997551 Y54.647055 Z-0.125000
G01 X70.068040 Y54.568274 Z-0.125000
G01 X70.137656 Y54.488625 Z-0.125000
G01 X70.214232 Y54.397783 Z-0.125000
G01 X70.281694 Y54.316137 Z-0.125000
G01 X70.347995 Y54.233472 Z-0.125000
G01 X70.420472 Y54.139091 Z-0.125000
G01 X70.483957 Y54.054114 Z-0.125000
G01 X70.545948 Y53.967980 Z-0.125000
G01 X70.613147 Y53.869575 Z-0.125000
G01 X70.671556 Y53.780864 Z-0.125000
G01 X70.728080 Y53.690890 Z-0.125000
G01 X70.788645 Y53.588092 Z-0.125000
G01 X70.840708 Y53.495370 Z-0.125000
G01 X70.890449 Y53.401335 Z-0.125000
G01 X70.942844 Y53.293983 Z-0.125000
G01 X70.987160 Y53.197186 Z-0.125000
G01 X71.028692 Y53.099121 Z-0.125000
G01 X71.067293 Y52.999824 Z-0.125000
G01 X71.102821 Y52.899350 Z-0.125000
G01 X71.138780 Y52.785174 Z-0.125000
G01 X71.170253 Y52.683255 Z-0.125000
G01 X71.201081 Y52.581082 Z-0.125000
G01 X71.234359 Y52.465927 Z-0.125000
G01 X71.266749 Y52.350477 Z-0.125000
G01 X71.295288 Y52.247505 Z-0.125000
G01 X71.323055 Y52.144281 Z-0.125000
G01 X71.352733 Y52.027986 Z-0.125000
G01 X71.378736 Y51.924236 Z-0.125000
G01 X71.403843 Y51.820232 Z-0.125000
G01 X71.430376 Y51.703087 Z-0.125000
G01 X71.453419 Y51.598551 Z-0.125000
G01 X71.475404 Y51.493759 Z-0.125000
G01 X71.498216 Y51.375754 Z-0.125000
G01 X71.517733 Y51.270427 Z-0.125000
G01 X71.535969 Y51.164846 Z-0.125000
G01 X71.554276 Y51.045985 Z-0.125000
G01 X71.569486 Y50.939881 Z-0.125000
G01 X71.583100 Y50.833535 Z-0.125000
G01 X71.595797 Y50.713861 Z-0.125000
G01 X71.605581 Y50.607043 Z-0.125000
G01 X71.613313 Y50.500029 Z-0.125000
G01 X71.618774 Y50.379705 Z-0.125000
G01 X71.621475 Y50.272388 Z-0.125000
G01 X71.621424 Y50.165002 Z-0.125000
G01 X71.617175 Y50.044501 Z-0.125000
G01 X71.610230 Y49.937270 Z-0.125000
G01 X71.599428 Y49.830328 Z-0.125000
G01 X71.581569 Y49.710934 Z-0.125000
G01 X71.560929 Y49.605395 Z-0.125000
G01 X71.534717 Y49.501094 Z-0.125000
G01 X71.497204 Y49.386278 Z-0.125000
G01 X71.462778 Y49.298636 Z-0.125000
G01 X71.408674 Y49.190812 Z-0.125000
G01 X71.344083 Y49.089232 Z-0.125000
G01 X71.278027 Y49.005495 Z-0.125000
G01 X71.203693 Y48.929745 Z-0.125000
G01 X71.110695 Y48.855955 Z-0.125000
G01 X71.021903 Y48.800649 Z-0.125000
G01 X70.928445 Y48.755471 Z-0.125000
G01 X70.819016 Y48.716635 Z-0.125000
G01 X70.720028 Y48.691208 Z-0.125000
G01 X70.619981 Y48.673711 Z-0.125000
G01 X70.506508 Y48.662748 Z-0.125000
G01 X70.406070 Y48.659043 Z-0.125000
G01 X70.305948 Y48.660560 Z-0.125000
G01 X70.193468 Y48.668108 Z-0.125000
G01 X70.094485 Y48.678621 Z-0.125000
G01 X69.996128 Y48.692565 Z-0.125000
G01 X69.885834 Y48.712291 Z-0.125000
G01 X69.788841 Y48.732259 Z-0.125000
G01 X69.692462 Y48.754575 Z-0.125000
G01 X69.584342 Y48.782641 Z-0.125000
G01 X69.489182 Y48.809168 Z-0.125000
G01 X69.394536 Y48.837373 Z-0.125000
G01 X69.300372 Y48.867094 Z-0.125000
G01 X69.194588 Y48.902641 Z-0.125000
G01 X69.101330 Y48.935138 Z-0.125000
G01 X68.996479 Y48.973522 Z-0.125000
G01 X68.903955 Y49.008302 Z-0.125000
G01 X68.811718 Y49.044016 Z-0.125000
G01 X68.707901 Y49.085701 Z-0.125000
G01 X68.616161 Y49.123148 Z-0.125000
G01 X68.524599 Y49.161307 Z-0.125000
G01 X68.421418 Y49.205517 Z-0.125000
G01 X68.330114 Y49.245008 Z-0.125000
G01 X68.238873 Y49.285044 Z-0.125000
G01 X68.135934 Y49.331198 Z-0.125000
G01 X68.044702 Y49.372259 Z-0.125000
G01 X67.953407 Y49.413738 Z-0.125000
G01 X67.862013 Y49.455605 Z-0.125000
G01 X67.758729 Y49.503658 Z-0.125000
G01 X67.666981 Y49.546245 Z-0.125000
G01 X67.563197 Y49.595049 Z-0.125000
G01 X67.470881 Y49.638242 Z-0.125000
G01 X67.271228 Y49.735811 Z-0.125000
G01 X67.177695 Y49.779777 Z-0.125000
G01 X67.083621 Y49.823953 Z-0.125000
G01 X66.976836 Y49.874463 Z-0.125000
G01 X66.881390 Y49.919080 Z-0.125000
G01 X66.785172 Y49.963908 Z-0.125000
G01 X66.675729 Y50.015185 Z-0.125000
G01 X66.590088 Y50.054254 Z-0.125000
G01 X66.478439 Y50.106123 Z-0.125000
G01 X66.365376 Y50.158401 Z-0.125000
G01 X66.263687 Y50.204744 Z-0.125000
G01 X66.160647 Y50.251529 Z-0.125000
G01 X66.042919 Y50.305386 Z-0.125000
G01 X65.936700 Y50.353399 Z-0.125000
G01 X65.828840 Y50.402161 Z-0.125000
G01 X65.705434 Y50.458686 Z-0.125000
G01 X65.593883 Y50.509510 Z-0.125000
G01 X65.480528 Y50.561558 Z-0.125000
G01 X65.365366 Y50.615018 Z-0.125000
G01 X65.233806 Y50.677680 Z-0.125000
G01 X65.115034 Y50.734766 Z-0.125000
G01 X64.979773 Y50.801961 Z-0.125000
G01 X64.858051 Y50.863451 Z-0.125000
G01 X64.735303 Y50.927205 Z-0.125000
G01 X64.596624 Y51.002243 Z-0.125000
G01 X64.472785 Y51.070870 Z-0.125000
G01 X64.348977 Y51.141657 Z-0.125000
G01 X64.210524 Y51.224099 Z-0.125000
G01 X64.087966 Y51.298624 Z-0.125000
G01 X63.966460 Y51.374297 Z-0.125000
G01 X63.831691 Y51.460568 Z-0.125000
G01 X63.713001 Y51.536735 Z-0.125000
G01 X63.595673 Y51.611943 Z-0.125000
G01 X63.479577 Y51.685097 Z-0.125000
G01 X63.350573 Y51.763290 Z-0.125000
G01 X63.235883 Y51.825415 Z-0.125000
G01 X63.107088 Y51.878731 Z-0.125000
G01 X62.997150 Y51.880549 Z-0.125000
G01 X62.898943 Y51.842102 Z-0.125000
G01 X62.795304 Y51.786388 Z-0.125000
G01 X62.709212 Y51.725479 Z-0.125000
G01 X62.629963 Y51.654713 Z-0.125000
G01 X62.550052 Y51.564833 Z-0.125000
G01 X62.486427 Y51.476658 Z-0.125000
G01 X62.430000 Y51.382305 Z-0.125000
G01 X62.375069 Y51.270668 Z-0.125000
G01 X62.332242 Y51.167222 Z-0.125000
G01 X62.294772 Y51.061024 Z-0.125000
G01 X62.261953 Y50.952818 Z-0.125000
G01 X62.233104 Y50.843183 Z-0.125000
G01 X62.205079 Y50.719071 Z-0.125000
G01 X62.187028 Y50.634920 Z-0.125000
G01 X62.166177 Y50.523386 Z-0.125000
G01 X62.148926 Y50.425276 Z-0.125000
G01 X62.129220 Y50.300042 Z-0.125000
G01 X62.112169 Y50.188552 Z-0.125000
G01 X62.095489 Y50.077364 Z-0.125000
G01 X62.077097 Y49.953203 Z-0.125000
G01 X62.059840 Y49.843011 Z-0.125000
G01 X62.041690 Y49.733447 Z-0.125000
G01 X62.020091 Y49.611525 Z-0.125000
G01 X62.000999 Y49.516696 Z-0.125000
G01 X61.974917 Y49.396934 Z-0.125000
G01 X61.948514 Y49.291396 Z-0.125000
G01 X61.918927 Y49.187320 Z-0.125000
G01 X61.881611 Y49.072769 Z-0.125000
G01 X61.852704 Y48.996654 Z-0.125000
G01 X61.811115 Y48.898541 Z-0.125000
G01 X61.758503 Y48.792124 Z-0.125000
G01 X61.711918 Y48.711605 Z-0.125000
G01 X61.646085 Y48.613807 Z-0.125000
G01 X61.580479 Y48.531606 Z-0.125000
G01 X61.508451 Y48.454962 Z-0.125000
G01 X61.449489 Y48.400585 Z-0.125000
G01 X61.366621 Y48.335094 Z-0.125000
G01 X61.278154 Y48.276562 Z-0.125000
G01 X61.196228 Y48.230747 Z-0.125000
G01 X61.098990 Y48.185614 Z-0.125000
G01 X60.998109 Y48.147461 Z-0.125000
G01 X60.881570 Y48.112870 Z-0.125000
G01 X60.775168 Y48.088473 Z-0.125000
G01 X60.666662 Y48.071253 Z-0.125000
G01 X60.542905 Y48.062119 Z-0.125000
G01 X60.431234 Y48.063435 Z-0.125000
G01 X60.319159 Y48.074953 Z-0.125000
G01 X60.207723 Y48.097363 Z-0.125000
G01 X60.098148 Y48.130985 Z-0.125000
G01 X59.979135 Y48.182401 Z-0.125000
G01 X59.877594 Y48.238737 Z-0.125000
G01 X59.770152 Y48.313542 Z-0.125000
G01 X59.680404 Y48.388143 Z-0.125000
G01 X59.596640 Y48.469428 Z-0.125000
G01 X59.518781 Y48.556270 Z-0.125000
G01 X59.438455 Y48.659759 Z-0.125000
G01 X59.372307 Y48.755368 Z-0.125000
G01 X59.311150 Y48.854004 Z-0.125000
G01 X59.200773 Y49.074449 Z-0.125000
G01 X59.147984 Y49.193184 Z-0.125000
G01 X59.044213 Y49.494001 Z-0.125000
G01 X58.999038 Y49.645878 Z-0.125000
G01 X58.967824 Y49.756538 Z-0.125000
G01 X58.938962 Y49.867884 Z-0.125000
G01 X58.909867 Y49.994162 Z-0.125000
G01 X58.886054 Y50.106775 Z-0.125000
G01 X58.864627 Y50.219907 Z-0.125000
G01 X58.843924 Y50.348005 Z-0.125000
G01 X58.827569 Y50.462085 Z-0.125000
G01 X58.812572 Y50.591085 Z-0.125000
G01 X58.801258 Y50.705885 Z-0.125000
G01 X58.792295 Y50.820955 Z-0.125000
G01 X58.785671 Y50.936251 Z-0.125000
G01 X58.781358 Y51.051738 Z-0.125000
G01 X58.779339 Y51.167368 Z-0.125000
G01 X58.780359 Y51.297746 Z-0.125000
G01 X58.784217 Y51.428188 Z-0.125000
G01 X58.789477 Y51.544018 Z-0.125000
G01 X58.796910 Y51.659846 Z-0.125000
G01 X58.808431 Y51.790245 Z-0.125000
G01 X58.820387 Y51.905963 Z-0.125000
G01 X58.831959 Y52.007030 Z-0.125000
G01 X58.853255 Y52.151656 Z-0.125000
G01 X58.871605 Y52.267029 Z-0.125000
G01 X58.891938 Y52.382251 Z-0.125000
G01 X58.917724 Y52.511752 Z-0.125000
G01 X58.938389 Y52.612201 Z-0.125000
G01 X58.968449 Y52.741262 Z-0.125000
G01 X58.996606 Y52.855721 Z-0.125000
G01 X59.031064 Y52.984266 Z-0.125000
G01 X59.063063 Y53.098254 Z-0.125000
G01 X59.096833 Y53.212021 Z-0.125000
G01 X59.137513 Y53.339721 Z-0.125000
G01 X59.174969 Y53.452985 Z-0.125000
G01 X59.214121 Y53.565993 Z-0.125000
G01 X59.296270 Y53.776914 Z-0.125000
G01 X59.340206 Y53.889130 Z-0.125000
G01 X59.574593 Y54.387831 Z-0.125000
G01 X59.627292 Y54.498209 Z-0.125000
G01 X59.689043 Y54.621907 Z-0.125000
G01 X59.745064 Y54.731642 Z-0.125000
G01 X59.810534 Y54.854570 Z-0.125000
G01 X59.861762 Y54.950155 Z-0.125000
G01 X59.930705 Y55.072308 Z-0.125000
G01 X59.993108 Y55.180665 Z-0.125000
G01 X60.065727 Y55.301933 Z-0.125000
G01 X60.131386 Y55.409468 Z-0.125000
G01 X60.198596 Y55.516623 Z-0.125000
G01 X60.276601 Y55.636436 Z-0.125000
G01 X60.337618 Y55.729658 Z-0.125000
G01 X60.419037 Y55.848403 Z-0.125000
G01 X60.502395 Y55.966527 Z-0.125000
G01 X60.577614 Y56.071195 Z-0.125000
G01 X60.654350 Y56.175314 Z-0.125000
G01 X60.743006 Y56.291446 Z-0.125000
G01 X60.822948 Y56.394300 Z-0.125000
G01 X60.904382 Y56.496499 Z-0.125000
G01 X60.998274 Y56.610325 Z-0.125000
G01 X61.082852 Y56.711038 Z-0.125000
G01 X61.168885 Y56.810993 Z-0.125000
G01 X61.267874 Y56.922116 Z-0.125000
G01 X61.356957 Y57.020343 Z-0.125000
G01 X61.447450 Y57.117702 Z-0.125000
G01 X61.551354 Y57.225731 Z-0.125000
G01 X61.644765 Y57.321113 Z-0.125000
G01 X61.739513 Y57.415508 Z-0.125000
G01 X61.848085 Y57.520036 Z-0.125000
G01 X61.945586 Y57.612213 Z-0.125000
G01 X62.044333 Y57.703288 Z-0.125000
G01 X62.157253 Y57.803916 Z-0.125000
G01 X62.258550 Y57.892543 Z-0.125000
G01 X62.360995 Y57.979966 Z-0.125000
G01 X62.464561 Y58.066162 Z-0.125000
G01 X62.582680 Y58.161109 Z-0.125000
G01 X62.702083 Y58.254398 Z-0.125000
G01 X62.809000 Y58.336379 Z-0.125000
G01 X62.916883 Y58.417017 Z-0.125000
G01 X63.025685 Y58.496282 Z-0.125000
G01 X63.149411 Y58.583246 Z-0.125000
G01 X63.260048 Y58.659525 Z-0.125000
G01 X63.371503 Y58.734370 Z-0.125000
G01 X63.498053 Y58.816277 Z-0.125000
G01 X63.611123 Y58.888014 Z-0.125000
G01 X63.724907 Y58.958259 Z-0.125000
G01 X63.853918 Y59.034910 Z-0.125000
G01 X63.969113 Y59.101931 Z-0.125000
G01 X64.084951 Y59.167415 Z-0.125000
G01 X64.216134 Y59.238629 Z-0.125000
G01 X64.318437 Y59.293682 Z-0.125000
G01 X64.450908 Y59.361315 Z-0.125000
G01 X64.569129 Y59.420229 Z-0.125000
G01 X65.336609 Y59.729618 Z-0.125000
G01 X65.458226 Y59.775459 Z-0.125000
G01 X65.595693 Y59.824050 Z-0.125000
G01 X65.703081 Y59.861107 Z-0.125000
G01 X65.841788 Y59.904932 Z-0.125000
G01 X65.965696 Y59.941998 Z-0.125000
G01 X66.105773 Y59.980192 Z-0.125000
G01 X66.215343 Y60.008710 Z-0.125000
G01 X66.356823 Y60.040865 Z-0.125000
G01 X66.499116 Y60.069197 Z-0.125000
G01 X66.753558 Y60.105124 Z-0.125000
G01 X66.898088 Y60.120462 Z-0.125000
G01 X67.027309 Y60.129689 Z-0.125000
G01 X67.157037 Y60.133597 Z-0.125000
G01 X67.303201 Y60.130044 Z-0.125000
G01 X67.433157 Y60.119750 Z-0.125000
G01 X67.562383 Y60.100963 Z-0.125000
G01 X67.689791 Y60.072220 Z-0.125000
G01 X67.828566 Y60.025479 Z-0.125000
G01 X67.931343 Y59.978849 Z-0.125000
G01 X68.064112 Y59.892496 Z-0.125000
G01 X68.144822 Y59.821950 Z-0.125000
G01 X68.229679 Y59.719238 Z-0.125000
G01 X68.287410 Y59.621800 Z-0.125000
G01 X68.333554 Y59.507887 Z-0.125000
G01 X68.360533 Y59.406008 Z-0.125000
G01 X68.376311 Y59.304343 Z-0.125000
G01 X68.190289 Y58.851561 Z-0.125000
G01 X68.190756 Y58.824642 Z-0.125000
G01 X68.193124 Y58.687931 Z-0.125000
G01 X68.221449 Y58.458581 Z-0.125000
G01 X68.253727 Y58.324862 Z-0.125000
G01 X68.295767 Y58.193461 Z-0.125000
G01 X68.389558 Y57.963292 Z-0.125000
G01 X68.446233 Y57.853690 Z-0.125000
G01 X68.515476 Y57.732510 Z-0.125000
G01 X68.581840 Y57.627482 Z-0.125000
G01 X68.660582 Y57.511175 Z-0.125000
G01 X68.734320 Y57.410149 Z-0.125000
G01 X68.810893 Y57.310764 Z-0.125000
G01 X68.977882 Y57.100174 Z-0.125000
G01 X69.061139 Y57.004968 Z-0.125000
G01 X69.156324 Y56.898613 Z-0.125000
G01 X69.232345 Y56.817408 Z-0.125000
G01 X69.330469 Y56.712836 Z-0.125000
G01 X69.429882 Y56.609029 Z-0.125000
G01 X69.519570 Y56.517603 Z-0.125000
G01 X69.609975 Y56.426519 Z-0.125000
G01 X69.711895 Y56.323963 Z-0.125000
G01 X69.803396 Y56.233270 Z-0.125000
G01 X69.895233 Y56.142608 Z-0.125000
G01 X69.998307 Y56.040218 Z-0.125000
G01 X70.090498 Y55.949341 Z-0.125000
G01 X70.182703 Y55.858228 Z-0.125000
G01 X70.285794 Y55.755068 Z-0.125000
G01 X70.377705 Y55.663209 Z-0.125000
G01 X70.469336 Y55.570877 Z-0.125000
G01 X70.571420 Y55.466107 Z-0.125000
G01 X70.662147 Y55.372545 Z-0.125000
G01 X70.762973 Y55.266238 Z-0.125000
G01 X70.852383 Y55.171133 Z-0.125000
G01 X70.941030 Y55.075191 Z-0.125000
G01 X71.039141 Y54.965993 Z-0.125000
G01 X71.125831 Y54.868063 Z-0.125000
G01 X71.211437 Y54.769089 Z-0.125000
G01 X71.305725 Y54.656281 Z-0.125000
G01 X71.388660 Y54.554894 Z-0.125000
G01 X71.470155 Y54.452273 Z-0.125000
G01 X71.559362 Y54.335168 Z-0.125000
G01 X71.637366 Y54.229738 Z-0.125000
G01 X71.713513 Y54.122898 Z-0.125000
G01 X71.796174 Y54.000889 Z-0.125000
G01 X71.867876 Y53.890909 Z-0.125000
G01 X71.937238 Y53.779386 Z-0.125000
G01 X72.011662 Y53.652010 Z-0.125000
G01 X72.075486 Y53.537133 Z-0.125000
G01 X72.136426 Y53.420656 Z-0.125000
G01 X72.200703 Y53.287712 Z-0.125000
G01 X72.254906 Y53.167863 Z-0.125000
G01 X72.305648 Y53.046467 Z-0.125000
G01 X72.352749 Y52.923574 Z-0.125000
G01 X72.396032 Y52.799248 Z-0.125000
G01 X72.439895 Y52.657983 Z-0.125000
G01 X72.478163 Y52.531920 Z-0.125000
G01 X72.515648 Y52.405564 Z-0.125000
G01 X72.556244 Y52.263157 Z-0.125000
G01 X72.595761 Y52.120403 Z-0.125000
G01 X72.630464 Y51.993118 Z-0.125000
G01 X72.664229 Y51.865540 Z-0.125000
G01 X72.700442 Y51.721793 Z-0.125000
G01 X72.732053 Y51.593595 Z-0.125000
G01 X72.762571 Y51.465099 Z-0.125000
G01 X72.794938 Y51.320347 Z-0.125000
G01 X72.822930 Y51.191221 Z-0.125000
G01 X72.849623 Y51.061793 Z-0.125000
G01 X72.877427 Y50.916015 Z-0.125000
G01 X72.901088 Y50.785950 Z-0.125000
G01 X72.923175 Y50.655583 Z-0.125000
G01 X72.945437 Y50.508783 Z-0.125000
G01 X72.963797 Y50.377795 Z-0.125000
G01 X72.980189 Y50.246522 Z-0.125000
G01 X72.995526 Y50.098754 Z-0.125000
G01 X73.007190 Y49.966925 Z-0.125000
G01 X73.016316 Y49.834867 Z-0.125000
G01 X73.022708 Y49.686342 Z-0.125000
G01 X73.025609 Y49.553943 Z-0.125000
G01 X73.025104 Y49.421479 Z-0.125000
G01 X73.019466 Y49.272796 Z-0.125000
G01 X73.010413 Y49.140572 Z-0.125000
G01 X72.996581 Y49.008732 Z-0.125000
G01 X72.974053 Y48.861512 Z-0.125000
G01 X72.947999 Y48.731483 Z-0.125000
G01 X72.915028 Y48.603032 Z-0.125000
G01 X72.868086 Y48.461628 Z-0.125000
G01 X72.824833 Y48.353895 Z-0.125000
G01 X72.757258 Y48.221291 Z-0.125000
G01 X72.676628 Y48.096512 Z-0.125000
G01 X72.594089 Y47.993887 Z-0.125000
G01 X72.501233 Y47.901243 Z-0.125000
G01 X72.385197 Y47.811194 Z-0.125000
G01 X72.274299 Y47.744065 Z-0.125000
G01 X72.157569 Y47.689562 Z-0.125000
G01 X72.020990 Y47.643083 Z-0.125000
G01 X71.897327 Y47.613184 Z-0.125000
G01 X71.772332 Y47.593159 Z-0.125000
G01 X71.630659 Y47.581389 Z-0.125000
G01 X71.505156 Y47.578541 Z-0.125000
G01 X71.380046 Y47.582195 Z-0.125000
G01 X71.239599 Y47.593480 Z-0.125000
G01 X71.115915 Y47.608339 Z-0.125000
G01 X70.993021 Y47.627479 Z-0.125000
G01 X70.855328 Y47.653952 Z-0.125000
G01 X70.734161 Y47.680611 Z-0.125000
G01 X70.613780 Y47.710203 Z-0.125000
G01 X70.478856 Y47.747088 Z-0.125000
G01 X70.360040 Y47.781955 Z-0.125000
G01 X70.241894 Y47.818926 Z-0.125000
G01 X70.124377 Y47.857800 Z-0.125000
G01 X69.992491 Y47.904066 Z-0.125000
G01 X69.876175 Y47.946434 Z-0.125000
G01 X69.745536 Y47.996272 Z-0.125000
G01 X69.630220 Y48.041524 Z-0.125000
G01 X69.515306 Y48.087957 Z-0.125000
G01 X69.386111 Y48.141978 Z-0.125000
G01 X69.271924 Y48.190619 Z-0.125000
G01 X69.158015 Y48.240170 Z-0.125000
G01 X69.029808 Y48.297417 Z-0.125000
G01 X68.916355 Y48.348679 Z-0.125000
G01 X68.803052 Y48.400647 Z-0.125000
G01 X68.675390 Y48.460405 Z-0.125000
G01 X68.562267 Y48.513708 Z-0.125000
G01 X68.449155 Y48.567563 Z-0.125000
G01 X68.336013 Y48.621929 Z-0.125000
G01 X68.208344 Y48.684182 Z-0.125000
G01 X68.094990 Y48.739509 Z-0.125000
G01 X67.966971 Y48.802767 Z-0.125000
G01 X67.853175 Y48.858912 Z-0.125000
G01 X67.608056 Y48.984295 Z-0.125000
G01 X67.493205 Y49.041475 Z-0.125000
G01 X67.377858 Y49.098943 Z-0.125000
G01 X67.247194 Y49.164487 Z-0.125000
G01 X67.130566 Y49.222537 Z-0.125000
G01 X67.013203 Y49.280858 Z-0.125000
G01 X66.880017 Y49.347381 Z-0.125000
G01 X66.775936 Y49.398354 Z-0.125000
G01 X66.640614 Y49.465579 Z-0.125000
G01 X66.503914 Y49.533269 Z-0.125000
G01 X66.381242 Y49.593351 Z-0.125000
G01 X66.257239 Y49.653909 Z-0.125000
G01 X66.115952 Y49.723294 Z-0.125000
G01 X65.988808 Y49.785139 Z-0.125000
G01 X65.860035 Y49.847751 Z-0.125000
G01 X65.713116 Y49.919877 Z-0.125000
G01 X65.580669 Y49.984577 Z-0.125000
G01 X65.446423 Y50.050504 Z-0.125000
G01 X65.310368 Y50.117844 Z-0.125000
G01 X65.155298 Y50.196110 Z-0.125000
G01 X65.015615 Y50.267048 Z-0.125000
G01 X64.856811 Y50.349798 Z-0.125000
G01 X64.714138 Y50.425081 Z-0.125000
G01 X64.570410 Y50.502582 Z-0.125000
G01 X64.408086 Y50.593018 Z-0.125000
G01 X64.263178 Y50.675256 Z-0.125000
G01 X64.118244 Y50.759565 Z-0.125000
G01 X63.955940 Y50.857085 Z-0.125000
G01 X63.812087 Y50.944865 Z-0.125000
G01 X63.669178 Y51.033618 Z-0.125000
G01 X63.510171 Y51.134336 Z-0.125000
G01 X63.369755 Y51.223036 Z-0.125000
G01 X63.230480 Y51.310389 Z-0.125000
G01 X63.092152 Y51.395153 Z-0.125000
G01 X62.937661 Y51.485452 Z-0.125000
G01 X62.799707 Y51.556940 Z-0.125000
G01 X62.643691 Y51.617524 Z-0.125000
G01 X62.509121 Y51.617129 Z-0.125000
G01 X62.387822 Y51.568909 Z-0.125000
G01 X62.259331 Y51.499852 Z-0.125000
G01 X62.152401 Y51.424998 Z-0.125000
G01 X62.053696 Y51.338416 Z-0.125000
G01 X61.953720 Y51.228713 Z-0.125000
G01 X61.873946 Y51.121355 Z-0.125000
G01 X61.802939 Y51.006599 Z-0.125000
G01 X61.733379 Y50.870840 Z-0.125000
G01 X61.678988 Y50.745141 Z-0.125000
G01 X61.631156 Y50.616103 Z-0.125000
G01 X61.589028 Y50.484608 Z-0.125000
G01 X61.551774 Y50.351342 Z-0.125000
G01 X61.515199 Y50.200340 Z-0.125000
G01 X61.491895 Y50.098125 Z-0.125000
G01 X61.464488 Y49.962381 Z-0.125000
G01 X61.441819 Y49.843003 Z-0.125000
G01 X61.415530 Y49.690329 Z-0.125000
G01 X61.392827 Y49.554401 Z-0.125000
G01 X61.370642 Y49.418743 Z-0.125000
G01 X61.346057 Y49.267055 Z-0.125000
G01 X61.323211 Y49.132409 Z-0.125000
G01 X61.299291 Y48.998434 Z-0.125000
G01 X61.270900 Y48.849123 Z-0.125000
G01 X61.246219 Y48.733068 Z-0.125000
G01 X61.212433 Y48.586160 Z-0.125000
G01 X61.178594 Y48.456668 Z-0.125000
G01 X61.140905 Y48.328856 Z-0.125000
G01 X61.093545 Y48.187936 Z-0.125000
G01 X61.057318 Y48.094493 Z-0.125000
G01 X61.005097 Y47.973665 Z-0.125000
G01 X60.939207 Y47.842354 Z-0.125000
G01 X60.881243 Y47.743072 Z-0.125000
G01 X60.799330 Y47.622092 Z-0.125000
G01 X60.718006 Y47.520349 Z-0.125000
G01 X60.628903 Y47.425338 Z-0.125000
G01 X60.556261 Y47.358051 Z-0.125000
G01 X60.454044 Y47.276606 Z-0.125000
G01 X60.345060 Y47.203656 Z-0.125000
G01 X60.244331 Y47.146528 Z-0.125000
G01 X60.124771 Y47.089971 Z-0.125000
G01 X60.000825 Y47.041972 Z-0.125000
G01 X59.857644 Y46.998098 Z-0.125000
G01 X59.727079 Y46.966994 Z-0.125000
G01 X59.594009 Y46.944714 Z-0.125000
G01 X59.442255 Y46.932143 Z-0.125000
G01 X59.305522 Y46.932673 Z-0.125000
G01 X59.168425 Y46.945775 Z-0.125000
G01 X59.032258 Y46.972301 Z-0.125000
G01 X58.898533 Y47.012656 Z-0.125000
G01 X58.753415 Y47.074741 Z-0.125000
G01 X58.629902 Y47.143150 Z-0.125000
G01 X58.499366 Y47.234143 Z-0.125000
G01 X58.390647 Y47.325138 Z-0.125000
G01 X58.289403 Y47.424400 Z-0.125000
G01 X58.195523 Y47.530533 Z-0.125000
G01 X58.098838 Y47.657005 Z-0.125000
G01 X58.019533 Y47.773964 Z-0.125000
G01 X57.946435 Y47.894654 Z-0.125000
G01 X57.814322 Y48.163746 Z-0.125000
G01 X57.751830 Y48.308976 Z-0.125000
G01 X57.628950 Y48.676044 Z-0.125000
G01 X57.576297 Y48.861591 Z-0.125000
G01 X57.540304 Y48.996872 Z-0.125000
G01 X57.507218 Y49.132942 Z-0.125000
G01 X57.474038 Y49.287140 Z-0.125000
G01 X57.447190 Y49.424651 Z-0.125000
G01 X57.423284 Y49.562742 Z-0.125000
G01 X57.400462 Y49.718980 Z-0.125000
G01 X57.382814 Y49.858109 Z-0.125000
G01 X57.367027 Y50.015315 Z-0.125000
G01 X57.355592 Y50.155197 Z-0.125000
G01 X57.347052 Y50.295346 Z-0.125000
G01 X57.341390 Y50.435704 Z-0.125000
G01 X57.338573 Y50.576230 Z-0.125000
G01 X57.338574 Y50.716860 Z-0.125000
G01 X57.342485 Y50.875307 Z-0.125000
G01 X57.349877 Y51.033744 Z-0.125000
G01 X57.358809 Y51.174386 Z-0.125000
G01 X57.370405 Y51.314949 Z-0.125000
G01 X57.387180 Y51.473072 Z-0.125000
G01 X57.404305 Y51.613333 Z-0.125000
G01 X57.420777 Y51.735792 Z-0.125000
G01 X57.449624 Y51.910845 Z-0.125000
G01 X57.474539 Y52.050425 Z-0.125000
G01 X57.501861 Y52.189735 Z-0.125000
G01 X57.536014 Y52.346182 Z-0.125000
G01 X57.563545 Y52.467478 Z-0.125000
G01 X57.602872 Y52.623189 Z-0.125000
G01 X57.639676 Y52.761192 Z-0.125000
G01 X57.684310 Y52.916055 Z-0.125000
G01 X57.725741 Y53.053281 Z-0.125000
G01 X57.769299 Y53.190143 Z-0.125000
G01 X57.821399 Y53.343644 Z-0.125000
G01 X57.869364 Y53.479684 Z-0.125000
G01 X57.919349 Y53.615314 Z-0.125000
G01 X58.022658 Y53.868234 Z-0.125000
G01 X58.078317 Y54.002628 Z-0.125000
G01 X58.368966 Y54.599162 Z-0.125000
G01 X58.434904 Y54.730843 Z-0.125000
G01 X58.511854 Y54.878317 Z-0.125000
G01 X58.581644 Y55.009016 Z-0.125000
G01 X58.662893 Y55.155340 Z-0.125000
G01 X58.726596 Y55.268977 Z-0.125000
G01 X58.811836 Y55.414168 Z-0.125000
G01 X58.888960 Y55.542831 Z-0.125000
G01 X58.978401 Y55.686757 Z-0.125000
G01 X59.059234 Y55.814258 Z-0.125000
G01 X59.141827 Y55.941227 Z-0.125000
G01 X59.237378 Y56.083142 Z-0.125000
G01 X59.312213 Y56.193416 Z-0.125000
G01 X59.411613 Y56.333903 Z-0.125000
G01 X59.513194 Y56.473577 Z-0.125000
G01 X59.604803 Y56.597232 Z-0.125000
G01 X59.698108 Y56.720179 Z-0.125000
G01 X59.805617 Y56.857309 Z-0.125000
G01 X59.902500 Y56.978661 Z-0.125000
G01 X60.001042 Y57.099201 Z-0.125000
G01 X60.114382 Y57.233476 Z-0.125000
G01 X60.216418 Y57.352200 Z-0.125000
G01 X60.320070 Y57.470008 Z-0.125000
G01 X60.439065 Y57.601028 Z-0.125000
G01 X60.546096 Y57.716777 Z-0.125000
G01 X60.654689 Y57.831500 Z-0.125000
G01 X60.779134 Y57.958877 Z-0.125000
G01 X60.890959 Y58.071289 Z-0.125000
G01 X61.004267 Y58.182556 Z-0.125000
G01 X61.133889 Y58.305875 Z-0.125000
G01 X61.250252 Y58.414586 Z-0.125000
G01 X61.367998 Y58.522034 Z-0.125000
G01 X61.502459 Y58.640888 Z-0.125000
G01 X61.623049 Y58.745545 Z-0.125000
G01 X61.744921 Y58.848833 Z-0.125000
G01 X61.868049 Y58.950730 Z-0.125000
G01 X62.008331 Y59.063141 Z-0.125000
G01 X62.150065 Y59.173681 Z-0.125000
G01 X62.276970 Y59.270813 Z-0.125000
G01 X62.404973 Y59.366431 Z-0.125000
G01 X62.534024 Y59.460500 Z-0.125000
G01 X62.680682 Y59.563907 Z-0.125000
G01 X62.811840 Y59.654608 Z-0.125000
G01 X62.943944 Y59.743692 Z-0.125000
G01 X63.093878 Y59.841395 Z-0.125000
G01 X63.227869 Y59.926969 Z-0.125000
G01 X63.362702 Y60.010855 Z-0.125000
G01 X63.515547 Y60.102612 Z-0.125000
G01 X63.652063 Y60.182843 Z-0.125000
G01 X63.789353 Y60.261326 Z-0.125000
G01 X63.944823 Y60.346904 Z-0.125000
G01 X64.066133 Y60.412935 Z-0.125000
G01 X64.223188 Y60.494420 Z-0.125000
G01 X64.363403 Y60.565393 Z-0.125000
G01 X65.274325 Y60.945348 Z-0.125000
G01 X65.418971 Y61.001131 Z-0.125000
G01 X65.582522 Y61.060483 Z-0.125000
G01 X65.710332 Y61.105579 Z-0.125000
G01 X65.875471 Y61.159285 Z-0.125000
G01 X66.023041 Y61.204672 Z-0.125000
G01 X66.189928 Y61.251661 Z-0.125000
G01 X66.320495 Y61.286570 Z-0.125000
G01 X66.489154 Y61.326309 Z-0.125000
G01 X66.658832 Y61.361433 Z-0.125000
G01 X66.962463 Y61.407168 Z-0.125000
G01 X67.134922 Y61.426514 Z-0.125000
G01 X67.289102 Y61.438219 Z-0.125000
G01 X67.443877 Y61.443415 Z-0.125000
G01 X67.618253 Y61.439646 Z-0.125000
G01 X67.773209 Y61.427407 Z-0.125000
G01 X67.927202 Y61.404696 Z-0.125000
G01 X68.078890 Y61.369706 Z-0.125000
G01 X68.243901 Y61.312644 Z-0.125000
G01 X68.365796 Y61.255263 Z-0.125000
G01 X68.522855 Y61.149179 Z-0.125000
G01 X68.617772 Y61.061933 Z-0.125000
G01 X68.716935 Y60.934945 Z-0.125000
G01 X68.783594 Y60.814091 Z-0.125000
G01 X68.835897 Y60.672664 Z-0.125000
G01 X68.865401 Y60.545840 Z-0.125000
G01 X68.881399 Y60.419101 Z-0.125000
G01 X68.694952 Y59.956934 Z-0.125000
G01 X68.695114 Y59.923752 Z-0.125000
G01 X68.697526 Y59.758830 Z-0.125000
G01 X68.731028 Y59.482771 Z-0.125000
G01 X68.769263 Y59.321476 Z-0.125000
G01 X68.819176 Y59.162983 Z-0.125000
G01 X68.931055 Y58.886047 Z-0.125000
G01 X68.998443 Y58.753769 Z-0.125000
G01 X69.080859 Y58.607635 Z-0.125000
G01 X69.159794 Y58.480905 Z-0.125000
G01 X69.253521 Y58.340689 Z-0.125000
G01 X69.341227 Y58.218831 Z-0.125000
G01 X69.432295 Y58.098976 Z-0.125000
G01 X69.631542 Y57.845960 Z-0.125000
G01 X69.730541 Y57.731228 Z-0.125000
G01 X69.843788 Y57.603192 Z-0.125000
G01 X69.934079 Y57.505312 Z-0.125000
G01 X70.050792 Y57.379510 Z-0.125000
G01 X70.169025 Y57.254678 Z-0.125000
G01 X70.275599 Y57.144707 Z-0.125000
G01 X70.383016 Y57.035190 Z-0.125000
G01 X70.504190 Y56.912006 Z-0.125000
G01 X70.612887 Y56.803052 Z-0.125000
G01 X70.721972 Y56.694179 Z-0.125000
G01 X70.844490 Y56.571338 Z-0.125000
G01 X70.953978 Y56.462298 Z-0.125000
G01 X71.063475 Y56.353016 Z-0.125000
G01 X71.185992 Y56.229390 Z-0.125000
G01 X71.295128 Y56.119297 Z-0.125000
G01 X71.403925 Y56.008676 Z-0.125000
G01 X71.525230 Y55.883246 Z-0.125000
G01 X71.632943 Y55.771228 Z-0.125000
G01 X71.752743 Y55.644036 Z-0.125000
G01 X71.858882 Y55.530242 Z-0.125000
G01 X71.964108 Y55.415478 Z-0.125000
G01 X72.080670 Y55.284930 Z-0.125000
G01 X72.183560 Y55.167851 Z-0.125000
G01 X72.285156 Y55.049552 Z-0.125000
G01 X72.397156 Y54.914778 Z-0.125000
G01 X72.495565 Y54.793650 Z-0.125000
G01 X72.592255 Y54.671073 Z-0.125000
G01 X72.698190 Y54.531245 Z-0.125000
G01 X72.790712 Y54.405360 Z-0.125000
G01 X72.881017 Y54.277816 Z-0.125000
G01 X72.979138 Y54.132201 Z-0.125000
G01 X73.064134 Y54.000952 Z-0.125000
G01 X73.146335 Y53.867883 Z-0.125000
G01 X73.234618 Y53.715926 Z-0.125000
G01 X73.310202 Y53.578897 Z-0.125000
G01 X73.382341 Y53.439976 Z-0.125000
G01 X73.458501 Y53.281439 Z-0.125000
G01 X73.522589 Y53.138538 Z-0.125000
G01 X73.582542 Y52.993813 Z-0.125000
G01 X73.638144 Y52.847323 Z-0.125000
G01 X73.689183 Y52.699145 Z-0.125000
G01 X73.740949 Y52.530793 Z-0.125000
G01 X73.786011 Y52.380584 Z-0.125000
G01 X73.830153 Y52.230045 Z-0.125000
G01 X73.878067 Y52.060384 Z-0.125000
G01 X73.924710 Y51.890329 Z-0.125000
G01 X73.965579 Y51.738730 Z-0.125000
G01 X74.005341 Y51.586796 Z-0.125000
G01 X74.048089 Y51.415600 Z-0.125000
G01 X74.085309 Y51.262954 Z-0.125000
G01 X74.121237 Y51.109966 Z-0.125000
G01 X74.159439 Y50.937606 Z-0.125000
G01 X74.192378 Y50.783891 Z-0.125000
G01 X74.223781 Y50.629826 Z-0.125000
G01 X74.256575 Y50.456275 Z-0.125000
G01 X74.284383 Y50.301473 Z-0.125000
G01 X74.310321 Y50.146320 Z-0.125000
G01 X74.336535 Y49.971581 Z-0.125000
G01 X74.358045 Y49.815709 Z-0.125000
G01 X74.377215 Y49.659508 Z-0.125000
G01 X74.395194 Y49.483647 Z-0.125000
G01 X74.408737 Y49.326806 Z-0.125000
G01 X74.419258 Y49.169704 Z-0.125000
G01 X74.426581 Y48.992976 Z-0.125000
G01 X74.429682 Y48.835497 Z-0.125000
G01 X74.428721 Y48.677954 Z-0.125000
G01 X74.421694 Y48.501089 Z-0.125000
G01 X74.410535 Y48.343873 Z-0.125000
G01 X74.393672 Y48.187136 Z-0.125000
G01 X74.366485 Y48.012088 Z-0.125000
G01 X74.335026 Y47.857569 Z-0.125000
G01 X74.295297 Y47.704966 Z-0.125000
G01 X74.238927 Y47.536973 Z-0.125000
G01 X74.186848 Y47.409151 Z-0.125000
G01 X74.105802 Y47.251764 Z-0.125000
G01 X74.009132 Y47.103788 Z-0.125000
G01 X73.910110 Y46.982273 Z-0.125000
G01 X73.798732 Y46.872737 Z-0.125000
G01 X73.659657 Y46.766431 Z-0.125000
G01 X73.526653 Y46.687477 Z-0.125000
G01 X73.386651 Y46.623647 Z-0.125000
G01 X73.222923 Y46.569527 Z-0.125000
G01 X73.074585 Y46.535156 Z-0.125000
G01 X72.924641 Y46.512603 Z-0.125000
G01 X72.754769 Y46.500027 Z-0.125000
G01 X72.604201 Y46.498034 Z-0.125000
G01 X72.454103 Y46.503827 Z-0.125000
G01 X72.285690 Y46.518847 Z-0.125000
G01 X72.137305 Y46.538062 Z-0.125000
G01 X71.989878 Y46.562427 Z-0.125000
G01 X71.824785 Y46.595637 Z-0.125000
G01 X71.679446 Y46.628987 Z-0.125000
G01 X71.535062 Y46.665865 Z-0.125000
G01 X71.373335 Y46.711568 Z-0.125000
G01 X71.230864 Y46.754776 Z-0.125000
G01 X71.089217 Y46.800513 Z-0.125000
G01 X70.948347 Y46.848540 Z-0.125000
G01 X70.790358 Y46.905525 Z-0.125000
G01 X70.650985 Y46.957762 Z-0.125000
G01 X70.494558 Y47.019057 Z-0.125000
G01 X70.356449 Y47.074778 Z-0.125000
G01 X70.218859 Y47.131932 Z-0.125000
G01 X70.064285 Y47.198289 Z-0.125000
G01 X69.927651 Y47.258123 Z-0.125000
G01 X69.791397 Y47.319065 Z-0.125000
G01 X69.638162 Y47.389349 Z-0.125000
G01 X69.502560 Y47.452382 Z-0.125000
G01 X69.367196 Y47.516282 Z-0.125000
G01 X69.214812 Y47.589645 Z-0.125000
G01 X69.079796 Y47.655191 Z-0.125000
G01 X68.944866 Y47.721421 Z-0.125000
G01 X68.809977 Y47.788286 Z-0.125000
G01 X68.657925 Y47.864740 Z-0.125000
G01 X68.522964 Y47.932806 Z-0.125000
G01 X68.370711 Y48.010519 Z-0.125000
G01 X68.235435 Y48.079614 Z-0.125000
G01 X67.944847 Y48.232811 Z-0.125000
G01 X67.808678 Y48.303207 Z-0.125000
G01 X67.672059 Y48.373965 Z-0.125000
G01 X67.517516 Y48.454545 Z-0.125000
G01 X67.379706 Y48.526028 Z-0.125000
G01 X67.241200 Y48.597842 Z-0.125000
G01 X67.084270 Y48.679610 Z-0.125000
G01 X66.961748 Y48.742487 Z-0.125000
G01 X66.802755 Y48.825070 Z-0.125000
G01 X66.642418 Y48.908171 Z-0.125000
G01 X66.498760 Y48.981991 Z-0.125000
G01 X66.353796 Y49.056322 Z-0.125000
G01 X66.188950 Y49.141236 Z-0.125000
G01 X66.040880 Y49.216911 Z-0.125000
G01 X65.891196 Y49.293375 Z-0.125000
G01 X65.720763 Y49.381100 Z-0.125000
G01 X65.567421 Y49.459678 Z-0.125000
G01 X65.412283 Y49.539485 Z-0.125000
G01 X65.255335 Y49.620704 Z-0.125000
G01 X65.076754 Y49.714572 Z-0.125000
G01 X64.916162 Y49.799364 Z-0.125000
G01 X64.733815 Y49.897671 Z-0.125000
G01 X64.570190 Y49.986745 Z-0.125000
G01 X64.405483 Y50.077993 Z-0.125000
G01 X64.219512 Y50.183826 Z-0.125000
G01 X64.053536 Y50.279675 Z-0.125000
G01 X63.887476 Y50.377506 Z-0.125000
G01 X63.701320 Y50.490104 Z-0.125000
G01 X63.536173 Y50.591140 Z-0.125000
G01 X63.371861 Y50.692972 Z-0.125000
G01 X63.188616 Y50.808138 Z-0.125000
G01 X63.026475 Y50.909371 Z-0.125000
G01 X62.865252 Y51.008868 Z-0.125000
G01 X62.704690 Y51.105241 Z-0.125000
G01 X62.524716 Y51.207647 Z-0.125000
G01 X62.363498 Y51.288499 Z-0.125000
G01 X62.180258 Y51.356350 Z-0.125000
G01 X62.021057 Y51.353741 Z-0.125000
G01 X61.876665 Y51.295749 Z-0.125000
G01 X61.723323 Y51.213350 Z-0.125000
G01 X61.595555 Y51.124552 Z-0.125000
G01 X61.477394 Y51.022153 Z-0.125000
G01 X61.357353 Y50.892625 Z-0.125000
G01 X61.261430 Y50.766085 Z-0.125000
G01 X61.175843 Y50.630926 Z-0.125000
G01 X61.091654 Y50.471045 Z-0.125000
G01 X61.025699 Y50.323093 Z-0.125000
G01 X60.967507 Y50.171215 Z-0.125000
G01 X60.916069 Y50.016430 Z-0.125000
G01 X60.870408 Y49.859533 Z-0.125000
G01 X60.825280 Y49.681642 Z-0.125000
G01 X60.796715 Y49.561365 Z-0.125000
G01 X60.762743 Y49.401414 Z-0.125000
G01 X60.734675 Y49.260763 Z-0.125000
G01 X60.701785 Y49.080655 Z-0.125000
G01 X60.673457 Y48.920282 Z-0.125000
G01 X60.645720 Y48.760161 Z-0.125000
G01 X60.614943 Y48.580947 Z-0.125000
G01 X60.586510 Y48.421847 Z-0.125000
G01 X60.556839 Y48.263455 Z-0.125000
G01 X60.521657 Y48.086756 Z-0.125000
G01 X60.491377 Y47.949480 Z-0.125000
G01 X60.449891 Y47.775424 Z-0.125000
G01 X60.408616 Y47.621977 Z-0.125000
G01 X60.362828 Y47.470429 Z-0.125000
G01 X60.305422 Y47.303141 Z-0.125000
G01 X60.261875 Y47.192369 Z-0.125000
G01 X60.199021 Y47.048826 Z-0.125000
G01 X60.119853 Y46.892622 Z-0.125000
G01 X60.050510 Y46.774576 Z-0.125000
G01 X59.952518 Y46.630414 Z-0.125000
G01 X59.855474 Y46.509129 Z-0.125000
G01 X59.749297 Y46.395751 Z-0.125000
G01 X59.662976 Y46.315554 Z-0.125000
G01 X59.541409 Y46.218157 Z-0.125000
G01 X59.411910 Y46.130786 Z-0.125000
G01 X59.292379 Y46.062345 Z-0.125000
G01 X59.150494 Y45.994364 Z-0.125000
G01 X59.003485 Y45.936520 Z-0.125000
G01 X58.833663 Y45.883365 Z-0.125000
G01 X58.678932 Y45.845553 Z-0.125000
G01 X58.521300 Y45.818212 Z-0.125000
G01 X58.341548 Y45.802205 Z-0.125000
G01 X58.179753 Y45.801950 Z-0.125000
G01 X58.017634 Y45.816631 Z-0.125000
G01 X57.856735 Y45.847274 Z-0.125000
G01 X57.698860 Y45.894361 Z-0.125000
G01 X57.527638 Y45.967114 Z-0.125000
G01 X57.382152 Y46.047596 Z-0.125000
G01 X57.228523 Y46.154778 Z-0.125000
G01 X57.100833 Y46.262166 Z-0.125000
G01 X56.982107 Y46.379405 Z-0.125000
G01 X56.872208 Y46.504830 Z-0.125000
G01 X56.759162 Y46.654284 Z-0.125000
G01 X56.666703 Y46.792597 Z-0.125000
G01 X56.581663 Y46.935340 Z-0.125000
G01 X56.427812 Y47.253077 Z-0.125000
G01 X56.355620 Y47.424802 Z-0.125000
G01 X56.213629 Y47.858122 Z-0.125000
G01 X56.153498 Y48.077338 Z-0.125000
G01 X56.112727 Y48.237241 Z-0.125000
G01 X56.075417 Y48.398034 Z-0.125000
G01 X56.038151 Y48.580154 Z-0.125000
G01 X56.008267 Y48.742561 Z-0.125000
G01 X55.981885 Y48.905612 Z-0.125000
G01 X55.956943 Y49.089989 Z-0.125000
G01 X55.938004 Y49.254168 Z-0.125000
G01 X55.921424 Y49.439580 Z-0.125000
G01 X55.909868 Y49.604543 Z-0.125000
G01 X55.901752 Y49.769770 Z-0.125000
G01 X55.897053 Y49.935192 Z-0.125000
G01 X55.895730 Y50.100755 Z-0.125000
G01 X55.897751 Y50.266386 Z-0.125000
G01 X55.904554 Y50.452902 Z-0.125000
G01 X55.915480 Y50.639334 Z-0.125000
G01 X55.928084 Y50.804788 Z-0.125000
G01 X55.943842 Y50.970087 Z-0.125000
G01 X55.965873 Y51.155933 Z-0.125000
G01 X55.988167 Y51.320737 Z-0.125000
G01 X56.009540 Y51.464589 Z-0.125000
G01 X56.046030 Y51.670053 Z-0.125000
G01 X56.077519 Y51.833838 Z-0.125000
G01 X56.111838 Y51.997234 Z-0.125000
G01 X56.154362 Y52.180629 Z-0.125000
G01 X56.188754 Y52.322772 Z-0.125000
G01 X56.237349 Y52.505132 Z-0.125000
G01 X56.282802 Y52.666678 Z-0.125000
G01 X56.337611 Y52.847858 Z-0.125000
G01 X56.388475 Y53.008324 Z-0.125000
G01 X56.441820 Y53.168280 Z-0.125000
G01 X56.505340 Y53.347582 Z-0.125000
G01 X56.563814 Y53.506399 Z-0.125000
G01 X56.624632 Y53.664650 Z-0.125000
G01 X56.749102 Y53.959569 Z-0.125000
G01 X56.816483 Y54.116140 Z-0.125000
G01 X57.163395 Y54.810508 Z-0.125000
G01 X57.242572 Y54.963492 Z-0.125000
G01 X57.334719 Y55.134740 Z-0.125000
G01 X57.418280 Y55.286404 Z-0.125000
G01 X57.515308 Y55.456124 Z-0.125000
G01 X57.591486 Y55.587815 Z-0.125000
G01 X57.693022 Y55.756041 Z-0.125000
G01 X57.784867 Y55.905014 Z-0.125000
G01 X57.891131 Y56.071596 Z-0.125000
G01 X57.987136 Y56.219064 Z-0.125000
G01 X58.085112 Y56.365847 Z-0.125000
G01 X58.198210 Y56.529863 Z-0.125000
G01 X58.286864 Y56.657190 Z-0.125000
G01 X58.404244 Y56.819420 Z-0.125000
G01 X58.524047 Y56.980643 Z-0.125000
G01 X58.632047 Y57.123285 Z-0.125000
G01 X58.741922 Y57.265060 Z-0.125000
G01 X58.868282 Y57.423186 Z-0.125000
G01 X58.982107 Y57.563038 Z-0.125000
G01 X59.097758 Y57.701919 Z-0.125000
G01 X59.230545 Y57.856643 Z-0.125000
G01 X59.350039 Y57.993377 Z-0.125000
G01 X59.471308 Y58.129038 Z-0.125000
G01 X59.610311 Y58.279957 Z-0.125000
G01 X59.735291 Y58.413227 Z-0.125000
G01 X59.861983 Y58.545314 Z-0.125000
G01 X60.006968 Y58.692037 Z-0.125000
G01 X60.137208 Y58.821480 Z-0.125000
G01 X60.269075 Y58.949618 Z-0.125000
G01 X60.419749 Y59.091728 Z-0.125000
G01 X60.554974 Y59.216975 Z-0.125000
G01 X60.691720 Y59.340795 Z-0.125000
G01 X60.847720 Y59.477876 Z-0.125000
G01 X60.987603 Y59.598563 Z-0.125000
G01 X61.128901 Y59.717716 Z-0.125000
G01 X61.271592 Y59.835315 Z-0.125000
G01 X61.434038 Y59.965189 Z-0.125000
G01 X61.598102 Y60.092977 Z-0.125000
G01 X61.744997 Y60.205262 Z-0.125000
G01 X61.893119 Y60.315860 Z-0.125000
G01 X62.042417 Y60.424733 Z-0.125000
G01 X62.212008 Y60.544582 Z-0.125000
G01 X62.363686 Y60.649706 Z-0.125000
G01 X62.516440 Y60.753030 Z-0.125000
G01 X62.689759 Y60.866528 Z-0.125000
G01 X62.844670 Y60.965938 Z-0.125000
G01 X63.000553 Y61.063467 Z-0.125000
G01 X63.177232 Y61.170330 Z-0.125000
G01 X63.335068 Y61.263771 Z-0.125000
G01 X63.493810 Y61.355253 Z-0.125000
G01 X63.673567 Y61.455195 Z-0.125000
G01 X63.813885 Y61.532203 Z-0.125000
G01 X63.995524 Y61.627541 Z-0.125000
G01 X64.157732 Y61.710571 Z-0.125000
G01 X65.212097 Y62.161092 Z-0.125000
G01 X65.379770 Y62.226818 Z-0.125000
G01 X65.569407 Y62.296931 Z-0.125000
G01 X65.717639 Y62.350067 Z-0.125000
G01 X65.909209 Y62.413654 Z-0.125000
G01 X66.080441 Y62.467362 Z-0.125000
G01 X66.274139 Y62.523145 Z-0.125000
G01 X66.425701 Y62.564447 Z-0.125000
G01 X66.621539 Y62.611767 Z-0.125000
G01 X66.818604 Y62.653685 Z-0.125000
G01 X67.171424 Y62.709227 Z-0.125000
G01 X67.371812 Y62.732583 Z-0.125000
G01 X67.550950 Y62.746764 Z-0.125000
G01 X67.730773 Y62.753249 Z-0.125000
G01 X67.933360 Y62.749265 Z-0.125000
G01 X68.113317 Y62.735078 Z-0.125000
G01 X68.292078 Y62.708453 Z-0.125000
G01 X68.468045 Y62.667211 Z-0.125000
G01 X68.659292 Y62.599830 Z-0.125000
G01 X68.800303 Y62.531697 Z-0.125000
G01 X68.981654 Y62.405882 Z-0.125000
G01 X69.090780 Y62.301936 Z-0.125000
G01 X69.204248 Y62.150673 Z-0.125000
G01 X69.279833 Y62.006402 Z-0.125000
G01 X69.338297 Y61.837460 Z-0.125000
G01 X69.370325 Y61.685692 Z-0.125000
G01 X69.386545 Y61.533878 Z-0.125000
G01 X69.199671 Y61.062326 Z-0.125000
G01 X69.199519 Y61.022882 Z-0.125000
G01 X69.201976 Y60.829750 Z-0.125000
G01 X69.240655 Y60.506981 Z-0.125000
G01 X69.284847 Y60.318111 Z-0.125000
G01 X69.342633 Y60.132526 Z-0.125000
G01 X69.472600 Y59.808824 Z-0.125000
G01 X69.550703 Y59.653869 Z-0.125000
G01 X69.646290 Y59.482782 Z-0.125000
G01 X69.737798 Y59.334349 Z-0.125000
G01 X69.846509 Y59.170223 Z-0.125000
G01 X69.948182 Y59.027532 Z-0.125000
G01 X70.053746 Y58.887209 Z-0.125000
G01 X70.285249 Y58.591766 Z-0.125000
G01 X70.399992 Y58.457508 Z-0.125000
G01 X70.531301 Y58.307793 Z-0.125000
G01 X70.635861 Y58.193238 Z-0.125000
G01 X70.771162 Y58.046205 Z-0.125000
G01 X70.908214 Y57.900348 Z-0.125000
G01 X71.031677 Y57.771832 Z-0.125000
G01 X71.156105 Y57.643882 Z-0.125000
G01 X71.296534 Y57.500070 Z-0.125000
G01 X71.422426 Y57.372854 Z-0.125000
G01 X71.548759 Y57.245771 Z-0.125000
G01 X71.690721 Y57.102481 Z-0.125000
G01 X71.817506 Y56.975276 Z-0.125000
G01 X71.944295 Y56.847825 Z-0.125000
G01 X72.086239 Y56.703731 Z-0.125000
G01 X72.212599 Y56.575405 Z-0.125000
G01 X72.338561 Y56.446496 Z-0.125000
G01 X72.479087 Y56.300408 Z-0.125000
G01 X72.603786 Y56.169934 Z-0.125000
G01 X72.742562 Y56.021856 Z-0.125000
G01 X72.865429 Y55.889371 Z-0.125000
G01 X72.987235 Y55.755787 Z-0.125000
G01 X73.122246 Y55.603888 Z-0.125000
G01 X73.241336 Y55.467659 Z-0.125000
G01 X73.358923 Y55.330036 Z-0.125000
G01 X73.488635 Y55.173296 Z-0.125000
G01 X73.602517 Y55.032428 Z-0.125000
G01 X73.714401 Y54.889894 Z-0.125000
G01 X73.837066 Y54.727342 Z-0.125000
G01 X73.944106 Y54.581004 Z-0.125000
G01 X74.048569 Y54.432754 Z-0.125000
G01 X74.162149 Y54.263535 Z-0.125000
G01 X74.260440 Y54.111016 Z-0.125000
G01 X74.355479 Y53.956400 Z-0.125000
G01 X74.457621 Y53.779865 Z-0.125000
G01 X74.544967 Y53.620681 Z-0.125000
G01 X74.628305 Y53.459317 Z-0.125000
G01 X74.716346 Y53.275189 Z-0.125000
G01 X74.790320 Y53.109236 Z-0.125000
G01 X74.859484 Y52.941181 Z-0.125000
G01 X74.923586 Y52.771093 Z-0.125000
G01 X74.982383 Y52.599063 Z-0.125000
G01 X75.042051 Y52.403623 Z-0.125000
G01 X75.093907 Y52.229269 Z-0.125000
G01 X75.144707 Y52.054547 Z-0.125000
G01 X75.199939 Y51.857634 Z-0.125000
G01 X75.253708 Y51.660275 Z-0.125000
G01 X75.300741 Y51.484364 Z-0.125000
G01 X75.346501 Y51.308075 Z-0.125000
G01 X75.395784 Y51.109427 Z-0.125000
G01 X75.438613 Y50.932335 Z-0.125000
G01 X75.479952 Y50.754855 Z-0.125000
G01 X75.523989 Y50.554886 Z-0.125000
G01 X75.561875 Y50.376581 Z-0.125000
G01 X75.597986 Y50.197879 Z-0.125000
G01 X75.635772 Y49.996556 Z-0.125000
G01 X75.667725 Y49.817016 Z-0.125000
G01 X75.697515 Y49.637078 Z-0.125000
G01 X75.727682 Y49.434399 Z-0.125000
G01 X75.752342 Y49.253644 Z-0.125000
G01 X75.774290 Y49.072515 Z-0.125000
G01 X75.794911 Y48.868560 Z-0.125000
G01 X75.810332 Y48.686707 Z-0.125000
G01 X75.822247 Y48.504562 Z-0.125000
G01 X75.830502 Y48.299633 Z-0.125000
G01 X75.833803 Y48.117072 Z-0.125000
G01 X75.832386 Y47.934452 Z-0.125000
G01 X75.823972 Y47.729404 Z-0.125000
G01 X75.810705 Y47.547195 Z-0.125000
G01 X75.790809 Y47.365561 Z-0.125000
G01 X75.758955 Y47.162687 Z-0.125000
G01 X75.722089 Y46.983677 Z-0.125000
G01 X75.675602 Y46.806923 Z-0.125000
G01 X75.609804 Y46.612342 Z-0.125000
G01 X75.548899 Y46.464430 Z-0.125000
G01 X75.454380 Y46.282261 Z-0.125000
G01 X75.341672 Y46.111087 Z-0.125000
G01 X75.226166 Y45.970683 Z-0.125000
G01 X75.096267 Y45.844254 Z-0.125000
G01 X74.934154 Y45.721689 Z-0.125000
G01 X74.779044 Y45.630912 Z-0.125000
G01 X74.615769 Y45.557756 Z-0.125000
G01 X74.424891 Y45.495994 Z-0.125000
G01 X74.251879 Y45.457150 Z-0.125000
G01 X74.076986 Y45.432071 Z-0.125000
G01 X73.878914 Y45.418688 Z-0.125000
G01 X73.703282 Y45.417551 Z-0.125000
G01 X73.528197 Y45.425481 Z-0.125000
G01 X73.331816 Y45.444237 Z-0.125000
G01 X73.158730 Y45.467799 Z-0.125000
G01 X72.986764 Y45.497351 Z-0.125000
G01 X72.794271 Y45.537307 Z-0.125000
G01 X72.624760 Y45.577357 Z-0.125000
G01 X72.456375 Y45.621514 Z-0.125000
G01 X72.267843 Y45.676036 Z-0.125000
G01 X72.101718 Y45.727584 Z-0.125000
G01 X71.936570 Y45.782088 Z-0.125000
G01 X71.772348 Y45.839267 Z-0.125000
G01 X71.588257 Y45.906972 Z-0.125000
G01 X71.425825 Y45.969078 Z-0.125000
G01 X71.243611 Y46.041829 Z-0.125000
G01 X71.082709 Y46.108021 Z-0.125000
G01 X70.922442 Y46.175895 Z-0.125000
G01 X70.742490 Y46.254589 Z-0.125000
G01 X70.583410 Y46.325615 Z-0.125000
G01 X70.424808 Y46.397949 Z-0.125000
G01 X70.246547 Y46.481269 Z-0.125000
G01 X70.088797 Y46.556074 Z-0.125000
G01 X69.931369 Y46.631907 Z-0.125000
G01 X69.754263 Y46.718874 Z-0.125000
G01 X69.597356 Y46.796662 Z-0.125000
G01 X69.440608 Y46.875266 Z-0.125000
G01 X69.283972 Y46.954631 Z-0.125000
G01 X69.107535 Y47.045286 Z-0.125000
G01 X68.950968 Y47.126092 Z-0.125000
G01 X68.774481 Y47.218261 Z-0.125000
G01 X68.617725 Y47.300305 Z-0.125000
G01 X68.281670 Y47.481316 Z-0.125000
G01 X68.124183 Y47.564929 Z-0.125000
G01 X67.966292 Y47.648976 Z-0.125000
G01 X67.787868 Y47.744591 Z-0.125000
G01 X67.628877 Y47.829506 Z-0.125000
G01 X67.469226 Y47.914814 Z-0.125000
G01 X67.288553 Y48.011828 Z-0.125000
G01 X67.147592 Y48.086608 Z-0.125000
G01 X66.964926 Y48.184547 Z-0.125000
G01 X66.780951 Y48.283059 Z-0.125000
G01 X66.616310 Y48.370619 Z-0.125000
G01 X66.450382 Y48.458723 Z-0.125000
G01 X66.261978 Y48.559165 Z-0.125000
G01 X66.092983 Y48.648672 Z-0.125000
G01 X65.922387 Y48.738986 Z-0.125000
G01 X65.728438 Y48.842312 Z-0.125000
G01 X65.554203 Y48.934765 Z-0.125000
G01 X65.378173 Y49.028453 Z-0.125000
G01 X65.200333 Y49.123552 Z-0.125000
G01 X64.998240 Y49.233023 Z-0.125000
G01 X64.816738 Y49.331669 Z-0.125000
G01 X64.610849 Y49.445530 Z-0.125000
G01 X64.426273 Y49.548397 Z-0.125000
G01 X64.240586 Y49.653391 Z-0.125000
G01 X64.030969 Y49.774622 Z-0.125000
G01 X63.843924 Y49.884082 Z-0.125000
G01 X63.656738 Y49.995435 Z-0.125000
G01 X63.446731 Y50.123112 Z-0.125000
G01 X63.260288 Y50.237402 Z-0.125000
G01 X63.074574 Y50.352315 Z-0.125000
G01 X62.867091 Y50.481928 Z-0.125000
G01 X62.683225 Y50.595694 Z-0.125000
G01 X62.500055 Y50.707336 Z-0.125000
G01 X62.317259 Y50.815319 Z-0.125000
G01 X62.111799 Y50.929830 Z-0.125000
G01 X61.927318 Y51.020046 Z-0.125000
G01 X61.716856 Y51.095164 Z-0.125000
G01 X61.533022 Y51.090342 Z-0.125000
G01 X61.365539 Y51.022576 Z-0.125000
G01 X61.187346 Y50.926835 Z-0.125000
G01 X61.038739 Y50.824093 Z-0.125000
G01 X60.901122 Y50.705878 Z-0.125000
G01 X60.761016 Y50.556527 Z-0.125000
G01 X60.648945 Y50.410803 Z-0.125000
G01 X60.548778 Y50.255240 Z-0.125000
G01 X60.449958 Y50.071237 Z-0.125000
G01 X60.372440 Y49.901033 Z-0.125000
G01 X60.303886 Y49.726315 Z-0.125000
G01 X60.243140 Y49.548241 Z-0.125000
G01 X60.189071 Y49.367713 Z-0.125000
G01 X60.135392 Y49.162932 Z-0.125000
G01 X60.101570 Y49.024593 Z-0.125000
G01 X60.061041 Y48.840433 Z-0.125000
G01 X60.027575 Y48.678509 Z-0.125000
G01 X59.988092 Y48.470964 Z-0.125000
G01 X59.954122 Y48.286150 Z-0.125000
G01 X59.920861 Y48.101562 Z-0.125000
G01 X59.883882 Y47.894822 Z-0.125000
G01 X59.849861 Y47.711269 Z-0.125000
G01 X59.814430 Y47.528463 Z-0.125000
G01 X59.772456 Y47.324376 Z-0.125000
G01 X59.736587 Y47.165876 Z-0.125000
G01 X59.687401 Y46.964673 Z-0.125000
G01 X59.638690 Y46.787271 Z-0.125000
G01 X59.584802 Y46.611987 Z-0.125000
G01 X59.517351 Y46.418330 Z-0.125000
G01 X59.466483 Y46.290228 Z-0.125000
G01 X59.392998 Y46.123972 Z-0.125000
G01 X59.300552 Y45.942874 Z-0.125000
G01 X59.219829 Y45.806063 Z-0.125000
G01 X59.105758 Y45.638720 Z-0.125000
G01 X58.992995 Y45.497893 Z-0.125000
G01 X58.869744 Y45.366148 Z-0.125000
G01 X58.769743 Y45.273041 Z-0.125000
G01 X58.628828 Y45.159690 Z-0.125000
G01 X58.478812 Y45.057902 Z-0.125000
G01 X58.340477 Y44.978148 Z-0.125000
G01 X58.176270 Y44.898742 Z-0.125000
G01 X58.006196 Y44.831052 Z-0.125000
G01 X57.809734 Y44.768615 Z-0.125000
G01 X57.630839 Y44.724095 Z-0.125000
G01 X57.448643 Y44.691695 Z-0.125000
G01 X57.240893 Y44.672251 Z-0.125000
G01 X57.054036 Y44.671210 Z-0.125000
G01 X56.866893 Y44.687471 Z-0.125000
G01 X56.681264 Y44.722229 Z-0.125000
G01 X56.499240 Y44.776050 Z-0.125000
G01 X56.301913 Y44.859470 Z-0.125000
G01 X56.134453 Y44.952024 Z-0.125000
G01 X55.957731 Y45.075395 Z-0.125000
G01 X55.811070 Y45.199178 Z-0.125000
G01 X55.674864 Y45.334393 Z-0.125000
G01 X55.548943 Y45.479110 Z-0.125000
G01 X55.419539 Y45.651547 Z-0.125000
G01 X55.313924 Y45.811211 Z-0.125000
G01 X55.216943 Y45.976007 Z-0.125000
G01 X55.041354 Y46.342391 Z-0.125000
G01 X54.959461 Y46.540610 Z-0.125000
G01 X54.798360 Y47.040182 Z-0.125000
G01 X54.730753 Y47.293068 Z-0.125000
G01 X54.685201 Y47.477592 Z-0.125000
G01 X54.643667 Y47.663110 Z-0.125000
G01 X54.602317 Y47.873150 Z-0.125000
G01 X54.569396 Y48.060454 Z-0.125000
G01 X54.540537 Y48.248463 Z-0.125000
G01 X54.513476 Y48.460981 Z-0.125000
G01 X54.493244 Y48.650210 Z-0.125000
G01 X54.475872 Y48.863826 Z-0.125000
G01 X54.464197 Y49.053872 Z-0.125000
G01 X54.456504 Y49.244178 Z-0.125000
G01 X54.452767 Y49.434662 Z-0.125000
G01 X54.452939 Y49.625263 Z-0.125000
G01 X54.456980 Y49.815896 Z-0.125000
G01 X54.466675 Y50.030480 Z-0.125000
G01 X54.481136 Y50.244907 Z-0.125000
G01 X54.497412 Y50.435173 Z-0.125000
G01 X54.517330 Y50.625206 Z-0.125000
G01 X54.544616 Y50.838777 Z-0.125000
G01 X54.572079 Y51.028125 Z-0.125000
G01 X54.598352 Y51.193367 Z-0.125000
G01 X54.642429 Y51.429253 Z-0.125000
G01 X54.680484 Y51.617246 Z-0.125000
G01 X54.721797 Y51.804729 Z-0.125000
G01 X54.772689 Y52.015070 Z-0.125000
G01 X54.813944 Y52.178060 Z-0.125000
G01 X54.871808 Y52.387069 Z-0.125000
G01 X54.925909 Y52.572159 Z-0.125000
G01 X54.990894 Y52.779657 Z-0.125000
G01 X55.051189 Y52.963362 Z-0.125000
G01 X55.114320 Y53.146411 Z-0.125000
G01 X55.189262 Y53.351514 Z-0.125000
G01 X55.258246 Y53.533108 Z-0.125000
G01 X55.329897 Y53.713981 Z-0.125000
G01 X55.475526 Y54.050900 Z-0.125000
G01 X55.554630 Y54.229648 Z-0.125000
G01 X55.957805 Y55.021849 Z-0.125000
G01 X56.050223 Y55.196135 Z-0.125000
G01 X56.157566 Y55.391159 Z-0.125000
G01 X56.254896 Y55.563787 Z-0.125000
G01 X56.367704 Y55.756903 Z-0.125000
G01 X56.456356 Y55.906648 Z-0.125000
