%
(Header)
(Generated by gcodetools from Inkscape.)
(Using default header. To add your own header create file "header" in the output dir.)
M3
(Header end.)
G21 (All units in mm)

(Start cutting path id: path900794)
(Change tool to Default tool)

G00 Z3.000000
G00 X89.279719 Y209.231802

G00 Z4.875000 (Fast pre-penetrate)
G01 Z-0.125000 F400.0(Penetrate)
G03 X89.410535 Y211.445496 Z-0.125000 I-3.553839 J1.320723 F800.000000
G03 X84.225025 Y231.333202 Z-0.125000 I-577.459683 J-139.946649
G03 X78.354808 Y251.029589 Z-0.125000 I-572.245812 J-159.826433
G03 X77.095698 Y252.854800 Z-0.125000 I-3.612196 J-1.144950
G03 X75.031897 Y253.663235 Z-0.125000 I-2.352822 J-2.967875
G03 X54.514907 Y254.877024 Z-0.125000 I-45.345674 J-592.481063
G03 X33.968347 Y255.380542 Z-0.125000 I-24.828624 J-593.693413
G03 X31.843463 Y254.747182 Z-0.125000 I-0.027309 J-3.789487
G03 X30.436545 Y253.033410 Z-0.125000 I2.097958 J-3.156704
G03 X22.942153 Y233.896039 Z-0.125000 I549.540645 J-226.241914
G03 X16.113928 Y214.510822 Z-0.125000 I557.035261 J-207.104625
G03 X16.059762 Y212.295119 Z-0.125000 I3.593585 J-1.196363
G03 X17.254929 Y210.427284 Z-0.125000 I3.650546 J1.019575
G03 X33.139676 Y197.385841 Z-0.125000 I384.965131 J452.700795
G03 X49.466075 Y184.901353 Z-0.125000 I369.092546 J465.757585
G03 X51.556722 Y184.164977 Z-0.125000 I2.248849 J3.048745
G03 X53.702653 Y184.724537 Z-0.125000 I0.158232 J3.787812
G03 X71.014548 Y195.801302 Z-0.125000 I-311.477112 J505.874864
G03 X87.932890 Y207.470244 Z-0.125000 I-328.775980 J494.778494
G03 X89.279719 Y209.231802 Z-0.125000 I-2.205034 J3.081546
G00 Z3.000000

(End cutting path id: path900794)


(Start cutting path id: path900792)
(Change tool to Default tool)

G00 Z3.000000
G00 X88.910811 Y211.671879

G00 Z4.875000 (Fast pre-penetrate)
G01 Z-0.125000 F400.0(Penetrate)
G03 X88.913566 Y213.823730 Z-0.125000 I-3.516770 J1.080430 F800.000000
G03 X82.775048 Y232.803795 Z-0.125000 I-551.802519 J-167.980853
G03 X75.983912 Y251.560148 Z-0.125000 I-545.627416 J-186.948383
G03 X74.661916 Y253.257702 Z-0.125000 I-3.434540 J-1.311161
G03 X72.616314 Y253.925192 Z-0.125000 I-2.114259 J-3.011158
G03 X52.668324 Y253.952551 Z-0.125000 I-10.765122 J-576.800177
G03 X32.731499 Y253.290230 Z-0.125000 I9.182409 J-576.798653
G03 X30.707782 Y252.557659 Z-0.125000 I0.185722 J-3.674581
G03 X29.440318 Y250.818326 Z-0.125000 I2.208601 J-2.940895
G03 X23.250311 Y231.854929 Z-0.125000 I545.077556 J-188.415455
G03 X17.719774 Y212.688704 Z-0.125000 I551.307891 J-169.464454
G03 X17.790983 Y210.537457 Z-0.125000 I3.553629 J-0.959172
G03 X19.053747 Y208.795179 Z-0.125000 I3.481030 J1.194222
G03 X35.176222 Y197.048253 Z-0.125000 I347.771074 J460.373046
G03 X51.694963 Y185.865837 Z-0.125000 I331.618958 J472.077776
G03 X53.762613 Y185.269181 Z-0.125000 I2.009054 J3.081229
G03 X55.810214 Y185.931407 Z-0.125000 I-0.058596 J3.677883
G03 X71.964673 Y197.634823 Z-0.125000 I-330.229944 J472.823873
G03 X87.704724 Y209.889929 Z-0.125000 I-346.378202 J461.112204
G03 X88.910811 Y211.671879 Z-0.125000 I-2.308769 J2.861792
G00 Z3.000000

(End cutting path id: path900792)


(Start cutting path id: path900790)
(Change tool to Default tool)

G00 Z3.000000
G00 X88.369411 Y213.960868

G00 Z4.875000 (Fast pre-penetrate)
G01 Z-0.125000 F400.0(Penetrate)
G03 X88.255619 Y216.043625 Z-0.125000 I-3.460701 J0.855410 F800.000000
G03 X81.282578 Y234.087102 Z-0.125000 I-525.088769 J-192.555470
G03 X73.689831 Y251.878344 Z-0.125000 I-518.071229 J-210.580859
G03 X72.317528 Y253.450340 Z-0.125000 I-3.254200 J-1.455827
G03 X70.300426 Y253.985609 Z-0.125000 I-1.883912 J-3.031067
G03 X50.985577 Y252.929557 Z-0.125000 I20.874678 J-558.950257
G03 X31.718925 Y251.206251 Z-0.125000 I40.185645 J-557.840316
G03 X29.799993 Y250.387023 Z-0.125000 I0.378946 J-3.544664
G03 X28.667703 Y248.634273 Z-0.125000 I2.299953 J-2.727897
G03 X23.703576 Y229.938152 Z-0.125000 I538.094686 J-152.880055
G03 X19.388887 Y211.081654 Z-0.125000 I543.009085 J-134.171647
G03 X19.575085 Y209.003910 Z-0.125000 I3.487175 J-0.734710
G03 X20.892389 Y207.384878 Z-0.125000 I3.305559 J1.344104
G03 X37.138797 Y196.886463 Z-0.125000 I311.585931 J464.362564
G03 X53.738537 Y186.956235 Z-0.125000 I295.337830 J474.858258
G03 X55.773348 Y186.490479 Z-0.125000 I1.778877 J3.093870
G03 X57.719399 Y187.243089 Z-0.125000 I-0.258016 J3.559455
G03 X72.724365 Y199.450874 Z-0.125000 I-345.532964 J440.030691
G03 X87.298100 Y212.169896 Z-0.125000 I-360.497010 J427.774351
G03 X88.369411 Y213.960868 Z-0.125000 I-2.391471 J2.646415
G00 Z3.000000

(End cutting path id: path900790)


(Start cutting path id: path900788)
(Change tool to Default tool)

G00 Z3.000000
G00 X87.635373 Y215.880950

G00 Z4.875000 (Fast pre-penetrate)
G01 Z-0.125000 F400.0(Penetrate)
G03 X87.427864 Y217.892003 Z-0.125000 I-3.391816 J0.666249 F800.000000
G03 X79.840156 Y235.025896 Z-0.125000 I-499.232998 J-210.837206
G03 X71.664569 Y251.887320 Z-0.125000 I-491.651369 J-227.973918
G03 X70.263985 Y253.344578 Z-0.125000 I-3.082643 J-1.561071
G03 X68.287880 Y253.768896 Z-0.125000 I-1.681504 J-3.017333
G03 X49.647500 Y251.848016 Z-0.125000 I46.202190 J-539.754120
G03 X31.084856 Y249.283590 Z-0.125000 I64.838849 J-537.802378
G03 X29.266147 Y248.401469 Z-0.125000 I0.531679 J-3.412107
G03 X28.251412 Y246.652269 Z-0.125000 I2.351366 J-2.532991
G03 X24.318159 Y228.331107 Z-0.125000 I527.553092 J-122.839758
G03 X21.020919 Y209.884634 Z-0.125000 I531.519201 J-104.525058
G03 X21.297493 Y207.882078 Z-0.125000 I3.411941 J-0.549151
G03 X22.647871 Y206.376903 Z-0.125000 I3.137169 J1.456194
G03 X38.857585 Y196.974912 Z-0.125000 I279.952684 J463.984377
G03 X55.382720 Y188.139002 Z-0.125000 I263.725169 J473.354418
G03 X57.372367 Y187.783544 Z-0.125000 I1.575671 J3.073516
G03 X59.220402 Y188.601426 Z-0.125000 I-0.411826 J3.427331
G03 X73.171492 Y201.112216 Z-0.125000 I-354.668680 J409.533755
G03 X86.681617 Y214.098007 Z-0.125000 I-368.659949 J397.066241
G03 X87.635373 Y215.880950 Z-0.125000 I-2.439173 J2.451366
G00 Z3.000000

(End cutting path id: path900788)


(Start cutting path id: path900786)
(Change tool to Default tool)

G00 Z3.000000
G00 X86.731361 Y217.265927

G00 Z4.875000 (Fast pre-penetrate)
G01 Z-0.125000 F400.0(Penetrate)
G03 X86.463413 Y219.203462 Z-0.125000 I-3.299339 J0.531018 F800.000000
G03 X78.547406 Y235.519137 Z-0.125000 I-475.522128 J-220.634692
G03 X70.071848 Y251.551178 Z-0.125000 I-467.623022 J-236.958932
G03 X68.667484 Y252.913976 Z-0.125000 I-2.930137 J-1.614510
G03 X66.741116 Y253.257848 Z-0.125000 I-1.525122 J-2.976038
G03 X48.778427 Y250.770882 Z-0.125000 I62.888847 J-520.342566
G03 X30.912365 Y247.663996 Z-0.125000 I80.853842 J-517.870369
G03 X29.183049 Y246.749569 Z-0.125000 I0.629631 J-3.283138
G03 X28.260525 Y245.023711 Z-0.125000 I2.358421 J-2.370135
G03 X25.074703 Y227.171818 Z-0.125000 I514.227418 J-100.978459
G03 X22.508386 Y209.220157 Z-0.125000 I517.446271 J-83.131873
G03 X22.843631 Y207.292834 Z-0.125000 I3.317282 J-0.415800
G03 X24.199781 Y205.882835 Z-0.125000 I2.983248 J1.512137
G03 X40.193930 Y197.335951 Z-0.125000 I255.076772 J458.097348
G03 X56.473929 Y189.347359 Z-0.125000 I239.073005 J466.625461
G03 X58.411100 Y189.070314 Z-0.125000 I1.421468 J3.028141
G03 X60.170703 Y189.924068 Z-0.125000 I-0.515658 J3.302944
G03 X73.241685 Y202.494833 Z-0.125000 I-356.902458 J384.185307
G03 X85.870079 Y215.509974 Z-0.125000 I-369.950398 J371.591397
G03 X86.731361 Y217.265927 Z-0.125000 I-2.437958 J2.285003
G00 Z3.000000

(End cutting path id: path900786)


(Start cutting path id: path900784)
(Change tool to Default tool)

G00 Z3.000000
G00 X85.700183 Y218.025146

G00 Z4.875000 (Fast pre-penetrate)
G01 Z-0.125000 F400.0(Penetrate)
G03 X85.407972 Y219.893103 Z-0.125000 I-3.197005 J0.456715 F800.000000
G03 X77.475937 Y235.525905 Z-0.125000 I-455.774210 J-221.429641
G03 X69.007890 Y250.875049 Z-0.125000 I-447.867889 J-237.076054
G03 X67.627492 Y252.167348 Z-0.125000 I-2.802134 J-1.609762
G03 X65.760309 Y252.466247 Z-0.125000 I-1.422244 J-2.903097
G03 X48.441469 Y249.753553 Z-0.125000 I69.746495 J-501.928730
G03 X31.227145 Y246.443499 Z-0.125000 I87.056002 J-499.162519
G03 X29.570842 Y245.529531 Z-0.125000 I0.665175 J-3.163205
G03 X28.709319 Y243.846229 Z-0.125000 I2.319584 J-2.249294
G03 X25.937481 Y226.536774 Z-0.125000 I499.010540 J-88.785374
G03 X23.765842 Y209.141616 Z-0.125000 I501.811233 J-71.480030
G03 X24.122846 Y207.285279 Z-0.125000 I3.212271 J-0.344725
G03 X25.458598 Y205.945401 Z-0.125000 I2.859150 J1.514587
G03 X41.064105 Y197.960449 Z-0.125000 I238.687136 J447.239782
G03 X56.936576 Y190.519705 Z-0.125000 I223.087506 J455.236728
G03 X58.812743 Y190.285316 Z-0.125000 I1.321298 J2.950244
G03 X60.499860 Y191.141026 Z-0.125000 I-0.554446 J3.184161
G03 X72.916530 Y203.515466 Z-0.125000 I-351.253903 J364.869357
G03 X84.897538 Y216.312217 Z-0.125000 I-363.673442 J352.497696
G03 X85.700183 Y218.025146 Z-0.125000 I-2.397269 J2.167829
G00 Z3.000000

(End cutting path id: path900784)


(Start cutting path id: path900782)
(Change tool to Default tool)

G00 Z3.000000
G00 X84.573315 Y218.147276

G00 Z4.875000 (Fast pre-penetrate)
G01 Z-0.125000 F400.0(Penetrate)
G03 X84.292931 Y219.950831 Z-0.125000 I-3.088437 J0.443438 F800.000000
G03 X76.652348 Y235.054068 Z-0.125000 I-440.567486 J-213.394601
G03 X68.494291 Y249.883955 Z-0.125000 I-432.910310 J-228.489080
G03 X67.162895 Y251.133651 Z-0.125000 I-2.708616 J-1.551629
G03 X65.360268 Y251.424597 Z-0.125000 I-1.376788 J-2.800445
G03 X48.635680 Y248.825304 Z-0.125000 I66.773924 J-484.747284
G03 X32.010974 Y245.649171 Z-0.125000 I83.502451 J-482.170734
G03 X30.410642 Y244.769052 Z-0.125000 I0.639009 J-3.056931
G03 X29.577312 Y243.144738 Z-0.125000 I2.239175 J-2.174696
G03 X26.881311 Y226.434632 Z-0.125000 I481.824660 J-86.309902
G03 X24.764696 Y209.641483 Z-0.125000 I484.483034 J-69.594391
G03 X25.107439 Y207.848084 Z-0.125000 I3.102057 J-0.336606
G03 X26.394909 Y206.553312 Z-0.125000 I2.760451 J1.457393
G03 X41.453315 Y198.825903 Z-0.125000 I230.923636 J431.465144
G03 X56.769932 Y191.623859 Z-0.125000 I215.854690 J439.171110
G03 X58.581074 Y191.395816 Z-0.125000 I1.278144 J2.844992
G03 X60.209914 Y192.219430 Z-0.125000 I-0.530957 J3.072522
G03 X72.213182 Y204.153028 Z-0.125000 I-338.880305 J352.862231
G03 X83.796327 Y216.494552 Z-0.125000 I-350.877757 J340.922982
G03 X84.573315 Y218.147276 Z-0.125000 I-2.312085 J2.095973
G00 Z3.000000

(End cutting path id: path900782)


(Start cutting path id: path900780)
(Change tool to Default tool)

G00 Z3.000000
G00 X83.358313 Y217.701565

G00 Z4.875000 (Fast pre-penetrate)
G01 Z-0.125000 F400.0(Penetrate)
G03 X83.123157 Y219.445993 Z-0.125000 I-2.967357 J0.488052 F800.000000
G03 X76.049096 Y234.154463 Z-0.125000 I-428.933900 J-197.241020
G03 X68.470764 Y248.609905 Z-0.125000 I-421.939308 J-211.989415
G03 X67.211999 Y249.840586 Z-0.125000 I-2.643314 J-1.444549
G03 X65.479688 Y250.155695 Z-0.125000 I-1.381364 J-2.674805
G03 X49.305033 Y247.973071 Z-0.125000 I55.029990 J-468.831359
G03 X33.215475 Y245.232593 Z-0.125000 I71.206094 J-466.658236
G03 X31.655862 Y244.415254 Z-0.125000 I0.556832 J-2.959190
G03 X30.820520 Y242.865406 Z-0.125000 I2.114160 J-2.139538
G03 X27.898010 Y226.808104 Z-0.125000 I462.771511 J-92.521362
G03 X25.532407 Y210.659089 Z-0.125000 I465.768353 J-76.476265
G03 X25.827627 Y208.923329 Z-0.125000 I2.987087 J-0.384938
G03 X27.044047 Y207.649878 Z-0.125000 I2.690011 J1.351843
G03 X41.412238 Y199.908546 Z-0.125000 I231.014573 J411.566722
G03 X56.039667 Y192.668528 Z-0.125000 I216.659502 J419.333449
G03 X57.781565 Y192.413144 Z-0.125000 I1.288553 J2.720669
G03 X59.368106 Y193.175918 Z-0.125000 I-0.452954 J2.973490
G03 X71.170987 Y204.448752 Z-0.125000 I-319.914757 J346.772453
G03 X82.576816 Y216.122987 Z-0.125000 I-331.726723 J335.508806
G03 X83.358313 Y217.701565 Z-0.125000 I-2.190202 J2.067024
G00 Z3.000000

(End cutting path id: path900780)


(Start cutting path id: path900778)
(Change tool to Default tool)

G00 Z3.000000
G00 X82.045103 Y216.820216

G00 Z4.875000 (Fast pre-penetrate)
G01 Z-0.125000 F400.0(Penetrate)
G03 X81.880305 Y218.507338 Z-0.125000 I-2.839830 J0.574216 F800.000000
G03 X75.593313 Y232.911603 Z-0.125000 I-419.628567 J-174.580019
G03 X68.812052 Y247.089895 Z-0.125000 I-413.347753 J-188.987109
G03 X67.643860 Y248.318371 Z-0.125000 I-2.592253 J-1.295375
G03 X65.988351 Y248.683066 Z-0.125000 I-1.423810 J-2.523406
G03 X50.345969 Y247.155462 Z-0.125000 I36.335938 J-452.924637
G03 X34.765960 Y245.087807 Z-0.125000 I51.976386 J-451.380239
G03 X33.235995 Y244.356077 Z-0.125000 I0.430996 J-2.866521
G03 X32.377947 Y242.894021 Z-0.125000 I1.962593 J-2.134614
G03 X28.997493 Y227.545289 Z-0.125000 I442.172087 J-105.432039
G03 X26.149748 Y212.089210 Z-0.125000 I445.499966 J-90.072678
G03 X26.372804 Y210.407773 Z-0.125000 I2.860448 J-0.476052
G03 X27.497904 Y209.139792 Z-0.125000 I2.635598 J1.205459
G03 X41.050570 Y201.181780 Z-0.125000 I236.851157 J387.843377
G03 X54.870150 Y193.697264 Z-0.125000 I223.280113 J395.768814
G03 X56.537603 Y193.390183 Z-0.125000 I1.335504 J2.571113
G03 X58.091519 Y194.067915 Z-0.125000 I-0.329797 J2.876451
G03 X69.848491 Y204.498485 Z-0.125000 I-295.579249 J345.007859
G03 X81.237807 Y215.329614 Z-0.125000 I-307.371959 J334.616194
G03 X82.045103 Y216.820216 Z-0.125000 I-2.032842 J2.064881
G00 Z3.000000

(End cutting path id: path900778)


(Start cutting path id: path900776)
(Change tool to Default tool)

G00 Z3.000000
G00 X80.623612 Y215.680758

G00 Z4.875000 (Fast pre-penetrate)
G01 Z-0.125000 F400.0(Penetrate)
G03 X80.545126 Y217.309443 Z-0.125000 I-2.702882 J0.685981 F800.000000
G03 X75.191040 Y231.441482 Z-0.125000 I-411.135667 J-147.683232
G03 X69.351409 Y245.379657 Z-0.125000 I-405.717560 J-161.789741
G03 X68.287245 Y246.614849 Z-0.125000 I-2.549266 J-1.120285
G03 X66.714699 Y247.043966 Z-0.125000 I-1.487052 J-2.353524
G03 X51.619833 Y246.318653 Z-0.125000 I13.414326 J-436.608570
G03 X36.558950 Y245.071635 Z-0.125000 I28.512190 J-435.929113
G03 X35.055351 Y244.441694 Z-0.125000 I0.277958 J-2.772888
G03 X34.161511 Y243.078401 Z-0.125000 I1.781183 J-2.142498
G03 X30.186842 Y228.498563 Z-0.125000 I419.372319 J-122.158478
G03 X26.718934 Y213.790071 Z-0.125000 I423.317547 J-107.571159
G03 X26.853769 Y212.165435 Z-0.125000 I2.721113 J-0.592077
G03 X27.874206 Y210.893332 Z-0.125000 I2.587607 J1.030359
G03 X40.512003 Y202.607677 Z-0.125000 I245.746977 J361.047754
G03 X53.429286 Y194.763903 Z-0.125000 I233.152238 J369.401630
G03 X55.015388 Y194.389884 Z-0.125000 I1.404435 J2.405688
G03 X56.540317 Y194.967565 Z-0.125000 I-0.181624 J2.780991
G03 X68.326118 Y204.426718 Z-0.125000 I-267.551431 J345.432452
G03 X79.777997 Y214.287990 Z-0.125000 I-279.354417 J335.993968
G03 X80.623612 Y215.680758 Z-0.125000 I-1.853074 J2.078181
G00 Z3.000000

(End cutting path id: path900776)


(Start cutting path id: path900774)
(Change tool to Default tool)

G00 Z3.000000
G00 X79.103915 Y214.480864

G00 Z4.875000 (Fast pre-penetrate)
G01 Z-0.125000 F400.0(Penetrate)
G03 X79.117447 Y216.045678 Z-0.125000 I-2.550246 J0.804519 F800.000000
G03 X74.752726 Y229.881336 Z-0.125000 I-402.107309 J-119.246064
G03 X69.912105 Y243.557764 Z-0.125000 I-397.740564 J-133.081045
G03 X68.959588 Y244.799270 Z-0.125000 I-2.504807 J-0.935605
G03 X67.475428 Y245.295439 Z-0.125000 I-1.553336 J-2.178578
G03 X52.967825 Y245.419677 Z-0.125000 I-10.845542 J-419.354453
G03 X38.464818 Y245.042158 Z-0.125000 I3.661700 J-419.437418
G03 X36.989283 Y244.519756 Z-0.125000 I0.115830 J-2.672210
G03 X36.059250 Y243.261606 Z-0.125000 I1.593512 J-2.150753
G03 X31.458503 Y229.502829 Z-0.125000 I395.821478 J-140.005888
G03 X27.335921 Y215.593499 Z-0.125000 I400.396096 J-126.238873
G03 X27.376283 Y214.028858 Z-0.125000 I2.579522 J-0.716300
G03 X28.285742 Y212.754666 Z-0.125000 I2.538164 J0.849962
G03 X39.949671 Y204.127374 Z-0.125000 I255.294126 J332.954287
G03 X51.905054 Y195.908393 Z-0.125000 I243.633756 J341.586569
G03 X53.405037 Y195.463871 Z-0.125000 I1.476545 J2.229399
G03 X54.897034 Y195.934596 Z-0.125000 I-0.023440 J2.674153
G03 X66.706797 Y204.361404 Z-0.125000 I-237.718297 J345.639494
G03 X78.217955 Y213.191461 Z-0.125000 I-249.499360 J337.173901
G03 X79.103915 Y214.480864 Z-0.125000 I-1.662531 J2.091417
G00 Z3.000000

(End cutting path id: path900774)


(Start cutting path id: path900772)
(Change tool to Default tool)

G00 Z3.000000
G00 X77.532596 Y213.405619

G00 Z4.875000 (Fast pre-penetrate)
G01 Z-0.125000 F400.0(Penetrate)
G03 X77.631618 Y214.902164 Z-0.125000 I-2.396361 J0.910109 F800.000000
G03 X74.217307 Y228.379738 Z-0.125000 I-391.349057 J-91.970268
G03 X70.339011 Y241.731174 Z-0.125000 I-387.956439 J-105.453740
G03 X69.495952 Y242.972359 Z-0.125000 I-2.451696 J-0.758372
G03 X68.103306 Y243.528790 Z-0.125000 I-1.606132 J-1.998873
G03 X54.230515 Y244.446573 Z-0.125000 I-33.471194 J-400.629214
G03 X40.334423 Y244.884096 Z-0.125000 I-19.596658 J-401.511249
G03 X38.894255 Y244.465616 Z-0.125000 I-0.036339 J-2.562295
G03 X37.934590 Y243.312960 Z-0.125000 I1.404966 J-2.145552
G03 X32.774388 Y230.402591 Z-0.125000 I370.612196 J-155.618039
G03 X28.063845 Y217.321600 Z-0.125000 I375.714598 J-142.685720
G03 X28.017150 Y215.823033 Z-0.125000 I2.423113 J-0.825516
G03 X28.816704 Y214.553699 Z-0.125000 I2.473504 J0.671575
G03 X39.500340 Y205.657144 Z-0.125000 I262.429838 J304.281902
G03 X50.485472 Y197.135401 Z-0.125000 I251.766102 J313.203212
G03 X51.896671 Y196.627252 Z-0.125000 I1.536211 J2.052643
G03 X53.350652 Y196.995538 Z-0.125000 I0.125009 J2.560739
G03 X65.113601 Y204.406888 Z-0.125000 I-208.368489 J343.753257
G03 X76.613228 Y212.220594 Z-0.125000 I-220.131822 J336.342493
G03 X77.532596 Y213.405619 Z-0.125000 I-1.477259 J2.095234
G00 Z3.000000

(End cutting path id: path900772)


(Start cutting path id: path900770)
(Change tool to Default tool)

G00 Z3.000000
G00 X75.980162 Y212.606109

G00 Z4.875000 (Fast pre-penetrate)
G01 Z-0.125000 F400.0(Penetrate)
G03 X76.149280 Y214.029736 Z-0.125000 I-2.241987 J0.988193 F800.000000
G03 X73.559915 Y227.074240 Z-0.125000 I-378.575529 J-68.368904
G03 X70.521270 Y240.021249 Z-0.125000 I-375.988972 J-81.414016
G03 X69.777984 Y241.248693 Z-0.125000 I-2.379202 J-0.601967
G03 X68.475726 Y241.849479 Z-0.125000 I-1.633415 J-1.828799
G03 X55.269563 Y243.417598 Z-0.125000 I-51.974947 J-381.322244
G03 X42.017046 Y244.528514 Z-0.125000 I-38.771694 J-382.919107
G03 X40.620440 Y244.201212 Z-0.125000 I-0.162734 J-2.448935
G03 X39.646062 Y243.147933 Z-0.125000 I1.234502 J-2.119359
G03 X34.073591 Y231.073046 Z-0.125000 I346.400327 J-167.184472
G03 X28.921771 Y218.812550 Z-0.125000 I352.014555 J-155.127987
G03 X28.801550 Y217.383021 Z-0.125000 I2.278601 J-0.911446
G03 X29.502249 Y216.131004 Z-0.125000 I2.397674 J0.519789
G03 X39.264265 Y207.099724 Z-0.125000 I265.960918 J277.688670
G03 X49.332699 Y198.411514 Z-0.125000 I256.170989 J286.688713
G03 X50.655228 Y197.856104 Z-0.125000 I1.568468 J1.882505
G03 X52.062349 Y198.135111 Z-0.125000 I0.247868 J2.437698
G03 X63.668032 Y204.628642 Z-0.125000 I-181.881811 J338.689659
G03 X75.042264 Y211.519718 Z-0.125000 I-193.515444 J332.244117
G03 X75.980162 Y212.606109 Z-0.125000 I-1.308325 J2.077544
G00 Z3.000000

(End cutting path id: path900770)


(Start cutting path id: path900768)
(Change tool to Default tool)

G00 Z3.000000
G00 X74.530973 Y212.176766

G00 Z4.875000 (Fast pre-penetrate)
G01 Z-0.125000 F400.0(Penetrate)
G03 X74.748218 Y213.529046 Z-0.125000 I-2.101434 J1.031187 F800.000000
G03 X72.789679 Y226.071548 Z-0.125000 I-363.534388 J-50.342507
G03 X70.398513 Y238.538941 Z-0.125000 I-361.580546 J-62.885826
G03 X69.737693 Y239.737809 Z-0.125000 I-2.289159 J-0.480235
G03 X68.519152 Y240.361824 Z-0.125000 I-1.629568 J-1.680370
G03 X55.985029 Y242.374616 Z-0.125000 I-64.483996 J-361.523985
G03 X43.388871 Y243.952965 Z-0.125000 I-51.947492 J-363.520117
G03 X42.044449 Y243.695066 Z-0.125000 I-0.250721 J-2.326167
G03 X41.073551 Y242.728713 Z-0.125000 I1.093174 J-2.069223
G03 X35.286076 Y231.430937 Z-0.125000 I323.399942 J-172.798315
G03 X29.893148 Y219.939626 Z-0.125000 I329.179161 J-161.496489
G03 X29.723190 Y218.580396 Z-0.125000 I2.134926 J-0.957193
G03 X30.341765 Y217.359571 Z-0.125000 I2.303970 J0.400266
G03 X39.298574 Y208.363988 Z-0.125000 I264.662368 J254.564678
G03 X48.560943 Y199.683341 Z-0.125000 I255.726620 J263.581969
G03 X49.800320 Y199.101324 Z-0.125000 I1.571664 J1.736176
G03 X51.152953 Y199.312832 Z-0.125000 I0.330347 J2.318295
G03 X62.476322 Y205.051217 Z-0.125000 I-160.306259 J330.368356
G03 X73.594343 Y211.177460 Z-0.125000 I-171.608986 J324.590928
G03 X74.530973 Y212.176766 Z-0.125000 I-1.165140 J2.030657
G00 Z3.000000

(End cutting path id: path900768)


(Start cutting path id: path900766)
(Change tool to Default tool)

G00 Z3.000000
G00 X73.253017 Y212.162916

G00 Z4.875000 (Fast pre-penetrate)
G01 Z-0.125000 F400.0(Penetrate)
G03 X73.492768 Y213.444476 Z-0.125000 I-1.972850 J1.032283 F800.000000
G03 X71.931623 Y225.432885 Z-0.125000 I-347.164529 J-39.112346
G03 X69.956626 Y237.360055 Z-0.125000 I-345.606971 J-51.101286
G03 X69.356195 Y238.517770 Z-0.125000 I-2.191303 J-0.401925
G03 X68.210327 Y239.142200 Z-0.125000 I-1.593168 J-1.559977
G03 X56.326867 Y241.362009 Z-0.125000 I-70.064180 J-342.161380
G03 X44.373511 Y243.169260 Z-0.125000 I-58.183139 J-344.395509
G03 X43.086959 Y242.955991 Z-0.125000 I-0.294885 J-2.208316
G03 X42.139069 Y242.059752 Z-0.125000 I0.988809 J-1.995171
G03 X36.355656 Y231.443370 Z-0.125000 I303.744790 J-172.352461
G03 X30.942991 Y220.632921 Z-0.125000 I309.587833 J-161.767237
G03 X30.748073 Y219.343393 Z-0.125000 I2.010212 J-0.963348
G03 X31.307928 Y218.165481 Z-0.125000 I2.205425 J0.326223
G03 X39.617276 Y209.384621 Z-0.125000 I258.033796 J235.855984
G03 X48.225321 Y200.896267 Z-0.125000 I249.725532 J244.637907
G03 X49.391122 Y200.312550 Z-0.125000 I1.536872 J1.613416
G03 X50.685186 Y200.480607 Z-0.125000 I0.372645 J2.196847
G03 X61.604416 Y205.669735 Z-0.125000 I-144.353764 J317.839579
G03 X72.337582 Y211.233928 Z-0.125000 I-155.281467 J312.667509
G03 X73.253017 Y212.162916 Z-0.125000 I-1.059098 J1.959179
G00 Z3.000000

(End cutting path id: path900766)


(Start cutting path id: path900764)
(Change tool to Default tool)

G00 Z3.000000
G00 X72.179030 Y212.554487

G00 Z4.875000 (Fast pre-penetrate)
G01 Z-0.125000 F400.0(Penetrate)
G03 X72.415137 Y213.770371 Z-0.125000 I-1.868208 J0.993644 F800.000000
G03 X71.011557 Y225.169582 Z-0.125000 I-330.290117 J-34.882446
G03 X69.214689 Y236.513513 Z-0.125000 I-328.920683 J-46.286462
G03 X68.652375 Y237.617535 Z-0.125000 I-2.086730 J-0.367625
G03 X67.567768 Y238.218001 Z-0.125000 I-1.524263 J-1.473454
G03 X56.292714 Y240.405273 Z-0.125000 I-68.891175 J-324.969314
G03 X44.948456 Y242.201535 Z-0.125000 I-57.621505 J-327.187154
G03 X43.725307 Y242.007912 Z-0.125000 I-0.294964 J-2.096891
G03 X42.819875 Y241.163190 Z-0.125000 I0.927407 J-1.901673
G03 X37.255104 Y231.115855 Z-0.125000 I287.692321 J-165.904674
G03 X32.041172 Y220.882273 Z-0.125000 I293.254816 J-155.856129
G03 X31.847241 Y219.658160 Z-0.125000 I1.904308 J-0.929109
G03 X32.371305 Y218.535097 Z-0.125000 I2.097291 J0.294871
G03 X40.206993 Y210.138017 Z-0.125000 I246.570982 J222.231883
G03 X48.328519 Y202.017004 Z-0.125000 I238.739375 J230.632907
G03 X49.432671 Y201.454526 Z-0.125000 I1.471294 J1.523201
G03 X50.661482 Y201.605800 Z-0.125000 I0.367175 J2.083913
G03 X61.069311 Y206.463421 Z-0.125000 I-135.229891 J303.319077
G03 X71.302564 Y211.677868 Z-0.125000 I-145.618745 J298.422569
G03 X72.179030 Y212.554487 Z-0.125000 I-0.994289 J1.870580
G00 Z3.000000

(End cutting path id: path900764)


(Start cutting path id: path900762)
(Change tool to Default tool)

G00 Z3.000000
G00 X71.293904 Y213.306152

G00 Z4.875000 (Fast pre-penetrate)
G01 Z-0.125000 F400.0(Penetrate)
G03 X71.503419 Y214.461265 Z-0.125000 I-1.783426 J0.920037 F800.000000
G03 X70.042073 Y225.243552 Z-0.125000 I-312.336672 J-36.841461
G03 X68.208626 Y235.968750 Z-0.125000 I-310.855233 J-47.620670
G03 X67.662746 Y237.008145 Z-0.125000 I-1.971101 J-0.372160
G03 X66.628703 Y237.564309 Z-0.125000 I-1.426460 J-1.412782
G03 X55.922862 Y239.506140 Z-0.125000 I-61.482749 J-308.488149
G03 X45.156227 Y241.076536 Z-0.125000 I-50.772485 J-310.402939
G03 X43.999784 Y240.878526 Z-0.125000 I-0.254867 J-1.987500
G03 X43.151149 Y240.067688 Z-0.125000 I0.899236 J-1.790670
G03 X37.995594 Y230.485847 Z-0.125000 I274.197233 J-153.711034
G03 X33.174672 Y220.731192 Z-0.125000 I279.375590 J-144.140959
G03 X33.005585 Y219.570025 Z-0.125000 I1.811768 J-0.856720
G03 X33.514455 Y218.512884 Z-0.125000 I1.980942 J0.302508
G03 X41.034517 Y210.648413 Z-0.125000 I231.070373 J213.423482
G03 X48.822011 Y203.048813 Z-0.125000 I223.559641 J221.297189
G03 X49.874605 Y202.528513 Z-0.125000 I1.376890 J1.460641
G03 X51.036914 Y202.686491 Z-0.125000 I0.322653 J1.980894
G03 X60.840160 Y207.408826 Z-0.125000 I-131.831422 J286.209667
G03 X70.474444 Y212.466791 Z-0.125000 I-141.626434 J281.470968
G03 X71.293904 Y213.306152 Z-0.125000 I-0.963097 J1.759958
G00 Z3.000000

(End cutting path id: path900762)


(Start cutting path id: path900760)
(Change tool to Default tool)

G00 Z3.000000
G00 X70.544757 Y214.344885

G00 Z4.875000 (Fast pre-penetrate)
G01 Z-0.125000 F400.0(Penetrate)
G03 X70.709361 Y215.440825 Z-0.125000 I-1.710832 J0.817289 F800.000000
G03 X69.023643 Y225.577993 Z-0.125000 I-294.083409 J-43.694635
G03 X66.988635 Y235.650571 Z-0.125000 I-292.355988 J-53.824125
G03 X66.443966 Y236.616574 Z-0.125000 I-1.851804 J-0.407563
G03 X65.452517 Y237.111813 Z-0.125000 I-1.305901 J-1.374324
G03 X55.290652 Y238.641001 Z-0.125000 I-49.339923 J-293.348167
G03 X45.082113 Y239.818284 Z-0.125000 I-39.180712 J-294.897335
G03 X43.994748 Y239.599311 Z-0.125000 I-0.185003 J-1.890594
G03 X43.217001 Y238.809361 Z-0.125000 I0.902613 J-1.666512
G03 X38.622454 Y229.617404 Z-0.125000 I263.409799 J-137.408124
G03 X34.348602 Y220.272124 Z-0.125000 I267.979216 J-128.204144
G03 X34.221847 Y219.170900 Z-0.125000 I1.735480 J-0.757667
G03 X34.732904 Y218.187100 Z-0.125000 I1.864675 J0.344007
G03 X42.054836 Y210.976558 Z-0.125000 I212.158235 J208.112911
G03 X49.621577 Y204.023581 Z-0.125000 I204.819257 J215.305533
G03 X50.630047 Y203.562209 Z-0.125000 I1.258544 J1.418092
G03 X51.723916 Y203.744590 Z-0.125000 I0.248410 J1.881654
G03 X60.843780 Y208.480451 Z-0.125000 I-132.443957 J266.196808
G03 X69.794512 Y213.528637 Z-0.125000 I-141.553925 J261.442668
G03 X70.544757 Y214.344885 Z-0.125000 I-0.959827 J1.635128
G00 Z3.000000

(End cutting path id: path900760)


(Start cutting path id: path900758)
(Change tool to Default tool)

G00 Z3.000000
G00 X69.854787 Y215.571219

G00 Z4.875000 (Fast pre-penetrate)
G01 Z-0.125000 F400.0(Penetrate)
G03 X69.963999 Y216.608451 Z-0.125000 I-1.640141 J0.697060 F800.000000
G03 X67.953906 Y226.069187 Z-0.125000 I-274.494197 J-53.377029
G03 X65.617855 Y235.454679 Z-0.125000 I-272.477356 J-62.836209
G03 X65.065284 Y236.339579 Z-0.125000 I-1.722154 J-0.460414
G03 X64.112165 Y236.763900 Z-0.125000 I-1.170303 J-1.346142
G03 X54.493188 Y237.775391 Z-0.125000 I-34.057388 J-277.633049
G03 X44.845054 Y238.453714 Z-0.125000 I-24.438097 J-278.640951
G03 X43.832328 Y238.201743 Z-0.125000 I-0.094354 J-1.781940
G03 X43.133941 Y237.426364 Z-0.125000 I0.917618 J-1.528712
G03 X39.199580 Y228.590790 Z-0.125000 I253.493208 J-118.170814
G03 X35.572943 Y219.624186 Z-0.125000 I257.464894 J-109.351093
G03 X35.499803 Y218.584173 Z-0.125000 I1.663446 J-0.639562
G03 X36.022111 Y217.680202 Z-0.125000 I1.740752 J0.402916
G03 X43.209088 Y211.208227 Z-0.125000 I190.726667 J204.571027
G03 X50.615473 Y204.988680 Z-0.125000 I183.519289 J211.019544
G03 X51.583163 Y204.597165 Z-0.125000 I1.123996 J1.386474
G03 X52.603141 Y204.813748 Z-0.125000 I0.156176 J1.774544
G03 X60.979602 Y209.649341 Z-0.125000 I-135.556164 J244.490191
G03 X69.183513 Y214.771653 Z-0.125000 I-143.919847 J239.633322
G03 X69.854787 Y215.571219 Z-0.125000 I-0.970846 J1.496637
G00 Z3.000000

(End cutting path id: path900758)


(Start cutting path id: path900756)
(Change tool to Default tool)

G00 Z3.000000
G00 X69.148449 Y216.871838

G00 Z4.875000 (Fast pre-penetrate)
G01 Z-0.125000 F400.0(Penetrate)
G03 X69.198304 Y217.847910 Z-0.125000 I-1.567762 J0.569386 F800.000000
G03 X66.835694 Y226.602246 Z-0.125000 I-254.264122 J-63.924510
G03 X64.171769 Y235.269756 Z-0.125000 I-251.955736 J-72.694491
G03 X63.609800 Y236.070138 Z-0.125000 I-1.590076 J-0.518957
G03 X62.696352 Y236.419069 Z-0.125000 I-1.026618 J-1.317428
G03 X53.640169 Y236.877044 Z-0.125000 I-17.775906 J-261.738649
G03 X44.573331 Y237.021809 Z-0.125000 I-8.722023 J-262.265771
G03 X43.638431 Y236.734927 Z-0.125000 I0.002200 J-1.673946
G03 X43.024881 Y235.973844 Z-0.125000 I0.938706 J-1.384592
G03 X39.790871 Y227.502481 Z-0.125000 I243.611470 J-97.853608
G03 X36.851395 Y218.924589 Z-0.125000 I246.817951 J-89.372277
G03 X36.835676 Y217.947084 Z-0.125000 I1.590312 J-0.514452
G03 X37.369920 Y217.127202 Z-0.125000 I1.605988 J0.462478
G03 X44.426924 Y211.433600 Z-0.125000 I168.125096 J201.164465
G03 X51.676936 Y205.987133 Z-0.125000 I161.120299 J206.925115
G03 X52.601751 Y205.669892 Z-0.125000 I0.981524 J1.354698
G03 X53.546627 Y205.925204 Z-0.125000 I0.054741 J1.673503
G03 X61.141865 Y210.877563 Z-0.125000 I-139.339677 J222.000191
G03 X68.561231 Y216.089670 Z-0.125000 I-146.913671 J217.016450
G03 X69.148449 Y216.871838 Z-0.125000 I-0.983725 J1.350049
G00 Z3.000000

(End cutting path id: path900756)


(Start cutting path id: path900754)
(Change tool to Default tool)

G00 Z3.000000
G00 X68.371602 Y218.129649

G00 Z4.875000 (Fast pre-penetrate)
G01 Z-0.125000 F400.0(Penetrate)
G03 X68.364933 Y219.041804 Z-0.125000 I-1.493698 J0.445181 F800.000000
G03 X65.690255 Y227.071092 Z-0.125000 I-233.718408 J-73.395015
G03 X62.739825 Y235.003280 Z-0.125000 I-231.087290 J-81.439655
G03 X62.173201 Y235.718857 Z-0.125000 I-1.454969 J-0.569979
G03 X61.302753 Y235.994257 Z-0.125000 I-0.885939 J-1.286860
G03 X52.840187 Y235.931955 Z-0.125000 I-2.428452 J-244.910731
G03 X44.384883 Y235.577326 Z-0.125000 I6.033934 J-244.841143
G03 X43.528892 Y235.259297 Z-0.125000 I0.092439 J-1.559788
G03 X42.998184 Y234.517378 Z-0.125000 I0.947413 J-1.238474
G03 X40.442125 Y226.449426 Z-0.125000 I232.156841 J-77.989973
G03 X38.166391 Y218.298144 Z-0.125000 I234.719600 J-69.924017
G03 X38.204285 Y217.385539 Z-0.125000 I1.512679 J-0.394279
G03 X38.746472 Y216.651316 Z-0.125000 I1.472758 J0.520257
G03 X45.629650 Y211.727436 Z-0.125000 I145.921378 J196.713064
G03 X52.678784 Y207.044358 Z-0.125000 I139.012247 J201.599307
G03 X53.557385 Y206.799278 Z-0.125000 I0.839566 J1.312395
G03 X54.423867 Y207.087444 Z-0.125000 I-0.037054 J1.558208
G03 X61.233620 Y212.111767 Z-0.125000 I-141.751519 J199.250946
G03 X67.865618 Y217.368804 Z-0.125000 I-148.609328 J194.289450
G03 X68.371602 Y218.129649 Z-0.125000 I-0.992816 J1.208920
G00 Z3.000000

(End cutting path id: path900754)


(Start cutting path id: path900752)
(Change tool to Default tool)

G00 Z3.000000
G00 X67.495290 Y219.237631

G00 Z4.875000 (Fast pre-penetrate)
G01 Z-0.125000 F400.0(Penetrate)
G03 X67.442117 Y220.084154 Z-0.125000 I-1.411543 J0.336268 F800.000000
G03 X64.552056 Y227.391526 Z-0.125000 I-212.735368 J-79.911501
G03 X61.411061 Y234.594631 Z-0.125000 I-209.837771 J-87.215740
G03 X60.848659 Y235.229079 Z-0.125000 I-1.318515 J-0.602296
G03 X60.027887 Y235.439691 Z-0.125000 I-0.755195 J-1.238442
G03 X52.184526 Y234.948778 Z-0.125000 I10.278222 J-227.118723
G03 X44.363286 Y234.187091 Z-0.125000 I18.115488 J-226.551583
G03 X43.585550 Y233.847879 Z-0.125000 I0.165485 J-1.440612
G03 X43.131499 Y233.132943 Z-0.125000 I0.941261 J-1.099439
G03 X41.174903 Y225.521807 Z-0.125000 I219.321189 J-60.437976
G03 X39.482329 Y217.847610 Z-0.125000 I221.310642 J-52.834683
G03 X39.564081 Y217.004041 Z-0.125000 I1.421894 J-0.287949
G03 X40.104408 Y216.350671 Z-0.125000 I1.338698 J0.556976
G03 X46.738104 Y212.137735 Z-0.125000 I125.111775 J189.672061
G03 X53.513405 Y208.156786 Z-0.125000 I118.469964 J193.871718
G03 X54.341785 Y207.973991 Z-0.125000 I0.713095 J1.263155
G03 X55.129573 Y208.285567 Z-0.125000 I-0.115205 J1.442989
G03 X61.186247 Y213.293247 Z-0.125000 I-141.821312 J177.696189
G03 X67.066261 Y218.507284 Z-0.125000 I-147.880974 J172.691999
G03 X67.495290 Y219.237631 Z-0.125000 I-0.978890 J1.066217
G00 Z3.000000

(End cutting path id: path900752)


(Start cutting path id: path900750)
(Change tool to Default tool)

G00 Z3.000000
G00 X66.525806 Y220.117721

G00 Z4.875000 (Fast pre-penetrate)
G01 Z-0.125000 F400.0(Penetrate)
G03 X66.440703 Y220.895901 Z-0.125000 I-1.314430 J0.249996 F800.000000
G03 X63.462488 Y227.509878 Z-0.125000 I-192.733366 J-82.808581
G03 X60.257323 Y234.017107 Z-0.125000 I-189.790789 J-89.439352
G03 X59.711719 Y234.578140 Z-0.125000 I-1.191019 J-0.612449
G03 X58.946054 Y234.737314 Z-0.125000 I-0.643257 J-1.173114
G03 X51.735038 Y233.948919 Z-0.125000 I19.205960 J-209.038181
G03 X44.555782 Y232.911861 Z-0.125000 I26.412591 J-208.215225
G03 X43.853732 Y232.566146 Z-0.125000 I0.214101 J-1.320468
G03 X43.465249 Y231.886851 Z-0.125000 I0.915985 J-0.974577
G03 X41.986374 Y224.785251 Z-0.125000 I204.494779 J-46.289864
G03 X40.754065 Y217.636862 Z-0.125000 I205.967549 J-39.187102
G03 X40.865959 Y216.861766 Z-0.125000 I1.323213 J-0.204605
G03 X41.391895 Y216.282827 Z-0.125000 I1.209840 J0.570716
G03 X47.689332 Y212.682440 Z-0.125000 I107.335014 J180.432034
G03 X54.107374 Y209.301772 Z-0.125000 I101.034604 J184.027005
G03 X54.878149 Y209.168848 Z-0.125000 I0.602732 J1.193836
G03 X55.592342 Y209.490223 Z-0.125000 I-0.167867 J1.327317
G03 X60.962605 Y214.366132 Z-0.125000 I-138.129564 J157.529425
G03 X66.160977 Y219.425108 Z-0.125000 I-143.516202 J152.670936
G03 X66.525806 Y220.117721 Z-0.125000 I-0.949660 J0.942619
G00 Z3.000000

(End cutting path id: path900750)


(Start cutting path id: path900748)
(Change tool to Default tool)

G00 Z3.000000
G00 X65.482037 Y220.728370

G00 Z4.875000 (Fast pre-penetrate)
G01 Z-0.125000 F400.0(Penetrate)
G03 X65.380860 Y221.438339 Z-0.125000 I-1.211515 J0.189543 F800.000000
G03 X62.455075 Y227.409625 Z-0.125000 I-174.098144 J-81.601454
G03 X59.324622 Y233.276023 Z-0.125000 I-171.147695 J-87.560121
G03 X58.807707 Y233.773594 Z-0.125000 I-1.071383 J-0.595746
G03 X58.100827 Y233.896861 Z-0.125000 I-0.555040 J-1.094445
G03 X51.517849 Y232.960077 Z-0.125000 I23.777193 J-190.685693
G03 X44.971343 Y231.796102 Z-0.125000 I30.354335 J-189.712438
G03 X44.338474 Y231.458164 Z-0.125000 I0.235280 J-1.202184
G03 X44.002909 Y230.823862 Z-0.125000 I0.870171 J-0.866261
G03 X42.859854 Y224.273596 Z-0.125000 I188.815633 J-36.324166
G03 X41.943992 Y217.687804 Z-0.125000 I189.932788 J-29.769840
G03 X42.069630 Y216.981377 Z-0.125000 I1.217341 J-0.147881
G03 X42.569002 Y216.466138 Z-0.125000 I1.091875 J0.558633
G03 X48.445875 Y213.354941 Z-0.125000 I92.882094 J168.342807
G03 X54.426869 Y210.448795 Z-0.125000 I87.012022 J171.467408
G03 X55.137518 Y210.349856 Z-0.125000 I0.517149 J1.112872
G03 X55.780878 Y210.665683 Z-0.125000 I-0.195813 J1.212082
G03 X60.555768 Y215.293594 Z-0.125000 I-131.741059 J140.702257
G03 X65.168030 Y220.083309 Z-0.125000 I-136.498354 J136.056808
G03 X65.482037 Y220.728370 Z-0.125000 I-0.899655 J0.836898
G00 Z3.000000

(End cutting path id: path900748)


(Start cutting path id: path900746)
(Change tool to Default tool)

G00 Z3.000000
G00 X64.386646 Y221.072096

G00 Z4.875000 (Fast pre-penetrate)
G01 Z-0.125000 F400.0(Penetrate)
G03 X64.285153 Y221.716204 Z-0.125000 I-1.103245 J0.156212 F800.000000
G03 X61.544767 Y227.103985 Z-0.125000 I-157.079454 J-76.504480
G03 X58.619694 Y232.393682 Z-0.125000 I-154.343466 J-81.894595
G03 X58.142918 Y232.839364 Z-0.125000 I-0.967364 J-0.556993
G03 X57.498488 Y232.941995 Z-0.125000 I-0.489823 J-1.001111
G03 X51.527764 Y232.000036 Z-0.125000 I24.231344 J-172.987576
G03 X45.592976 Y230.852040 Z-0.125000 I30.210296 J-172.092491
G03 X45.022149 Y230.536525 Z-0.125000 I0.230848 J-1.091771
G03 X44.725581 Y229.955765 Z-0.125000 I0.799985 J-0.774620
G03 X43.776299 Y223.985899 Z-0.125000 I172.144412 J-30.433453
G03 X43.033929 Y217.986546 Z-0.125000 I173.147228 J-24.471152
G03 X43.157466 Y217.346508 Z-0.125000 I1.109270 J-0.117835
G03 X43.618666 Y216.885120 Z-0.125000 I0.985795 J0.524193
G03 X49.003014 Y214.137453 Z-0.125000 I82.227532 J154.484245
G03 X54.479154 Y211.577319 Z-0.125000 I76.851269 J157.248455
G03 X55.126186 Y211.496868 Z-0.125000 I0.455257 J1.019319
G03 X55.707374 Y211.792763 Z-0.125000 I-0.193590 J1.098968
G03 X59.984465 Y216.064460 Z-0.125000 I-121.314955 J125.745262
G03 X64.111085 Y220.481445 Z-0.125000 I-125.544424 J121.427506
G03 X64.386646 Y221.072096 Z-0.125000 I-0.825110 J0.744550
G00 Z3.000000

(End cutting path id: path900746)


(Start cutting path id: path900744)
(Change tool to Default tool)

G00 Z3.000000
G00 X63.259778 Y221.189189

G00 Z4.875000 (Fast pre-penetrate)
G01 Z-0.125000 F400.0(Penetrate)
G03 X63.170536 Y221.770104 Z-0.125000 I-0.994334 J0.144559 F800.000000
G03 X60.723539 Y226.628844 Z-0.125000 I-141.547762 J-68.241848
G03 X58.109800 Y231.400036 Z-0.125000 I-139.117747 J-73.109512
G03 X57.682098 Y231.803149 Z-0.125000 I-0.873572 J-0.498406
G03 X57.103528 Y231.897509 Z-0.125000 I-0.443580 J-0.898885
G03 X51.726225 Y231.071787 Z-0.125000 I21.192745 J-155.934317
G03 X46.381007 Y230.060736 Z-0.125000 I26.564328 J-155.075206
G03 X45.865726 Y229.778565 Z-0.125000 I0.203719 J-0.983588
G03 X45.596584 Y229.257443 Z-0.125000 I0.714832 J-0.699250
G03 X44.720287 Y223.888006 Z-0.125000 I154.595697 J-27.986368
G03 X44.030401 Y218.491441 Z-0.125000 I155.510013 J-22.622462
G03 X44.139541 Y217.914348 Z-0.125000 I0.998215 J-0.110084
G03 X44.551542 Y217.498046 Z-0.125000 I0.885237 J0.464067
G03 X49.387345 Y215.005267 Z-0.125000 I74.579549 J138.741768
G03 X54.306357 Y212.680940 Z-0.125000 I69.765351 J141.278297
G03 X54.888222 Y212.606109 Z-0.125000 I0.413510 J0.915721
G03 X55.413211 Y212.870558 Z-0.125000 I-0.170034 J0.990889
G03 X59.278441 Y216.698874 Z-0.125000 I-108.704856 J113.618467
G03 X63.009123 Y220.658798 Z-0.125000 I-112.584977 J109.804674
G03 X63.259778 Y221.189189 Z-0.125000 I-0.741722 J0.674951
G00 Z3.000000

(End cutting path id: path900744)


(Start cutting path id: path900742)
(Change tool to Default tool)

G00 Z3.000000
G00 X62.105211 Y221.148899

G00 Z4.875000 (Fast pre-penetrate)
G01 Z-0.125000 F400.0(Penetrate)
G03 X62.037853 Y221.666041 Z-0.125000 I-0.879047 J0.148461 F800.000000
G03 X59.962116 Y226.033776 Z-0.125000 I-127.306224 J-57.824316
G03 X57.736659 Y230.326972 Z-0.125000 I-125.226555 J-62.190098
G03 X57.364812 Y230.693909 Z-0.125000 I-0.786429 J-0.425073
G03 X56.851688 Y230.789380 Z-0.125000 I-0.412904 J-0.792540
G03 X52.056416 Y230.164155 Z-0.125000 I15.704551 J-139.150399
G03 X47.285468 Y229.373710 Z-0.125000 I20.500510 J-138.529820
G03 X46.822619 Y229.133921 Z-0.125000 I0.160958 J-0.877283
G03 X46.573127 Y228.675328 Z-0.125000 I0.625987 J-0.637724
G03 X45.685836 Y223.921843 Z-0.125000 I137.032895 J-28.038262
G03 X44.963390 Y219.140514 Z-0.125000 I137.911927 J-23.283383
G03 X45.048590 Y218.625723 Z-0.125000 I0.884544 J-0.118051
G03 X45.407171 Y218.246734 Z-0.125000 I0.798389 J0.396267
G03 X49.653796 Y215.933831 Z-0.125000 I68.919559 J121.485381
G03 X53.977862 Y213.769356 Z-0.125000 I64.669935 J123.792543
G03 X54.494133 Y213.691427 Z-0.125000 I0.385460 J0.804552
G03 X54.964627 Y213.914635 Z-0.125000 I-0.128554 J0.878453
G03 X58.476729 Y217.238857 Z-0.125000 I-94.320474 J103.168712
G03 X61.871740 Y220.682542 Z-0.125000 I-97.852201 J99.864519
G03 X62.105211 Y221.148899 Z-0.125000 I-0.645597 J0.614822
G00 Z3.000000

(End cutting path id: path900742)


(Start cutting path id: path900740)
(Change tool to Default tool)

G00 Z3.000000
G00 X60.930499 Y221.034324

G00 Z4.875000 (Fast pre-penetrate)
G01 Z-0.125000 F400.0(Penetrate)
G03 X60.889302 Y221.488941 Z-0.125000 I-0.763061 J0.160028 F800.000000
G03 X59.223042 Y225.378115 Z-0.125000 I-113.154334 J-46.177789
G03 X57.423198 Y229.207204 Z-0.125000 I-111.492180 J-50.068807
G03 X57.110480 Y229.540601 Z-0.125000 I-0.701624 J-0.344746
G03 X56.665890 Y229.642047 Z-0.125000 I-0.387672 J-0.674043
G03 X52.451606 Y229.259198 Z-0.125000 I8.936279 J-121.754095
G03 X48.253348 Y228.730545 Z-0.125000 I13.148449 J-121.351744
G03 X47.839948 Y228.535863 Z-0.125000 I0.110758 J-0.771451
G03 X47.606876 Y228.144436 Z-0.125000 I0.524642 J-0.577497
G03 X46.668855 Y224.018162 Z-0.125000 I118.958837 J-29.212518
G03 X45.874060 Y219.862500 Z-0.125000 I119.818958 J-25.069946
G03 X45.931198 Y219.408864 Z-0.125000 I0.769710 J-0.133467
G03 X46.231933 Y219.065683 Z-0.125000 I0.712504 J0.321018
G03 X49.866106 Y216.898751 Z-0.125000 I64.481529 J104.011402
G03 X53.572700 Y214.858948 Z-0.125000 I60.821795 J106.133729
G03 X54.021982 Y214.772969 Z-0.125000 I0.365253 J0.691772
G03 X54.441436 Y214.952672 Z-0.125000 I-0.083988 J0.775428
G03 X57.625440 Y217.739338 Z-0.125000 I-78.894467 J93.356013
G03 X60.710969 Y220.634465 Z-0.125000 I-82.048943 J90.536764
G03 X60.930499 Y221.034324 Z-0.125000 I-0.541582 J0.557531
G00 Z3.000000

(End cutting path id: path900740)


(Start cutting path id: path900738)
(Change tool to Default tool)

G00 Z3.000000
G00 X59.743196 Y220.929821

G00 Z4.875000 (Fast pre-penetrate)
G01 Z-0.125000 F400.0(Penetrate)
G03 X59.727630 Y221.320614 Z-0.125000 I-0.646597 J0.169951 F800.000000
G03 X58.470433 Y224.723084 Z-0.125000 I-99.024071 J-34.655420
G03 X57.096378 Y228.080024 Z-0.125000 I-97.759082 J-38.054856
G03 X56.843557 Y228.378479 Z-0.125000 I-0.613992 J-0.263802
G03 X56.465931 Y228.484379 Z-0.125000 I-0.362444 J-0.566196
G03 X52.842233 Y228.339763 Z-0.125000 I2.367020 J-104.783654
G03 X49.225676 Y228.069846 Z-0.125000 I5.989024 J-104.609433
G03 X48.863572 Y227.921437 Z-0.125000 I0.061259 J-0.665420
G03 X48.646491 Y227.596718 Z-0.125000 I0.420753 J-0.516202
G03 X47.663835 Y224.105353 Z-0.125000 I100.452260 J-30.156577
G03 X46.802465 Y220.582081 Z-0.125000 I101.464602 J-26.673016
G03 X46.831433 Y220.192006 Z-0.125000 I0.652631 J-0.147648
G03 X47.073621 Y219.884940 Z-0.125000 I0.622600 J0.242014
G03 X50.090221 Y217.871382 Z-0.125000 I59.644696 J86.089926
G03 X53.174610 Y215.963571 Z-0.125000 I56.613576 J88.080893
G03 X53.554867 Y215.870878 Z-0.125000 I0.341284 J0.573738
G03 X53.922039 Y216.006204 Z-0.125000 I-0.037011 J0.666192
G03 X56.769430 Y218.253038 Z-0.125000 I-63.452796 J83.340779
G03 X59.537469 Y220.597205 Z-0.125000 I-66.323824 J81.122856
G03 X59.743196 Y220.929821 Z-0.125000 I-0.440740 J0.502533
G00 Z3.000000

(End cutting path id: path900738)


(Start cutting path id: path900736)
(Change tool to Default tool)

G00 Z3.000000
G00 X58.555893 Y220.907158

G00 Z4.875000 (Fast pre-penetrate)
G01 Z-0.125000 F400.0(Penetrate)
G03 X58.553789 Y224.410708 Z-0.125000 I-5.404551 J1.748531 F800.000000
G03 X56.497313 Y227.242798 Z-0.125000 I-5.389495 J-1.750811
G03 X53.167073 Y228.320517 Z-0.125000 I-3.330240 J-4.606500
G03 X49.836833 Y227.242798 Z-0.125000 I-0.000000 J-5.684219
G03 X47.780357 Y224.410708 Z-0.125000 I3.333019 J-4.582901
G03 X47.778253 Y220.907158 Z-0.125000 I5.402448 J-1.755019
G03 X49.836136 Y218.074690 Z-0.125000 I5.385113 J1.748671
G03 X53.167073 Y216.992709 Z-0.125000 I3.330937 J4.586242
G03 X56.498010 Y218.074690 Z-0.125000 I0.000000 J5.668224
G03 X58.555893 Y220.907158 Z-0.125000 I-3.327230 J4.581139
G00 Z3.000000

(End cutting path id: path900736)



(Footer)
M5
G00 X0.0000 Y0.0000
M2
(Using default footer. To add your own footer create file "footer" in the output dir.)
(end)
%