%
(Header)
(Generated by gcodetools from Inkscape.)
(Using default header. To add your own header create file "header" in the output dir.)
M3
(Header end.)
G21 (All units in mm)

(Start cutting path id: polyline614)
(Change tool to Default tool)

G00 Z3.000000
G00 X16.048917 Y204.798628

G00 Z4.875000 (Fast pre-penetrate)
G01 Z-0.125000 F400.0(Penetrate)
G01 X17.324022 Y204.446018 Z-0.125000 F800.000000
G01 X18.599101 Y203.957783 Z-0.125000
G01 X19.874205 Y203.313206 Z-0.125000
G01 X21.058241 Y202.564251 Z-0.125000
G01 X23.301032 Y200.765828 Z-0.125000
G01 X27.923270 Y196.407722 Z-0.125000
G01 X28.374860 Y196.218625 Z-0.125000
G01 X28.890982 Y196.349858 Z-0.125000
G01 X29.801756 Y196.896989 Z-0.125000
G01 X31.076861 Y197.414567 Z-0.125000
G01 X32.351966 Y198.193949 Z-0.125000
G01 X33.627071 Y198.759415 Z-0.125000
G01 X34.902149 Y199.568563 Z-0.125000
G01 X35.812950 Y199.932153 Z-0.125000
G01 X36.905889 Y200.717118 Z-0.125000
G01 X38.089898 Y201.341560 Z-0.125000
G01 X39.091768 Y202.057548 Z-0.125000
G01 X40.184708 Y202.669026 Z-0.125000
G01 X41.459813 Y203.604221 Z-0.125000
G01 X42.188448 Y203.911640 Z-0.125000
G01 X42.932243 Y204.025437 Z-0.125000
G01 X43.569783 Y203.958736 Z-0.125000
G01 X44.192161 Y203.750800 Z-0.125000
G01 X44.829700 Y203.400651 Z-0.125000
G01 X45.535581 Y202.868998 Z-0.125000
G01 X46.792959 Y201.632258 Z-0.125000
G01 X49.555682 Y198.496711 Z-0.125000
G01 X50.954744 Y197.232216 Z-0.125000
G01 X52.176721 Y196.535304 Z-0.125000
G01 X52.814260 Y196.349302 Z-0.125000
G01 X53.345542 Y196.290644 Z-0.125000
G01 X53.983108 Y196.333771 Z-0.125000
G01 X54.620647 Y196.494453 Z-0.125000
G01 X55.941287 Y197.151941 Z-0.125000
G01 X57.170857 Y198.056286 Z-0.125000
G01 X60.278914 Y200.693544 Z-0.125000
G01 X61.952480 Y201.813338 Z-0.125000
G01 X63.440072 Y202.434262 Z-0.125000
G01 X64.927690 Y202.666169 Z-0.125000
G01 X66.309051 Y202.559489 Z-0.125000
G01 X67.902926 Y202.129912 Z-0.125000
G01 X69.390543 Y201.529705 Z-0.125000
G01 X73.959654 Y199.425318 Z-0.125000
G01 X75.447272 Y198.862100 Z-0.125000
G01 X76.934890 Y198.406356 Z-0.125000
G01 X78.528764 Y198.039379 Z-0.125000
G01 X80.228895 Y197.773659 Z-0.125000
G01 X84.054183 Y197.527279 Z-0.125000
G01 X96.486383 Y197.654649 Z-0.125000
G01 X111.575075 Y197.522437 Z-0.125000
G01 X123.475992 Y197.543127 Z-0.125000
G01 X138.564658 Y198.650407 Z-0.125000
G01 X144.196333 Y199.570230 Z-0.125000
G01 X147.277826 Y199.986525 Z-0.125000
G01 X150.465574 Y200.846155 Z-0.125000
G01 X152.696988 Y201.283775 Z-0.125000
G01 X155.990994 Y202.379308 Z-0.125000
G01 X157.053585 Y202.588249 Z-0.125000
G01 X158.116177 Y202.668841 Z-0.125000
G01 X159.072486 Y202.607537 Z-0.125000
G01 X159.922565 Y202.433203 Z-0.125000
G01 X160.863713 Y202.099776 Z-0.125000
G01 X161.774487 Y201.636015 Z-0.125000
G01 X163.482211 Y200.434146 Z-0.125000
G01 X166.430883 Y197.878116 Z-0.125000
G01 X166.874880 Y197.548075 Z-0.125000
G01 X167.148115 Y197.462535 Z-0.125000
G01 X168.423220 Y198.318594 Z-0.125000
G01 X169.060759 Y198.584500 Z-0.125000
G01 X169.789394 Y198.770396 Z-0.125000
G01 X171.155568 Y199.714401 Z-0.125000
G01 X172.248508 Y200.060132 Z-0.125000
G01 X172.886073 Y200.606205 Z-0.125000
G00 Z3.000000

(End cutting path id: polyline614)


(Start cutting path id: polyline612)
(Change tool to Default tool)

G00 Z3.000000
G00 X16.048917 Y201.375030

G00 Z4.875000 (Fast pre-penetrate)
G01 Z-0.125000 F400.0(Penetrate)
G01 X17.779396 Y200.531328 Z-0.125000 F800.000000
G01 X19.509901 Y199.441775 Z-0.125000
G01 X21.149310 Y198.215115 Z-0.125000
G01 X24.519198 Y195.484804 Z-0.125000
G01 X25.338929 Y194.855255 Z-0.125000
G01 X25.612164 Y194.742516 Z-0.125000
G01 X26.887242 Y195.497319 Z-0.125000
G01 X28.253417 Y196.005503 Z-0.125000
G01 X29.710687 Y196.851640 Z-0.125000
G01 X31.167931 Y197.460657 Z-0.125000
G01 X32.351966 Y198.193949 Z-0.125000
G01 X33.627071 Y198.759415 Z-0.125000
G01 X34.902149 Y199.568563 Z-0.125000
G01 X35.812950 Y199.932153 Z-0.125000
G01 X36.905889 Y200.717118 Z-0.125000
G01 X38.180994 Y201.396699 Z-0.125000
G01 X39.456073 Y202.273819 Z-0.125000
G01 X40.169521 Y202.572136 Z-0.125000
G01 X40.913343 Y202.700115 Z-0.125000
G01 X41.550882 Y202.657041 Z-0.125000
G01 X42.082191 Y202.514536 Z-0.125000
G01 X43.281387 Y201.862524 Z-0.125000
G01 X44.658939 Y200.652639 Z-0.125000
G01 X47.572183 Y197.448301 Z-0.125000
G01 X48.882715 Y196.213651 Z-0.125000
G01 X49.656885 Y195.654851 Z-0.125000
G01 X50.385494 Y195.272635 Z-0.125000
G01 X51.114129 Y195.041760 Z-0.125000
G01 X51.751668 Y194.967280 Z-0.125000
G01 X52.814260 Y195.099836 Z-0.125000
G01 X53.755408 Y195.487079 Z-0.125000
G01 X56.214522 Y197.202636 Z-0.125000
G01 X59.037966 Y199.489823 Z-0.125000
G01 X60.495210 Y200.430575 Z-0.125000
G01 X62.058737 Y201.086158 Z-0.125000
G01 X63.546328 Y201.337592 Z-0.125000
G01 X65.033946 Y201.252581 Z-0.125000
G01 X66.627821 Y200.863538 Z-0.125000
G01 X68.221695 Y200.267697 Z-0.125000
G01 X73.322088 Y198.080972 Z-0.125000
G01 X75.128476 Y197.470843 Z-0.125000
G01 X76.934890 Y197.001632 Z-0.125000
G01 X78.953790 Y196.635052 Z-0.125000
G01 X81.078947 Y196.397457 Z-0.125000
G01 X83.522900 Y196.257863 Z-0.125000
G01 X86.710649 Y196.197855 Z-0.125000
G01 X102.968137 Y196.224446 Z-0.125000
G01 X114.125258 Y196.574568 Z-0.125000
G01 X122.944683 Y197.495741 Z-0.125000
G01 X138.352145 Y198.622679 Z-0.125000
G01 X144.302590 Y199.586528 Z-0.125000
G01 X147.171569 Y199.966734 Z-0.125000
G01 X151.315653 Y201.033718 Z-0.125000
G01 X152.803245 Y201.271049 Z-0.125000
G01 X154.078349 Y201.345952 Z-0.125000
G01 X155.140941 Y201.290655 Z-0.125000
G01 X156.203533 Y201.109124 Z-0.125000
G01 X157.266098 Y200.787867 Z-0.125000
G01 X158.313503 Y200.329372 Z-0.125000
G01 X160.135078 Y199.217700 Z-0.125000
G01 X163.687131 Y196.430476 Z-0.125000
G01 X164.066622 Y196.259688 Z-0.125000
G01 X164.597931 Y196.417750 Z-0.125000
G01 X165.873010 Y197.116964 Z-0.125000
G01 X167.148115 Y197.462535 Z-0.125000
G01 X168.423220 Y198.318594 Z-0.125000
G01 X169.060759 Y198.584500 Z-0.125000
G01 X169.789394 Y198.770396 Z-0.125000
G01 X171.155568 Y199.714401 Z-0.125000
G01 X172.248508 Y200.060132 Z-0.125000
G01 X172.886073 Y200.606205 Z-0.125000
G00 Z3.000000

(End cutting path id: polyline612)


(Start cutting path id: polyline610)
(Change tool to Default tool)

G00 Z3.000000
G00 X16.048917 Y197.249837

G00 Z4.875000 (Fast pre-penetrate)
G01 Z-0.125000 F400.0(Penetrate)
G01 X18.143727 Y196.064003 Z-0.125000 F800.000000
G01 X22.151180 Y193.465903 Z-0.125000
G01 X22.515485 Y193.371580 Z-0.125000
G01 X23.805750 Y194.105215 Z-0.125000
G01 X25.612164 Y194.742516 Z-0.125000
G01 X26.887242 Y195.497319 Z-0.125000
G01 X28.253417 Y196.005503 Z-0.125000
G01 X29.710687 Y196.851640 Z-0.125000
G01 X31.167931 Y197.460657 Z-0.125000
G01 X32.351966 Y198.193949 Z-0.125000
G01 X33.627071 Y198.759415 Z-0.125000
G01 X34.902149 Y199.568563 Z-0.125000
G01 X35.812950 Y199.932153 Z-0.125000
G01 X36.814793 Y200.657666 Z-0.125000
G01 X37.452359 Y201.019219 Z-0.125000
G01 X38.363133 Y201.323066 Z-0.125000
G01 X39.319468 Y201.358441 Z-0.125000
G01 X39.957008 Y201.218714 Z-0.125000
G01 X40.549012 Y200.976409 Z-0.125000
G01 X41.869652 Y200.087225 Z-0.125000
G01 X43.038500 Y198.990264 Z-0.125000
G01 X45.942907 Y195.880594 Z-0.125000
G01 X47.379910 Y194.638668 Z-0.125000
G01 X48.108545 Y194.178955 Z-0.125000
G01 X48.776459 Y193.877674 Z-0.125000
G01 X49.413998 Y193.704002 Z-0.125000
G01 X50.157794 Y193.639258 Z-0.125000
G01 X50.582846 Y193.686036 Z-0.125000
G01 X51.114129 Y193.868122 Z-0.125000
G01 X53.026773 Y195.017550 Z-0.125000
G01 X55.030513 Y196.335862 Z-0.125000
G01 X57.762861 Y198.373653 Z-0.125000
G01 X58.946870 Y199.097209 Z-0.125000
G01 X60.464862 Y199.730647 Z-0.125000
G01 X62.058737 Y200.011925 Z-0.125000
G01 X63.546328 Y199.945171 Z-0.125000
G01 X65.246486 Y199.559753 Z-0.125000
G01 X66.840334 Y198.997699 Z-0.125000
G01 X72.472036 Y196.733742 Z-0.125000
G01 X74.490936 Y196.119803 Z-0.125000
G01 X76.616094 Y195.643474 Z-0.125000
G01 X78.953790 Y195.297823 Z-0.125000
G01 X81.716486 Y195.068853 Z-0.125000
G01 X85.010492 Y194.950373 Z-0.125000
G01 X89.685859 Y194.911532 Z-0.125000
G01 X98.186514 Y195.043321 Z-0.125000
G01 X105.305834 Y195.484804 Z-0.125000
G01 X109.768661 Y195.911550 Z-0.125000
G01 X114.231515 Y196.583062 Z-0.125000
G01 X120.713269 Y197.296166 Z-0.125000
G01 X138.139631 Y198.599184 Z-0.125000
G01 X145.683951 Y199.782161 Z-0.125000
G01 X147.596595 Y199.974195 Z-0.125000
G01 X149.296726 Y200.020233 Z-0.125000
G01 X150.678088 Y199.934005 Z-0.125000
G01 X151.953192 Y199.730356 Z-0.125000
G01 X153.228297 Y199.388938 Z-0.125000
G01 X154.488215 Y198.905598 Z-0.125000
G01 X156.583024 Y197.789401 Z-0.125000
G01 X160.590478 Y195.032658 Z-0.125000
G01 X160.878873 Y194.948732 Z-0.125000
G01 X161.410183 Y195.122722 Z-0.125000
G01 X162.791544 Y195.799473 Z-0.125000
G01 X164.051462 Y196.107897 Z-0.125000
G01 X165.873010 Y197.116964 Z-0.125000
G01 X167.148115 Y197.462535 Z-0.125000
G01 X168.423220 Y198.318594 Z-0.125000
G01 X169.060759 Y198.584500 Z-0.125000
G01 X169.789394 Y198.770396 Z-0.125000
G01 X171.155568 Y199.714401 Z-0.125000
G01 X172.248508 Y200.060132 Z-0.125000
G01 X172.886073 Y200.606205 Z-0.125000
G00 Z3.000000

(End cutting path id: polyline610)


(Start cutting path id: polyline608)
(Change tool to Default tool)

G00 Z3.000000
G00 X16.048917 Y193.201770

G00 Z4.875000 (Fast pre-penetrate)
G01 Z-0.125000 F400.0(Penetrate)
G01 X18.508031 Y192.059460 Z-0.125000 F800.000000
G01 X18.811614 Y192.013925 Z-0.125000
G01 X19.236666 Y192.076578 Z-0.125000
G01 X20.936797 Y192.903532 Z-0.125000
G01 X22.424415 Y193.343243 Z-0.125000
G01 X23.912033 Y194.155010 Z-0.125000
G01 X25.612164 Y194.742516 Z-0.125000
G01 X26.887242 Y195.497319 Z-0.125000
G01 X28.253417 Y196.005503 Z-0.125000
G01 X29.710687 Y196.851640 Z-0.125000
G01 X31.076861 Y197.414567 Z-0.125000
G01 X32.351966 Y198.193949 Z-0.125000
G01 X33.444906 Y198.659985 Z-0.125000
G01 X35.175384 Y199.701543 Z-0.125000
G01 X35.919206 Y199.959220 Z-0.125000
G01 X36.556746 Y200.052565 Z-0.125000
G01 X37.194311 Y200.024228 Z-0.125000
G01 X37.831851 Y199.874659 Z-0.125000
G01 X38.454229 Y199.615950 Z-0.125000
G01 X39.182838 Y199.182140 Z-0.125000
G01 X40.594573 Y198.010169 Z-0.125000
G01 X43.702603 Y194.781754 Z-0.125000
G01 X45.057401 Y193.572081 Z-0.125000
G01 X45.831570 Y193.036565 Z-0.125000
G01 X46.560206 Y192.661201 Z-0.125000
G01 X47.288841 Y192.421885 Z-0.125000
G01 X47.926380 Y192.327932 Z-0.125000
G01 X48.351406 Y192.400269 Z-0.125000
G01 X48.928250 Y192.624477 Z-0.125000
G01 X51.478433 Y194.076402 Z-0.125000
G01 X53.300008 Y195.191937 Z-0.125000
G01 X56.305591 Y197.237719 Z-0.125000
G01 X57.307461 Y197.814087 Z-0.125000
G01 X58.870988 Y198.432708 Z-0.125000
G01 X60.358606 Y198.685464 Z-0.125000
G01 X61.952480 Y198.621250 Z-0.125000
G01 X63.652611 Y198.249326 Z-0.125000
G01 X65.246486 Y197.711667 Z-0.125000
G01 X70.878161 Y195.536027 Z-0.125000
G01 X72.897062 Y194.936006 Z-0.125000
G01 X74.915963 Y194.482431 Z-0.125000
G01 X77.253659 Y194.122307 Z-0.125000
G01 X79.803842 Y193.886299 Z-0.125000
G01 X82.885335 Y193.745673 Z-0.125000
G01 X86.604366 Y193.697678 Z-0.125000
G01 X93.192377 Y193.833012 Z-0.125000
G01 X98.824079 Y194.247693 Z-0.125000
G01 X104.030729 Y194.927380 Z-0.125000
G01 X113.593976 Y196.499347 Z-0.125000
G01 X122.307143 Y197.441131 Z-0.125000
G01 X137.714579 Y198.564127 Z-0.125000
G01 X141.008584 Y198.694302 Z-0.125000
G01 X143.558794 Y198.657710 Z-0.125000
G01 X145.258925 Y198.520947 Z-0.125000
G01 X146.852799 Y198.280573 Z-0.125000
G01 X148.340417 Y197.937277 Z-0.125000
G01 X149.828035 Y197.463885 Z-0.125000
G01 X152.302336 Y196.378565 Z-0.125000
G01 X156.765163 Y193.805416 Z-0.125000
G01 X157.266098 Y193.674950 Z-0.125000
G01 X157.675964 Y193.737339 Z-0.125000
G01 X158.434947 Y194.133288 Z-0.125000
G01 X159.391256 Y194.499629 Z-0.125000
G01 X160.772617 Y194.758206 Z-0.125000
G01 X162.579004 Y195.718219 Z-0.125000
G01 X164.051462 Y196.107897 Z-0.125000
G01 X165.690871 Y197.039573 Z-0.125000
G01 X167.148115 Y197.462535 Z-0.125000
G01 X167.876750 Y197.998528 Z-0.125000
G01 X168.635733 Y198.420538 Z-0.125000
G01 X169.698324 Y198.719543 Z-0.125000
G01 X170.791264 Y199.509508 Z-0.125000
G01 X171.428803 Y199.839523 Z-0.125000
G01 X172.142251 Y200.034494 Z-0.125000
G01 X172.886073 Y200.021767 Z-0.125000
G00 Z3.000000

(End cutting path id: polyline608)


(Start cutting path id: polyline606)
(Change tool to Default tool)

G00 Z3.000000
G00 X16.048917 Y190.975754

G00 Z4.875000 (Fast pre-penetrate)
G01 Z-0.125000 F400.0(Penetrate)
G01 X17.642792 Y191.618744 Z-0.125000 F800.000000
G01 X19.236666 Y192.076578 Z-0.125000
G01 X21.149310 Y192.985077 Z-0.125000
G01 X22.424415 Y193.343243 Z-0.125000
G01 X23.912033 Y194.155010 Z-0.125000
G01 X25.612164 Y194.742516 Z-0.125000
G01 X26.887242 Y195.497319 Z-0.125000
G01 X28.253417 Y196.005503 Z-0.125000
G01 X29.710687 Y196.851640 Z-0.125000
G01 X31.167931 Y197.460657 Z-0.125000
G01 X32.625201 Y198.328172 Z-0.125000
G01 X33.475253 Y198.627045 Z-0.125000
G01 X34.219076 Y198.731396 Z-0.125000
G01 X34.856615 Y198.698958 Z-0.125000
G01 X35.600437 Y198.518857 Z-0.125000
G01 X36.268324 Y198.231308 Z-0.125000
G01 X36.996959 Y197.792523 Z-0.125000
G01 X38.442826 Y196.604995 Z-0.125000
G01 X41.409198 Y193.591554 Z-0.125000
G01 X42.746295 Y192.393257 Z-0.125000
G01 X44.207348 Y191.455073 Z-0.125000
G01 X44.951144 Y191.162523 Z-0.125000
G01 X45.482453 Y191.058542 Z-0.125000
G01 X46.104805 Y191.153183 Z-0.125000
G01 X47.288841 Y191.716507 Z-0.125000
G01 X51.478433 Y194.076402 Z-0.125000
G01 X54.575113 Y196.031353 Z-0.125000
G01 X55.576983 Y196.575706 Z-0.125000
G01 X57.064600 Y197.129187 Z-0.125000
G01 X58.658475 Y197.370487 Z-0.125000
G01 X60.252349 Y197.280740 Z-0.125000
G01 X61.952480 Y196.899503 Z-0.125000
G01 X63.546328 Y196.366580 Z-0.125000
G01 X68.965517 Y194.319236 Z-0.125000
G01 X70.878161 Y193.750727 Z-0.125000
G01 X72.897062 Y193.287865 Z-0.125000
G01 X75.128476 Y192.927980 Z-0.125000
G01 X77.572429 Y192.680780 Z-0.125000
G01 X80.441408 Y192.529121 Z-0.125000
G01 X83.735414 Y192.474802 Z-0.125000
G01 X90.004628 Y192.636303 Z-0.125000
G01 X92.873608 Y192.850377 Z-0.125000
G01 X95.530074 Y193.150309 Z-0.125000
G01 X99.992928 Y193.879658 Z-0.125000
G01 X110.512483 Y196.020479 Z-0.125000
G01 X113.700232 Y196.513688 Z-0.125000
G01 X116.994237 Y196.885744 Z-0.125000
G01 X121.138295 Y197.179379 Z-0.125000
G01 X125.919919 Y197.344293 Z-0.125000
G01 X130.914055 Y197.368185 Z-0.125000
G01 X135.164396 Y197.238169 Z-0.125000
G01 X137.714579 Y197.048648 Z-0.125000
G01 X139.946019 Y196.777371 Z-0.125000
G01 X142.071176 Y196.396742 Z-0.125000
G01 X143.983820 Y195.928801 Z-0.125000
G01 X145.683951 Y195.400614 Z-0.125000
G01 X147.384082 Y194.764794 Z-0.125000
G01 X152.302336 Y192.513087 Z-0.125000
G01 X153.015784 Y192.289514 Z-0.125000
G01 X153.304180 Y192.343860 Z-0.125000
G01 X154.184606 Y192.758673 Z-0.125000
G01 X155.247198 Y193.126046 Z-0.125000
G01 X157.053585 Y193.465163 Z-0.125000
G01 X158.541203 Y194.180489 Z-0.125000
G01 X159.391256 Y194.499629 Z-0.125000
G01 X160.772617 Y194.758206 Z-0.125000
G01 X162.579004 Y195.718219 Z-0.125000
G01 X164.051462 Y196.107897 Z-0.125000
G01 X165.781940 Y197.079419 Z-0.125000
G01 X167.148115 Y197.462535 Z-0.125000
G01 X168.241054 Y198.221015 Z-0.125000
G01 X169.273272 Y198.644533 Z-0.125000
G01 X170.229607 Y198.722877 Z-0.125000
G01 X171.064499 Y198.515734 Z-0.125000
G01 X171.975273 Y197.990352 Z-0.125000
G01 X172.886073 Y197.171256 Z-0.125000
G00 Z3.000000

(End cutting path id: polyline606)


(Start cutting path id: polyline604)
(Change tool to Default tool)

G00 Z3.000000
G00 X16.048917 Y190.975754

G00 Z4.875000 (Fast pre-penetrate)
G01 Z-0.125000 F400.0(Penetrate)
G01 X17.642792 Y191.618744 Z-0.125000 F800.000000
G01 X19.236666 Y192.076578 Z-0.125000
G01 X21.149310 Y192.985077 Z-0.125000
G01 X22.424415 Y193.343243 Z-0.125000
G01 X23.912033 Y194.155010 Z-0.125000
G01 X25.612164 Y194.742516 Z-0.125000
G01 X26.887242 Y195.497319 Z-0.125000
G01 X28.253417 Y196.005503 Z-0.125000
G01 X30.181248 Y197.066243 Z-0.125000
G01 X31.031327 Y197.327016 Z-0.125000
G01 X31.775122 Y197.410492 Z-0.125000
G01 X32.412688 Y197.369640 Z-0.125000
G01 X33.156484 Y197.190332 Z-0.125000
G01 X33.900306 Y196.873891 Z-0.125000
G01 X34.628915 Y196.440822 Z-0.125000
G01 X36.131720 Y195.231069 Z-0.125000
G01 X39.160084 Y192.230777 Z-0.125000
G01 X40.457943 Y191.092991 Z-0.125000
G01 X41.915213 Y190.161315 Z-0.125000
G01 X42.613474 Y189.871702 Z-0.125000
G01 X43.144757 Y189.786692 Z-0.125000
G01 X43.554622 Y189.848736 Z-0.125000
G01 X44.738631 Y190.374410 Z-0.125000
G01 X46.013736 Y191.122386 Z-0.125000
G01 X47.288841 Y191.716507 Z-0.125000
G01 X53.573243 Y195.290150 Z-0.125000
G01 X55.151930 Y195.846118 Z-0.125000
G01 X56.745804 Y196.052229 Z-0.125000
G01 X58.339679 Y195.937294 Z-0.125000
G01 X60.039810 Y195.540631 Z-0.125000
G01 X66.309051 Y193.225106 Z-0.125000
G01 X69.496800 Y192.286948 Z-0.125000
G01 X72.790805 Y191.673724 Z-0.125000
G01 X76.616094 Y191.318786 Z-0.125000
G01 X80.122639 Y191.205412 Z-0.125000
G01 X83.947927 Y191.231288 Z-0.125000
G01 X87.454445 Y191.390647 Z-0.125000
G01 X90.642194 Y191.683143 Z-0.125000
G01 X93.298634 Y192.058930 Z-0.125000
G01 X95.955100 Y192.559521 Z-0.125000
G01 X104.774525 Y194.685631 Z-0.125000
G01 X108.387326 Y195.404715 Z-0.125000
G01 X112.637640 Y195.911312 Z-0.125000
G01 X117.100494 Y196.053472 Z-0.125000
G01 X121.138295 Y195.935759 Z-0.125000
G01 X125.919919 Y195.611883 Z-0.125000
G01 X130.382772 Y195.161060 Z-0.125000
G01 X134.314317 Y194.602367 Z-0.125000
G01 X137.289553 Y194.032137 Z-0.125000
G01 X140.158532 Y193.328188 Z-0.125000
G01 X143.240024 Y192.394104 Z-0.125000
G01 X147.171569 Y191.018802 Z-0.125000
G01 X147.702852 Y190.942205 Z-0.125000
G01 X148.127904 Y191.005890 Z-0.125000
G01 X150.571831 Y191.804269 Z-0.125000
G01 X152.803245 Y192.183284 Z-0.125000
G01 X154.397119 Y192.841011 Z-0.125000
G01 X155.459711 Y193.185128 Z-0.125000
G01 X157.053585 Y193.465163 Z-0.125000
G01 X159.178742 Y194.429912 Z-0.125000
G01 X160.863713 Y194.795195 Z-0.125000
G01 X162.685261 Y195.759997 Z-0.125000
G01 X164.051462 Y196.107897 Z-0.125000
G01 X165.235471 Y196.811053 Z-0.125000
G01 X165.979266 Y197.158159 Z-0.125000
G01 X166.723089 Y197.362946 Z-0.125000
G01 X167.360628 Y197.410016 Z-0.125000
G01 X167.998193 Y197.328842 Z-0.125000
G01 X168.605385 Y197.127520 Z-0.125000
G01 X169.242924 Y196.785097 Z-0.125000
G01 X169.857709 Y196.331470 Z-0.125000
G01 X171.185942 Y194.983022 Z-0.125000
G01 X172.886073 Y192.756424 Z-0.125000
G00 Z3.000000

(End cutting path id: polyline604)


(Start cutting path id: polyline602)
(Change tool to Default tool)

G00 Z3.000000
G00 X16.048917 Y190.975754

G00 Z4.875000 (Fast pre-penetrate)
G01 Z-0.125000 F400.0(Penetrate)
G01 X17.642792 Y191.618744 Z-0.125000 F800.000000
G01 X19.236666 Y192.076578 Z-0.125000
G01 X21.149310 Y192.985077 Z-0.125000
G01 X22.424415 Y193.343243 Z-0.125000
G01 X24.018290 Y194.203243 Z-0.125000
G01 X25.612164 Y194.742516 Z-0.125000
G01 X26.522938 Y195.307533 Z-0.125000
G01 X27.418552 Y195.731237 Z-0.125000
G01 X28.374860 Y196.009498 Z-0.125000
G01 X29.224939 Y196.088159 Z-0.125000
G01 X29.968735 Y196.018653 Z-0.125000
G01 X30.712557 Y195.818972 Z-0.125000
G01 X31.441166 Y195.500917 Z-0.125000
G01 X32.169801 Y195.070176 Z-0.125000
G01 X33.740895 Y193.825339 Z-0.125000
G01 X36.769259 Y190.894765 Z-0.125000
G01 X38.044364 Y189.797645 Z-0.125000
G01 X39.456073 Y188.890999 Z-0.125000
G01 X40.169521 Y188.583553 Z-0.125000
G01 X40.594573 Y188.517196 Z-0.125000
G01 X41.004412 Y188.573076 Z-0.125000
G01 X42.188448 Y189.089806 Z-0.125000
G01 X43.645692 Y189.913533 Z-0.125000
G01 X44.738631 Y190.374410 Z-0.125000
G01 X51.432898 Y194.017374 Z-0.125000
G01 X53.026773 Y194.552017 Z-0.125000
G01 X54.620647 Y194.731192 Z-0.125000
G01 X56.108265 Y194.610251 Z-0.125000
G01 X57.808396 Y194.207794 Z-0.125000
G01 X64.077637 Y191.867028 Z-0.125000
G01 X67.159130 Y190.949375 Z-0.125000
G01 X70.346879 Y190.341972 Z-0.125000
G01 X73.959654 Y189.989468 Z-0.125000
G01 X77.572429 Y189.862495 Z-0.125000
G01 X81.503973 Y189.887683 Z-0.125000
G01 X85.010492 Y190.054873 Z-0.125000
G01 X88.198241 Y190.370944 Z-0.125000
G01 X90.748451 Y190.767580 Z-0.125000
G01 X93.404917 Y191.325930 Z-0.125000
G01 X101.268006 Y193.463496 Z-0.125000
G01 X104.136985 Y194.126514 Z-0.125000
G01 X107.324734 Y194.594985 Z-0.125000
G01 X110.512483 Y194.730240 Z-0.125000
G01 X112.637640 Y194.648219 Z-0.125000
G01 X114.975337 Y194.431473 Z-0.125000
G01 X120.925782 Y193.532023 Z-0.125000
G01 X131.339081 Y191.588899 Z-0.125000
G01 X141.008584 Y189.451200 Z-0.125000
G01 X144.727642 Y190.433359 Z-0.125000
G01 X147.490339 Y190.807506 Z-0.125000
G01 X150.678088 Y191.829431 Z-0.125000
G01 X152.696988 Y192.152937 Z-0.125000
G01 X155.140941 Y193.094614 Z-0.125000
G01 X157.053585 Y193.465163 Z-0.125000
G01 X159.284999 Y194.465710 Z-0.125000
G01 X160.772617 Y194.758206 Z-0.125000
G01 X162.047722 Y195.476126 Z-0.125000
G01 X162.897800 Y195.836858 Z-0.125000
G01 X163.641596 Y196.028840 Z-0.125000
G01 X164.385392 Y196.087762 Z-0.125000
G01 X165.129214 Y196.000608 Z-0.125000
G01 X165.964106 Y195.719119 Z-0.125000
G01 X166.692714 Y195.312878 Z-0.125000
G01 X167.466884 Y194.723043 Z-0.125000
G01 X169.060759 Y193.069293 Z-0.125000
G01 X171.610968 Y189.815055 Z-0.125000
G01 X171.823482 Y189.774706 Z-0.125000
G01 X172.142251 Y189.890937 Z-0.125000
G01 X172.886073 Y190.436375 Z-0.125000
G00 Z3.000000

(End cutting path id: polyline602)


(Start cutting path id: polyline594)
(Change tool to Default tool)

G00 Z3.000000
G00 X16.048917 Y190.742392

G00 Z4.875000 (Fast pre-penetrate)
G01 Z-0.125000 F400.0(Penetrate)
G01 X17.324022 Y190.790519 Z-0.125000 F800.000000
G01 X18.492844 Y190.654233 Z-0.125000
G01 X19.661692 Y190.326388 Z-0.125000
G01 X20.876075 Y189.777828 Z-0.125000
G01 X21.877945 Y189.174552 Z-0.125000
G01 X22.970885 Y188.383158 Z-0.125000
G01 X27.615878 Y184.537127 Z-0.125000
G01 X28.890982 Y183.745865 Z-0.125000
G01 X30.074991 Y183.261784 Z-0.125000
G01 X31.881379 Y183.964807 Z-0.125000
G01 X33.171671 Y184.708444 Z-0.125000
G01 X34.537845 Y185.274255 Z-0.125000
G01 X36.025463 Y186.124836 Z-0.125000
G01 X37.088028 Y186.532823 Z-0.125000
G01 X38.272064 Y187.236614 Z-0.125000
G01 X39.638238 Y187.812188 Z-0.125000
G01 X41.459813 Y188.808422 Z-0.125000
G01 X42.719730 Y189.243344 Z-0.125000
G01 X43.994835 Y189.431542 Z-0.125000
G01 X45.482453 Y189.346081 Z-0.125000
G01 X47.182584 Y188.913885 Z-0.125000
G01 X48.776459 Y188.286003 Z-0.125000
G01 X53.664339 Y186.068798 Z-0.125000
G01 X55.364469 Y185.458352 Z-0.125000
G01 X56.958344 Y185.016419 Z-0.125000
G01 X58.764731 Y184.664814 Z-0.125000
G01 X60.677376 Y184.440078 Z-0.125000
G01 X62.802533 Y184.321201 Z-0.125000
G01 X65.458999 Y184.285641 Z-0.125000
G01 X77.678685 Y184.307760 Z-0.125000
G01 X80.335152 Y184.435580 Z-0.125000
G01 X82.566565 Y184.689103 Z-0.125000
G01 X84.797979 Y185.125797 Z-0.125000
G01 X87.029419 Y185.767596 Z-0.125000
G01 X89.048320 Y186.507344 Z-0.125000
G01 X93.404917 Y188.290792 Z-0.125000
G01 X95.423817 Y188.961933 Z-0.125000
G01 X97.548974 Y189.377249 Z-0.125000
G01 X99.567875 Y189.403655 Z-0.125000
G01 X101.480519 Y189.070412 Z-0.125000
G01 X103.499446 Y188.377231 Z-0.125000
G01 X105.396903 Y187.490905 Z-0.125000
G01 X109.768661 Y185.203453 Z-0.125000
G01 X112.106358 Y184.186581 Z-0.125000
G01 X114.125258 Y183.554968 Z-0.125000
G01 X116.144159 Y183.182356 Z-0.125000
G01 X116.781724 Y183.314118 Z-0.125000
G01 X117.950546 Y183.774413 Z-0.125000
G01 X120.288243 Y184.833486 Z-0.125000
G01 X121.882117 Y185.276689 Z-0.125000
G01 X123.582248 Y185.920499 Z-0.125000
G01 X125.069866 Y186.352801 Z-0.125000
G01 X127.088767 Y186.725202 Z-0.125000
G01 X129.213924 Y187.339299 Z-0.125000
G01 X130.807798 Y187.705826 Z-0.125000
G01 X133.995547 Y188.127386 Z-0.125000
G01 X136.226961 Y188.725370 Z-0.125000
G01 X138.245888 Y189.139892 Z-0.125000
G01 X141.114841 Y189.469589 Z-0.125000
G01 X143.558794 Y190.158669 Z-0.125000
G01 X145.258925 Y190.537075 Z-0.125000
G01 X147.596595 Y190.791895 Z-0.125000
G01 X149.084213 Y190.740275 Z-0.125000
G01 X150.465574 Y190.509321 Z-0.125000
G01 X151.846936 Y190.080881 Z-0.125000
G01 X153.122041 Y189.500201 Z-0.125000
G01 X154.397119 Y188.742991 Z-0.125000
G01 X155.672224 Y187.824200 Z-0.125000
G01 X157.425483 Y186.357299 Z-0.125000
G01 X159.338127 Y184.588191 Z-0.125000
G01 X159.603795 Y184.489052 Z-0.125000
G01 X161.622696 Y185.457611 Z-0.125000
G01 X163.322827 Y185.862079 Z-0.125000
G01 X164.233601 Y186.444929 Z-0.125000
G01 X165.022958 Y186.818123 Z-0.125000
G01 X166.510576 Y187.201927 Z-0.125000
G01 X167.694584 Y187.972234 Z-0.125000
G01 X168.316963 Y188.240177 Z-0.125000
G01 X169.242924 Y188.494812 Z-0.125000
G01 X170.791264 Y189.428049 Z-0.125000
G01 X172.248508 Y189.944436 Z-0.125000
G01 X172.886073 Y190.436375 Z-0.125000
G00 Z3.000000

(End cutting path id: polyline594)


(Start cutting path id: polyline600)
(Change tool to Default tool)

G00 Z3.000000
G00 X16.048917 Y190.975754

G00 Z4.875000 (Fast pre-penetrate)
G01 Z-0.125000 F400.0(Penetrate)
G01 X17.642792 Y191.618744 Z-0.125000 F800.000000
G01 X19.236666 Y192.076578 Z-0.125000
G01 X21.149310 Y192.985077 Z-0.125000
G01 X22.424415 Y193.343243 Z-0.125000
G01 X23.608424 Y194.008590 Z-0.125000
G01 X24.655829 Y194.454544 Z-0.125000
G01 X25.930934 Y194.740585 Z-0.125000
G01 X27.206039 Y194.699442 Z-0.125000
G01 X28.481117 Y194.311987 Z-0.125000
G01 X29.801756 Y193.564963 Z-0.125000
G01 X31.270404 Y192.399713 Z-0.125000
G01 X34.219076 Y189.612517 Z-0.125000
G01 X35.494180 Y188.528679 Z-0.125000
G01 X36.905889 Y187.615841 Z-0.125000
G01 X37.619337 Y187.294822 Z-0.125000
G01 X38.044364 Y187.241615 Z-0.125000
G01 X38.454229 Y187.311703 Z-0.125000
G01 X39.638238 Y187.812188 Z-0.125000
G01 X41.004412 Y188.592443 Z-0.125000
G01 X42.188448 Y189.089806 Z-0.125000
G01 X43.645692 Y189.913533 Z-0.125000
G01 X44.738631 Y190.374410 Z-0.125000
G01 X45.922666 Y191.074232 Z-0.125000
G01 X47.288841 Y191.716507 Z-0.125000
G01 X49.019319 Y192.686706 Z-0.125000
G01 X50.264050 Y193.140043 Z-0.125000
G01 X51.539155 Y193.375072 Z-0.125000
G01 X53.239286 Y193.348534 Z-0.125000
G01 X55.045673 Y192.972959 Z-0.125000
G01 X56.745804 Y192.400745 Z-0.125000
G01 X62.164993 Y190.288579 Z-0.125000
G01 X64.183894 Y189.673953 Z-0.125000
G01 X66.096538 Y189.230353 Z-0.125000
G01 X68.221695 Y188.883961 Z-0.125000
G01 X70.665648 Y188.638454 Z-0.125000
G01 X73.428345 Y188.498358 Z-0.125000
G01 X76.616094 Y188.451764 Z-0.125000
G01 X82.566565 Y188.629749 Z-0.125000
G01 X85.010492 Y188.845755 Z-0.125000
G01 X87.348189 Y189.168493 Z-0.125000
G01 X89.473346 Y189.576348 Z-0.125000
G01 X91.598503 Y190.094243 Z-0.125000
G01 X98.505310 Y192.185401 Z-0.125000
G01 X101.055493 Y192.843498 Z-0.125000
G01 X103.818216 Y193.295036 Z-0.125000
G01 X106.580939 Y193.400922 Z-0.125000
G01 X109.024865 Y193.205554 Z-0.125000
G01 X111.681331 Y192.740893 Z-0.125000
G01 X123.901018 Y189.589948 Z-0.125000
G01 X128.257615 Y188.656605 Z-0.125000
G01 X132.189160 Y187.962894 Z-0.125000
G01 X133.995547 Y188.127386 Z-0.125000
G01 X137.502066 Y189.003129 Z-0.125000
G01 X139.308453 Y189.298853 Z-0.125000
G01 X141.114841 Y189.469589 Z-0.125000
G01 X144.727642 Y190.433359 Z-0.125000
G01 X147.490339 Y190.807506 Z-0.125000
G01 X150.359318 Y191.751194 Z-0.125000
G01 X152.803245 Y192.183284 Z-0.125000
G01 X155.353454 Y193.156262 Z-0.125000
G01 X156.947329 Y193.431719 Z-0.125000
G01 X158.541203 Y194.180489 Z-0.125000
G01 X159.497539 Y194.531538 Z-0.125000
G01 X160.347591 Y194.716746 Z-0.125000
G01 X161.091386 Y194.764927 Z-0.125000
G01 X161.941465 Y194.675154 Z-0.125000
G01 X162.791544 Y194.420122 Z-0.125000
G01 X163.596061 Y194.022533 Z-0.125000
G01 X164.506836 Y193.392852 Z-0.125000
G01 X166.156378 Y191.826362 Z-0.125000
G01 X168.848246 Y188.581886 Z-0.125000
G01 X169.060759 Y188.418877 Z-0.125000
G01 X169.333994 Y188.477852 Z-0.125000
G01 X170.791264 Y189.428049 Z-0.125000
G01 X172.248508 Y189.944436 Z-0.125000
G01 X172.886073 Y190.436375 Z-0.125000
G00 Z3.000000

(End cutting path id: polyline600)


(Start cutting path id: polyline598)
(Change tool to Default tool)

G00 Z3.000000
G00 X16.048917 Y190.975754

G00 Z4.875000 (Fast pre-penetrate)
G01 Z-0.125000 F400.0(Penetrate)
G01 X17.642792 Y191.618744 Z-0.125000 F800.000000
G01 X19.236666 Y192.076578 Z-0.125000
G01 X20.618028 Y192.770606 Z-0.125000
G01 X21.893106 Y193.223069 Z-0.125000
G01 X23.380724 Y193.441429 Z-0.125000
G01 X24.124546 Y193.404203 Z-0.125000
G01 X24.868342 Y193.262227 Z-0.125000
G01 X26.067538 Y192.811140 Z-0.125000
G01 X27.342643 Y192.049723 Z-0.125000
G01 X28.799886 Y190.893469 Z-0.125000
G01 X31.589173 Y188.321510 Z-0.125000
G01 X32.807340 Y187.297759 Z-0.125000
G01 X34.173541 Y186.393176 Z-0.125000
G01 X34.962871 Y186.011066 Z-0.125000
G01 X35.281641 Y185.943068 Z-0.125000
G01 X35.812950 Y186.022099 Z-0.125000
G01 X37.088028 Y186.532823 Z-0.125000
G01 X38.363133 Y187.283657 Z-0.125000
G01 X39.638238 Y187.812188 Z-0.125000
G01 X40.913343 Y188.545850 Z-0.125000
G01 X42.188448 Y189.089806 Z-0.125000
G01 X43.463526 Y189.820479 Z-0.125000
G01 X44.738631 Y190.374410 Z-0.125000
G01 X46.651275 Y191.428164 Z-0.125000
G01 X48.032636 Y191.893116 Z-0.125000
G01 X49.413998 Y192.080309 Z-0.125000
G01 X50.901616 Y191.993420 Z-0.125000
G01 X52.601747 Y191.598133 Z-0.125000
G01 X54.195621 Y191.032507 Z-0.125000
G01 X59.508527 Y188.873854 Z-0.125000
G01 X61.421171 Y188.266398 Z-0.125000
G01 X63.333815 Y187.804727 Z-0.125000
G01 X65.458999 Y187.450609 Z-0.125000
G01 X67.902926 Y187.207272 Z-0.125000
G01 X70.771905 Y187.070615 Z-0.125000
G01 X74.278423 Y187.023995 Z-0.125000
G01 X80.653921 Y187.179544 Z-0.125000
G01 X83.204104 Y187.393062 Z-0.125000
G01 X85.435545 Y187.701195 Z-0.125000
G01 X87.560702 Y188.122808 Z-0.125000
G01 X89.685859 Y188.674861 Z-0.125000
G01 X96.380126 Y190.896961 Z-0.125000
G01 X98.824079 Y191.582469 Z-0.125000
G01 X100.205441 Y191.857900 Z-0.125000
G01 X101.586776 Y192.029297 Z-0.125000
G01 X102.861880 Y192.085415 Z-0.125000
G01 X104.136985 Y192.040118 Z-0.125000
G01 X105.943373 Y191.808000 Z-0.125000
G01 X107.962273 Y191.344450 Z-0.125000
G01 X110.193714 Y190.646613 Z-0.125000
G01 X115.719133 Y188.631628 Z-0.125000
G01 X118.588112 Y187.695719 Z-0.125000
G01 X121.882117 Y186.841724 Z-0.125000
G01 X124.751097 Y186.337270 Z-0.125000
G01 X127.088767 Y186.725202 Z-0.125000
G01 X129.213924 Y187.339299 Z-0.125000
G01 X130.807798 Y187.705826 Z-0.125000
G01 X133.995547 Y188.127386 Z-0.125000
G01 X137.502066 Y189.003129 Z-0.125000
G01 X139.308453 Y189.298853 Z-0.125000
G01 X141.114841 Y189.469589 Z-0.125000
G01 X144.727642 Y190.433359 Z-0.125000
G01 X147.490339 Y190.807506 Z-0.125000
G01 X150.040548 Y191.665125 Z-0.125000
G01 X151.209397 Y191.941720 Z-0.125000
G01 X152.696988 Y192.152937 Z-0.125000
G01 X155.034685 Y193.062044 Z-0.125000
G01 X156.734816 Y193.415897 Z-0.125000
G01 X157.797381 Y193.422723 Z-0.125000
G01 X158.859973 Y193.235875 Z-0.125000
G01 X159.861843 Y192.868131 Z-0.125000
G01 X160.863713 Y192.310840 Z-0.125000
G01 X161.728952 Y191.682323 Z-0.125000
G01 X162.685261 Y190.845420 Z-0.125000
G01 X164.031221 Y189.470700 Z-0.125000
G01 X165.731352 Y187.551071 Z-0.125000
G01 X166.298062 Y187.208542 Z-0.125000
G01 X166.601645 Y187.231984 Z-0.125000
G01 X167.148115 Y187.655899 Z-0.125000
G01 X167.998193 Y188.115479 Z-0.125000
G01 X169.333994 Y188.538839 Z-0.125000
G01 X170.791264 Y189.428049 Z-0.125000
G01 X172.142251 Y189.889747 Z-0.125000
G01 X172.886073 Y190.436375 Z-0.125000
G00 Z3.000000

(End cutting path id: polyline598)


(Start cutting path id: polyline596)
(Change tool to Default tool)

G00 Z3.000000
G00 X16.048917 Y190.975754

G00 Z4.875000 (Fast pre-penetrate)
G01 Z-0.125000 F400.0(Penetrate)
G01 X17.961561 Y191.722487 Z-0.125000 F800.000000
G01 X19.661692 Y192.083034 Z-0.125000
G01 X21.149310 Y192.070651 Z-0.125000
G01 X22.636928 Y191.700129 Z-0.125000
G01 X23.881659 Y191.108231 Z-0.125000
G01 X25.213676 Y190.218094 Z-0.125000
G01 X29.278067 Y186.686705 Z-0.125000
G01 X30.530392 Y185.709097 Z-0.125000
G01 X31.714401 Y184.990543 Z-0.125000
G01 X32.412688 Y184.665423 Z-0.125000
G01 X32.731458 Y184.614253 Z-0.125000
G01 X33.262740 Y184.753529 Z-0.125000
G01 X34.537845 Y185.274255 Z-0.125000
G01 X35.721854 Y185.976035 Z-0.125000
G01 X37.088028 Y186.532823 Z-0.125000
G01 X38.363133 Y187.283657 Z-0.125000
G01 X39.638238 Y187.812188 Z-0.125000
G01 X40.913343 Y188.545850 Z-0.125000
G01 X42.188448 Y189.089806 Z-0.125000
G01 X44.101092 Y190.126522 Z-0.125000
G01 X45.376197 Y190.561549 Z-0.125000
G01 X46.757532 Y190.757076 Z-0.125000
G01 X48.245149 Y190.666351 Z-0.125000
G01 X49.945280 Y190.250479 Z-0.125000
G01 X51.539155 Y189.654056 Z-0.125000
G01 X56.745804 Y187.430342 Z-0.125000
G01 X58.658475 Y186.799417 Z-0.125000
G01 X60.571119 Y186.329941 Z-0.125000
G01 X62.696276 Y185.983205 Z-0.125000
G01 X65.140203 Y185.761590 Z-0.125000
G01 X72.047010 Y185.620594 Z-0.125000
G01 X79.378816 Y185.742064 Z-0.125000
G01 X81.929026 Y185.940078 Z-0.125000
G01 X84.160440 Y186.250990 Z-0.125000
G01 X86.179340 Y186.671333 Z-0.125000
G01 X88.304497 Y187.265030 Z-0.125000
G01 X94.679995 Y189.585159 Z-0.125000
G01 X96.911435 Y190.270402 Z-0.125000
G01 X99.355362 Y190.705721 Z-0.125000
G01 X101.586776 Y190.721437 Z-0.125000
G01 X103.605703 Y190.402588 Z-0.125000
G01 X105.837116 Y189.727822 Z-0.125000
G01 X107.856017 Y188.910075 Z-0.125000
G01 X112.637640 Y186.763249 Z-0.125000
G01 X115.294106 Y185.756166 Z-0.125000
G01 X117.631777 Y185.092195 Z-0.125000
G01 X119.756934 Y184.705745 Z-0.125000
G01 X120.075730 Y184.739030 Z-0.125000
G01 X121.882117 Y185.276689 Z-0.125000
G01 X124.538557 Y186.214636 Z-0.125000
G01 X127.088767 Y186.725202 Z-0.125000
G01 X130.064003 Y187.547870 Z-0.125000
G01 X131.976647 Y187.906935 Z-0.125000
G01 X133.995547 Y188.127386 Z-0.125000
G01 X136.120704 Y188.699943 Z-0.125000
G01 X138.139631 Y189.121583 Z-0.125000
G01 X141.114841 Y189.469589 Z-0.125000
G01 X144.727642 Y190.433359 Z-0.125000
G01 X147.490339 Y190.807506 Z-0.125000
G01 X150.146805 Y191.694600 Z-0.125000
G01 X152.059449 Y192.067688 Z-0.125000
G01 X153.334554 Y192.113196 Z-0.125000
G01 X154.609659 Y191.958283 Z-0.125000
G01 X155.778480 Y191.618823 Z-0.125000
G01 X157.038398 Y191.029120 Z-0.125000
G01 X158.040268 Y190.395682 Z-0.125000
G01 X159.099050 Y189.580476 Z-0.125000
G01 X160.533540 Y188.280923 Z-0.125000
G01 X162.543603 Y186.242417 Z-0.125000
G01 X162.958496 Y185.949709 Z-0.125000
G01 X163.231731 Y185.860280 Z-0.125000
G01 X163.504992 Y185.935368 Z-0.125000
G01 X163.960366 Y186.286073 Z-0.125000
G01 X164.810445 Y186.730731 Z-0.125000
G01 X166.510576 Y187.201927 Z-0.125000
G01 X167.891937 Y188.067934 Z-0.125000
G01 X169.242924 Y188.494812 Z-0.125000
G01 X170.791264 Y189.428049 Z-0.125000
G01 X172.248508 Y189.944436 Z-0.125000
G01 X172.886073 Y190.436375 Z-0.125000
G00 Z3.000000

(End cutting path id: polyline596)


(Start cutting path id: polyline592)
(Change tool to Default tool)

G00 Z3.000000
G00 X16.048917 Y189.103697

G00 Z4.875000 (Fast pre-penetrate)
G01 Z-0.125000 F400.0(Penetrate)
G01 X17.506161 Y188.549845 Z-0.125000 F800.000000
G01 X18.963431 Y187.742232 Z-0.125000
G01 X20.591464 Y186.586825 Z-0.125000
G01 X24.792433 Y183.248872 Z-0.125000
G01 X26.067538 Y182.470337 Z-0.125000
G01 X27.418552 Y181.903441 Z-0.125000
G01 X27.706947 Y181.945113 Z-0.125000
G01 X29.255287 Y182.657450 Z-0.125000
G01 X30.621461 Y183.430852 Z-0.125000
G01 X31.987635 Y184.017009 Z-0.125000
G01 X33.171671 Y184.708444 Z-0.125000
G01 X34.537845 Y185.274255 Z-0.125000
G01 X35.812950 Y186.022099 Z-0.125000
G01 X37.088028 Y186.532823 Z-0.125000
G01 X38.727464 Y187.459949 Z-0.125000
G01 X39.850751 Y187.875344 Z-0.125000
G01 X41.019599 Y188.091429 Z-0.125000
G01 X42.507217 Y188.053594 Z-0.125000
G01 X44.101092 Y187.676880 Z-0.125000
G01 X45.694966 Y187.048072 Z-0.125000
G01 X49.656885 Y185.114579 Z-0.125000
G01 X51.539155 Y184.314374 Z-0.125000
G01 X53.664339 Y183.638471 Z-0.125000
G01 X55.789496 Y183.218075 Z-0.125000
G01 X57.489627 Y183.040698 Z-0.125000
G01 X59.402271 Y182.966324 Z-0.125000
G01 X68.646748 Y183.136001 Z-0.125000
G01 X77.359916 Y182.962726 Z-0.125000
G01 X79.378816 Y183.008366 Z-0.125000
G01 X81.078947 Y183.141346 Z-0.125000
G01 X82.672822 Y183.371930 Z-0.125000
G01 X84.266696 Y183.723402 Z-0.125000
G01 X87.241932 Y184.715403 Z-0.125000
G01 X91.917299 Y186.788622 Z-0.125000
G01 X93.617430 Y187.452276 Z-0.125000
G01 X95.530074 Y187.961386 Z-0.125000
G01 X97.230205 Y188.116776 Z-0.125000
G01 X99.036592 Y187.925562 Z-0.125000
G01 X100.842980 Y187.372583 Z-0.125000
G01 X102.846720 Y186.415190 Z-0.125000
G01 X107.036312 Y183.945625 Z-0.125000
G01 X109.040052 Y182.919863 Z-0.125000
G01 X111.256279 Y182.124580 Z-0.125000
G01 X112.318871 Y181.895107 Z-0.125000
G01 X113.487719 Y181.752179 Z-0.125000
G01 X114.019002 Y181.815785 Z-0.125000
G01 X114.413680 Y181.956993 Z-0.125000
G01 X116.599559 Y183.226012 Z-0.125000
G01 X118.056803 Y183.818122 Z-0.125000
G01 X119.756934 Y184.632615 Z-0.125000
G01 X120.819526 Y185.007846 Z-0.125000
G01 X121.882117 Y185.276689 Z-0.125000
G01 X124.538557 Y186.214636 Z-0.125000
G01 X127.088767 Y186.725202 Z-0.125000
G01 X130.382772 Y187.618381 Z-0.125000
G01 X132.082903 Y187.922307 Z-0.125000
G01 X133.995547 Y188.127386 Z-0.125000
G01 X137.608322 Y189.023872 Z-0.125000
G01 X139.520966 Y189.325100 Z-0.125000
G01 X141.327380 Y189.464085 Z-0.125000
G01 X143.133768 Y189.430431 Z-0.125000
G01 X144.833899 Y189.211991 Z-0.125000
G01 X146.534030 Y188.787018 Z-0.125000
G01 X148.112717 Y188.191759 Z-0.125000
G01 X149.569961 Y187.467092 Z-0.125000
G01 X151.118301 Y186.522716 Z-0.125000
G01 X152.939875 Y185.222238 Z-0.125000
G01 X155.398989 Y183.278320 Z-0.125000
G01 X155.778480 Y183.128196 Z-0.125000
G01 X157.903664 Y184.096808 Z-0.125000
G01 X159.816308 Y184.567316 Z-0.125000
G01 X161.728952 Y185.496346 Z-0.125000
G01 X163.322827 Y185.862079 Z-0.125000
G01 X164.233601 Y186.444929 Z-0.125000
G01 X165.022958 Y186.818123 Z-0.125000
G01 X166.510576 Y187.201927 Z-0.125000
G01 X167.694584 Y187.972234 Z-0.125000
G01 X168.316963 Y188.240177 Z-0.125000
G01 X169.242924 Y188.494812 Z-0.125000
G01 X170.791264 Y189.428049 Z-0.125000
G01 X172.248508 Y189.944436 Z-0.125000
G01 X172.886073 Y190.436375 Z-0.125000
G00 Z3.000000

(End cutting path id: polyline592)


(Start cutting path id: polyline590)
(Change tool to Default tool)

G00 Z3.000000
G00 X16.048917 Y186.242364

G00 Z4.875000 (Fast pre-penetrate)
G01 Z-0.125000 F400.0(Penetrate)
G01 X17.597257 Y185.202474 Z-0.125000 F800.000000
G01 X22.151180 Y181.796153 Z-0.125000
G01 X23.517355 Y181.031746 Z-0.125000
G01 X24.868342 Y180.543590 Z-0.125000
G01 X25.156764 Y180.606164 Z-0.125000
G01 X26.431869 Y181.226188 Z-0.125000
G01 X27.889112 Y182.049703 Z-0.125000
G01 X29.437452 Y182.750874 Z-0.125000
G01 X30.530392 Y183.385423 Z-0.125000
G01 X31.987635 Y184.017009 Z-0.125000
G01 X33.262740 Y184.753529 Z-0.125000
G01 X34.537845 Y185.274255 Z-0.125000
G01 X36.025463 Y186.124836 Z-0.125000
G01 X37.194311 Y186.563383 Z-0.125000
G01 X38.363133 Y186.773991 Z-0.125000
G01 X39.744495 Y186.731314 Z-0.125000
G01 X41.338369 Y186.337746 Z-0.125000
G01 X42.917056 Y185.680787 Z-0.125000
G01 X46.651275 Y183.752400 Z-0.125000
G01 X48.563919 Y182.891024 Z-0.125000
G01 X50.582846 Y182.222211 Z-0.125000
G01 X52.708003 Y181.807741 Z-0.125000
G01 X54.408134 Y181.663491 Z-0.125000
G01 X56.320778 Y181.649256 Z-0.125000
G01 X63.758868 Y182.088702 Z-0.125000
G01 X67.371643 Y182.162574 Z-0.125000
G01 X70.240622 Y182.082828 Z-0.125000
G01 X76.084811 Y181.711618 Z-0.125000
G01 X78.422481 Y181.639758 Z-0.125000
G01 X81.397717 Y181.816102 Z-0.125000
G01 X82.779078 Y182.049253 Z-0.125000
G01 X84.054183 Y182.365906 Z-0.125000
G01 X86.710649 Y183.336714 Z-0.125000
G01 X91.188664 Y185.499362 Z-0.125000
G01 X92.873608 Y186.197359 Z-0.125000
G01 X94.786252 Y186.696865 Z-0.125000
G01 X96.486383 Y186.778594 Z-0.125000
G01 X98.186514 Y186.474562 Z-0.125000
G01 X100.023275 Y185.736825 Z-0.125000
G01 X101.662684 Y184.802186 Z-0.125000
G01 X105.579069 Y182.252929 Z-0.125000
G01 X107.643504 Y181.187374 Z-0.125000
G01 X109.556148 Y180.586797 Z-0.125000
G01 X110.512483 Y180.447414 Z-0.125000
G01 X111.468792 Y180.412278 Z-0.125000
G01 X112.318871 Y180.535864 Z-0.125000
G01 X113.776114 Y181.603642 Z-0.125000
G01 X116.235255 Y183.037470 Z-0.125000
G01 X119.331908 Y184.453069 Z-0.125000
G01 X120.500756 Y184.906432 Z-0.125000
G01 X121.882117 Y185.276689 Z-0.125000
G01 X124.538557 Y186.214636 Z-0.125000
G01 X127.088767 Y186.725202 Z-0.125000
G01 X129.957746 Y187.523422 Z-0.125000
G01 X132.295416 Y187.951597 Z-0.125000
G01 X134.526830 Y188.138736 Z-0.125000
G01 X136.545757 Y188.110135 Z-0.125000
G01 X138.564658 Y187.880345 Z-0.125000
G01 X140.477302 Y187.464420 Z-0.125000
G01 X142.389946 Y186.845799 Z-0.125000
G01 X144.014194 Y186.159100 Z-0.125000
G01 X145.744673 Y185.271318 Z-0.125000
G01 X148.021648 Y183.894428 Z-0.125000
G01 X151.027231 Y181.856134 Z-0.125000
G01 X151.528166 Y181.760196 Z-0.125000
G01 X151.938005 Y181.874575 Z-0.125000
G01 X152.848806 Y182.343125 Z-0.125000
G01 X153.865836 Y182.744894 Z-0.125000
G01 X155.884737 Y183.190796 Z-0.125000
G01 X158.009921 Y184.133929 Z-0.125000
G01 X159.710052 Y184.526146 Z-0.125000
G01 X161.728952 Y185.496346 Z-0.125000
G01 X163.322827 Y185.862079 Z-0.125000
G01 X164.810445 Y186.730731 Z-0.125000
G01 X166.510576 Y187.201927 Z-0.125000
G01 X167.891937 Y188.067934 Z-0.125000
G01 X169.242924 Y188.494812 Z-0.125000
G01 X170.426933 Y189.236385 Z-0.125000
G01 X171.079686 Y189.550657 Z-0.125000
G01 X172.035995 Y189.764758 Z-0.125000
G01 X172.886073 Y189.689219 Z-0.125000
G00 Z3.000000

(End cutting path id: polyline590)


(Start cutting path id: polyline588)
(Change tool to Default tool)

G00 Z3.000000
G00 X16.048917 Y182.735264

G00 Z4.875000 (Fast pre-penetrate)
G01 Z-0.125000 F400.0(Penetrate)
G01 X18.416962 Y181.025952 Z-0.125000 F800.000000
G01 X19.874205 Y180.119093 Z-0.125000
G01 X21.361823 Y179.440835 Z-0.125000
G01 X22.105619 Y179.223083 Z-0.125000
G01 X22.424415 Y179.204747 Z-0.125000
G01 X23.790589 Y179.850462 Z-0.125000
G01 X25.338929 Y180.740493 Z-0.125000
G01 X26.522938 Y181.272649 Z-0.125000
G01 X27.889112 Y182.049703 Z-0.125000
G01 X29.346383 Y182.702958 Z-0.125000
G01 X30.530392 Y183.385423 Z-0.125000
G01 X31.987635 Y184.017009 Z-0.125000
G01 X33.475253 Y184.853833 Z-0.125000
G01 X34.962871 Y185.349820 Z-0.125000
G01 X36.344233 Y185.467559 Z-0.125000
G01 X37.725594 Y185.268487 Z-0.125000
G01 X39.213212 Y184.759509 Z-0.125000
G01 X40.640108 Y184.072069 Z-0.125000
G01 X44.192161 Y182.139661 Z-0.125000
G01 X46.119992 Y181.282491 Z-0.125000
G01 X47.820123 Y180.748933 Z-0.125000
G01 X49.626511 Y180.423575 Z-0.125000
G01 X51.220385 Y180.320123 Z-0.125000
G01 X53.026773 Y180.363145 Z-0.125000
G01 X61.102402 Y181.215896 Z-0.125000
G01 X65.565255 Y181.397638 Z-0.125000
G01 X69.178030 Y181.251006 Z-0.125000
G01 X76.828633 Y180.430031 Z-0.125000
G01 X79.803842 Y180.326235 Z-0.125000
G01 X82.035283 Y180.547559 Z-0.125000
G01 X84.160440 Y181.082334 Z-0.125000
G01 X86.452575 Y182.020387 Z-0.125000
G01 X90.460029 Y184.128134 Z-0.125000
G01 X92.023555 Y184.837640 Z-0.125000
G01 X93.723686 Y185.343152 Z-0.125000
G01 X95.317561 Y185.464622 Z-0.125000
G01 X96.167613 Y185.370219 Z-0.125000
G01 X97.017692 Y185.163051 Z-0.125000
G01 X98.748170 Y184.418117 Z-0.125000
G01 X100.296510 Y183.461068 Z-0.125000
G01 X103.939659 Y180.875060 Z-0.125000
G01 X105.761207 Y179.846996 Z-0.125000
G01 X107.430991 Y179.265205 Z-0.125000
G01 X108.281069 Y179.125029 Z-0.125000
G01 X109.131122 Y179.093702 Z-0.125000
G01 X110.193714 Y179.190513 Z-0.125000
G01 X110.679461 Y179.362068 Z-0.125000
G01 X114.140445 Y181.826844 Z-0.125000
G01 X116.508490 Y183.180372 Z-0.125000
G01 X118.056803 Y183.818122 Z-0.125000
G01 X119.544421 Y184.544879 Z-0.125000
G01 X120.713269 Y184.975117 Z-0.125000
G01 X121.988374 Y185.312434 Z-0.125000
G01 X124.326044 Y186.154337 Z-0.125000
G01 X125.707405 Y186.494829 Z-0.125000
G01 X127.088767 Y186.714804 Z-0.125000
G01 X129.107667 Y186.827754 Z-0.125000
G01 X131.232825 Y186.695912 Z-0.125000
G01 X133.358008 Y186.327348 Z-0.125000
G01 X135.589422 Y185.706584 Z-0.125000
G01 X137.608322 Y184.956120 Z-0.125000
G01 X139.824575 Y183.948535 Z-0.125000
G01 X142.465855 Y182.545055 Z-0.125000
G01 X145.926838 Y180.511523 Z-0.125000
G01 X146.321517 Y180.404208 Z-0.125000
G01 X147.384082 Y180.500172 Z-0.125000
G01 X148.552930 Y181.041879 Z-0.125000
G01 X149.721779 Y181.457830 Z-0.125000
G01 X150.678088 Y181.689923 Z-0.125000
G01 X151.846936 Y181.840761 Z-0.125000
G01 X153.759580 Y182.708646 Z-0.125000
G01 X154.715915 Y182.983442 Z-0.125000
G01 X155.884737 Y183.190796 Z-0.125000
G01 X158.009921 Y184.133929 Z-0.125000
G01 X159.710052 Y184.526146 Z-0.125000
G01 X161.622696 Y185.457611 Z-0.125000
G01 X163.322827 Y185.862079 Z-0.125000
G01 X164.233601 Y186.444929 Z-0.125000
G01 X165.022958 Y186.818123 Z-0.125000
G01 X166.510576 Y187.201927 Z-0.125000
G01 X167.694584 Y187.972234 Z-0.125000
G01 X168.741989 Y188.361859 Z-0.125000
G01 X169.804581 Y188.431762 Z-0.125000
G01 X170.760890 Y188.192394 Z-0.125000
G01 X171.770353 Y187.624943 Z-0.125000
G01 X172.886073 Y186.640905 Z-0.125000
G00 Z3.000000

(End cutting path id: polyline588)


(Start cutting path id: polyline586)
(Change tool to Default tool)

G00 Z3.000000
G00 X16.048917 Y179.334446

G00 Z4.875000 (Fast pre-penetrate)
G01 Z-0.125000 F400.0(Penetrate)
G01 X18.067818 Y178.293788 Z-0.125000 F800.000000
G01 X19.024153 Y177.974701 Z-0.125000
G01 X19.874205 Y177.814972 Z-0.125000
G01 X21.240380 Y178.488257 Z-0.125000
G01 X22.788719 Y179.401015 Z-0.125000
G01 X23.790589 Y179.850462 Z-0.125000
G01 X25.247833 Y180.693609 Z-0.125000
G01 X26.522938 Y181.272649 Z-0.125000
G01 X27.980182 Y182.095661 Z-0.125000
G01 X29.346383 Y182.702958 Z-0.125000
G01 X30.818814 Y183.524700 Z-0.125000
G01 X32.200175 Y184.003860 Z-0.125000
G01 X33.475253 Y184.148057 Z-0.125000
G01 X34.750358 Y184.008278 Z-0.125000
G01 X36.025463 Y183.618600 Z-0.125000
G01 X37.452359 Y182.958307 Z-0.125000
G01 X41.004412 Y180.937290 Z-0.125000
G01 X42.719730 Y180.091047 Z-0.125000
G01 X44.632374 Y179.417260 Z-0.125000
G01 X46.438762 Y179.076054 Z-0.125000
G01 X48.032636 Y178.994113 Z-0.125000
G01 X49.732767 Y179.086161 Z-0.125000
G01 X58.658475 Y180.477550 Z-0.125000
G01 X61.314915 Y180.718506 Z-0.125000
G01 X63.971381 Y180.797246 Z-0.125000
G01 X66.202795 Y180.734699 Z-0.125000
G01 X68.540491 Y180.545151 Z-0.125000
G01 X71.196931 Y180.189790 Z-0.125000
G01 X77.253659 Y179.173738 Z-0.125000
G01 X79.060047 Y179.010967 Z-0.125000
G01 X80.653921 Y179.019751 Z-0.125000
G01 X82.460309 Y179.262744 Z-0.125000
G01 X84.266696 Y179.791725 Z-0.125000
G01 X86.270436 Y180.698609 Z-0.125000
G01 X89.822489 Y182.723622 Z-0.125000
G01 X91.279733 Y183.451754 Z-0.125000
G01 X92.873608 Y183.989943 Z-0.125000
G01 X94.361226 Y184.146682 Z-0.125000
G01 X95.105048 Y184.080377 Z-0.125000
G01 X95.955100 Y183.882945 Z-0.125000
G01 X96.805179 Y183.559995 Z-0.125000
G01 X97.655231 Y183.123036 Z-0.125000
G01 X99.112501 Y182.161277 Z-0.125000
G01 X102.573485 Y179.511293 Z-0.125000
G01 X104.303964 Y178.466376 Z-0.125000
G01 X105.837116 Y177.911598 Z-0.125000
G01 X106.580939 Y177.791848 Z-0.125000
G01 X107.430991 Y177.779227 Z-0.125000
G01 X108.599839 Y177.972320 Z-0.125000
G01 X109.662404 Y178.346943 Z-0.125000
G01 X111.362535 Y179.842128 Z-0.125000
G01 X113.411810 Y181.361443 Z-0.125000
G01 X116.887981 Y183.363542 Z-0.125000
G01 X118.056803 Y183.818122 Z-0.125000
G01 X119.650677 Y184.589276 Z-0.125000
G01 X120.925782 Y185.039517 Z-0.125000
G01 X122.519657 Y185.387391 Z-0.125000
G01 X124.219788 Y185.504813 Z-0.125000
G01 X125.707405 Y185.411415 Z-0.125000
G01 X127.195023 Y185.156912 Z-0.125000
G01 X128.788898 Y184.731040 Z-0.125000
G01 X130.595285 Y184.090511 Z-0.125000
G01 X133.995547 Y182.552675 Z-0.125000
G01 X140.826445 Y178.896032 Z-0.125000
G01 X141.114841 Y178.834596 Z-0.125000
G01 X142.921228 Y179.205753 Z-0.125000
G01 X144.196333 Y179.767595 Z-0.125000
G01 X145.471438 Y180.183678 Z-0.125000
G01 X147.384082 Y180.500172 Z-0.125000
G01 X148.659187 Y181.085165 Z-0.125000
G01 X149.828035 Y181.488681 Z-0.125000
G01 X150.784344 Y181.708840 Z-0.125000
G01 X151.846936 Y181.840761 Z-0.125000
G01 X153.759580 Y182.708646 Z-0.125000
G01 X154.609659 Y182.958836 Z-0.125000
G01 X155.990994 Y183.225827 Z-0.125000
G01 X157.903664 Y184.096808 Z-0.125000
G01 X159.816308 Y184.567316 Z-0.125000
G01 X161.728952 Y185.496346 Z-0.125000
G01 X163.322827 Y185.862079 Z-0.125000
G01 X164.233601 Y186.444929 Z-0.125000
G01 X165.129214 Y186.857916 Z-0.125000
G01 X165.873010 Y187.060825 Z-0.125000
G01 X166.510576 Y187.123902 Z-0.125000
G01 X167.254371 Y187.059952 Z-0.125000
G01 X167.998193 Y186.842862 Z-0.125000
G01 X168.696454 Y186.498480 Z-0.125000
G01 X169.459247 Y185.969949 Z-0.125000
G01 X170.256171 Y185.257533 Z-0.125000
G01 X171.044258 Y184.408381 Z-0.125000
G01 X172.886073 Y181.997156 Z-0.125000
G00 Z3.000000

(End cutting path id: polyline586)


(Start cutting path id: polyline584)
(Change tool to Default tool)

G00 Z3.000000
G00 X16.048917 Y176.700893

G00 Z4.875000 (Fast pre-penetrate)
G01 Z-0.125000 F400.0(Penetrate)
G01 X17.111483 Y176.467663 Z-0.125000 F800.000000
G01 X17.536535 Y176.524627 Z-0.125000
G01 X18.599101 Y177.027917 Z-0.125000
G01 X19.965275 Y177.867201 Z-0.125000
G01 X21.240380 Y178.488257 Z-0.125000
G01 X22.697650 Y179.353602 Z-0.125000
G01 X23.790589 Y179.850462 Z-0.125000
G01 X25.156764 Y180.645561 Z-0.125000
G01 X26.522938 Y181.272649 Z-0.125000
G01 X28.071278 Y182.140269 Z-0.125000
G01 X29.224939 Y182.589690 Z-0.125000
G01 X30.393761 Y182.807574 Z-0.125000
G01 X31.775122 Y182.746376 Z-0.125000
G01 X33.262740 Y182.327700 Z-0.125000
G01 X34.811080 Y181.594064 Z-0.125000
G01 X38.272064 Y179.545821 Z-0.125000
G01 X39.850751 Y178.734451 Z-0.125000
G01 X41.657139 Y178.068125 Z-0.125000
G01 X43.463526 Y177.726654 Z-0.125000
G01 X45.163657 Y177.683845 Z-0.125000
G01 X47.076328 Y177.887971 Z-0.125000
G01 X53.876852 Y179.377388 Z-0.125000
G01 X56.958344 Y179.899145 Z-0.125000
G01 X59.721040 Y180.174100 Z-0.125000
G01 X62.590020 Y180.267127 Z-0.125000
G01 X65.671512 Y180.152775 Z-0.125000
G01 X68.646748 Y179.824348 Z-0.125000
G01 X71.515701 Y179.305024 Z-0.125000
G01 X77.359916 Y177.976474 Z-0.125000
G01 X78.953790 Y177.742133 Z-0.125000
G01 X80.335152 Y177.671066 Z-0.125000
G01 X82.247796 Y177.850056 Z-0.125000
G01 X84.160440 Y178.408088 Z-0.125000
G01 X85.997175 Y179.288409 Z-0.125000
G01 X89.458159 Y181.403961 Z-0.125000
G01 X90.854707 Y182.147545 Z-0.125000
G01 X92.342325 Y182.675600 Z-0.125000
G01 X93.617430 Y182.825037 Z-0.125000
G01 X94.361226 Y182.763706 Z-0.125000
G01 X95.105048 Y182.589425 Z-0.125000
G01 X95.924752 Y182.270312 Z-0.125000
G01 X96.744457 Y181.828670 Z-0.125000
G01 X98.213078 Y180.793357 Z-0.125000
G01 X101.400827 Y178.176260 Z-0.125000
G01 X103.028859 Y177.122982 Z-0.125000
G01 X104.455755 Y176.576274 Z-0.125000
G01 X105.199577 Y176.459037 Z-0.125000
G01 X105.837116 Y176.454381 Z-0.125000
G01 X107.112221 Y176.704756 Z-0.125000
G01 X108.493583 Y177.328536 Z-0.125000
G01 X109.210814 Y177.879478 Z-0.125000
G01 X111.203151 Y179.711900 Z-0.125000
G01 X113.047506 Y181.100802 Z-0.125000
G01 X114.049349 Y181.772949 Z-0.125000
G01 X116.326324 Y183.086074 Z-0.125000
G01 X117.313007 Y183.547375 Z-0.125000
G01 X118.375599 Y183.904535 Z-0.125000
G01 X119.438164 Y184.114773 Z-0.125000
G01 X120.500756 Y184.181950 Z-0.125000
G01 X121.669604 Y184.101861 Z-0.125000
G01 X122.838426 Y183.876966 Z-0.125000
G01 X124.113531 Y183.489881 Z-0.125000
G01 X125.494892 Y182.934759 Z-0.125000
G01 X127.802215 Y181.784193 Z-0.125000
G01 X133.722312 Y178.399648 Z-0.125000
G01 X135.726052 Y177.312265 Z-0.125000
G01 X136.014448 Y177.243552 Z-0.125000
G01 X138.458401 Y177.805765 Z-0.125000
G01 X140.371045 Y178.633063 Z-0.125000
G01 X141.539893 Y178.963024 Z-0.125000
G01 X142.921228 Y179.205753 Z-0.125000
G01 X144.090077 Y179.726108 Z-0.125000
G01 X145.258925 Y180.125258 Z-0.125000
G01 X146.321517 Y180.370818 Z-0.125000
G01 X147.384082 Y180.500172 Z-0.125000
G01 X148.659187 Y181.085165 Z-0.125000
G01 X149.828035 Y181.488681 Z-0.125000
G01 X150.784344 Y181.708840 Z-0.125000
G01 X151.846936 Y181.840761 Z-0.125000
G01 X153.759580 Y182.708646 Z-0.125000
G01 X154.715915 Y182.983442 Z-0.125000
G01 X155.884737 Y183.190796 Z-0.125000
G01 X158.009921 Y184.133929 Z-0.125000
G01 X159.710052 Y184.526146 Z-0.125000
G01 X161.835209 Y185.532911 Z-0.125000
G01 X162.685261 Y185.743493 Z-0.125000
G01 X163.429083 Y185.801251 Z-0.125000
G01 X164.385392 Y185.689280 Z-0.125000
G01 X165.417636 Y185.323176 Z-0.125000
G01 X166.419480 Y184.723790 Z-0.125000
G01 X167.387192 Y183.927527 Z-0.125000
G01 X168.352391 Y182.942062 Z-0.125000
G01 X169.379528 Y181.721038 Z-0.125000
G01 X172.886073 Y177.002358 Z-0.125000
G00 Z3.000000

(End cutting path id: polyline584)


(Start cutting path id: polyline582)
(Change tool to Default tool)

G00 Z3.000000
G00 X16.048917 Y175.546940

G00 Z4.875000 (Fast pre-penetrate)
G01 Z-0.125000 F400.0(Penetrate)
G01 X20.056371 Y177.918477 Z-0.125000 F800.000000
G01 X21.149310 Y178.439124 Z-0.125000
G01 X22.515485 Y179.255389 Z-0.125000
G01 X23.790589 Y179.850462 Z-0.125000
G01 X25.338929 Y180.740493 Z-0.125000
G01 X26.568473 Y181.244180 Z-0.125000
G01 X27.843578 Y181.487649 Z-0.125000
G01 X29.224939 Y181.414386 Z-0.125000
G01 X30.712557 Y180.974913 Z-0.125000
G01 X32.260870 Y180.211856 Z-0.125000
G01 X35.539715 Y178.205735 Z-0.125000
G01 X37.088028 Y177.379336 Z-0.125000
G01 X38.788186 Y176.727695 Z-0.125000
G01 X40.488317 Y176.395961 Z-0.125000
G01 X42.188448 Y176.373339 Z-0.125000
G01 X44.101092 Y176.643399 Z-0.125000
G01 X50.795359 Y178.457274 Z-0.125000
G01 X54.195621 Y179.152572 Z-0.125000
G01 X57.595883 Y179.541165 Z-0.125000
G01 X61.314915 Y179.673615 Z-0.125000
G01 X65.246486 Y179.520448 Z-0.125000
G01 X68.753004 Y179.084389 Z-0.125000
G01 X71.940753 Y178.390837 Z-0.125000
G01 X77.891198 Y176.708698 Z-0.125000
G01 X79.378816 Y176.438268 Z-0.125000
G01 X80.760178 Y176.348203 Z-0.125000
G01 X82.460309 Y176.520500 Z-0.125000
G01 X84.160440 Y177.049825 Z-0.125000
G01 X85.906105 Y177.943586 Z-0.125000
G01 X89.184924 Y180.089143 Z-0.125000
G01 X90.460029 Y180.813518 Z-0.125000
G01 X91.811042 Y181.334402 Z-0.125000
G01 X93.086121 Y181.502122 Z-0.125000
G01 X93.829943 Y181.432695 Z-0.125000
G01 X94.573739 Y181.236189 Z-0.125000
G01 X96.015822 Y180.513931 Z-0.125000
G01 X97.336461 Y179.532380 Z-0.125000
G01 X100.524210 Y176.757143 Z-0.125000
G01 X101.935919 Y175.793981 Z-0.125000
G01 X103.286933 Y175.245183 Z-0.125000
G01 X103.924472 Y175.137921 Z-0.125000
G01 X104.562011 Y175.133238 Z-0.125000
G01 X105.199577 Y175.230790 Z-0.125000
G01 X105.943373 Y175.468544 Z-0.125000
G01 X107.491713 Y176.338652 Z-0.125000
G01 X108.334198 Y177.009502 Z-0.125000
G01 X111.203151 Y179.711900 Z-0.125000
G01 X113.229645 Y181.233120 Z-0.125000
G01 X114.140445 Y181.826844 Z-0.125000
G01 X115.081593 Y182.306639 Z-0.125000
G01 X115.931646 Y182.613741 Z-0.125000
G01 X116.781724 Y182.797388 Z-0.125000
G01 X117.631777 Y182.859088 Z-0.125000
G01 X118.588112 Y182.789530 Z-0.125000
G01 X119.544421 Y182.585324 Z-0.125000
G01 X120.607013 Y182.219512 Z-0.125000
G01 X121.699952 Y181.716381 Z-0.125000
G01 X123.794761 Y180.495992 Z-0.125000
G01 X129.623789 Y176.651389 Z-0.125000
G01 X131.263199 Y175.710320 Z-0.125000
G01 X131.976647 Y175.534981 Z-0.125000
G01 X133.358008 Y176.117011 Z-0.125000
G01 X134.633086 Y176.470996 Z-0.125000
G01 X136.439500 Y177.317450 Z-0.125000
G01 X137.502066 Y177.636114 Z-0.125000
G01 X138.458401 Y177.805765 Z-0.125000
G01 X140.583558 Y178.703521 Z-0.125000
G01 X141.646150 Y178.985884 Z-0.125000
G01 X142.921228 Y179.205753 Z-0.125000
G01 X144.196333 Y179.767595 Z-0.125000
G01 X145.471438 Y180.183678 Z-0.125000
G01 X147.384082 Y180.500172 Z-0.125000
G01 X149.509239 Y181.392425 Z-0.125000
G01 X150.678088 Y181.689923 Z-0.125000
G01 X151.846936 Y181.840761 Z-0.125000
G01 X153.865836 Y182.744894 Z-0.125000
G01 X155.990994 Y183.225827 Z-0.125000
G01 X158.116177 Y184.169250 Z-0.125000
G01 X159.072486 Y184.404121 Z-0.125000
G01 X159.922565 Y184.478336 Z-0.125000
G01 X161.091386 Y184.354220 Z-0.125000
G01 X162.138791 Y184.008860 Z-0.125000
G01 X163.231731 Y183.409342 Z-0.125000
G01 X164.279135 Y182.614243 Z-0.125000
G01 X165.377155 Y181.571045 Z-0.125000
G01 X166.510576 Y180.307450 Z-0.125000
G01 X170.272099 Y175.542601 Z-0.125000
G01 X170.518029 Y175.523710 Z-0.125000
G01 X171.702038 Y176.267691 Z-0.125000
G01 X172.886073 Y176.784183 Z-0.125000
G00 Z3.000000

(End cutting path id: polyline582)


(Start cutting path id: polyline580)
(Change tool to Default tool)

G00 Z3.000000
G00 X16.048917 Y175.546940

G00 Z4.875000 (Fast pre-penetrate)
G01 Z-0.125000 F400.0(Penetrate)
G01 X17.688327 Y176.572490 Z-0.125000 F800.000000
G01 X22.970885 Y179.492111 Z-0.125000
G01 X24.337059 Y180.003312 Z-0.125000
G01 X25.718421 Y180.179312 Z-0.125000
G01 X26.993499 Y180.027548 Z-0.125000
G01 X28.253417 Y179.608633 Z-0.125000
G01 X29.710687 Y178.865922 Z-0.125000
G01 X32.989505 Y176.808631 Z-0.125000
G01 X34.446776 Y176.014406 Z-0.125000
G01 X36.131720 Y175.361600 Z-0.125000
G01 X37.725594 Y175.060081 Z-0.125000
G01 X39.319468 Y175.061404 Z-0.125000
G01 X41.125856 Y175.364246 Z-0.125000
G01 X42.825987 Y175.845311 Z-0.125000
G01 X47.820123 Y177.479455 Z-0.125000
G01 X49.626511 Y177.942422 Z-0.125000
G01 X51.326642 Y178.278151 Z-0.125000
G01 X55.258186 Y178.727307 Z-0.125000
G01 X60.146066 Y178.874786 Z-0.125000
G01 X65.033946 Y178.723762 Z-0.125000
G01 X67.052873 Y178.537284 Z-0.125000
G01 X68.965517 Y178.256641 Z-0.125000
G01 X70.665648 Y177.903290 Z-0.125000
G01 X72.365779 Y177.445217 Z-0.125000
G01 X78.635021 Y175.368162 Z-0.125000
G01 X80.228895 Y175.073310 Z-0.125000
G01 X81.610230 Y175.041375 Z-0.125000
G01 X82.991591 Y175.268916 Z-0.125000
G01 X84.357766 Y175.767311 Z-0.125000
G01 X85.906105 Y176.629005 Z-0.125000
G01 X88.911689 Y178.728286 Z-0.125000
G01 X90.095724 Y179.451418 Z-0.125000
G01 X91.385990 Y179.994448 Z-0.125000
G01 X92.661095 Y180.178836 Z-0.125000
G01 X93.298634 Y180.119411 Z-0.125000
G01 X94.042456 Y179.917931 Z-0.125000
G01 X94.740717 Y179.603395 Z-0.125000
G01 X95.469352 Y179.156726 Z-0.125000
G01 X96.698922 Y178.182346 Z-0.125000
G01 X99.567875 Y175.526012 Z-0.125000
G01 X101.025145 Y174.459266 Z-0.125000
G01 X102.224341 Y173.935365 Z-0.125000
G01 X103.393190 Y173.805217 Z-0.125000
G01 X104.030729 Y173.900282 Z-0.125000
G01 X104.759364 Y174.147772 Z-0.125000
G01 X106.182450 Y175.010578 Z-0.125000
G01 X107.537247 Y176.179849 Z-0.125000
G01 X110.645304 Y179.228189 Z-0.125000
G01 X112.318871 Y180.535732 Z-0.125000
G01 X113.168949 Y181.010156 Z-0.125000
G01 X113.912745 Y181.303764 Z-0.125000
G01 X114.656541 Y181.479050 Z-0.125000
G01 X115.506620 Y181.534692 Z-0.125000
G01 X116.356672 Y181.441902 Z-0.125000
G01 X117.206751 Y181.211821 Z-0.125000
G01 X118.147899 Y180.816243 Z-0.125000
G01 X119.058673 Y180.314329 Z-0.125000
G01 X120.789178 Y179.127939 Z-0.125000
G01 X125.616336 Y175.395123 Z-0.125000
G01 X127.984380 Y173.878030 Z-0.125000
G01 X128.363872 Y173.765741 Z-0.125000
G01 X128.895154 Y173.947351 Z-0.125000
G01 X129.897024 Y174.538403 Z-0.125000
G01 X131.445364 Y175.173667 Z-0.125000
G01 X132.826699 Y175.908202 Z-0.125000
G01 X134.633086 Y176.470864 Z-0.125000
G01 X135.634956 Y176.986589 Z-0.125000
G01 X136.652014 Y177.391904 Z-0.125000
G01 X138.458401 Y177.805632 Z-0.125000
G01 X139.733506 Y178.394435 Z-0.125000
G01 X140.902328 Y178.800517 Z-0.125000
G01 X142.921228 Y179.205620 Z-0.125000
G01 X144.090077 Y179.725976 Z-0.125000
G01 X145.258925 Y180.125126 Z-0.125000
G01 X146.321517 Y180.370685 Z-0.125000
G01 X147.384082 Y180.500040 Z-0.125000
G01 X148.552930 Y181.041747 Z-0.125000
G01 X149.721779 Y181.457698 Z-0.125000
G01 X150.678088 Y181.689790 Z-0.125000
G01 X151.846936 Y181.840629 Z-0.125000
G01 X153.030945 Y182.423585 Z-0.125000
G01 X154.184606 Y182.845357 Z-0.125000
G01 X155.247198 Y183.082344 Z-0.125000
G01 X156.203533 Y183.155474 Z-0.125000
G01 X157.372355 Y183.047075 Z-0.125000
G01 X158.541203 Y182.708355 Z-0.125000
G01 X159.679677 Y182.152202 Z-0.125000
G01 X160.932002 Y181.289344 Z-0.125000
G01 X161.968029 Y180.392355 Z-0.125000
G01 X163.039458 Y179.315687 Z-0.125000
G01 X166.935602 Y174.717922 Z-0.125000
G01 X167.466884 Y174.321445 Z-0.125000
G01 X167.876750 Y174.301892 Z-0.125000
G01 X168.969689 Y174.966339 Z-0.125000
G01 X170.426933 Y175.551412 Z-0.125000
G01 X171.884203 Y176.362121 Z-0.125000
G01 X172.886073 Y176.784051 Z-0.125000
G00 Z3.000000

(End cutting path id: polyline580)


(Start cutting path id: polyline578)
(Change tool to Default tool)

G00 Z3.000000
G00 X16.048917 Y175.546940

G00 Z4.875000 (Fast pre-penetrate)
G01 Z-0.125000 F400.0(Penetrate)
G01 X17.597257 Y176.520209 Z-0.125000 F800.000000
G01 X20.618028 Y178.208936 Z-0.125000
G01 X21.893106 Y178.680291 Z-0.125000
G01 X23.061954 Y178.852984 Z-0.125000
G01 X23.805750 Y178.827214 Z-0.125000
G01 X24.549572 Y178.698521 Z-0.125000
G01 X26.067538 Y178.149432 Z-0.125000
G01 X27.524808 Y177.346766 Z-0.125000
G01 X30.803626 Y175.244152 Z-0.125000
G01 X32.518945 Y174.369493 Z-0.125000
G01 X34.006562 Y173.889751 Z-0.125000
G01 X35.494180 Y173.704993 Z-0.125000
G01 X36.875515 Y173.785347 Z-0.125000
G01 X38.363133 Y174.095782 Z-0.125000
G01 X39.850751 Y174.568565 Z-0.125000
G01 X45.163657 Y176.502058 Z-0.125000
G01 X47.182584 Y177.029161 Z-0.125000
G01 X49.201485 Y177.386215 Z-0.125000
G01 X51.432898 Y177.612990 Z-0.125000
G01 X54.089365 Y177.727633 Z-0.125000
G01 X64.396407 Y177.717712 Z-0.125000
G01 X67.902926 Y177.495832 Z-0.125000
G01 X70.771905 Y177.017069 Z-0.125000
G01 X73.534628 Y176.203609 Z-0.125000
G01 X78.953790 Y174.118113 Z-0.125000
G01 X80.441408 Y173.778256 Z-0.125000
G01 X81.716486 Y173.707215 Z-0.125000
G01 X83.097848 Y173.917691 Z-0.125000
G01 X84.448862 Y174.432781 Z-0.125000
G01 X85.906105 Y175.295269 Z-0.125000
G01 X88.729550 Y177.388888 Z-0.125000
G01 X89.913559 Y178.151945 Z-0.125000
G01 X91.173477 Y178.695504 Z-0.125000
G01 X92.342325 Y178.855445 Z-0.125000
G01 X92.979864 Y178.782737 Z-0.125000
G01 X93.617430 Y178.594116 Z-0.125000
G01 X94.285343 Y178.276273 Z-0.125000
G01 X95.013952 Y177.801505 Z-0.125000
G01 X96.220741 Y176.780823 Z-0.125000
G01 X98.850643 Y174.208124 Z-0.125000
G01 X100.205441 Y173.154554 Z-0.125000
G01 X101.374263 Y172.610201 Z-0.125000
G01 X102.436854 Y172.480820 Z-0.125000
G01 X103.074394 Y172.579351 Z-0.125000
G01 X103.666424 Y172.786387 Z-0.125000
G01 X104.303964 Y173.125979 Z-0.125000
G01 X105.066756 Y173.673481 Z-0.125000
G01 X106.297570 Y174.806769 Z-0.125000
G01 X109.290507 Y177.965758 Z-0.125000
G01 X110.861627 Y179.279227 Z-0.125000
G01 X111.590236 Y179.712509 Z-0.125000
G01 X112.318871 Y180.014874 Z-0.125000
G01 X112.956410 Y180.166930 Z-0.125000
G01 X113.700232 Y180.210613 Z-0.125000
G01 X114.444028 Y180.114251 Z-0.125000
G01 X115.187850 Y179.886710 Z-0.125000
G01 X115.962020 Y179.524549 Z-0.125000
G01 X116.872794 Y178.959585 Z-0.125000
G01 X118.375599 Y177.782534 Z-0.125000
G01 X122.918119 Y173.771430 Z-0.125000
G01 X124.341231 Y172.744742 Z-0.125000
G01 X125.434171 Y172.055080 Z-0.125000
G01 X125.707405 Y171.967318 Z-0.125000
G01 X125.980640 Y172.091989 Z-0.125000
G01 X127.255745 Y173.044329 Z-0.125000
G01 X128.348685 Y173.603790 Z-0.125000
G01 X129.897024 Y174.538535 Z-0.125000
G01 X131.445364 Y175.173799 Z-0.125000
G01 X132.826699 Y175.908334 Z-0.125000
G01 X134.633086 Y176.470996 Z-0.125000
G01 X136.333244 Y177.278133 Z-0.125000
G01 X137.395809 Y177.610370 Z-0.125000
G01 X138.458401 Y177.805765 Z-0.125000
G01 X139.733506 Y178.394568 Z-0.125000
G01 X140.902328 Y178.800650 Z-0.125000
G01 X142.921228 Y179.205753 Z-0.125000
G01 X144.090077 Y179.726108 Z-0.125000
G01 X145.152668 Y180.094328 Z-0.125000
G01 X146.215234 Y180.351662 Z-0.125000
G01 X147.384082 Y180.500172 Z-0.125000
G01 X148.659187 Y181.085165 Z-0.125000
G01 X149.828035 Y181.488681 Z-0.125000
G01 X150.996857 Y181.744003 Z-0.125000
G01 X152.059449 Y181.831871 Z-0.125000
G01 X153.334554 Y181.739347 Z-0.125000
G01 X154.609659 Y181.417534 Z-0.125000
G01 X155.945459 Y180.828043 Z-0.125000
G01 X157.220564 Y180.029267 Z-0.125000
G01 X158.381818 Y179.115715 Z-0.125000
G01 X159.568367 Y178.023226 Z-0.125000
G01 X161.126814 Y176.403687 Z-0.125000
G01 X163.818682 Y173.401569 Z-0.125000
G01 X164.506836 Y172.897142 Z-0.125000
G01 X164.780070 Y172.923309 Z-0.125000
G01 X166.419480 Y173.805799 Z-0.125000
G01 X167.785680 Y174.277974 Z-0.125000
G01 X169.060759 Y175.011371 Z-0.125000
G01 X170.426933 Y175.551544 Z-0.125000
G01 X171.884203 Y176.362253 Z-0.125000
G01 X172.886073 Y176.784183 Z-0.125000
G00 Z3.000000

(End cutting path id: polyline578)


(Start cutting path id: polyline576)
(Change tool to Default tool)

G00 Z3.000000
G00 X16.048917 Y175.546940

G00 Z4.875000 (Fast pre-penetrate)
G01 Z-0.125000 F400.0(Penetrate)
G01 X17.870492 Y176.673535 Z-0.125000 F800.000000
G01 X19.236666 Y177.266545 Z-0.125000
G01 X20.618028 Y177.525995 Z-0.125000
G01 X21.893106 Y177.437174 Z-0.125000
G01 X23.061954 Y177.092978 Z-0.125000
G01 X24.245963 Y176.530104 Z-0.125000
G01 X28.162347 Y174.008919 Z-0.125000
G01 X29.801756 Y173.121270 Z-0.125000
G01 X31.456353 Y172.555433 Z-0.125000
G01 X32.306431 Y172.416103 Z-0.125000
G01 X33.156484 Y172.380543 Z-0.125000
G01 X34.325332 Y172.489551 Z-0.125000
G01 X35.600437 Y172.785779 Z-0.125000
G01 X37.088028 Y173.299810 Z-0.125000
G01 X40.594573 Y174.751948 Z-0.125000
G01 X42.294704 Y175.367288 Z-0.125000
G01 X44.313605 Y175.915557 Z-0.125000
G01 X46.332505 Y176.251631 Z-0.125000
G01 X49.626511 Y176.437606 Z-0.125000
G01 X57.808396 Y176.288037 Z-0.125000
G01 X65.352742 Y176.435304 Z-0.125000
G01 X67.796669 Y176.399347 Z-0.125000
G01 X70.134339 Y176.171594 Z-0.125000
G01 X72.365779 Y175.685000 Z-0.125000
G01 X74.490936 Y174.944167 Z-0.125000
G01 X79.272560 Y172.864148 Z-0.125000
G01 X80.653921 Y172.487435 Z-0.125000
G01 X81.929026 Y172.381258 Z-0.125000
G01 X83.204104 Y172.565513 Z-0.125000
G01 X84.448862 Y173.044991 Z-0.125000
G01 X85.906105 Y173.942906 Z-0.125000
G01 X88.570165 Y176.030466 Z-0.125000
G01 X89.731393 Y176.822945 Z-0.125000
G01 X90.960964 Y177.378966 Z-0.125000
G01 X91.598503 Y177.511734 Z-0.125000
G01 X92.129812 Y177.529540 Z-0.125000
G01 X92.767351 Y177.434449 Z-0.125000
G01 X93.374543 Y177.225375 Z-0.125000
G01 X94.626867 Y176.454777 Z-0.125000
G01 X95.813416 Y175.390889 Z-0.125000
G01 X98.213078 Y172.918123 Z-0.125000
G01 X99.476806 Y171.870321 Z-0.125000
G01 X100.524210 Y171.326921 Z-0.125000
G01 X101.586776 Y171.155127 Z-0.125000
G01 X102.224341 Y171.248419 Z-0.125000
G01 X102.846720 Y171.479162 Z-0.125000
G01 X104.110421 Y172.330140 Z-0.125000
G01 X105.376663 Y173.576088 Z-0.125000
G01 X108.139385 Y176.693617 Z-0.125000
G01 X109.609276 Y177.999704 Z-0.125000
G01 X110.315131 Y178.438780 Z-0.125000
G01 X110.937509 Y178.706511 Z-0.125000
G01 X111.575075 Y178.858488 Z-0.125000
G01 X112.212614 Y178.885184 Z-0.125000
G01 X112.850153 Y178.789167 Z-0.125000
G01 X113.487719 Y178.576892 Z-0.125000
G01 X114.231515 Y178.195522 Z-0.125000
G01 X114.948773 Y177.708769 Z-0.125000
G01 X116.383236 Y176.469250 Z-0.125000
G01 X119.411600 Y173.399823 Z-0.125000
G01 X120.846090 Y172.074315 Z-0.125000
G01 X122.792891 Y170.662103 Z-0.125000
G01 X123.157222 Y170.479329 Z-0.125000
G01 X123.475992 Y170.424217 Z-0.125000
G01 X123.954146 Y170.576854 Z-0.125000
G01 X125.069866 Y171.544355 Z-0.125000
G01 X127.437911 Y173.153681 Z-0.125000
G01 X128.348685 Y173.603790 Z-0.125000
G01 X129.805928 Y174.492286 Z-0.125000
G01 X131.445364 Y175.173799 Z-0.125000
G01 X132.826699 Y175.908334 Z-0.125000
G01 X134.633086 Y176.470996 Z-0.125000
G01 X135.634956 Y176.986722 Z-0.125000
G01 X136.652014 Y177.392036 Z-0.125000
G01 X138.458401 Y177.805765 Z-0.125000
G01 X140.583558 Y178.703521 Z-0.125000
G01 X141.646150 Y178.985884 Z-0.125000
G01 X142.921228 Y179.205753 Z-0.125000
G01 X144.833899 Y179.995030 Z-0.125000
G01 X146.746543 Y180.435852 Z-0.125000
G01 X148.340417 Y180.497156 Z-0.125000
G01 X149.828035 Y180.281362 Z-0.125000
G01 X151.421910 Y179.746693 Z-0.125000
G01 X152.939875 Y178.948393 Z-0.125000
G01 X154.306050 Y178.003832 Z-0.125000
G01 X155.672224 Y176.871654 Z-0.125000
G01 X157.505176 Y175.127523 Z-0.125000
G01 X160.630959 Y171.904876 Z-0.125000
G01 X160.985130 Y171.653707 Z-0.125000
G01 X161.303926 Y171.537079 Z-0.125000
G01 X161.592321 Y171.573592 Z-0.125000
G01 X163.429083 Y172.495161 Z-0.125000
G01 X164.689001 Y172.921615 Z-0.125000
G01 X166.419480 Y173.805799 Z-0.125000
G01 X167.785680 Y174.277974 Z-0.125000
G01 X169.060759 Y175.011371 Z-0.125000
G01 X170.426933 Y175.551544 Z-0.125000
G01 X171.884203 Y176.362253 Z-0.125000
G01 X172.886073 Y176.784183 Z-0.125000
G00 Z3.000000

(End cutting path id: polyline576)


(Start cutting path id: polyline574)
(Change tool to Default tool)

G00 Z3.000000
G00 X16.048917 Y175.546940

G00 Z4.875000 (Fast pre-penetrate)
G01 Z-0.125000 F400.0(Penetrate)
G01 X17.111483 Y175.972178 Z-0.125000 F800.000000
G01 X18.174074 Y176.187099 Z-0.125000
G01 X19.236666 Y176.176807 Z-0.125000
G01 X20.299232 Y175.945270 Z-0.125000
G01 X21.240380 Y175.574510 Z-0.125000
G01 X22.242250 Y175.039814 Z-0.125000
G01 X25.703234 Y172.735481 Z-0.125000
G01 X27.160477 Y171.901039 Z-0.125000
G01 X28.693630 Y171.304537 Z-0.125000
G01 X30.074991 Y171.069508 Z-0.125000
G01 X31.456353 Y171.123774 Z-0.125000
G01 X32.837714 Y171.429738 Z-0.125000
G01 X34.325332 Y171.965545 Z-0.125000
G01 X37.725594 Y173.478113 Z-0.125000
G01 X39.425725 Y174.141661 Z-0.125000
G01 X41.338369 Y174.690035 Z-0.125000
G01 X43.251013 Y175.005101 Z-0.125000
G01 X44.844888 Y175.108262 Z-0.125000
G01 X46.545019 Y175.096594 Z-0.125000
G01 X53.664339 Y174.596532 Z-0.125000
G01 X57.383370 Y174.495011 Z-0.125000
G01 X60.571119 Y174.593357 Z-0.125000
G01 X66.309051 Y175.032141 Z-0.125000
G01 X68.540491 Y175.116252 Z-0.125000
G01 X70.984418 Y174.961736 Z-0.125000
G01 X73.109575 Y174.503160 Z-0.125000
G01 X75.234759 Y173.702638 Z-0.125000
G01 X79.697586 Y171.561632 Z-0.125000
G01 X80.972691 Y171.176400 Z-0.125000
G01 X82.141539 Y171.056702 Z-0.125000
G01 X83.310361 Y171.213309 Z-0.125000
G01 X84.539931 Y171.695564 Z-0.125000
G01 X85.906105 Y172.573266 Z-0.125000
G01 X88.570165 Y174.764939 Z-0.125000
G01 X89.640324 Y175.522281 Z-0.125000
G01 X90.854707 Y176.079519 Z-0.125000
G01 X91.917299 Y176.205355 Z-0.125000
G01 X92.554838 Y176.096982 Z-0.125000
G01 X93.086121 Y175.899788 Z-0.125000
G01 X94.228405 Y175.170915 Z-0.125000
G01 X95.317561 Y174.164679 Z-0.125000
G01 X97.734923 Y171.564093 Z-0.125000
G01 X98.850643 Y170.588946 Z-0.125000
G01 X99.886645 Y170.011388 Z-0.125000
G01 X100.842980 Y169.830916 Z-0.125000
G01 X101.480519 Y169.913995 Z-0.125000
G01 X102.011828 Y170.106690 Z-0.125000
G01 X102.664554 Y170.487743 Z-0.125000
G01 X103.313497 Y171.007887 Z-0.125000
G01 X104.455755 Y172.189779 Z-0.125000
G01 X107.147649 Y175.407902 Z-0.125000
G01 X108.493583 Y176.678297 Z-0.125000
G01 X109.131122 Y177.104805 Z-0.125000
G01 X109.768661 Y177.397090 Z-0.125000
G01 X110.406227 Y177.546897 Z-0.125000
G01 X110.937509 Y177.560787 Z-0.125000
G01 X111.468792 Y177.475433 Z-0.125000
G01 X112.106358 Y177.247759 Z-0.125000
G01 X112.774271 Y176.874221 Z-0.125000
G01 X113.434591 Y176.385695 Z-0.125000
G01 X114.727396 Y175.163903 Z-0.125000
G01 X117.702632 Y171.837063 Z-0.125000
G01 X119.013138 Y170.521742 Z-0.125000
G01 X120.424847 Y169.403032 Z-0.125000
G01 X121.775861 Y168.705168 Z-0.125000
G01 X122.041502 Y168.813224 Z-0.125000
G01 X123.157222 Y169.965350 Z-0.125000
G01 X125.160936 Y171.610422 Z-0.125000
G01 X127.255745 Y173.044329 Z-0.125000
G01 X128.348685 Y173.603790 Z-0.125000
G01 X129.805928 Y174.492286 Z-0.125000
G01 X131.445364 Y175.173799 Z-0.125000
G01 X132.826699 Y175.908334 Z-0.125000
G01 X134.633086 Y176.470996 Z-0.125000
G01 X136.333244 Y177.278133 Z-0.125000
G01 X137.395809 Y177.610370 Z-0.125000
G01 X138.458401 Y177.805765 Z-0.125000
G01 X140.264789 Y178.596154 Z-0.125000
G01 X142.071176 Y179.065286 Z-0.125000
G01 X143.771307 Y179.183951 Z-0.125000
G01 X145.365182 Y178.999034 Z-0.125000
G01 X147.065313 Y178.484526 Z-0.125000
G01 X148.750256 Y177.662969 Z-0.125000
G01 X150.298596 Y176.657236 Z-0.125000
G01 X152.006321 Y175.311726 Z-0.125000
G01 X153.918965 Y173.589979 Z-0.125000
G01 X157.345791 Y170.290655 Z-0.125000
G01 X157.691125 Y170.092694 Z-0.125000
G01 X158.313503 Y170.228028 Z-0.125000
G01 X160.028821 Y171.060697 Z-0.125000
G01 X161.501252 Y171.566924 Z-0.125000
G01 X163.231731 Y172.413272 Z-0.125000
G01 X164.689001 Y172.921615 Z-0.125000
G01 X166.419480 Y173.805799 Z-0.125000
G01 X167.785680 Y174.277974 Z-0.125000
G01 X169.060759 Y175.011371 Z-0.125000
G01 X170.426933 Y175.551544 Z-0.125000
G01 X171.884203 Y176.362253 Z-0.125000
G01 X172.886073 Y176.784183 Z-0.125000
G00 Z3.000000

(End cutting path id: polyline574)


(Start cutting path id: polyline572)
(Change tool to Default tool)

G00 Z3.000000
G00 X16.048917 Y174.861221

G00 Z4.875000 (Fast pre-penetrate)
G01 Z-0.125000 F400.0(Penetrate)
G01 X17.430279 Y174.807907 Z-0.125000 F800.000000
G01 X18.811614 Y174.377431 Z-0.125000
G01 X20.329606 Y173.555794 Z-0.125000
G01 X23.426259 Y171.426536 Z-0.125000
G01 X24.701364 Y170.662818 Z-0.125000
G01 X26.143447 Y170.044540 Z-0.125000
G01 X27.631065 Y169.750377 Z-0.125000
G01 X28.906169 Y169.786280 Z-0.125000
G01 X30.287504 Y170.091345 Z-0.125000
G01 X31.775122 Y170.651546 Z-0.125000
G01 X35.175384 Y172.256613 Z-0.125000
G01 X36.769259 Y172.909365 Z-0.125000
G01 X38.575646 Y173.442659 Z-0.125000
G01 X40.382034 Y173.728541 Z-0.125000
G01 X41.869652 Y173.793337 Z-0.125000
G01 X43.463526 Y173.728197 Z-0.125000
G01 X51.645411 Y172.722887 Z-0.125000
G01 X54.089365 Y172.548157 Z-0.125000
G01 X56.427035 Y172.495796 Z-0.125000
G01 X58.552192 Y172.549876 Z-0.125000
G01 X60.783632 Y172.709896 Z-0.125000
G01 X67.796669 Y173.634534 Z-0.125000
G01 X70.240622 Y173.793364 Z-0.125000
G01 X72.259523 Y173.642392 Z-0.125000
G01 X74.065910 Y173.201624 Z-0.125000
G01 X75.978554 Y172.405361 Z-0.125000
G01 X80.122639 Y170.243453 Z-0.125000
G01 X81.291460 Y169.861449 Z-0.125000
G01 X82.354052 Y169.733602 Z-0.125000
G01 X83.522900 Y169.889627 Z-0.125000
G01 X84.631001 Y170.341270 Z-0.125000
G01 X85.940263 Y171.214500 Z-0.125000
G01 X88.490473 Y173.413369 Z-0.125000
G01 X89.549255 Y174.200239 Z-0.125000
G01 X90.748451 Y174.768220 Z-0.125000
G01 X91.279733 Y174.873259 Z-0.125000
G01 X91.811042 Y174.875905 Z-0.125000
G01 X92.828073 Y174.585684 Z-0.125000
G01 X93.989328 Y173.807810 Z-0.125000
G01 X95.034192 Y172.787842 Z-0.125000
G01 X97.371889 Y170.167148 Z-0.125000
G01 X98.383866 Y169.255289 Z-0.125000
G01 X99.355362 Y168.689981 Z-0.125000
G01 X100.311697 Y168.508556 Z-0.125000
G01 X100.842980 Y168.580946 Z-0.125000
G01 X101.480519 Y168.830025 Z-0.125000
G01 X102.118085 Y169.245102 Z-0.125000
G01 X102.675932 Y169.729633 Z-0.125000
G01 X103.747360 Y170.905281 Z-0.125000
G01 X106.297570 Y174.120362 Z-0.125000
G01 X107.537247 Y175.355647 Z-0.125000
G01 X108.129252 Y175.777048 Z-0.125000
G01 X108.706096 Y176.062745 Z-0.125000
G01 X109.237378 Y176.209588 Z-0.125000
G01 X109.874944 Y176.234565 Z-0.125000
G01 X110.406227 Y176.130531 Z-0.125000
G01 X110.937509 Y175.917568 Z-0.125000
G01 X112.079793 Y175.130592 Z-0.125000
G01 X113.310607 Y173.889037 Z-0.125000
G01 X116.215014 Y170.356272 Z-0.125000
G01 X117.578648 Y168.898843 Z-0.125000
G01 X118.375599 Y168.210371 Z-0.125000
G01 X119.149769 Y167.683057 Z-0.125000
G01 X119.787308 Y167.348571 Z-0.125000
G01 X120.394499 Y167.221572 Z-0.125000
G01 X120.748697 Y167.406700 Z-0.125000
G01 X121.527920 Y168.353802 Z-0.125000
G01 X123.236915 Y170.035597 Z-0.125000
G01 X125.069866 Y171.544435 Z-0.125000
G01 X127.346815 Y173.100024 Z-0.125000
G01 X128.348685 Y173.603869 Z-0.125000
G01 X129.805928 Y174.492365 Z-0.125000
G01 X131.445364 Y175.173878 Z-0.125000
G01 X132.826699 Y175.908414 Z-0.125000
G01 X134.633086 Y176.471076 Z-0.125000
G01 X136.545757 Y177.355497 Z-0.125000
G01 X137.927092 Y177.725358 Z-0.125000
G01 X139.520966 Y177.863550 Z-0.125000
G01 X141.114841 Y177.695778 Z-0.125000
G01 X142.708715 Y177.234927 Z-0.125000
G01 X144.378499 Y176.461948 Z-0.125000
G01 X146.017908 Y175.447854 Z-0.125000
G01 X147.862236 Y174.060116 Z-0.125000
G01 X153.600195 Y168.977477 Z-0.125000
G01 X153.972093 Y168.761339 Z-0.125000
G01 X154.397119 Y168.674635 Z-0.125000
G01 X155.125754 Y168.901991 Z-0.125000
G01 X156.947329 Y169.778766 Z-0.125000
G01 X158.313503 Y170.233902 Z-0.125000
G01 X160.135078 Y171.104618 Z-0.125000
G01 X161.501252 Y171.567003 Z-0.125000
G01 X163.322827 Y172.451716 Z-0.125000
G01 X164.597931 Y172.882272 Z-0.125000
G01 X166.510576 Y173.844243 Z-0.125000
G01 X167.785680 Y174.278053 Z-0.125000
G01 X169.060759 Y175.011451 Z-0.125000
G01 X170.426933 Y175.551623 Z-0.125000
G01 X171.884203 Y176.362332 Z-0.125000
G01 X172.886073 Y176.784263 Z-0.125000
G00 Z3.000000

(End cutting path id: polyline572)


(Start cutting path id: polyline570)
(Change tool to Default tool)

G00 Z3.000000
G00 X16.048917 Y173.338916

G00 Z4.875000 (Fast pre-penetrate)
G01 Z-0.125000 F400.0(Penetrate)
G01 X16.959691 Y172.983819 Z-0.125000 F800.000000
G01 X17.961561 Y172.438487 Z-0.125000
G01 X21.422545 Y170.025622 Z-0.125000
G01 X22.697650 Y169.258543 Z-0.125000
G01 X24.124546 Y168.664687 Z-0.125000
G01 X25.399625 Y168.426218 Z-0.125000
G01 X26.674729 Y168.472229 Z-0.125000
G01 X28.056091 Y168.807165 Z-0.125000
G01 X29.528522 Y169.405519 Z-0.125000
G01 X32.625201 Y170.954573 Z-0.125000
G01 X34.112819 Y171.602352 Z-0.125000
G01 X35.812950 Y172.137683 Z-0.125000
G01 X37.513081 Y172.418511 Z-0.125000
G01 X39.213212 Y172.460553 Z-0.125000
G01 X41.019599 Y172.300851 Z-0.125000
G01 X47.395097 Y171.143141 Z-0.125000
G01 X50.370333 Y170.727058 Z-0.125000
G01 X52.920516 Y170.519519 Z-0.125000
G01 X55.576983 Y170.449511 Z-0.125000
G01 X58.445935 Y170.540130 Z-0.125000
G01 X61.208658 Y170.800533 Z-0.125000
G01 X63.865124 Y171.216166 Z-0.125000
G01 X68.965517 Y172.228884 Z-0.125000
G01 X70.346879 Y172.411156 Z-0.125000
G01 X71.515701 Y172.470396 Z-0.125000
G01 X73.215832 Y172.335961 Z-0.125000
G01 X74.915963 Y171.882572 Z-0.125000
G01 X76.616094 Y171.110783 Z-0.125000
G01 X80.441408 Y168.955966 Z-0.125000
G01 X81.610230 Y168.540703 Z-0.125000
G01 X82.672822 Y168.410846 Z-0.125000
G01 X83.735414 Y168.567505 Z-0.125000
G01 X84.813166 Y169.033806 Z-0.125000
G01 X86.099648 Y169.945850 Z-0.125000
G01 X88.490473 Y172.106224 Z-0.125000
G01 X89.458159 Y172.858036 Z-0.125000
G01 X90.535937 Y173.413369 Z-0.125000
G01 X91.067220 Y173.540475 Z-0.125000
G01 X91.598503 Y173.557779 Z-0.125000
G01 X92.129812 Y173.460915 Z-0.125000
G01 X92.645908 Y173.257371 Z-0.125000
G01 X93.750251 Y172.484366 Z-0.125000
G01 X94.750850 Y171.469716 Z-0.125000
G01 X96.946836 Y168.901568 Z-0.125000
G01 X97.974001 Y167.930786 Z-0.125000
G01 X98.930336 Y167.356615 Z-0.125000
G01 X99.780388 Y167.185324 Z-0.125000
G01 X100.311697 Y167.253004 Z-0.125000
G01 X100.842980 Y167.455357 Z-0.125000
G01 X101.480519 Y167.866043 Z-0.125000
G01 X102.038392 Y168.360681 Z-0.125000
G01 X103.074394 Y169.539557 Z-0.125000
G01 X105.589176 Y172.860021 Z-0.125000
G01 X106.740323 Y174.055116 Z-0.125000
G01 X107.309547 Y174.476199 Z-0.125000
G01 X107.856017 Y174.754197 Z-0.125000
G01 X108.387326 Y174.897310 Z-0.125000
G01 X108.918609 Y174.911782 Z-0.125000
G01 X109.449891 Y174.798964 Z-0.125000
G01 X110.041896 Y174.529328 Z-0.125000
G01 X110.645304 Y174.110651 Z-0.125000
G01 X111.327134 Y173.485283 Z-0.125000
G01 X112.446373 Y172.194197 Z-0.125000
G01 X115.251588 Y168.522632 Z-0.125000
G01 X116.622340 Y167.063827 Z-0.125000
G01 X117.874664 Y166.158054 Z-0.125000
G01 X119.225651 Y165.670745 Z-0.125000
G01 X119.459437 Y165.814440 Z-0.125000
G01 X120.111131 Y166.709286 Z-0.125000
G01 X121.882117 Y168.719323 Z-0.125000
G01 X123.157222 Y169.965350 Z-0.125000
G01 X125.160936 Y171.610422 Z-0.125000
G01 X127.255745 Y173.044329 Z-0.125000
G01 X128.348685 Y173.603790 Z-0.125000
G01 X129.805928 Y174.492286 Z-0.125000
G01 X131.445364 Y175.173799 Z-0.125000
G01 X132.932956 Y175.953393 Z-0.125000
G01 X134.314317 Y176.387309 Z-0.125000
G01 X135.801935 Y176.540926 Z-0.125000
G01 X137.289553 Y176.382705 Z-0.125000
G01 X138.883427 Y175.895264 Z-0.125000
G01 X140.553210 Y175.075744 Z-0.125000
G01 X142.010454 Y174.144597 Z-0.125000
G01 X143.638486 Y172.919234 Z-0.125000
G01 X149.137341 Y168.166530 Z-0.125000
G01 X150.298596 Y167.193208 Z-0.125000
G01 X150.571831 Y167.052027 Z-0.125000
G01 X151.846936 Y167.502744 Z-0.125000
G01 X153.759580 Y168.441326 Z-0.125000
G01 X155.034685 Y168.862780 Z-0.125000
G01 X156.841072 Y169.735798 Z-0.125000
G01 X158.313503 Y170.233823 Z-0.125000
G01 X160.028821 Y171.060697 Z-0.125000
G01 X161.501252 Y171.566924 Z-0.125000
G01 X163.322827 Y172.451637 Z-0.125000
G01 X164.689001 Y172.921615 Z-0.125000
G01 X166.328410 Y173.766323 Z-0.125000
G01 X167.785680 Y174.277974 Z-0.125000
G01 X169.060759 Y175.011371 Z-0.125000
G01 X170.426933 Y175.551544 Z-0.125000
G01 X171.884203 Y176.362253 Z-0.125000
G01 X172.886073 Y176.784183 Z-0.125000
G00 Z3.000000

(End cutting path id: polyline570)


(Start cutting path id: polyline568)
(Change tool to Default tool)

G00 Z3.000000
G00 X16.048917 Y171.131050

G00 Z4.875000 (Fast pre-penetrate)
G01 Z-0.125000 F400.0(Penetrate)
G01 X19.327736 Y168.781288 Z-0.125000 F800.000000
G01 X20.602841 Y167.977247 Z-0.125000
G01 X21.999363 Y167.361404 Z-0.125000
G01 X23.380724 Y167.097376 Z-0.125000
G01 X24.549572 Y167.152965 Z-0.125000
G01 X25.824677 Y167.474275 Z-0.125000
G01 X27.160477 Y168.032598 Z-0.125000
G01 X30.348226 Y169.700741 Z-0.125000
G01 X31.775122 Y170.345000 Z-0.125000
G01 X33.368997 Y170.856730 Z-0.125000
G01 X34.962871 Y171.112794 Z-0.125000
G01 X36.556746 Y171.125758 Z-0.125000
G01 X38.256877 Y170.925681 Z-0.125000
G01 X44.738631 Y169.461002 Z-0.125000
G01 X47.926380 Y168.923634 Z-0.125000
G01 X51.220385 Y168.617908 Z-0.125000
G01 X54.833160 Y168.516494 Z-0.125000
G01 X58.658475 Y168.641059 Z-0.125000
G01 X61.952480 Y168.989542 Z-0.125000
G01 X64.821433 Y169.530349 Z-0.125000
G01 X70.134339 Y170.861652 Z-0.125000
G01 X71.409444 Y171.072498 Z-0.125000
G01 X72.578292 Y171.147507 Z-0.125000
G01 X74.065910 Y171.020428 Z-0.125000
G01 X75.553528 Y170.599900 Z-0.125000
G01 X77.071494 Y169.875657 Z-0.125000
G01 X79.803842 Y168.183384 Z-0.125000
G01 X80.896782 Y167.592914 Z-0.125000
G01 X82.035283 Y167.189663 Z-0.125000
G01 X82.991591 Y167.088883 Z-0.125000
G01 X83.947927 Y167.247289 Z-0.125000
G01 X84.995331 Y167.726661 Z-0.125000
G01 X86.179340 Y168.605526 Z-0.125000
G01 X88.490473 Y170.781483 Z-0.125000
G01 X89.458159 Y171.559780 Z-0.125000
G01 X90.535937 Y172.116225 Z-0.125000
G01 X91.492246 Y172.234044 Z-0.125000
G01 X92.448582 Y171.955544 Z-0.125000
G01 X93.511173 Y171.201508 Z-0.125000
G01 X94.538337 Y170.124788 Z-0.125000
G01 X96.663495 Y167.547220 Z-0.125000
G01 X97.655231 Y166.582022 Z-0.125000
G01 X98.611566 Y166.007083 Z-0.125000
G01 X99.461619 Y165.864843 Z-0.125000
G01 X99.992928 Y165.966311 Z-0.125000
G01 X100.478676 Y166.185226 Z-0.125000
G01 X101.551374 Y167.058641 Z-0.125000
G01 X102.564357 Y168.271305 Z-0.125000
G01 X104.923300 Y171.529882 Z-0.125000
G01 X106.023065 Y172.728946 Z-0.125000
G01 X107.036312 Y173.409216 Z-0.125000
G01 X107.537247 Y173.564552 Z-0.125000
G01 X108.068530 Y173.591619 Z-0.125000
G01 X108.675721 Y173.449088 Z-0.125000
G01 X109.222191 Y173.169054 Z-0.125000
G01 X109.848353 Y172.686375 Z-0.125000
G01 X110.406227 Y172.129084 Z-0.125000
G01 X111.426300 Y170.874166 Z-0.125000
G01 X114.104012 Y167.133254 Z-0.125000
G01 X115.435791 Y165.635688 Z-0.125000
G01 X116.064466 Y165.110120 Z-0.125000
G01 X116.690628 Y164.722268 Z-0.125000
G01 X117.313007 Y164.478216 Z-0.125000
G01 X117.950546 Y164.357064 Z-0.125000
G01 X118.330038 Y164.490943 Z-0.125000
G01 X118.758106 Y164.850299 Z-0.125000
G01 X120.040302 Y166.626657 Z-0.125000
G01 X121.811262 Y168.647727 Z-0.125000
G01 X123.157222 Y169.965350 Z-0.125000
G01 X124.990174 Y171.483210 Z-0.125000
G01 X127.255745 Y173.044329 Z-0.125000
G01 X128.348685 Y173.603790 Z-0.125000
G01 X129.532694 Y174.344543 Z-0.125000
G01 X130.489029 Y174.801875 Z-0.125000
G01 X131.339081 Y175.066881 Z-0.125000
G01 X132.614186 Y175.217958 Z-0.125000
G01 X133.995547 Y175.065188 Z-0.125000
G01 X135.376909 Y174.615793 Z-0.125000
G01 X136.818992 Y173.875675 Z-0.125000
G01 X138.185166 Y172.967388 Z-0.125000
G01 X139.733506 Y171.756022 Z-0.125000
G01 X146.507466 Y165.825711 Z-0.125000
G01 X146.852799 Y165.621109 Z-0.125000
G01 X147.277826 Y165.545597 Z-0.125000
G01 X148.659187 Y166.080187 Z-0.125000
G01 X150.571831 Y167.052027 Z-0.125000
G01 X151.846936 Y167.502744 Z-0.125000
G01 X153.547067 Y168.353722 Z-0.125000
G01 X155.034685 Y168.862780 Z-0.125000
G01 X156.734816 Y169.691692 Z-0.125000
G01 X158.313503 Y170.233823 Z-0.125000
G01 X160.028821 Y171.060697 Z-0.125000
G01 X161.592321 Y171.606215 Z-0.125000
G01 X163.231731 Y172.413272 Z-0.125000
G01 X164.689001 Y172.921615 Z-0.125000
G01 X166.419480 Y173.805799 Z-0.125000
G01 X167.785680 Y174.277974 Z-0.125000
G01 X169.060759 Y175.011371 Z-0.125000
G01 X170.426933 Y175.551544 Z-0.125000
G01 X171.884203 Y176.362253 Z-0.125000
G01 X172.886073 Y176.784183 Z-0.125000
G00 Z3.000000

(End cutting path id: polyline568)


(Start cutting path id: polyline566)
(Change tool to Default tool)

G00 Z3.000000
G00 X16.048917 Y168.551286

G00 Z4.875000 (Fast pre-penetrate)
G01 Z-0.125000 F400.0(Penetrate)
G01 X17.961561 Y167.134206 Z-0.125000 F800.000000
G01 X19.342923 Y166.336409 Z-0.125000
G01 X20.618028 Y165.889767 Z-0.125000
G01 X21.893106 Y165.767450 Z-0.125000
G01 X23.061954 Y165.934534 Z-0.125000
G01 X24.337059 Y166.373213 Z-0.125000
G01 X28.344513 Y168.503926 Z-0.125000
G01 X29.862478 Y169.185677 Z-0.125000
G01 X31.243840 Y169.604062 Z-0.125000
G01 X32.518945 Y169.796361 Z-0.125000
G01 X34.006562 Y169.796361 Z-0.125000
G01 X35.600437 Y169.576413 Z-0.125000
G01 X41.975908 Y167.897978 Z-0.125000
G01 X45.376197 Y167.262820 Z-0.125000
G01 X49.201485 Y166.922752 Z-0.125000
G01 X54.195621 Y166.818374 Z-0.125000
G01 X59.189758 Y166.939420 Z-0.125000
G01 X62.802533 Y167.302296 Z-0.125000
G01 X65.884025 Y167.944915 Z-0.125000
G01 X71.303188 Y169.543420 Z-0.125000
G01 X72.684549 Y169.780936 Z-0.125000
G01 X73.853397 Y169.816469 Z-0.125000
G01 X75.128476 Y169.632717 Z-0.125000
G01 X76.297324 Y169.240022 Z-0.125000
G01 X77.617964 Y168.557240 Z-0.125000
G01 X81.170017 Y166.303310 Z-0.125000
G01 X82.247796 Y165.884396 Z-0.125000
G01 X83.204104 Y165.765571 Z-0.125000
G01 X84.160440 Y165.928793 Z-0.125000
G01 X85.177470 Y166.421393 Z-0.125000
G01 X86.259033 Y167.257608 Z-0.125000
G01 X88.490473 Y169.440285 Z-0.125000
G01 X89.367089 Y170.182467 Z-0.125000
G01 X90.323424 Y170.734705 Z-0.125000
G01 X91.279733 Y170.918246 Z-0.125000
G01 X92.099438 Y170.739017 Z-0.125000
G01 X93.010238 Y170.178736 Z-0.125000
G01 X94.042456 Y169.159669 Z-0.125000
G01 X96.188859 Y166.470632 Z-0.125000
G01 X97.097384 Y165.489214 Z-0.125000
G01 X98.110631 Y164.757695 Z-0.125000
G01 X98.611566 Y164.582171 Z-0.125000
G01 X99.036592 Y164.539732 Z-0.125000
G01 X99.567875 Y164.628896 Z-0.125000
G01 X100.023275 Y164.830429 Z-0.125000
G01 X100.524210 Y165.177377 Z-0.125000
G01 X101.126348 Y165.751892 Z-0.125000
G01 X102.118085 Y166.991755 Z-0.125000
G01 X104.349498 Y170.205645 Z-0.125000
G01 X105.385526 Y171.388569 Z-0.125000
G01 X105.863680 Y171.787137 Z-0.125000
G01 X106.398773 Y172.097889 Z-0.125000
G01 X106.899708 Y172.250342 Z-0.125000
G01 X107.324734 Y172.271429 Z-0.125000
G01 X107.856017 Y172.156918 Z-0.125000
G01 X108.402487 Y171.881222 Z-0.125000
G01 X108.971737 Y171.437093 Z-0.125000
G01 X109.556148 Y170.834955 Z-0.125000
G01 X110.580111 Y169.507040 Z-0.125000
G01 X113.147677 Y165.709004 Z-0.125000
G01 X114.470592 Y164.166458 Z-0.125000
G01 X115.142315 Y163.614776 Z-0.125000
G01 X115.825389 Y163.241238 Z-0.125000
G01 X116.462928 Y163.071270 Z-0.125000
G01 X117.100494 Y163.049548 Z-0.125000
G01 X117.419264 Y163.138183 Z-0.125000
G01 X117.844290 Y163.516245 Z-0.125000
G01 X120.111131 Y166.713149 Z-0.125000
G01 X121.527920 Y168.353722 Z-0.125000
G01 X123.316607 Y170.102404 Z-0.125000
G01 X125.069866 Y171.544355 Z-0.125000
G01 X127.528980 Y173.205540 Z-0.125000
G01 X128.895154 Y173.756904 Z-0.125000
G01 X130.170259 Y173.892767 Z-0.125000
G01 X131.126568 Y173.768175 Z-0.125000
G01 X132.173973 Y173.429985 Z-0.125000
G01 X133.266912 Y172.879415 Z-0.125000
G01 X134.359852 Y172.160463 Z-0.125000
G01 X136.545757 Y170.356748 Z-0.125000
G01 X142.124304 Y165.143537 Z-0.125000
G01 X143.479102 Y164.030119 Z-0.125000
G01 X144.090077 Y163.845916 Z-0.125000
G01 X144.378499 Y163.927513 Z-0.125000
G01 X144.833899 Y164.222894 Z-0.125000
G01 X146.108977 Y164.821486 Z-0.125000
G01 X147.384082 Y165.554593 Z-0.125000
G01 X148.750256 Y166.122706 Z-0.125000
G01 X150.389666 Y166.972229 Z-0.125000
G01 X151.846936 Y167.502744 Z-0.125000
G01 X153.653323 Y168.398146 Z-0.125000
G01 X155.034685 Y168.862780 Z-0.125000
G01 X156.841072 Y169.735798 Z-0.125000
G01 X158.313503 Y170.233823 Z-0.125000
G01 X160.028821 Y171.060697 Z-0.125000
G01 X161.501252 Y171.566924 Z-0.125000
G01 X163.322827 Y172.451637 Z-0.125000
G01 X164.597931 Y172.882193 Z-0.125000
G01 X166.328410 Y173.766323 Z-0.125000
G01 X167.785680 Y174.277974 Z-0.125000
G01 X169.592068 Y175.249496 Z-0.125000
G01 X170.442120 Y175.541225 Z-0.125000
G01 X171.292199 Y175.718417 Z-0.125000
G01 X172.142251 Y175.777101 Z-0.125000
G01 X172.886073 Y175.729820 Z-0.125000
G00 Z3.000000

(End cutting path id: polyline566)


(Start cutting path id: polyline564)
(Change tool to Default tool)

G00 Z3.000000
G00 X16.048917 Y165.961125

G00 Z4.875000 (Fast pre-penetrate)
G01 Z-0.125000 F400.0(Penetrate)
G01 X17.324022 Y165.153617 Z-0.125000 F800.000000
G01 X18.492844 Y164.658239 Z-0.125000
G01 X19.555436 Y164.455171 Z-0.125000
G01 X20.724284 Y164.511977 Z-0.125000
G01 X21.680593 Y164.758542 Z-0.125000
G01 X22.697650 Y165.179811 Z-0.125000
G01 X26.249703 Y167.178550 Z-0.125000
G01 X27.737321 Y167.878637 Z-0.125000
G01 X29.331196 Y168.352320 Z-0.125000
G01 X30.925070 Y168.501651 Z-0.125000
G01 X32.093892 Y168.420715 Z-0.125000
G01 X33.262740 Y168.210027 Z-0.125000
G01 X39.744495 Y166.302066 Z-0.125000
G01 X41.657139 Y165.899345 Z-0.125000
G01 X43.676039 Y165.623967 Z-0.125000
G01 X45.694966 Y165.476700 Z-0.125000
G01 X48.245149 Y165.410686 Z-0.125000
G01 X60.677376 Y165.464291 Z-0.125000
G01 X63.121302 Y165.656748 Z-0.125000
G01 X65.352742 Y166.031742 Z-0.125000
G01 X67.477899 Y166.604802 Z-0.125000
G01 X72.047010 Y168.164175 Z-0.125000
G01 X73.322088 Y168.433203 Z-0.125000
G01 X74.384680 Y168.500751 Z-0.125000
G01 X75.553528 Y168.364438 Z-0.125000
G01 X76.798259 Y167.951212 Z-0.125000
G01 X78.073364 Y167.262000 Z-0.125000
G01 X80.532478 Y165.558959 Z-0.125000
G01 X81.534348 Y164.956318 Z-0.125000
G01 X82.566565 Y164.549574 Z-0.125000
G01 X83.522900 Y164.445329 Z-0.125000
G01 X84.585466 Y164.693904 Z-0.125000
G01 X85.621493 Y165.302842 Z-0.125000
G01 X86.577802 Y166.129691 Z-0.125000
G01 X88.649858 Y168.237279 Z-0.125000
G01 X89.640324 Y169.052274 Z-0.125000
G01 X90.535937 Y169.498361 Z-0.125000
G01 X91.279733 Y169.592950 Z-0.125000
G01 X91.811042 Y169.492144 Z-0.125000
G01 X92.281603 Y169.284763 Z-0.125000
G01 X93.263233 Y168.523294 Z-0.125000
G01 X94.148713 Y167.529149 Z-0.125000
G01 X96.188859 Y164.885330 Z-0.125000
G01 X97.108761 Y163.931588 Z-0.125000
G01 X97.974001 Y163.370116 Z-0.125000
G01 X98.399053 Y163.242746 Z-0.125000
G01 X98.824079 Y163.221447 Z-0.125000
G01 X99.249105 Y163.309051 Z-0.125000
G01 X99.750040 Y163.548551 Z-0.125000
G01 X100.772151 Y164.458955 Z-0.125000
G01 X101.654403 Y165.598725 Z-0.125000
G01 X103.839462 Y168.866696 Z-0.125000
G01 X104.827653 Y170.045731 Z-0.125000
G01 X105.761207 Y170.746849 Z-0.125000
G01 X106.262142 Y170.920230 Z-0.125000
G01 X106.687195 Y170.949837 Z-0.125000
G01 X107.218478 Y170.833209 Z-0.125000
G01 X107.673878 Y170.600852 Z-0.125000
G01 X108.174786 Y170.214746 Z-0.125000
G01 X108.776924 Y169.588214 Z-0.125000
G01 X109.826631 Y168.168567 Z-0.125000
G01 X112.260901 Y164.372568 Z-0.125000
G01 X113.523120 Y162.820392 Z-0.125000
G01 X114.151822 Y162.277600 Z-0.125000
G01 X114.686915 Y161.957561 Z-0.125000
G01 X115.294106 Y161.760684 Z-0.125000
G01 X115.825389 Y161.734940 Z-0.125000
G01 X116.569211 Y161.899829 Z-0.125000
G01 X117.065066 Y162.289586 Z-0.125000
G01 X117.525520 Y162.893258 Z-0.125000
G01 X118.694368 Y164.782249 Z-0.125000
G01 X120.040302 Y166.626657 Z-0.125000
G01 X121.457091 Y168.278025 Z-0.125000
G01 X123.157222 Y169.965350 Z-0.125000
G01 X124.990174 Y171.483210 Z-0.125000
G01 X125.798475 Y172.018673 Z-0.125000
G01 X126.876254 Y172.452960 Z-0.125000
G01 X127.938819 Y172.570461 Z-0.125000
G01 X128.788898 Y172.453568 Z-0.125000
G01 X129.714859 Y172.132153 Z-0.125000
G01 X130.716729 Y171.583249 Z-0.125000
G01 X131.764134 Y170.824293 Z-0.125000
G01 X133.597085 Y169.167209 Z-0.125000
G01 X138.617786 Y164.052820 Z-0.125000
G01 X140.769507 Y162.186795 Z-0.125000
G01 X141.114841 Y162.057573 Z-0.125000
G01 X141.737219 Y162.349673 Z-0.125000
G01 X144.833899 Y164.222894 Z-0.125000
G01 X146.108977 Y164.821486 Z-0.125000
G01 X147.384082 Y165.554593 Z-0.125000
G01 X148.750256 Y166.122706 Z-0.125000
G01 X150.298596 Y166.930901 Z-0.125000
G01 X151.846936 Y167.502744 Z-0.125000
G01 X153.653323 Y168.398146 Z-0.125000
G01 X155.034685 Y168.862780 Z-0.125000
G01 X156.841072 Y169.735798 Z-0.125000
G01 X158.313503 Y170.233823 Z-0.125000
G01 X160.028821 Y171.060697 Z-0.125000
G01 X161.501252 Y171.566924 Z-0.125000
G01 X163.322827 Y172.451637 Z-0.125000
G01 X164.597931 Y172.882193 Z-0.125000
G01 X165.964106 Y173.597440 Z-0.125000
G01 X166.935602 Y174.008575 Z-0.125000
G01 X168.423220 Y174.384072 Z-0.125000
G01 X169.910837 Y174.433760 Z-0.125000
G01 X171.398455 Y174.151133 Z-0.125000
G01 X172.886073 Y173.546375 Z-0.125000
G00 Z3.000000

(End cutting path id: polyline564)


(Start cutting path id: polyline562)
(Change tool to Default tool)

G00 Z3.000000
G00 X16.048917 Y163.665629

G00 Z4.875000 (Fast pre-penetrate)
G01 Z-0.125000 F400.0(Penetrate)
G01 X16.898970 Y163.324343 Z-0.125000 F800.000000
G01 X17.749048 Y163.145618 Z-0.125000
G01 X18.599101 Y163.134664 Z-0.125000
G01 X19.555436 Y163.312913 Z-0.125000
G01 X21.240380 Y164.023186 Z-0.125000
G01 X24.245963 Y165.811741 Z-0.125000
G01 X25.521068 Y166.461134 Z-0.125000
G01 X26.887242 Y166.943733 Z-0.125000
G01 X28.268604 Y167.164951 Z-0.125000
G01 X29.543709 Y167.135529 Z-0.125000
G01 X30.818814 Y166.917195 Z-0.125000
G01 X32.200175 Y166.528814 Z-0.125000
G01 X37.194311 Y164.870884 Z-0.125000
G01 X39.000699 Y164.466019 Z-0.125000
G01 X40.913343 Y164.206913 Z-0.125000
G01 X44.207348 Y164.082771 Z-0.125000
G01 X53.345542 Y164.281605 Z-0.125000
G01 X61.421171 Y164.082056 Z-0.125000
G01 X64.077637 Y164.197996 Z-0.125000
G01 X66.415308 Y164.573704 Z-0.125000
G01 X68.540491 Y165.196480 Z-0.125000
G01 X72.790805 Y166.812870 Z-0.125000
G01 X73.959654 Y167.094122 Z-0.125000
G01 X75.022219 Y167.178286 Z-0.125000
G01 X76.191067 Y167.031072 Z-0.125000
G01 X77.344729 Y166.616947 Z-0.125000
G01 X78.619834 Y165.878125 Z-0.125000
G01 X80.896782 Y164.217920 Z-0.125000
G01 X81.807582 Y163.646976 Z-0.125000
G01 X82.779078 Y163.237957 Z-0.125000
G01 X83.735414 Y163.122387 Z-0.125000
G01 X84.585466 Y163.299102 Z-0.125000
G01 X85.541801 Y163.815806 Z-0.125000
G01 X86.498110 Y164.620932 Z-0.125000
G01 X88.517037 Y166.740189 Z-0.125000
G01 X89.367089 Y167.517455 Z-0.125000
G01 X90.323424 Y168.103956 Z-0.125000
G01 X91.173477 Y168.272681 Z-0.125000
G01 X91.598503 Y168.214763 Z-0.125000
G01 X92.099438 Y168.023364 Z-0.125000
G01 X93.112685 Y167.250596 Z-0.125000
G01 X94.021210 Y166.209409 Z-0.125000
G01 X96.025929 Y163.534316 Z-0.125000
G01 X96.937999 Y162.568906 Z-0.125000
G01 X97.761488 Y162.035163 Z-0.125000
G01 X98.505310 Y161.895569 Z-0.125000
G01 X99.021405 Y162.004762 Z-0.125000
G01 X99.476806 Y162.241432 Z-0.125000
G01 X100.417954 Y163.106195 Z-0.125000
G01 X101.364605 Y164.379606 Z-0.125000
G01 X103.335219 Y167.441969 Z-0.125000
G01 X104.384926 Y168.749565 Z-0.125000
G01 X105.214738 Y169.401074 Z-0.125000
G01 X105.624603 Y169.569084 Z-0.125000
G01 X106.049629 Y169.629806 Z-0.125000
G01 X106.580939 Y169.539372 Z-0.125000
G01 X107.036312 Y169.317228 Z-0.125000
G01 X107.616940 Y168.854393 Z-0.125000
G01 X108.174786 Y168.240931 Z-0.125000
G01 X109.184250 Y166.807632 Z-0.125000
G01 X111.507448 Y163.011421 Z-0.125000
G01 X112.673068 Y161.505970 Z-0.125000
G01 X113.275206 Y160.956008 Z-0.125000
G01 X113.806489 Y160.623136 Z-0.125000
G01 X114.337771 Y160.441156 Z-0.125000
G01 X114.869080 Y160.412899 Z-0.125000
G01 X115.400363 Y160.535692 Z-0.125000
G01 X115.870924 Y160.756618 Z-0.125000
G01 X116.640040 Y161.416065 Z-0.125000
G01 X118.578455 Y164.608232 Z-0.125000
G01 X119.905709 Y166.454016 Z-0.125000
G01 X121.386236 Y168.201296 Z-0.125000
G01 X123.015538 Y169.831286 Z-0.125000
G01 X123.794761 Y170.480864 Z-0.125000
G01 X124.538557 Y170.917876 Z-0.125000
G01 X125.282379 Y171.173304 Z-0.125000
G01 X126.026175 Y171.248842 Z-0.125000
G01 X126.769997 Y171.152031 Z-0.125000
G01 X127.620049 Y170.846597 Z-0.125000
G01 X128.439754 Y170.376592 Z-0.125000
G01 X129.373309 Y169.663249 Z-0.125000
G01 X131.091167 Y167.988571 Z-0.125000
G01 X134.562258 Y164.055254 Z-0.125000
G01 X136.147269 Y162.384306 Z-0.125000
G01 X138.219324 Y160.543285 Z-0.125000
G01 X138.458401 Y160.403532 Z-0.125000
G01 X138.777171 Y160.362019 Z-0.125000
G01 X139.175633 Y160.490845 Z-0.125000
G01 X140.006741 Y161.183497 Z-0.125000
G01 X142.283689 Y162.724031 Z-0.125000
G01 X144.651733 Y164.124522 Z-0.125000
G01 X146.108977 Y164.821486 Z-0.125000
G01 X147.475178 Y165.599043 Z-0.125000
G01 X148.750256 Y166.122706 Z-0.125000
G01 X150.480762 Y167.012604 Z-0.125000
G01 X151.846936 Y167.502744 Z-0.125000
G01 X153.547067 Y168.353722 Z-0.125000
G01 X155.034685 Y168.862780 Z-0.125000
G01 X156.734816 Y169.691692 Z-0.125000
G01 X158.313503 Y170.233823 Z-0.125000
G01 X159.922565 Y171.015586 Z-0.125000
G01 X161.501252 Y171.566924 Z-0.125000
G01 X163.140661 Y172.373849 Z-0.125000
G01 X164.279135 Y172.793716 Z-0.125000
G01 X165.341727 Y173.037106 Z-0.125000
G01 X166.404319 Y173.130371 Z-0.125000
G01 X167.466884 Y173.070126 Z-0.125000
G01 X168.529476 Y172.856475 Z-0.125000
G01 X169.592068 Y172.492806 Z-0.125000
G01 X170.609098 Y172.010709 Z-0.125000
G01 X171.702038 Y171.356845 Z-0.125000
G01 X172.886073 Y170.506131 Z-0.125000
G00 Z3.000000

(End cutting path id: polyline562)


(Start cutting path id: polyline560)
(Change tool to Default tool)

G00 Z3.000000
G00 X16.048917 Y161.847441

G00 Z4.875000 (Fast pre-penetrate)
G01 Z-0.125000 F400.0(Penetrate)
G01 X17.217739 Y161.829873 Z-0.125000 F800.000000
G01 X18.492844 Y162.169941 Z-0.125000
G01 X19.783136 Y162.806925 Z-0.125000
G01 X22.333319 Y164.400746 Z-0.125000
G01 X23.608424 Y165.095330 Z-0.125000
G01 X24.974598 Y165.613224 Z-0.125000
G01 X26.249703 Y165.837511 Z-0.125000
G01 X27.418552 Y165.822774 Z-0.125000
G01 X28.693630 Y165.600154 Z-0.125000
G01 X30.074991 Y165.183145 Z-0.125000
G01 X33.262740 Y163.982732 Z-0.125000
G01 X34.856615 Y163.466372 Z-0.125000
G01 X36.556746 Y163.067645 Z-0.125000
G01 X38.363133 Y162.830235 Z-0.125000
G01 X41.444626 Y162.783615 Z-0.125000
G01 X48.563919 Y163.260764 Z-0.125000
G01 X52.389234 Y163.359559 Z-0.125000
G01 X55.683239 Y163.265818 Z-0.125000
G01 X61.527428 Y162.836611 Z-0.125000
G01 X63.652611 Y162.759062 Z-0.125000
G01 X65.777768 Y162.875029 Z-0.125000
G01 X67.690412 Y163.232851 Z-0.125000
G01 X69.603057 Y163.860759 Z-0.125000
G01 X73.428345 Y165.457147 Z-0.125000
G01 X74.597193 Y165.767450 Z-0.125000
G01 X75.553528 Y165.855715 Z-0.125000
G01 X76.616094 Y165.733954 Z-0.125000
G01 X77.784942 Y165.309086 Z-0.125000
G01 X78.984138 Y164.587542 Z-0.125000
G01 X81.078947 Y162.992821 Z-0.125000
G01 X82.080817 Y162.327209 Z-0.125000
G01 X82.991591 Y161.924488 Z-0.125000
G01 X83.947927 Y161.799657 Z-0.125000
G01 X84.797979 Y161.988411 Z-0.125000
G01 X85.621493 Y162.442779 Z-0.125000
G01 X86.657495 Y163.339107 Z-0.125000
G01 X88.587866 Y165.431879 Z-0.125000
G01 X89.367089 Y166.168108 Z-0.125000
G01 X90.323424 Y166.779215 Z-0.125000
G01 X91.173477 Y166.949183 Z-0.125000
G01 X91.598503 Y166.883276 Z-0.125000
G01 X92.099438 Y166.675393 Z-0.125000
