; generated by SuperSlicer 2.4 on 2023-11-07 at 21:44:03 UTC


;
;

;
;
; 

; external perimeters extrusion width = 0.45mm
; perimeters extrusion width = 0.45mm
; infill extrusion width = 0.45mm
; solid infill extrusion width = 0.45mm
; top infill extrusion width = 0.40mm
; first layer extrusion width = 0.42mm


;TYPE:Custom
M109 S0
M190 S0
start_print EXTRUDER_TEMP=210 BED_TEMP=60

M107
G21 ; set units to millimeters
G90 ; use absolute coordinates
M83 ; use relative distances for extrusion
; Filament gcode
;_TOOLCHANGE 0
M107
;LAYER_CHANGE
;Z:0.2
;HEIGHT:0.2
;BEFORE_LAYER_CHANGE
G92 E0
;0.2


G1 E-2.5 F1500
G1 Z0.4 F9000
;AFTER_LAYER_CHANGE
;0.2
G1 Z0.6
G1 X60.937 Y61.52
G1 Z0.2
G1 E2.5 F2400
;TYPE:Skirt
;WIDTH:0.52
G1 F1800
G1 X60.546 Y62.784 E0.05249
G1 X60.538 Y162.276 E3.94676
G1 X60.69 Y163.087 E0.03273
G1 X61.512 Y164.123 E0.05249
G1 X62.776 Y164.515 E0.05249
G1 X162.284 Y164.522 E3.9474
G1 X163.095 Y164.37 E0.03274
G1 X164.131 Y163.548 E0.05249
G1 X164.522 Y162.284 E0.05249
G1 X164.518 Y62.78 E3.94725
G1 X164.367 Y61.969 E0.0327
G1 X163.544 Y60.933 E0.05249
G1 X162.28 Y60.541 E0.05249
G1 X62.784 Y60.546 E3.94694
G1 X61.974 Y60.698 E0.03271
G1 X60.984 Y61.483 E0.05011
M104 S210 ; set temperature
G1 E-1.75 F1500
;WIPE_START
G1 F7200
G1 X60.546 Y62.784 E-0.27176
G1 X60.546 Y65.011 E-0.44074
;WIPE_END
G1 E-0.0375 F1500
G1 Z0.6 F9000
G1 X63.474 Y63.474
G1 Z0.2
G1 E2.5 F2400
;TYPE:Internal perimeter
;WIDTH:0.42
G1 F1800
G1 X161.599 Y63.473 E3.07662
G1 X161.6 Y161.6 E3.07671
G1 X63.472 Y161.597 E3.07675
G1 X63.474 Y63.534 E3.0747
G1 X63.097 Y63.097 F9000
;TYPE:External perimeter
G1 F1800
G1 X141.733 Y63.094 E2.46556
G1 X161.976 Y63.096 E0.6347
G1 X161.977 Y161.977 E3.10035
G1 X63.094 Y161.974 E3.10039
G1 X63.097 Y63.157 E3.09834
;WIPE_START
G1 X63.444 Y63.297 F9000
;WIPE_END
G1 E-1.75 F1500
;WIPE_START
G1 F7200
G1 X67.044 Y63.297 E-0.7125
;WIPE_END
G1 E-0.0375 F1500
G1 Z0.6 F9000
G1 X161.486 Y64.348
G1 Z0.2
G1 E2.5 F2400
;TYPE:Solid infill
;WIDTH:0.420098
G1 F1800
G1 X160.885 Y63.748 E0.02662
G1 X160.352 Y63.748 E0.01672
G1 X161.323 Y64.719 E0.04308
G1 X161.323 Y65.252 E0.01672
G1 X159.819 Y63.748 E0.06673
G1 X159.286 Y63.748 E0.01672
G1 X161.323 Y65.786 E0.09038
G1 X161.323 Y66.319 E0.01672
G1 X158.752 Y63.748 E0.11403
G1 X158.219 Y63.748 E0.01672
G1 X161.323 Y66.852 E0.13768
G1 X161.323 Y67.386 E0.01672
G1 X157.686 Y63.748 E0.16133
G1 X157.153 Y63.748 E0.01672
G1 X161.323 Y67.919 E0.18499
G1 X161.323 Y68.452 E0.01672
G1 X156.619 Y63.748 E0.20864
G1 X156.086 Y63.748 E0.01672
G1 X161.323 Y68.985 E0.23229
G1 X161.323 Y69.519 E0.01672
G1 X155.553 Y63.748 E0.25594
G1 X155.02 Y63.748 E0.01672
G1 X161.323 Y70.052 E0.27959
G1 X161.323 Y70.585 E0.01672
G1 X154.486 Y63.748 E0.30324
G1 X153.953 Y63.748 E0.01672
G1 X161.323 Y71.119 E0.3269
G1 X161.323 Y71.652 E0.01672
G1 X153.42 Y63.748 E0.35055
G1 X152.886 Y63.748 E0.01672
G1 X161.323 Y72.185 E0.3742
G1 X161.323 Y72.718 E0.01672
G1 X152.353 Y63.748 E0.39785
G1 X151.82 Y63.748 E0.01672
G1 X161.323 Y73.252 E0.4215
G1 X161.324 Y73.785 E0.01672
G1 X151.287 Y63.748 E0.44515
G1 X150.753 Y63.748 E0.01672
G1 X161.324 Y74.318 E0.4688
G1 X161.324 Y74.851 E0.01672
G1 X150.22 Y63.748 E0.49246
G1 X149.687 Y63.748 E0.01672
G1 X161.324 Y75.385 E0.51611
G1 X161.324 Y75.918 E0.01672
G1 X149.154 Y63.748 E0.53976
G1 X148.62 Y63.748 E0.01672
G1 X161.324 Y76.451 E0.56341
G1 X161.324 Y76.985 E0.01672
G1 X148.087 Y63.748 E0.58706
G1 X147.554 Y63.748 E0.01672
G1 X161.324 Y77.518 E0.61071
G1 X161.324 Y78.051 E0.01672
G1 X147.021 Y63.748 E0.63437
G1 X146.487 Y63.748 E0.01672
G1 X161.324 Y78.584 E0.65802
G1 X161.324 Y79.118 E0.01672
G1 X145.954 Y63.748 E0.68167
G1 X145.421 Y63.748 E0.01672
G1 X161.324 Y79.651 E0.70532
G1 X161.324 Y80.184 E0.01672
G1 X144.888 Y63.748 E0.72897
G1 X144.354 Y63.748 E0.01672
G1 X161.324 Y80.717 E0.75262
G1 X161.324 Y81.251 E0.01672
G1 X143.821 Y63.748 E0.77627
G1 X143.288 Y63.748 E0.01672
G1 X161.324 Y81.784 E0.79993
G1 X161.324 Y82.317 E0.01672
G1 X142.755 Y63.748 E0.82358
G1 X142.221 Y63.748 E0.01672
G1 X161.324 Y82.851 E0.84723
G1 X161.324 Y83.384 E0.01672
G1 X141.688 Y63.748 E0.87088
G1 X141.155 Y63.748 E0.01672
G1 X161.324 Y83.917 E0.89453
G1 X161.324 Y84.45 E0.01672
G1 X140.621 Y63.748 E0.91818
G1 X140.088 Y63.748 E0.01672
G1 X161.324 Y84.984 E0.94184
G1 X161.324 Y85.517 E0.01672
G1 X139.555 Y63.748 E0.96549
G1 X139.022 Y63.748 E0.01672
G1 X161.324 Y86.05 E0.98914
G1 X161.324 Y86.584 E0.01672
G1 X138.488 Y63.748 E1.01279
G1 X137.955 Y63.748 E0.01672
G1 X161.324 Y87.117 E1.03644
G1 X161.324 Y87.65 E0.01672
G1 X137.422 Y63.748 E1.06009
G1 X136.889 Y63.748 E0.01672
G1 X161.324 Y88.183 E1.08374
G1 X161.324 Y88.717 E0.01672
G1 X136.355 Y63.748 E1.1074
G1 X135.822 Y63.748 E0.01672
G1 X161.324 Y89.25 E1.13105
G1 X161.324 Y89.783 E0.01672
G1 X135.289 Y63.748 E1.1547
G1 X134.756 Y63.748 E0.01672
G1 X161.324 Y90.316 E1.17835
G1 X161.324 Y90.85 E0.01672
G1 X134.222 Y63.748 E1.202
G1 X133.689 Y63.748 E0.01672
G1 X161.324 Y91.383 E1.22565
G1 X161.324 Y91.916 E0.01672
G1 X133.156 Y63.748 E1.24931
G1 X132.623 Y63.748 E0.01672
G1 X161.324 Y92.45 E1.27296
G1 X161.324 Y92.983 E0.01672
G1 X132.089 Y63.748 E1.29661
G1 X131.556 Y63.748 E0.01672
G1 X161.324 Y93.516 E1.32026
G1 X161.324 Y94.049 E0.01672
G1 X131.023 Y63.748 E1.34391
G1 X130.489 Y63.748 E0.01672
G1 X161.324 Y94.583 E1.36756
G1 X161.324 Y95.116 E0.01672
G1 X129.956 Y63.748 E1.39121
G1 X129.423 Y63.748 E0.01672
G1 X161.324 Y95.649 E1.41487
G1 X161.324 Y96.183 E0.01672
G1 X128.89 Y63.748 E1.43852
G1 X128.356 Y63.748 E0.01672
G1 X161.324 Y96.716 E1.46217
G1 X161.324 Y97.249 E0.01672
G1 X127.823 Y63.748 E1.48582
G1 X127.29 Y63.748 E0.01672
G1 X161.324 Y97.782 E1.50947
G1 X161.324 Y98.316 E0.01672
G1 X126.757 Y63.748 E1.53312
G1 X126.223 Y63.748 E0.01672
G1 X161.324 Y98.849 E1.55678
G1 X161.324 Y99.382 E0.01672
G1 X125.69 Y63.749 E1.58043
G1 X125.157 Y63.749 E0.01672
G1 X161.324 Y99.915 E1.60408
G1 X161.324 Y100.449 E0.01672
G1 X124.624 Y63.749 E1.62773
G1 X124.09 Y63.749 E0.01672
G1 X161.324 Y100.982 E1.65138
G1 X161.324 Y101.515 E0.01672
G1 X123.557 Y63.749 E1.67503
G1 X123.024 Y63.749 E0.01672
G1 X161.324 Y102.049 E1.69868
G1 X161.324 Y102.582 E0.01672
G1 X122.491 Y63.749 E1.72234
G1 X121.957 Y63.749 E0.01672
G1 X161.324 Y103.115 E1.74599
G1 X161.324 Y103.648 E0.01672
G1 X121.424 Y63.749 E1.76964
G1 X120.891 Y63.749 E0.01672
G1 X161.324 Y104.182 E1.79329
G1 X161.324 Y104.715 E0.01672
G1 X120.358 Y63.749 E1.81694
G1 X119.824 Y63.749 E0.01672
G1 X161.324 Y105.248 E1.84059
G1 X161.324 Y105.782 E0.01672
G1 X119.291 Y63.749 E1.86425
G1 X118.758 Y63.749 E0.01672
G1 X161.324 Y106.315 E1.8879
G1 X161.324 Y106.848 E0.01672
G1 X118.224 Y63.749 E1.91155
G1 X117.691 Y63.749 E0.01672
G1 X161.324 Y107.381 E1.9352
G1 X161.324 Y107.915 E0.01672
G1 X117.158 Y63.749 E1.95885
G1 X116.625 Y63.749 E0.01672
G1 X161.324 Y108.448 E1.9825
G1 X161.324 Y108.981 E0.01672
G1 X116.091 Y63.749 E2.00615
G1 X115.558 Y63.749 E0.01672
G1 X161.324 Y109.514 E2.02981
G1 X161.324 Y110.048 E0.01672
G1 X115.025 Y63.749 E2.05346
G1 X114.492 Y63.749 E0.01672
G1 X161.324 Y110.581 E2.07711
G1 X161.324 Y111.114 E0.01672
G1 X113.958 Y63.749 E2.10076
G1 X113.425 Y63.749 E0.01672
G1 X161.324 Y111.648 E2.12441
G1 X161.324 Y112.181 E0.01672
G1 X112.892 Y63.749 E2.14806
G1 X112.359 Y63.749 E0.01672
G1 X161.324 Y112.714 E2.17172
G1 X161.324 Y113.247 E0.01672
G1 X111.825 Y63.749 E2.19537
G1 X111.292 Y63.749 E0.01672
G1 X161.324 Y113.781 E2.21902
G1 X161.324 Y114.314 E0.01672
G1 X110.759 Y63.749 E2.24267
G1 X110.226 Y63.749 E0.01672
G1 X161.324 Y114.847 E2.26632
G1 X161.324 Y115.381 E0.01672
G1 X109.692 Y63.749 E2.28997
G1 X109.159 Y63.749 E0.01672
G1 X161.324 Y115.914 E2.31362
G1 X161.324 Y116.447 E0.01672
G1 X108.626 Y63.749 E2.33728
G1 X108.093 Y63.749 E0.01672
G1 X161.324 Y116.98 E2.36093
G1 X161.324 Y117.514 E0.01672
G1 X107.559 Y63.749 E2.38458
G1 X107.026 Y63.749 E0.01672
G1 X161.324 Y118.047 E2.40823
G1 X161.324 Y118.58 E0.01672
G1 X106.493 Y63.749 E2.43188
G1 X105.959 Y63.749 E0.01672
G1 X161.324 Y119.113 E2.45553
G1 X161.324 Y119.647 E0.01672
G1 X105.426 Y63.749 E2.47919
G1 X104.893 Y63.749 E0.01672
G1 X161.324 Y120.18 E2.50284
G1 X161.324 Y120.713 E0.01672
G1 X104.36 Y63.749 E2.52649
G1 X103.826 Y63.749 E0.01672
G1 X161.324 Y121.247 E2.55014
G1 X161.324 Y121.78 E0.01672
G1 X103.293 Y63.749 E2.57379
G1 X102.76 Y63.749 E0.01672
G1 X161.324 Y122.313 E2.59744
G1 X161.324 Y122.846 E0.01672
G1 X102.227 Y63.749 E2.62109
G1 X101.693 Y63.749 E0.01672
G1 X161.324 Y123.38 E2.64475
G1 X161.324 Y123.913 E0.01672
G1 X101.16 Y63.749 E2.6684
G1 X100.627 Y63.749 E0.01672
G1 X161.324 Y124.446 E2.69205
G1 X161.324 Y124.98 E0.01672
G1 X100.094 Y63.749 E2.7157
G1 X99.56 Y63.749 E0.01672
G1 X161.324 Y125.513 E2.73935
G1 X161.324 Y126.046 E0.01672
G1 X99.027 Y63.749 E2.763
G1 X98.494 Y63.749 E0.01672
G1 X161.324 Y126.579 E2.78666
G1 X161.324 Y127.113 E0.01672
G1 X97.961 Y63.749 E2.81031
G1 X97.427 Y63.749 E0.01672
G1 X161.324 Y127.646 E2.83396
G1 X161.324 Y128.179 E0.01672
G1 X96.894 Y63.749 E2.85761
G1 X96.361 Y63.749 E0.01672
G1 X161.324 Y128.712 E2.88126
G1 X161.324 Y129.246 E0.01672
G1 X95.828 Y63.749 E2.90491
G1 X95.294 Y63.749 E0.01672
G1 X161.324 Y129.779 E2.92857
G1 X161.324 Y130.312 E0.01672
G1 X94.761 Y63.749 E2.95222
G1 X94.228 Y63.749 E0.01672
G1 X161.324 Y130.846 E2.97587
G1 X161.324 Y131.379 E0.01672
G1 X93.694 Y63.749 E2.99952
G1 X93.161 Y63.749 E0.01672
G1 X161.324 Y131.912 E3.02317
G1 X161.324 Y132.445 E0.01672
G1 X92.628 Y63.749 E3.04682
G1 X92.095 Y63.749 E0.01672
G1 X161.324 Y132.979 E3.07047
G1 X161.324 Y133.512 E0.01672
G1 X91.561 Y63.749 E3.09413
G1 X91.028 Y63.749 E0.01672
G1 X161.324 Y134.045 E3.11778
G1 X161.324 Y134.579 E0.01672
G1 X90.495 Y63.749 E3.14143
G1 X89.962 Y63.749 E0.01672
G1 X161.324 Y135.112 E3.16508
G1 X161.324 Y135.645 E0.01672
G1 X89.428 Y63.749 E3.18873
G1 X88.895 Y63.749 E0.01672
G1 X161.324 Y136.178 E3.21238
G1 X161.324 Y136.712 E0.01672
G1 X88.362 Y63.749 E3.23604
G1 X87.829 Y63.749 E0.01672
G1 X161.324 Y137.245 E3.25969
G1 X161.324 Y137.778 E0.01672
G1 X87.295 Y63.749 E3.28334
G1 X86.762 Y63.749 E0.01672
G1 X161.324 Y138.311 E3.30699
G1 X161.324 Y138.845 E0.01672
G1 X86.229 Y63.749 E3.33064
G1 X85.696 Y63.749 E0.01672
G1 X161.324 Y139.378 E3.35429
G1 X161.324 Y139.911 E0.01672
G1 X85.162 Y63.749 E3.37794
G1 X84.629 Y63.749 E0.01672
G1 X161.324 Y140.445 E3.4016
G1 X161.324 Y140.978 E0.01672
G1 X84.096 Y63.749 E3.42525
G1 X83.562 Y63.749 E0.01672
G1 X161.324 Y141.511 E3.4489
G1 X161.324 Y142.044 E0.01672
G1 X83.029 Y63.749 E3.47255
G1 X82.496 Y63.749 E0.01672
G1 X161.324 Y142.578 E3.4962
G1 X161.324 Y143.111 E0.01672
G1 X81.963 Y63.749 E3.51985
G1 X81.429 Y63.749 E0.01672
G1 X161.324 Y143.644 E3.54351
G1 X161.324 Y144.177 E0.01672
G1 X80.896 Y63.749 E3.56716
G1 X80.363 Y63.749 E0.01672
G1 X161.324 Y144.711 E3.59081
G1 X161.324 Y145.244 E0.01672
G1 X79.83 Y63.749 E3.61446
G1 X79.296 Y63.749 E0.01672
G1 X161.324 Y145.777 E3.63811
G1 X161.324 Y146.311 E0.01672
G1 X78.763 Y63.749 E3.66176
G1 X78.23 Y63.749 E0.01672
G1 X161.324 Y146.844 E3.68541
G1 X161.324 Y147.377 E0.01672
G1 X77.697 Y63.749 E3.70907
G1 X77.163 Y63.749 E0.01672
G1 X161.324 Y147.91 E3.73272
G1 X161.324 Y148.444 E0.01672
G1 X76.63 Y63.749 E3.75637
G1 X76.097 Y63.749 E0.01672
G1 X161.324 Y148.977 E3.78002
G1 X161.325 Y149.51 E0.01672
G1 X75.564 Y63.749 E3.80367
G1 X75.03 Y63.749 E0.01672
G1 X161.325 Y150.044 E3.82732
G1 X161.325 Y150.577 E0.01672
G1 X74.497 Y63.749 E3.85098
G1 X73.964 Y63.749 E0.01672
G1 X161.325 Y151.11 E3.87463
G1 X161.325 Y151.643 E0.01672
G1 X73.431 Y63.749 E3.89828
G1 X72.897 Y63.749 E0.01672
G1 X161.325 Y152.177 E3.92193
G1 X161.325 Y152.71 E0.01672
G1 X72.364 Y63.749 E3.94558
G1 X71.831 Y63.749 E0.01672
G1 X161.325 Y153.243 E3.96923
G1 X161.325 Y153.776 E0.01672
G1 X71.297 Y63.749 E3.99288
G1 X70.764 Y63.749 E0.01672
G1 X161.325 Y154.31 E4.01654
G1 X161.325 Y154.843 E0.01672
G1 X70.231 Y63.749 E4.04019
G1 X69.698 Y63.749 E0.01672
G1 X161.325 Y155.376 E4.06384
G1 X161.325 Y155.91 E0.01672
G1 X69.164 Y63.749 E4.08749
G1 X68.631 Y63.749 E0.01672
G1 X161.325 Y156.443 E4.11114
G1 X161.325 Y156.976 E0.01672
G1 X68.098 Y63.749 E4.13479
G1 X67.565 Y63.749 E0.01672
G1 X161.325 Y157.509 E4.15845
G1 X161.325 Y158.043 E0.01672
G1 X67.031 Y63.749 E4.1821
G1 X66.498 Y63.749 E0.01672
G1 X161.325 Y158.576 E4.20575
G1 X161.325 Y159.109 E0.01672
G1 X65.965 Y63.749 E4.2294
G1 X65.432 Y63.749 E0.01672
G1 X161.325 Y159.643 E4.25305
G1 X161.325 Y160.176 E0.01672
G1 X64.898 Y63.75 E4.2767
G1 X64.365 Y63.75 E0.01672
G1 X161.325 Y160.709 E4.30035
G1 X161.325 Y161.242 E0.01672
G1 X63.832 Y63.75 E4.32401
G1 X63.75 Y63.75 E0.00258
G1 X63.75 Y64.201 E0.01415
G1 X160.874 Y161.325 E4.30765
G1 X160.34 Y161.325 E0.01672
G1 X63.75 Y64.734 E4.284
G1 X63.75 Y65.267 E0.01672
G1 X159.807 Y161.325 E4.26034
G1 X159.274 Y161.325 E0.01672
G1 X63.75 Y65.8 E4.23669
G1 X63.75 Y66.334 E0.01672
G1 X158.74 Y161.325 E4.21304
G1 X158.207 Y161.324 E0.01672
G1 X63.75 Y66.867 E4.18939
G1 X63.749 Y67.4 E0.01672
G1 X157.674 Y161.324 E4.16574
G1 X157.141 Y161.324 E0.01672
G1 X63.749 Y67.933 E4.14209
G1 X63.749 Y68.467 E0.01672
G1 X156.607 Y161.324 E4.11843
G1 X156.074 Y161.324 E0.01672
G1 X63.749 Y69 E4.09478
G1 X63.749 Y69.533 E0.01672
G1 X155.541 Y161.324 E4.07113
G1 X155.007 Y161.324 E0.01672
G1 X63.749 Y70.066 E4.04748
G1 X63.749 Y70.6 E0.01672
G1 X154.474 Y161.324 E4.02383
G1 X153.941 Y161.324 E0.01672
G1 X63.749 Y71.133 E4.00018
G1 X63.749 Y71.666 E0.01672
G1 X153.408 Y161.324 E3.97652
G1 X152.874 Y161.324 E0.01672
G1 X63.749 Y72.199 E3.95287
G1 X63.749 Y72.733 E0.01672
G1 X152.341 Y161.324 E3.92922
G1 X151.808 Y161.324 E0.01672
G1 X63.749 Y73.266 E3.90557
G1 X63.749 Y73.799 E0.01672
G1 X151.274 Y161.324 E3.88192
G1 X150.741 Y161.324 E0.01672
G1 X63.749 Y74.332 E3.85827
G1 X63.749 Y74.866 E0.01672
G1 X150.208 Y161.324 E3.83462
G1 X149.675 Y161.324 E0.01672
G1 X63.749 Y75.399 E3.81096
G1 X63.749 Y75.932 E0.01672
G1 X149.141 Y161.324 E3.78731
G1 X148.608 Y161.324 E0.01672
G1 X63.749 Y76.465 E3.76366
G1 X63.749 Y76.999 E0.01672
G1 X148.075 Y161.324 E3.74001
G1 X147.541 Y161.324 E0.01672
G1 X63.749 Y77.532 E3.71636
G1 X63.749 Y78.065 E0.01672
G1 X147.008 Y161.324 E3.69271
G1 X146.475 Y161.324 E0.01672
G1 X63.749 Y78.598 E3.66905
G1 X63.749 Y79.132 E0.01672
G1 X145.942 Y161.324 E3.6454
G1 X145.408 Y161.324 E0.01672
G1 X63.749 Y79.665 E3.62175
G1 X63.749 Y80.198 E0.01672
G1 X144.875 Y161.324 E3.5981
G1 X144.342 Y161.324 E0.01672
G1 X63.749 Y80.731 E3.57445
G1 X63.749 Y81.265 E0.01672
G1 X143.808 Y161.324 E3.5508
G1 X143.275 Y161.324 E0.01672
G1 X63.749 Y81.798 E3.52715
G1 X63.749 Y82.331 E0.01672
G1 X142.742 Y161.324 E3.50349
G1 X142.209 Y161.324 E0.01672
G1 X63.749 Y82.864 E3.47984
G1 X63.749 Y83.398 E0.01672
G1 X141.675 Y161.324 E3.45619
G1 X141.142 Y161.324 E0.01672
G1 X63.749 Y83.931 E3.43254
G1 X63.749 Y84.464 E0.01672
G1 X140.609 Y161.324 E3.40889
G1 X140.076 Y161.324 E0.01672
G1 X63.749 Y84.998 E3.38524
G1 X63.749 Y85.531 E0.01672
G1 X139.542 Y161.324 E3.36158
G1 X139.009 Y161.324 E0.01672
G1 X63.749 Y86.064 E3.33793
G1 X63.749 Y86.597 E0.01672
G1 X138.476 Y161.324 E3.31428
G1 X137.942 Y161.324 E0.01672
G1 X63.749 Y87.131 E3.29063
G1 X63.749 Y87.664 E0.01672
G1 X137.409 Y161.324 E3.26698
G1 X136.876 Y161.324 E0.01672
G1 X63.749 Y88.197 E3.24333
G1 X63.749 Y88.73 E0.01672
G1 X136.343 Y161.324 E3.21968
G1 X135.809 Y161.324 E0.01672
G1 X63.749 Y89.264 E3.19602
G1 X63.749 Y89.797 E0.01672
G1 X135.276 Y161.324 E3.17237
G1 X134.743 Y161.324 E0.01672
G1 X63.749 Y90.33 E3.14872
G1 X63.749 Y90.863 E0.01672
G1 X134.209 Y161.324 E3.12507
G1 X133.676 Y161.324 E0.01672
G1 X63.749 Y91.397 E3.10142
G1 X63.749 Y91.93 E0.01672
G1 X133.143 Y161.324 E3.07777
G1 X132.61 Y161.324 E0.01672
G1 X63.749 Y92.463 E3.05411
G1 X63.749 Y92.996 E0.01672
G1 X132.076 Y161.324 E3.03046
G1 X131.543 Y161.324 E0.01672
G1 X63.749 Y93.53 E3.00681
G1 X63.749 Y94.063 E0.01672
G1 X131.01 Y161.324 E2.98316
G1 X130.476 Y161.324 E0.01672
G1 X63.749 Y94.596 E2.95951
G1 X63.749 Y95.129 E0.01672
G1 X129.943 Y161.324 E2.93586
